yuan18844-afk/dissertation/catkin_ws/src/franka_digital_twin/analysis/data/gazebo_static3_20250728_064205.csv
time,panda_joint1,panda_joint2,panda_joint3,panda_joint4,panda_joint5,panda_joint6,panda_joint7
4842.133,0.29820168555113175,1.015169151523657,0.0634285484935001,-1.4227249049744821,0.09872531673638671,2.669012354705069,2.4660478251443965
4842.167,0.2982016068181486,1.0151716571814775,0.06343133266513173,-1.4227255859089345,0.09872433907787004,2.669012354705069,2.4660499804483518
4842.201,0.29820419023686967,1.0151638618101153,0.06342840371257269,-1.4227287225898484,0.0987243390772023,2.6690101167493396,2.466050063100126
4842.233,0.2982069752326873,1.0151663674638982,0.06342600787555619,-1.4227306299375175,0.09872432593459618,2.6690112357272042,2.4660511820779907
4842.266,0.2982195418042082,1.0151648876677282,0.06344134089922626,-1.422751033460603,0.06160397289947461,2.669123860586458,2.5973336009880903
4842.302,0.2980949259932357,1.0151678929613581,0.06338861139719576,-1.422646973324972,0.05750904124137346,2.6688697342882755,2.603962468348353
4842.334,0.2979190841312942,1.0150936474376504,0.06327199864594313,-1.4226871656274032,0.04689763182807383,2.669111756519545,2.6163897230545086
4842.367,0.2977941185541999,1.0150915483825473,0.06320141945809521,-1.422588084084028,0.034741472108894556,2.6688776779761607,2.635097050918082
4842.4,0.29774222491858104,1.0150763871330781,0.06316904037983662,-1.422566521873228,0.023199254924850976,2.6688533813981117,2.653939658028417
4842.434,0.29771030092003503,1.0150682412082128,0.06314874196674936,-1.4225399601094235,0.011382501938904888,2.6688073821322575,2.675124354552718
4842.467,0.2976916606343556,1.015062651794456,0.06313635760203429,-1.4225162027132,-0.0005263854725328088,2.6687616618187846,2.698456286948195
4842.5,0.2976776274550321,1.0150586125612238,0.06312777669438141,-1.422492374172867,-0.012594919292487461,2.6687135178418604,2.723979544166772
4842.534,0.29766601871223664,1.015054692723714,0.06312054513189125,-1.4224684804432055,-0.02484244861004825,2.668663271344771,2.7516859669624196
4842.566,0.29765898883300856,1.0150497518969788,0.0631145410134728,-1.4224450384541916,-0.03715072962777555,2.6686108227155376,2.78142978496634
4842.599,0.29767940060655906,1.0150298919918965,0.06311626610452326,-1.4225131260228858,-0.04927712733115186,2.668872087541189,2.8123217236210216
4842.633,0.2976449986380256,1.0150423119815253,0.06310650500344206,-1.4224232014278408,-0.06212700372623203,2.668592453247731,2.847058582250394
4842.667,0.2976713550528869,1.0150159028447172,0.06311028839275235,-1.422489192946978,-0.07448101646871486,2.668865891838541,2.8820515768992188
4842.699,0.2982016855551485,1.015169151523657,0.0634253293794893,-1.4227273822113848,0.09872332034687292,2.6690112357272047,2.466047825144397
4842.733,0.2982016855551485,1.015169151523657,0.0634232008227702,-1.422723387159817,0.09872332133825537,2.669012354704847,2.4660443919168573
4842.766,0.298201676806143,1.0151663674638982,0.06342920179803539,-1.4227273840479187,0.09872433907762271,2.6690123546512337,2.466045688913695
4842.8,0.2982016855551484,1.015169151523657,0.06342580584654292,-1.422725515463839,0.09872433907786902,2.6690112357272042,2.466044569936063
4842.833,0.29821226498178727,1.015169151523657,0.06342604283174752,-1.422721178047825,0.09872327447179571,2.669012354705069,2.466052205688423
4842.867,0.2982016855551485,1.0151691516326733,0.0634232588922749,-1.4227204931954693,0.09872433906985707,2.6690101167513336,2.4660434509581983
4842.9,0.29819847126732096,1.0151663674638982,0.06342596401443747,-1.4227234365126793,0.09872327398589904,2.669012354705069,2.4660523010578737
4842.933,0.29820419110090807,1.015169151523657,0.06342641480469016,-1.4227212056289242,0.09872429526695715,2.6690112357272042,2.4660477015199493
4842.967,0.29819638709200563,1.0151663674638982,0.06342830302566349,-1.4227273324997818,0.09872433907712799,2.669012354705069,2.4660500631002
4843.0,0.2982073549154199,1.0151663674638982,0.06342854849617324,-1.422730871284646,0.09872240613565948,2.6690134736829334,2.466047825144319
4843.034,0.29820697526869017,1.0151716571774398,0.0634276015541744,-1.4227211777892568,0.09872433907787004,2.669014592660798,2.4660478249807976
4843.067,0.2982016855551485,1.015169151523657,0.06342604279031505,-1.4227229976258473,0.09872433902378248,2.6690112357272042,2.466042290770091
4843.1,0.29820419120878144,1.0151638618105638,0.06342846968470513,-1.422725969530081,0.098722965496505,2.669012354705069,2.4660511820779902
4843.133,0.2981991799003199,1.0151663674638982,0.06342580618914105,-1.4227307796047577,0.09872240483555511,2.6690135914205033,2.466052300886274
4843.167,0.29820137060714896,1.015169151523657,0.06342604295203551,-1.4227282861580055,0.09872240629569626,2.6690101167495612,2.466045690367478
4843.2,0.2982041912089314,1.0151663675729146,0.06342854860581842,-1.4227237112463678,0.09872535633047146,2.6690101167493396,2.4660467061671967
4843.234,0.2981991799003199,1.0151716571774565,0.06342854860575249,-1.4227248680162206,0.09872433907786912,2.6690112488091566,2.466041961107065
4843.266,0.2982016855551485,1.015169151523657,0.06342854535403193,-1.4227254161996932,0.09872239315464826,2.6690112357272042,2.466052301055855
4843.3,0.29820948092245664,1.0151663674638982,0.06342604284377618,-1.4227287165404114,0.09872433907786729,2.6690112357272042,2.466047825144618
4843.334,0.298201420182297,1.015169151523657,0.0634253225952454,-1.422723472495364,0.09872433907787004,2.6690112357272042,2.4660511820779907
4843.366,0.2982069752566892,1.015169151523657,0.06342595493729697,-1.4227283553632952,0.09872332036289887,2.669015711656608,2.4660456889219033
4843.4,0.29819847126732096,1.0151663674638982,0.06342604197768614,-1.4227280201261088,0.0987224018625206,2.669012354705069,2.4660445699172207
4843.433,0.2982069752686901,1.0151716571774398,0.06342854763146909,-1.4227255046241989,0.09872332181925614,2.669012354705069,2.4660511227382793
4843.467,0.2981920090218102,1.0151599893896188,0.06342715987241476,-1.422698402090469,0.06109384929041628,2.6688949439541663,2.50856056318319
4843.499,0.2981117294248712,1.0151572451871447,0.06340316755732811,-1.4226637186158886,0.058769136002911004,2.668834098068965,2.526389283013728
4843.534,0.29792966795721654,1.0151131226013295,0.06326776822162206,-1.4226728699119127,0.04801282755752201,2.6690466450390122,2.5520380012919937
4843.566,0.2977807660738083,1.0150964510495593,0.06321834640840063,-1.4225906656159282,0.036149153284021907,2.6688141258429923,2.5827765858038063
4843.599,0.2977286009150095,1.0150834861214921,0.06318880769182122,-1.4225719710973426,0.024885022454730787,2.6687961694523707,2.6132739887076575
4843.633,0.2977345611457505,1.0150565655828983,0.0631670397998958,-1.4226284315857027,0.01366841212496439,2.6690124549532133,2.645143900842193
4843.667,0.2976768663555118,1.0150665617672354,0.06316352344253584,-1.4225462325144775,0.0017247316661883616,2.6687645756257368,2.6806112107671236
4843.7,0.29771336196438547,1.0150517379416817,0.06314304118963676,-1.422604751022016,-0.009718751672861181,2.6690244406267407,2.7152368679129157
4843.733,0.29766262201386695,1.015041724654373,0.06314081668632276,-1.4225385999768374,-0.02199363302980828,2.6687536849505555,2.7532384052809213
4843.767,0.2976574661295581,1.0150368586029943,0.06313844419557224,-1.4225275610887538,-0.03401273626297385,2.6687207996961906,2.7915373651087663
4843.8,0.2976944861489548,1.0150346097335552,0.06312743810321386,-1.4225784758977813,-0.04584759415940809,2.668982696717384,2.830404495664361
4843.833,0.2976931911258145,1.0150267706820495,0.06311916130477169,-1.4225810447836373,-0.058090308203560426,2.669025184783843,2.870907617039503
4843.866,0.29776325131674675,1.0150470741138147,0.06319385414260115,-1.4226161721218018,-0.06695570299694964,2.6689491773221707,2.897317161516529
4843.899,0.2979220981778221,1.015109354676241,0.06330314075598764,-1.4226488399009227,-0.06979379174761569,2.668945191186797,2.8973001109841103
4843.934,0.29802139723947363,1.015145308844465,0.06336211547380177,-1.4226707195125607,-0.07213881529019162,2.668943608800875,2.8973001036379706
4843.966,0.29808934244316454,1.0151626038080037,0.06339594426552164,-1.4226843474249273,-0.07399548241673948,2.66894415912488,2.8973000733905714
4844.0,0.2982041912089312,1.0151716571774398,0.06342828520967282,-1.422727570900903,0.0987192124823729,2.6690134736829334,2.466048944122261
4844.033,0.2981991798998755,1.015169151523657,0.06342604197768376,-1.4227237043043435,0.09872433696845571,2.6690134736829414,2.466044574296714
4844.066,0.2982062637193579,1.0151663674638982,0.06342596305672116,-1.4227250651512773,0.09872332182501846,2.669014592660798,2.4660434509519176
4844.099,0.2982016855551485,1.0151663674638982,0.06342854860179054,-1.4227277688014146,0.0987233217531464,2.6690101167493396,2.466044569936063
4844.134,0.29820167647857215,1.0151716571774398,0.0634284404187613,-1.422727691901389,0.09872332166300322,2.669012354705069,2.4660478251503783
4844.166,0.2982041912089314,1.0151663674638982,0.06342580618914108,-1.4227277718580165,0.0987232035355785,2.6690134736829334,2.4660511815692487
4844.199,0.2982041912089314,1.0151663674638982,0.06342367532308486,-1.4227299053804683,0.09871977314065455,2.6690112357451494,2.4660523141378072
4844.234,0.29820418829274625,1.0151638618101153,0.06342783831698552,-1.4227229191582615,0.09872320304300253,2.6690123939509256,2.466050063100126
4844.266,0.2982016855538149,1.0151638618101153,0.06342604291550186,-1.4227248944322526,0.09872433907185908,2.669011235727426,2.4660511820779902
4844.3,0.2982047706326933,1.0151663674638982,0.06342601663168013,-1.4227261394091244,0.09872240613365622,2.6690134736829334,2.4660500631001256
4844.334,0.29820697515930056,1.0151663942819003,0.06342854860447991,-1.4227279296624873,0.09872332182526587,2.6690112357272042,2.466053318309115
4844.367,0.29819917990031986,1.015169151523657,0.06342604284243984,-1.4227248931279233,0.09872432593459618,2.669012354705069,2.4660489441222615
4844.4,0.2982041912071535,1.0151663674638982,0.06342603959599454,-1.4227283298777156,0.0987201265493529,2.6690134736829334,2.466041564694933
4844.434,0.2980575274687407,1.0151365808643042,0.06333044240677577,-1.42264530653837,0.061680266020638363,2.6689238062021836,2.3905521875028963
4844.467,0.29808808966004374,1.0151519958708466,0.06338664508405767,-1.4226327902086293,0.059156814306608574,2.6688666864285473,2.3904388950906075
4844.5,0.29792059932111137,1.0151212547330433,0.06329803560282521,-1.4225954307970126,0.048215919167913235,2.6688337175733334,2.3963397724266997
4844.534,0.2978352642936466,1.0151025433647725,0.06324917889278137,-1.422566928160844,0.03712382702739081,2.668804409454978,2.4044660867115137
4844.567,0.297789140904654,1.0150899255702202,0.06322523514327827,-1.4225433307789466,0.025845843144763236,2.668772878525477,2.415830749113928
4844.6,0.29780215231281293,1.0150616686854068,0.06320380564644168,-1.422592315420995,0.014723760474912417,2.668951640436278,2.429012945207992
4844.635,0.2977906283974159,1.0150460584983119,0.06318995664563509,-1.4225896942647047,0.003120393126376797,2.668974283565257,2.4468146015657037
4844.666,0.29779018871769836,1.0150318444529285,0.06318129240729764,-1.4225945483414408,-0.008474367500475921,2.669014779489382,2.4675621463493815
4844.7,0.2977569986255819,1.0150439358797678,0.06317142013136756,-1.4225125582012899,-0.021370854554294993,2.6688240750714343,2.4941144435751
4844.734,0.2977762427972337,1.015016872496302,0.06317048933731062,-1.422570085352623,-0.033382847509814795,2.669037871131607,2.520393801745225
4844.767,0.2977711975678474,1.0150063137112308,0.06316294227494179,-1.4225711208894483,-0.04586478831658436,2.669075805552918,2.550739842100917
4844.799,0.29777083615217137,1.0149922226299655,0.06316073385067877,-1.4225662621705712,-0.058445229380366115,2.6691120866258444,2.5839161335003435
4844.834,0.2977743971475988,1.014972858118198,0.06314841429995255,-1.4225815909491244,-0.07113845872950453,2.669162552316589,2.618449858005933
4844.867,0.29773379247109855,1.0149812058329566,0.06316010389011506,-1.4225031997504578,-0.08424114064411103,2.6689285807879095,2.6562000342460514
4844.899,0.2982041910995911,1.0151663674638982,0.06342112510321085,-1.4227236052770407,0.09872533880610905,2.6690112357272042,2.4660511820779902
4844.934,0.2982073545914432,1.0151716571774398,0.06342086490688517,-1.4227259010060196,0.09872432593459607,2.6690134736829334,2.466050063100134
4844.967,0.2982009759380852,1.0151663674638982,0.06342641773575818,-1.4227227326988643,0.09872330428287052,2.669014592660798,2.466050063093845
4845.0,0.29820697516068334,1.0151716542340006,0.06342851352981758,-1.4227223965947418,0.09872421640731396,2.6690134736829334,2.4660533183104527
4845.034,0.2982041912089314,1.0151663674638982,0.06342325596927813,-1.4227280178729493,0.09872432593459617,2.669013473682934,2.4660521774314024
4845.066,0.29879544394275115,1.015312899218955,0.06381302282101142,-1.4228004535819263,0.03839096536635633,2.6690821219246104,2.6021345646759126
4845.1,0.2982164039994366,1.015144360409984,0.06347570263617364,-1.4226968592167104,0.047241355370085,2.6690863172384667,2.5980360880029174
4845.134,0.2981991799001718,1.015169151523657,0.0634263903140954,-1.4227250524692823,0.09872240629725437,2.6690134736829334,2.4660467061665323
4845.166,0.2982038762475977,1.0151663674638982,0.06342603894599928,-1.422726207984849,0.09872530375648841,2.6690134736829334,2.4660460552086145
4845.2,0.2982041911729285,1.015169151523657,0.06342854860576899,-1.4227251745954308,0.09872205142952745,2.6690134736829334,2.4660445699360634
4845.234,0.2982041912089314,1.0151716571774398,0.06342851352983411,-1.422731152306339,0.09872291911682869,2.669012354705069,2.4660467061665323
4845.267,0.29794110985165023,1.0151406770685858,0.06329878361808472,-1.4226417965565403,0.060726645160766424,2.6688935893395485,2.508638249469646
4845.3,0.29798062126329317,1.015122419911921,0.06329549105960552,-1.422693031288988,0.06144392984077651,2.669088839902413,2.487510939295495
4845.335,0.2982041912075925,1.0151716571774398,0.06342604295201726,-1.4227273843903185,0.09872534318717557,2.66901459266678,2.4660467062140867
4845.367,0.29819917986431216,1.0151741628312227,0.0634260418333571,-1.4227255037833753,0.09871999657675543,2.6690123547050932,2.4660553846028113
4845.4,0.2981215112411171,1.0151560948363576,0.06335777403889509,-1.4226609612243495,0.052494276351740865,2.6689231563959837,2.490098982589654
4845.434,0.29825058449423736,1.0151711674991102,0.06345084381590471,-1.4227292885529286,0.055888638464292484,2.6691067808151114,2.4891196298669804
4845.467,0.2980378115612625,1.0151254124363502,0.06333962427054018,-1.4226669159413898,0.046899850673586485,2.6690767993815125,2.5041620583934634
4845.5,0.2979292892622345,1.0150901950123572,0.06326682816290141,-1.422656847921676,0.03713326677924478,2.6691279110277044,2.5224440414024834
4845.534,0.2978807485612034,1.015073223587918,0.06323706479010216,-1.422649967008276,0.027146924329032096,2.669160454568086,2.543376333575866
4845.567,0.297859168638257,1.0150609733022709,0.06322161984781172,-1.4226491091500764,0.01691197868858918,2.669196974869843,2.5669498524687047
4845.6,0.2978211574168226,1.0150687765453927,0.06319856798000778,-1.4225760219068704,0.005497739912875055,2.668987372650024,2.595752809403372
4845.634,0.2978095452281089,1.0150618460887486,0.06319135916995045,-1.4225626889559928,-0.005342482484643973,2.668973358648188,2.624625107847965
4845.667,0.29779897319147963,1.0150584354186316,0.06318416281171224,-1.4225399368504519,-0.016426476607003693,2.668925626419327,2.6558270969893663
4845.7,0.2977898753911097,1.0150558488802535,0.06317991675045498,-1.4225195524943484,-0.027611414400007916,2.6688805202363657,2.6884007251967397
4845.734,0.2977804410248712,1.0150539016286624,0.06317444465371924,-1.4224982619251563,-0.03899810780438884,2.6688330035961627,2.722751221762106
4845.767,0.29777300042253874,1.0150523876985815,0.06317106694846686,-1.4224780934636492,-0.05046376221110016,2.6687841274330175,2.758435668452144
4845.8,0.2977665166683723,1.0150496221116008,0.06316728132900629,-1.4224568541412532,-0.062044281893689046,2.6687314184672246,2.7951786774293197
4845.835,0.2977568793560321,1.0150530686657762,0.06316640272866803,-1.422437402236083,-0.07376452304256187,2.6686803823329104,2.8330693041032866
4845.867,0.2977529049288039,1.0150326905071099,0.0631659695272182,-1.4224314170412669,-0.08556943528691185,2.6686214610746237,2.871625764558466
4845.9,0.2978298563407611,1.0150418459102442,0.06322943161092276,-1.4225307698625675,-0.09426673385738038,2.6687741880482747,2.8974379009150315
4845.935,0.2980004366209368,1.0151276059665113,0.06332169611512217,-1.4225385420837116,-0.09674484274933537,2.668748502792951,2.897300170091107
4845.967,0.29808952672225697,1.0151595767839359,0.06336923393958038,-1.4225608528561153,-0.09909286634210979,2.6687492894281117,2.8973001017592566
4846.0,0.29814798191548775,1.015182187859982,0.0634000539074604,-1.4225683131096512,-0.1007654231992614,2.668747751765279,2.8973001026849303
4846.034,0.29819051621764636,1.0151806099009884,0.06341940926497092,-1.4225893079710712,-0.10204538009425157,2.6687499950542986,2.897300082307842
4846.067,0.2982088178357083,1.0151894216797297,0.06343534995047317,-1.4225935741014393,-0.10304871855860931,2.668746172854865,2.8973000814260264
4846.1,0.29822405337162117,1.0152018758919654,0.06345220688801945,-1.4225929750452835,-0.1037712120107308,2.6687496318668273,2.897300112449676
4846.134,0.2982374232086231,1.0152055202358605,0.06346507837535409,-1.4225882136777646,-0.10435815191256914,2.6687380094885356,2.897300123664248
4846.168,0.29825046240546005,1.0152007855285117,0.06346327785455763,-1.4225998837503449,-0.10476532707821207,2.6687433306027266,2.8973000820292967
4846.2,0.2982634734180838,1.0152176121046708,0.0634648682296195,-1.4225864337586511,-0.1052003064360294,2.6687433799792917,2.8973001047172886
4846.235,0.29826035135102824,1.0152188026088478,0.06348211811239413,-1.4225889850248876,-0.10545546567809438,2.668748612700643,2.897300111959126
4846.267,0.2981991799003199,1.0151638618101153,0.0634257798819988,-1.4227236745059098,0.09872240624383427,2.669012354705069,2.4660523010558553
4846.301,0.2982016855551485,1.015169151523657,0.06342391100294176,-1.4227233655498062,0.09872190186490053,2.669012354705069,2.4660511819084094
4846.334,0.2982067390576905,1.0151716571774398,0.06342601653678628,-1.4227251866110258,0.09872239315464826,2.669012354705069,2.466044923148773
4846.367,0.2982016854431414,1.015169151523657,0.06342641773931608,-1.4227305412561901,0.0987231167353714,2.669008997771475,2.4660523010558553
4846.401,0.2982016855551485,1.015169151523657,0.0634284403425978,-1.4227273192590495,0.09872433859108211,2.669012354705069,2.466042331980334
4846.434,0.29819955933213094,1.015169151523657,0.0634260341829735,-1.422725532817591,0.09872433907720228,2.669012354705069,2.466048944118073
4846.466,0.29819639583922775,1.015169151523657,0.06342919779259852,-1.4227273763229837,0.09872224407680884,2.6690101167493396,2.4660511820779902
4846.499,0.2982069752686896,1.015169151523657,0.06342325780813368,-1.422728096794928,0.0987239842092528,2.6690101167493396,2.4660510569272365
4846.534,0.29820418246037583,1.015169151523657,0.0634313323287046,-1.4227227474319954,0.09872432425788188,2.669012354705069,2.4660511820779902
4846.567,0.29820168555114823,1.015169151523657,0.06342633881744786,-1.422726183414213,0.09872332182526543,2.6690134736829334,2.466054437286505
4846.6,0.2982041912089314,1.0151716571774398,0.06342033448606071,-1.4227276565792197,0.09872433907586678,2.6690123547050693,2.466051186438641
4846.634,0.2981991789282582,1.0151663674638982,0.06342596401488379,-1.4227234638748212,0.09872317830115566,2.669013473664988,2.4660544372867377
4846.667,0.29820697516068334,1.015169151523657,0.06342853979538783,-1.4227202194273336,0.09872332165689458,2.669011235729198,2.4660522964771716
4846.7,0.2982069752686884,1.0151716571774398,0.06342831180550103,-1.4227283537589863,0.09871772205388038,2.669014592660798,2.466052301055855
4846.734,0.2982041912089314,1.0151716571774398,0.06342783733864368,-1.4227228808531196,0.09871807547993194,2.6690112357272042,2.466052300999328
4846.767,0.2982041912089314,1.0151663674638982,0.06342254470581608,-1.4227237128029764,0.09872523658064565,2.669012354705069,2.46604345096418
4846.8,0.2982041912089314,1.015169151523657,0.06342846935960851,-1.422727690932387,0.09872433907576783,2.6690101167493396,2.4660500631001256
4846.834,0.29819917990165307,1.015169151523657,0.06342324709068628,-1.4227248228066054,0.09872331738939455,2.669012354705069,2.4660434509581974
4846.867,0.298204191207598,1.015169151523657,0.06342854729061917,-1.4227273732700554,0.09872433900575331,2.6690112357272042,2.4660489439526803
4846.9,0.29831443949253167,1.0151623977320279,0.0634713006872385,-1.4227551680461072,0.061978806549133125,2.6691111423863543,2.402924921541345
4846.934,0.29824834366396846,1.0151517060373596,0.06345663745416097,-1.422747843606702,0.06074154312194846,2.6691063264559443,2.4146196689946446
4846.967,0.2979989325727903,1.0151374365105204,0.06333283030991144,-1.4226466721727347,0.05025416098923863,2.6689209278002117,2.4241743756446716
4847.0,0.2978866959524069,1.015113400596526,0.06325841582547387,-1.4226245560224893,0.03960181163121401,2.6689161987861176,2.43337664421637
4847.034,0.2978562059864709,1.015085310358228,0.06323279362423051,-1.4226691330223158,0.029065225240014314,2.6691008936102953,2.444260518629747
4847.067,0.2977956045879706,1.0150755380042389,0.06320730486329751,-1.4226004383410684,0.017044973645012007,2.6688906162515806,2.4620983173418445
4847.1,0.29777660316218046,1.0150652842448649,0.06319672861930936,-1.4225872136920126,0.005697245545221108,2.6688735066605496,2.480824755991195
4847.134,0.2977597879562133,1.0150553183433937,0.06318785412268468,-1.4225677819604412,-0.005975533256298071,2.668833247513316,2.5026840389015685
4847.167,0.2977837272083903,1.0150437564632835,0.06318524232469791,-1.4226154776046762,-0.01669972560484556,2.669044865359851,2.524739940975678
4847.201,0.2977835666801196,1.015031936425184,0.06317931293724133,-1.4226135508341606,-0.028362971297385187,2.669070765406307,2.552000634422363
4847.234,0.29775108485063395,1.0150248324271613,0.06317518071523853,-1.422548964107408,-0.04106117598554082,2.6688521203037343,2.5847461943968817
4847.267,0.2977803500813989,1.0150135361946946,0.06317410154953862,-1.422606472534218,-0.05206305541758116,2.669098762262495,2.613753289012294
4847.3,0.2977800261602299,1.0150055697535114,0.06317007876281533,-1.422610440672667,-0.06410349594296516,2.66912913116275,2.6477797531593765
4847.334,0.2977461152276444,1.0149977305903572,0.06316727390385779,-1.4225429036306148,-0.07728997813425131,2.668884227355564,2.6864100829042847
4847.367,0.29778470502442467,1.014997128203028,0.06315530076202691,-1.4225919770551254,-0.08940748900699447,2.669154835740695,2.723141351945772
4847.4,0.29777353688870445,1.0149773286123152,0.06315503553764312,-1.422602882148544,-0.10204857572502135,2.669194476820886,2.762388271659871
4847.434,0.2977747039574101,1.014968576496008,0.06314970876396142,-1.4226101776906628,-0.11476485776400924,2.6692504772080685,2.802125681560568
4847.467,0.2977778907411883,1.0149594037446645,0.06314643262046271,-1.4226196375031552,-0.12755613922421816,2.669307232120582,2.8434823615228826
4847.5,0.29778134459613526,1.014950691025831,0.06314284033684459,-1.4226296658864461,-0.14048122331256696,2.6693669924247523,2.8858262573675475
4847.534,0.2979199189322763,1.0150027172956362,0.06325447133874817,-1.4226884055173006,-0.14669836844416295,2.669275567421302,2.897305306671786
4847.567,0.2980629362007621,1.0150678559926103,0.06333889908289514,-1.4227236041991507,-0.14963176351445107,2.6692705583596386,2.897300095314211
4847.6,0.2982069752686884,1.015169151523657,0.06341977598259409,-1.422728616584704,0.09871921199558224,2.6690134736829334,2.4660523010557776
4847.633,0.29819917990031813,1.0151638618101153,0.06342853680551493,-1.422723026474724,0.09872332166300324,2.6690134736829334,2.466052301055829
4847.667,0.2982041912089314,1.015169151523657,0.06342604197765318,-1.4227276539583773,0.09872332176509441,2.6690112357272042,2.4660434509581983
4847.7,0.2982016855551485,1.0151663674643467,0.06342530632022782,-1.422725185592316,0.09872328239536733,2.669012354705069,2.466048944122261
4847.735,0.2982041912089314,1.015169151523657,0.06342592863024275,-1.4227258662172462,0.09872433907779585,2.6690101167493396,2.466045806651498
4847.767,0.2982016855545559,1.0151663674638982,0.06342532096957458,-1.4227201752738245,0.0987233213378102,2.6690123677870212,2.466044569936063
4847.8,0.2981963958405557,1.0151716571774398,0.06342033833542565,-1.422729798568083,0.09872320352979136,2.6690134736829334,2.4660500631001256
4847.834,0.29820697526869017,1.015169151523657,0.06342379515399157,-1.422728046284229,0.09872114526232083,2.6690134736829334,2.4660533183084588
4847.867,0.2982009769221477,1.0151716571774398,0.06342830307348236,-1.4227301163222472,0.09872332180716249,2.669012354705069,2.466053318308459
4847.9,0.29819955673996634,1.015169151523657,0.06342577847477755,-1.4227208552006958,0.0987243385910812,2.6690134736829334,2.4660523010558464
4847.935,0.29819917892825815,1.0151663674638982,0.06342783831713492,-1.4227204841175052,0.09872332182526587,2.669012354705069,2.4660413307400395
4847.967,0.2982069752566675,1.0151663674638982,0.06342604295010504,-1.4227276882998152,0.09872488317260672,2.669012354705069,2.4660434509581988
4847.999,0.29820419119693065,1.0151663674638982,0.06343380876454545,-1.4227259538271524,0.09872134153025382,2.669012354705069,2.4660523010558553
4848.034,0.2982041912089314,1.0151716571774398,0.06342323247686434,-1.4227259460306358,0.09872332182526587,2.6690134736829334,2.466050063583953
4848.066,0.2982067390576905,1.015169151523657,0.063423803935033,-1.4227229603421285,0.09872398356042512,2.6690112357272042,2.4660492968282224
4848.099,0.29820697526869017,1.015169151523657,0.06343130601775095,-1.4227311550194832,0.09872535633039635,2.6690101167493396,2.4660523009999937
4848.133,0.29819910116332005,1.0151638618101153,0.06342387397873649,-1.4227300646405272,0.09872292736471298,2.6690134736829334,2.4660430800848534
4848.167,0.2983534611181682,1.0151928402409975,0.06350487516635273,-1.4227660490255118,0.062071597558021274,2.6691251402571137,2.501053959036712
4848.2,0.29828941535988385,1.0152010890363519,0.06348181548810494,-1.4226773921620186,0.060217046921700934,2.668882107153687,2.516799580462333
4848.234,0.2980860872482207,1.015130814918507,0.06336612792744845,-1.4227089892386804,0.05001311645633155,2.669125936435849,2.5400759732144795
4848.267,0.29820419120493113,1.0151663674638982,0.06342610201402789,-1.4227195004491555,0.09872332182322965,2.6690102947685452,2.466050063100126
4848.3,0.2983099662407067,1.0151546011982129,0.06344858515112506,-1.422827368759541,0.04198087864719202,2.6692213518090657,2.568929930459234
4848.334,0.29848452499206335,1.0152369736178128,0.06359868041412753,-1.4227968558087003,0.04791357120167916,2.669152376571411,2.561444627777554
4848.367,0.2982016855551485,1.0151663674638982,0.06343101665679177,-1.422725183349035,0.09871977265453438,2.6690112357272042,2.466053318308459
4848.399,0.2982041912089314,1.0151741628312227,0.06342367528695446,-1.4227275315495804,0.09872637336672717,2.669012354705069,2.466043409750049
4848.434,0.29863070074322184,1.0152536382392787,0.06366104446374798,-1.4228559152024092,0.04869918291059072,2.6691837952631783,2.564134620519141
4848.467,0.29853926700386335,1.015272899444132,0.06363837893906776,-1.4227406900306834,0.051622109009673345,2.668919285754896,2.5623658408064163
4848.5,0.298267259720709,1.015177646520037,0.06347512920951548,-1.422756755906354,0.043341652098416894,2.66914891397683,2.5715888984819486
4848.534,0.29810346905693397,1.0151321350223368,0.06336992888969029,-1.4227287855543906,0.03309490397954473,2.6691641396770223,2.586287410249934
4848.567,0.29802868137959404,1.0151053336699372,0.06332025504687344,-1.4227245495204288,0.022734260495487213,2.669208843784693,2.6033952136436227
4848.6,0.29820419120891495,1.0151663674638982,0.06342854856957789,-1.4227280119574914,0.09872433907779585,2.6690112357272042,2.466050063100126
4848.634,0.2982016855191462,1.0151663674638982,0.06342325887484995,-1.422722650209687,0.09872240466918702,2.6690134736829334,2.4660474542710515
4848.667,0.29820097691814923,1.0151638618101153,0.06342390912625627,-1.4227254679767858,0.0987229274727398,2.6690123547050693,2.466050063100126
4848.7,0.29820689653035687,1.0151638618101153,0.06342854860522441,-1.4227233566041506,0.09872122324100063,2.6690134737367686,2.466043451011026
4848.734,0.29820416496326474,1.0151716571774398,0.06342604291550369,-1.422723595016889,0.09872012795495312,2.6690101167493396,2.4660434509581983
4848.767,0.2983347154678295,1.0152019714597316,0.06350900024665762,-1.4227123139659534,0.05590430518614653,2.6688925943318065,2.4968575815293743
4848.8,0.2980241444513636,1.015134928106395,0.06335259308958996,-1.4226216654987809,0.053104471468126135,2.6688241767155105,2.489919715994173
4848.834,0.29770903667950765,1.0150392761527725,0.06315075493743638,-1.422615741525954,0.04181256280221213,2.6690217394664515,2.4927797773932454
4848.867,0.2975404096235401,1.0149878626442828,0.06304316504190499,-1.4225924838377253,0.030096286330354438,2.6690618594660194,2.5002790816591673
4848.9,0.298206974296612,1.0151638618101153,0.06342782954813861,-1.4227233595417415,0.09872227486518347,2.669012354705069,2.4660510584542092
4848.934,0.2982041912089314,1.0151663674638816,0.06342325008719413,-1.4227279705900882,0.09872328093508051,2.669012354705069,2.4660511683419406
4848.967,0.2982041824559311,1.015169151523657,0.06342854859378969,-1.4227203741092058,0.0987224062979221,2.669012354705069,2.4660511820779902
4849.002,0.29820168263891395,1.0151663674638982,0.06342367532289235,-1.422720850957984,0.09872240629769923,2.669014592660798,2.4660478382286466
4849.034,0.29837187569842794,1.015202786385065,0.06351545562653982,-1.4226856857556793,0.052285751070124675,2.6688976897861902,2.490551670067209
4849.067,0.2983436610365269,1.0151637231204083,0.06349319412088406,-1.422750535126192,0.0563886697646554,2.6691119776503918,2.494852901803613
4849.1,0.2980782055915858,1.0151246372918772,0.06336275686930737,-1.4226646396913702,0.05084436663469116,2.66905986158722,2.512477083435172
4849.134,0.2978881370357218,1.0150653455896208,0.06323959621201691,-1.4226667259873773,0.04099744552602935,2.6691249188753474,2.5333077047694275
4849.167,0.29784548228127594,1.0150541751141082,0.0632091271506523,-1.4226610176339811,0.032196267828338065,2.6691548601781925,2.5544988315435297
4849.2,0.2978240336690412,1.015043063343846,0.06319515225890537,-1.422662950021027,0.02268658881944141,2.6691868412313013,2.578691257960557
4849.234,0.29781912195703075,1.0150345124334352,0.0631881050188019,-1.4226676718147022,0.013118441818623872,2.669222027301524,2.60517840722356
4849.267,0.29782591131707026,1.0150372551819133,0.06317441675010649,-1.4226621548837635,0.0033698474496448583,2.6692655610311835,2.633524074223139
4849.3,0.2977906121984919,1.015025873851238,0.06317524054191725,-1.4226085713965162,-0.007476909340518034,2.669024143066739,2.6658625016539936
4849.334,0.29782662878451216,1.015026648119016,0.06316565749413883,-1.4226664379960674,-0.016523436820793158,2.669321600481055,2.6939505702991617
4849.367,0.2977703742311997,1.0150256397443504,0.06317536293166803,-1.4225865325024323,-0.02791549962462625,2.6689997343609626,2.7293633047194916
4849.4,0.2977742749466463,1.0150228106172587,0.06317533548966914,-1.422587220603024,-0.03806195454172645,2.6690244890131414,2.7620254941904108
4849.434,0.2977619627489938,1.0150207274465917,0.06317486238401138,-1.4225667613299322,-0.04873322497457622,2.668960654643076,2.7964835389638765
4849.467,0.29779702908599504,1.0149977846906744,0.0631641855857712,-1.4226401444082928,-0.058997315307781406,2.6692305644729117,2.8310452901071805
4849.5,0.29774815804741905,1.01501518715886,0.0631767027263006,-1.422544420870664,-0.0700598192875388,2.6689002600346665,2.8677577300013652
4849.534,0.2978061050476182,1.0150045935869079,0.06319701628946106,-1.4226444698293994,-0.07939403640905596,2.669140350863783,2.8980415635317573
4849.567,0.29798481282603984,1.0150877439525399,0.06330559068401342,-1.4226522223064944,-0.08101162879349921,2.669061877378324,2.897300471601115
4849.6,0.29806370374924374,1.01511197267045,0.0633425991511336,-1.422675364052072,-0.08327694879485392,2.669074727044432,2.8973000974910015
4849.634,0.2981046716653655,1.015116655194812,0.06337293784485265,-1.4226935161552303,-0.08482822533093426,2.6690696595639807,2.8973000763145684
4849.667,0.2981283773317873,1.0151331859281605,0.06339261564151943,-1.4226931342969449,-0.0860525478364762,2.669074325005809,2.8973001074798326
4849.7,0.29814965298312046,1.0151379366431321,0.06340439007015508,-1.4226975728250029,-0.08693911460837267,2.669073639913636,2.897300107986535
4849.734,0.29817042214355904,1.0151504757334235,0.06340397261191999,-1.4226905900711087,-0.08765277201133337,2.6690721097480363,2.897300098063491
4849.767,0.29818176563887633,1.0151541363301098,0.06340956290945599,-1.4226905712877933,-0.08819189411864325,2.6690724280724893,2.897300098749554
4849.8,0.2981830960201286,1.0151517181822287,0.06342318700959737,-1.4226960391486552,-0.08860701282086936,2.6690752487410716,2.8973001084501124
4849.834,0.29818978133981755,1.0151549310127033,0.06343132174805799,-1.4226890065316162,-0.08891404066081421,2.6690636552130655,2.8973001205032602
4849.866,0.298197199076605,1.015148658948772,0.06342603656488599,-1.422700447776215,-0.08913111009525743,2.6690698108716955,2.897300078056851
4849.9,0.29813982661611416,1.0151579876688608,0.06345139133326416,-1.4226265437264445,-0.09056558068971832,2.668871095729191,2.8946183071761507
4849.934,0.2979666550356903,1.0151083397596006,0.06333697538591032,-1.4225611618135359,-0.10023907596062465,2.6688404178704097,2.8961237299863214
4849.967,0.2979683874674146,1.0150664367769142,0.0632931545574058,-1.4226724619182347,-0.10748519636391674,2.669188215692822,2.894432700185412
4850.0,0.2979250634797719,1.0150685610393948,0.06330394409189921,-1.4226274528783396,-0.11461560661709314,2.6691710782625275,2.8873432310021947
4850.033,0.29785584451337677,1.0150300085834525,0.06324808868224086,-1.4226277940508574,-0.1254182988266095,2.6692370146010287,2.8867927239261917
4850.067,0.2978172420334726,1.0150084887446305,0.06321865241551983,-1.4226247719704475,-0.13644840518127221,2.6692930714999363,2.8894980280866704
4850.1,0.2977581554526765,1.0150087212211698,0.0632011101525638,-1.4225248629987473,-0.14841512262606305,2.668999276496052,2.8975105278038384
4850.134,0.2978191842918241,1.0150387488196815,0.06324908749901592,-1.4225138395079888,-0.1560256502528441,2.6689413682713514,2.898476528256589
4850.167,0.29791102119287594,1.0150748816950506,0.06331204799811019,-1.42256696390508,-0.16083609806344512,2.6689064878633424,2.894409803762848
4850.2,0.29781618137031973,1.0150498947042994,0.06328972062542881,-1.422493028219166,-0.17166359110528084,2.668829525790299,2.8906831570819094
4850.234,0.29775042535903307,1.0150205107258037,0.06325708482738879,-1.4224579987963546,-0.18370561887200587,2.668771663886412,2.8916330116779747
4850.267,0.2977069455649479,1.015002684353015,0.06324043632710019,-1.4224242693984204,-0.1960647000345439,2.66871152242555,2.896429835445458
4850.3,0.2982016855538151,1.0151663674638982,0.06342854860448197,-1.4227174311436055,0.09872332182519167,2.6690112357272042,2.4660523010558553
4850.334,0.2981993234331511,1.0151663674638982,0.0634260400245818,-1.4227251499397868,0.0987243390778699,2.6690123551895857,2.4660467061727354
4850.367,0.2982041649632099,1.0151663674638982,0.06342580218354946,-1.4227307609233444,0.09872332036467943,2.6690112357272286,2.466050063100126
4850.399,0.2982016855551491,1.0151638618101153,0.0634260429480205,-1.422725941834177,0.0987243244742324,2.6690134736829334,2.466053322669109
4850.434,0.29820419120893144,1.015169151523657,0.06342296498181997,-1.4227253943542633,0.09872296694885851,2.6690134736829334,2.4660523010558553
4850.467,0.2982016855551485,1.015169151523657,0.06342604165292487,-1.4227227208575952,0.09872205092468589,2.669012354705069,2.4660445699346343
4850.499,0.29820410372204254,1.0151613561563324,0.06342604284243958,-1.4227252382591147,0.09872433902377424,2.6690134737008786,2.466041213002469
4850.534,0.29820419120493113,1.0151663674638982,0.06342572726817541,-1.422725146996353,0.09872398420346504,2.669013414343198,2.4660533167070833
4850.567,0.29820097692214953,1.0151716561962933,0.06343132357165504,-1.4227251470502325,0.0987233213358042,2.669012354705069,2.466053318308467
4850.6,0.29820697429662846,1.0151691515235075,0.06342618097687264,-1.4227251558268148,0.09872114526232083,2.6690134736849274,2.466044569936037
4850.634,0.2982016855551485,1.015169151523657,0.06342302212799628,-1.4227251474343585,0.09872433907786973,2.6690134736829334,2.466055556264599
4850.667,0.2982069490230236,1.015169151523657,0.063427837342802,-1.4227252264813257,0.09871921199557664,2.6690134736829334,2.466047826597947
4850.7,0.2982020652005917,1.015169151523657,0.0634285398328128,-1.4227283718309018,0.09872637358307562,2.669008997771475,2.4660438041709085
4850.734,0.298201685554704,1.0151663674638982,0.06342783828104852,-1.4227228800882479,0.09872332160891559,2.6690134736829334,2.4660508504504244
4850.767,0.2982016855551318,1.0151663674638982,0.06342783831698641,-1.422727687976785,0.0987243390778618,2.6690134736829334,2.4660445699360634
4850.8,0.29820144902012824,1.015169151523657,0.06342601663301302,-1.4227252305041556,0.09872332133647471,2.669012354705069,2.466051182059148
4850.834,0.29820168523112794,1.015169151523657,0.06342641773976777,-1.422720144628616,0.0987253169006526,2.669012354705069,2.4660500630438205
4850.867,0.29820395499793173,1.015169151523657,0.06342641770361292,-1.4227276527631842,0.09872328239544427,2.669013473682934,2.4660511820779916
4850.9,0.2982016855551485,1.015169151523657,0.06342775896308374,-1.4227276614822426,0.09872326925217041,2.6690134736829334,2.4660489425960335
4850.934,0.29820165056048187,1.0151663674638982,0.06342112499496813,-1.4227300456662393,0.09872417941143197,2.6690133559453635,2.466045688405185
4850.967,0.29820697526868994,1.0151663674638982,0.06342390915853106,-1.4227307929750543,0.09872398372068146,2.6690134736829334,2.4660434509016715
4851.0,0.29819705400132296,1.0151663674643467,0.06342920179952652,-1.4227247872189424,0.09872530897188525,2.669012354705069,2.4660451944161332
4851.034,0.2982016855551485,1.0151638618101153,0.06342254855146294,-1.4227201360281094,0.09872535584368629,2.6690101167493396,2.4660423319803337
4851.067,0.29820419120892594,1.015169151523657,0.06342852186579316,-1.42272272117941,0.09872433891560739,2.669012354705069,2.466048948482912
4851.1,0.29820395499793173,1.015169151523657,0.06342525373837753,-1.4227259018613843,0.09872332182526557,2.6690112357272042,2.4660445699360634
4851.134,0.29820694902124567,1.0151716571774398,0.06342841257383972,-1.4227226413923622,0.09872330868199201,2.669012354705069,2.466045688913928
4851.167,0.2982041912089314,1.0151716571774398,0.06342854858844356,-1.4227226452716366,0.09872332133223648,2.669012354705069,2.4660467061664546
4851.2,0.29819955933213094,1.0151663674638982,0.06342367532304086,-1.4227227217979166,0.09872433907787004,2.6690134736829334,2.466048944122261
4851.234,0.29820697429662785,1.015169151523657,0.06343133254528917,-1.4227251503799447,0.09872204422523762,2.669013591426485,2.4660423319803337
4851.268,0.2981990924147645,1.0151663674638982,0.06342593379066448,-1.4227247872193134,0.09872240483553038,2.6690134736829334,2.4660523005470867
4851.3,0.29820167680659293,1.0151691515276946,0.06342782953610798,-1.4227273019210755,0.09872103417670101,2.6690134736829334,2.4660411992664195
4851.334,0.2981991799003199,1.015169151523657,0.06342641351721241,-1.4227201360198682,0.09872332181725287,2.6690123547110507,2.4660456062433114
4851.367,0.2981995566199587,1.015169151523657,0.06342367487668818,-1.4227297984175415,0.09872534316917024,2.6690112357451494,2.4660523054164973
4851.4,0.2982016593093154,1.0151663674638982,0.06342533262726535,-1.4227272966894964,0.09872433891560736,2.669012354705069,2.4660423319803337
4851.434,0.29819917990031936,1.0151638618101153,0.06342603418289101,-1.4227276794681325,0.0987224062979212,2.6690112357272042,2.4660467061665323
4851.467,0.2982016855551485,1.0151663674638982,0.06342854860581842,-1.422727657051158,0.09872221730056781,2.669013473682934,2.466047825144397
4851.5,0.2982041912089314,1.0151716571774398,0.0634232588789059,-1.4227225198786102,0.09872240627989293,2.6690112357272042,2.4660532771003094
4851.534,0.2981991795762994,1.0151638618101153,0.06343132388453038,-1.4227325913087727,0.09871921248237199,2.6690101167493396,2.4660478265225776
4851.567,0.29820419119648595,1.015169151523657,0.06342533262280807,-1.4227253942587106,0.09872422078838052,2.669011236211721,2.4660445699360634
4851.599,0.29820097692214953,1.015169151523657,0.06342532388232713,-1.4227251469963476,0.09872228795436877,2.6690101167493396,2.4660489441222615
4851.634,0.29820394332119027,1.0151638618101153,0.06342596368959448,-1.4227236215199972,0.09872433469477551,2.6690112357272042,2.4660523010558553
4851.667,0.2982016855551483,1.0151663674638982,0.06342854568281917,-1.4227251734994162,0.09872433907786972,2.6690101167493396,2.4660434509584204
4851.7,0.2981817558528377,1.0151732179826842,0.06343273620967427,-1.4226881925809183,0.06092845874791131,2.6688818719491305,2.602279165734309
4851.734,0.298201676806593,1.015169151523657,0.06342641773956977,-1.4227251469963529,0.09872240483755836,2.669012485524591,2.46605193018251
4851.767,0.29820419120759184,1.015169151523657,0.06342325889225969,-1.4227298337386132,0.09872240629792212,2.6690112357272042,2.4660423319803337
4851.8,0.29819955965481787,1.0151663674638982,0.06342325791793639,-1.422722642433176,0.09872332181918164,2.669012354705069,2.4660463353111326
4851.834,0.29825871337310517,1.0151959302943396,0.06347469525658411,-1.4226995054684988,0.05961801220682883,2.6688698885896347,2.5881214374741646
4851.867,0.29812132784582435,1.0151671403523919,0.06339633316954796,-1.4226837148517397,0.05445999785090194,2.669036206806581,2.5906213156822187
4851.9,0.29812132784582435,1.0151671403523919,0.06339633316954796,-1.4226837148517397,0.05445999785090194,2.669036206806581,2.5906213156822187
4851.934,0.298206739057685,1.0151716571774398,0.06343054235729281,-1.4227300398888274,0.09872429964203047,2.6690134736829334,2.466048944122261
4851.967,0.2979212254802093,1.0151024499280092,0.06324652087144056,-1.4226696175753366,0.03449715820863375,2.669135288700783,2.614054015113865
4852.001,0.2983599722705792,1.015224721148468,0.06354725827039864,-1.4227436365773443,0.04630289473232185,2.6689009840057416,2.5806185473040166
4852.034,0.29802337583290583,1.0151283253999006,0.06330565504343255,-1.42263254438007,0.03140204146199821,2.6690028221407545,2.6221727680165525
4852.067,0.2981239135834848,1.0151597297277135,0.06340794441889042,-1.4227092701471946,0.03105849188277965,2.669097497632798,2.6071047943002075
4852.1,0.29794277359280485,1.0151348830169296,0.06331175551473223,-1.4226168298947792,0.018724163707311448,2.6688637029196336,2.609107108869587
4852.134,0.29792784965303554,1.01512653365711,0.06330598950295752,-1.4226149539147226,0.01006010937144275,2.668879791710747,2.609344803858951
4852.166,0.2979494741607862,1.0151169200645107,0.06327863911277909,-1.4226573954442774,0.0010154584083590379,2.669097672859694,2.6115913640257116
4852.2,0.2978899544140381,1.015114519634059,0.06328654495626473,-1.4225797720056335,-0.00983500593633213,2.668817528310436,2.6204909637029754
4852.234,0.29788897999739383,1.0151082838486873,0.06327990755718549,-1.4225769445137022,-0.019755179686656632,2.6688408778004558,2.6301312058041457
4852.267,0.29787566641651875,1.0151038492641256,0.06327838874122271,-1.4225553923334306,-0.030136457650154824,2.6687868742264005,2.642933397550964
4852.3,0.29786761693220676,1.0150997848593732,0.06327744033386562,-1.4225379744469944,-0.04052335917340155,2.668751786112452,2.658442422941402
4852.333,0.2978591619247162,1.015092339647854,0.06327424538331705,-1.4225214538873399,-0.05111939312952707,2.668708878679192,2.676836945171594
4852.366,0.29785077826131,1.01508708566152,0.06327372921308427,-1.4225036715878305,-0.06180813329966739,2.668666876410894,2.697969523007682
4852.4,0.2978925944156101,1.015083950483426,0.06325742965696435,-1.4225558365117053,-0.07151103800495306,2.668931623910929,2.7191180916416986
4852.434,0.2982016855550004,1.015169151523657,0.06342920147474891,-1.422732942365018,0.098722162514925,2.669013473683007,2.4660467061603253
4852.467,0.29837624765030224,1.0151511759437168,0.06348539703839773,-1.422891036558731,-0.07455398123358936,2.6688857718255274,2.739999237214466
4852.5,0.2989885153733969,1.015476706781432,0.06389687634614294,-1.4227714275971124,-0.04295177998478916,2.668931213954341,2.703874616939581
4852.533,0.2984749518793146,1.0152375100119873,0.06362084624952136,-1.422794781808169,-0.05201934463897118,2.668995745239773,2.7302562978049565
4852.566,0.2982016845826423,1.015169151523657,0.06342530601911113,-1.4227251735964666,0.09872224261642044,2.6690134736829334,2.4660445699360634
4852.601,0.2981991799003199,1.0151663674638982,0.06342533266329703,-1.4227251558643503,0.09871921053255023,2.6690134736829334,2.4660523010565196
4852.634,0.29819917988698574,1.0151663674638485,0.06342533266333553,-1.4227201445204454,0.09872332182524114,2.6690101167493396,2.4660456889139275
4852.666,0.2982016039019628,1.0151663674638982,0.06342532388232527,-1.4227226413439105,0.0987243376094933,2.669011235727207,2.466046706166532
4852.699,0.2982041912089314,1.0151716571774398,0.06342846921572849,-1.4227226414650562,0.09872296549449353,2.6690112357272042,2.466051181569248
4852.734,0.2982009768861472,1.0151663674638982,0.06342051603033576,-1.422724787158228,0.09872327447201891,2.669012354705069,2.466041961106989
4852.766,0.2982034824665921,1.015169151523657,0.06342854524978295,-1.4227208509566318,0.09872398420947477,2.6690134736829334,2.466044569936063
4852.8,0.2982041912089314,1.0151663674638982,0.0634260389464448,-1.4227273015940267,0.09872535487011044,2.669012354705069,2.46604895048009
4852.834,0.29819917990031936,1.015169151523657,0.06342315332750051,-1.4227251469976934,0.09872320353572595,2.6690112357272042,2.4660511820779902
4852.866,0.2982016589734585,1.015169151523657,0.06342603320869927,-1.422723356707318,0.09872332182526312,2.6690134736829334,2.4660555562638784
4852.9,0.2982016855551485,1.015169151523657,0.06343130311080654,-1.422730037175133,0.09872327398589904,2.6690101167493396,2.466046823904102
4852.934,0.2982016826376299,1.0151663674638982,0.06342596305658936,-1.4227226413789034,0.0987243390237825,2.669010116910845,2.466043450964254
4852.967,0.2982069720244842,1.0151716571774398,0.0634306136078976,-1.4227226769908845,0.09872331744417183,2.6690123548665743,2.46604457042058
4852.999,0.2980921164677044,1.0151292557545615,0.06333157505694587,-1.422706510943879,0.06169079599943128,2.669127170573981,2.3907060766200683
4853.034,0.2980830568463668,1.0151390342639672,0.06335357891275173,-1.4226923180885667,0.058308039075544826,2.669114590802238,2.396293505204392
4853.066,0.29792670402609467,1.0151080025511678,0.06325691793577537,-1.4226751961385222,0.04716750504678746,2.6691494439884362,2.401506641139303
4853.1,0.297805906482429,1.0150828634659028,0.0632057785038187,-1.4226142400959496,0.035365167419790566,2.6689718315827022,2.411112150130073
4853.133,0.297803185146325,1.0150740945090835,0.0631703461454256,-1.4226459214341238,0.023972010919075082,2.669164802611391,2.4208504491280287
4853.166,0.2977832541341341,1.01506086804641,0.0631492632928623,-1.422639694964957,0.012146249260133857,2.6691946960235846,2.4353042325773924
4853.199,0.2977751670379698,1.015048948698226,0.06313350307732613,-1.4226370583889096,0.00012398338755570393,2.6692369010330843,2.452951676390178
4853.234,0.2977730790043065,1.0150378062308603,0.06312075556234653,-1.4226347326856006,-0.012125036824122581,2.6692802624935315,2.4737828723531674
4853.266,0.29820168512178763,1.0151663674638982,0.06342604283158258,-1.4227201386340154,0.09872138904531785,2.669012354705069,2.466047825146159
4853.299,0.29820168555114823,1.015166129045319,0.06342641773960093,-1.4227247871097766,0.09872332180723638,2.6690134736829334,2.4660533045724007
4853.334,0.298204191064922,1.015169151523657,0.06342596392280606,-1.4227276526501305,0.09872225722008277,2.6690112357272042,2.4660533183084588
4853.367,0.2982016855551485,1.0151663674638816,0.06342601664489692,-1.4227227208158784,0.09872332182526587,2.669013414343198,2.4660533182833357
4853.399,0.29820097659812345,1.015169151523657,0.06342325856749899,-1.4227248136370692,0.09872433907764745,2.669012354705069,2.466052287300963
4853.434,0.2981991799003199,1.0151663674638982,0.06342604283026072,-1.4227233566104147,0.09872190233365927,2.6690134736829334,2.466051182077982
4853.467,0.29820168523112794,1.0151663674638982,0.06342524205039234,-1.4227201356892303,0.09872326923414122,2.669012354699087,2.466050063098253
4853.501,0.29820144934414883,1.015169151523657,0.06343130588530764,-1.422722641346602,0.09872134169273626,2.669012354705069,2.4660523010558553
4853.533,0.29820411236392463,1.015169151523657,0.06343132876690703,-1.422720144523593,0.09872213893061801,2.6690134736829334,2.466043446379515
4853.567,0.2978625914304862,1.0150713041420891,0.06323139673325695,-1.422695271690328,0.05939649708416184,2.669131059562165,2.548466608729015
4853.599,0.29786211364290605,1.0150805992374696,0.06323441059347079,-1.422701330395948,0.0601889361736081,2.6691331864402184,2.557209960449205
4853.634,0.29820418829274625,1.0151663674638982,0.06342596110802257,-1.4227298072477124,0.09872332182459813,2.6690134736829334,2.466051182059148
4853.667,0.2982016855191462,1.0151663674638982,0.06342595526191877,-1.4227226455982367,0.09872332182504054,2.6690112357272042,2.4660434509581983
4853.7,0.29819955864808745,1.0151663674638982,0.06342533158026488,-1.4227201445196145,0.09872177967912912,2.6690134736829343,2.466047825144397
4853.734,0.29820206498591384,1.0151716571774398,0.06342846968485304,-1.4227276791531964,0.09872011048532678,2.6690134736829334,2.466046706166532
4853.767,0.2982009759500384,1.015169151523657,0.06342852132255017,-1.4227251503760012,0.098723308681992,2.6690123547057336,2.4660489439526803
4853.799,0.29820419120848696,1.0151716571774398,0.0634313326655589,-1.422725385418964,0.09872332182452392,2.669012354705069,2.466043450958231
4853.833,0.29827729398314506,1.015184334477687,0.0634523558279394,-1.4227497721073918,0.06065576653437521,2.669134538165057,2.557517479555365
4853.867,0.29820168555465465,1.015169151523657,0.06342760014640864,-1.4227247880909228,0.09872332177117792,2.6690134736829334,2.466042331980334
4853.899,0.2981759058805915,1.0151340390953374,0.06340091789077018,-1.422731132807609,0.05711134418425878,2.6689508906942123,2.5666562067838843
4853.934,0.2982230519734781,1.0151598138747842,0.06344756817523134,-1.4227524823067217,0.05878709134111482,2.6691147235761488,2.5572901874227547
4853.967,0.29799870269352624,1.0151047940651097,0.0633129642811543,-1.4227166944708625,0.04858436965641033,2.669117977517317,2.5635896023688787
4854.0,0.2979006845454606,1.015074428636117,0.06324932234513447,-1.4227085642692634,0.03862253766487189,2.6691630181437223,2.572080143689524
4854.034,0.29785368494124587,1.0150541166313891,0.06321570315076563,-1.4227065793039335,0.028238938089368837,2.6692004399066445,2.5834292604119735
4854.067,0.29783194512261435,1.015038646032214,0.06319683545896115,-1.4227085610519943,0.017627299060600343,2.6692396839174517,2.597445215734968
4854.1,0.29782178415231186,1.015025904957641,0.06318534618380145,-1.422711833423632,0.006830670648620973,2.669279664707897,2.61407363989497
4854.134,0.29781605520438514,1.015013164493893,0.06317599232672588,-1.4227162400439761,-0.004217705976105712,2.669321005752842,2.6333600223683096
4854.167,0.2977750547228899,1.0150183065724532,0.0631761150414265,-1.4226430387657825,-0.01574865346150567,2.6690902333417252,2.656360969459241
4854.2,0.29781219394383385,1.0149905072428256,0.06316553832533245,-1.4227125700191934,-0.02676619168966088,2.6693471880705246,2.679496840625699
4854.234,0.2977617310999836,1.0150075401486847,0.06317489503107598,-1.4226233191815814,-0.03864872836124977,2.6690817914309655,2.7073679733856864
4854.267,0.29781069550561323,1.014989691876825,0.06315258887998443,-1.4226883692744776,-0.04993610625563605,2.669363543339541,2.735506178532198
4854.3,0.29781002924995637,1.0149828149369649,0.06314642640118961,-1.4226841849471734,-0.061670253659912966,2.669389159700227,2.767029271796872
4854.334,0.29781362378487675,1.014974543531073,0.06313717142387087,-1.4226886776589884,-0.0735306317122637,2.669443429000367,2.8008636396646853
4854.368,0.29782008765922274,1.0149681573647795,0.0631312107764721,-1.4226943735182118,-0.08542810684515434,2.6694964990723715,2.8358980137369603
4854.4,0.2978264256450318,1.0149617512437938,0.06312431151087416,-1.4227004196984874,-0.09746519442821722,2.6695508521097473,2.872354641175166
4854.434,0.29786854305802635,1.0149634701558021,0.06319118203894458,-1.4227490607054687,-0.10674535647502914,2.6694711311850945,2.897502270007241
4854.467,0.2980450433742128,1.0150457911892463,0.06329904005563591,-1.4227744415263874,-0.10947169344841967,2.669471276177344,2.8973001948378787
4854.5,0.2981385085004309,1.0150811744985386,0.06335403374317483,-1.4227983790208913,-0.11186628941865884,2.669469843104311,2.897300113957087
4854.535,0.2982008575177595,1.0150951301438011,0.06338343213074982,-1.4228167851451232,-0.11361347639586139,2.6694652403545565,2.897300083636166
4854.567,0.2982417636844188,1.015107952431821,0.06340629475354209,-1.4228269755118301,-0.11494719966728795,2.669464403289121,2.8973000844269876
4854.6,0.2982700330979613,1.015115561200373,0.06342188815392102,-1.4228342214278786,-0.11597914243017016,2.669463610779859,2.8973000849531676
4854.634,0.2982945560075434,1.0151353496749573,0.06342852111947028,-1.42282474369462,-0.1167539680610048,2.6694639973065026,2.8973001075081015
4854.667,0.29831138994799833,1.0151408608440589,0.06343553205381802,-1.4228240727571269,-0.11733665434269192,2.669463825429675,2.8973001081843677
4854.7,0.2983194798000284,1.0151309009398473,0.06344425763792039,-1.422836519632627,-0.11775577813731797,2.66946270487321,2.8973000855742743
4854.734,0.2983385464835324,1.0151320682535685,0.06344505575241133,-1.4228409025454969,-0.11810474803603022,2.669466208958452,2.897300086897271
4854.767,0.29820419120759795,1.015169151523657,0.06342601274637899,-1.4227201356892303,0.09872240629725436,2.6690134736829334,2.46605114070026
4854.8,0.29820097681413715,1.0151663674638982,0.0634310955765679,-1.4227203770508006,0.09872433859108212,2.669012354705069,2.4660478256289133
4854.834,0.29820697526869017,1.0151663674638982,0.06342291690004294,-1.4227226532253379,0.09872433907586678,2.6690134736829334,2.4660467061665323
4854.866,0.2982069752686408,1.0151691485802177,0.0634285486018089,-1.4227251558266651,0.09872332182524114,2.669012354705069,2.4660456889318727
4854.9,0.298206948699003,1.0151638618101153,0.06342604001565506,-1.422725146997743,0.09872394470686961,2.6690134736829334,2.46604895048009
4854.934,0.2982073550234761,1.0151716571774398,0.06342783830508901,-1.4227252265073405,0.09872326116648258,2.6690112357272042,2.4660445699360714
4854.966,0.2982016855551461,1.0151663674638982,0.06342367239830411,-1.4227278910687116,0.09872637358107512,2.6690112357272042,2.4660449231469093
4855.0,0.2982041912084869,1.0151741628312227,0.06342603283579724,-1.4227276526514763,0.09872225721718923,2.669012354705069,2.4660489441222615
4855.035,0.2981991799003199,1.0151663674638982,0.0634285486058185,-1.4227226413425667,0.09872433900575239,2.6690112357272042,2.466046706165834
4855.067,0.2982016064941262,1.015166129045319,0.06342854860180706,-1.4227252529615118,0.09872422078840526,2.6690112357272042,2.4660489440657813
4855.1,0.29820697526869017,1.0151638618101153,0.06342595223081676,-1.4227304367098892,0.09872332182526578,2.6690112357272042,2.4660445699360634
4855.134,0.29819705400131746,1.015169151523657,0.06342570092109134,-1.4227201631622273,0.09872012362261565,2.669012354705069,2.4660500631001256
4855.167,0.2982041911967331,1.015169151511544,0.06342854856837898,-1.4227276526622488,0.09872429026492738,2.6690101167493396,2.466048178350826
4855.2,0.29820697494466963,1.015169151523657,0.06342846954000753,-1.42272765265028,0.09872332166300231,2.6690112357272042,2.466045593546496
4855.234,0.2982041912089314,1.0151663674638982,0.06342390319669527,-1.422727655633946,0.09872332182504329,2.669016652597321,2.466052301055852
4855.266,0.2982069752686408,1.0151663674638982,0.06342325878000793,-1.4227276526502965,0.09872433907787001,2.669012354705069,2.4660445699359768
4855.3,0.29820168458308677,1.0151716571774398,0.06342822317858,-1.422722642323711,0.09872008060238247,2.6690112357272042,2.466042331979636
4855.334,0.2982016855551479,1.015169151523657,0.06342783817227779,-1.4227173781200277,0.0987233216621129,2.6690134736829334,2.466044569942045
4855.367,0.2982041912089314,1.0151715777045782,0.06342843456862475,-1.4227226413425647,0.09872138904264696,2.6690134736829334,2.466048820497813
4855.4,0.298196392924376,1.0151716571774398,0.06342604262724064,-1.4227251469963476,0.09872332181925612,2.669012354705069,2.4660511820779987
4855.433,0.29820168555499976,1.0151663674638982,0.06342854860179178,-1.4227201621801835,0.09872432009314112,2.6690112357272042,2.466050063100126
4855.467,0.2982094021854732,1.0151663674638982,0.0634306223648649,-1.4227226413425647,0.09872330860386552,2.6690134736829334,2.4660500233455265
4855.5,0.2982067390576905,1.015169151523657,0.06342532833293409,-1.422722641354683,0.09872332182524114,2.6690134736829334,2.466051182083972
4855.533,0.2982041912083388,1.015169151523657,0.06342854849755725,-1.422722290286461,0.09872535627616408,2.6690112357272042,2.466047825144397
4855.567,0.2982016855551485,1.0151638618101153,0.06342783799102074,-1.4227251469963476,0.09872330862790445,2.6690101167493396,2.4660434509581983
4855.6,0.29820206530993437,1.0151663674638982,0.06342604295069722,-1.422725147000385,0.09872240629792171,2.6690134736829334,2.4660445699360634
4855.633,0.2981991799001718,1.015169151523657,0.06342640897076618,-1.422722641346602,0.09872433905917308,2.669012354705069,2.4660423319803337
4855.667,0.2982016855551485,1.0151638618101153,0.06342391111150346,-1.4227251471417024,0.09872422126993195,2.6690134736829334,2.466044569936063
4855.7,0.29820165927347897,1.0151663674638982,0.06342641741499014,-1.422727652650131,0.09872433891559637,2.6690134736829334,2.466045688913928
4855.734,0.2982041912088814,1.015169151523657,0.06342388566920285,-1.4227251469963476,0.09872432592858645,2.669012354705069,2.4660467061665323
4855.767,0.2982041912089314,1.0151663674638982,0.06342593479925161,-1.4227250675234884,0.0987238659197883,2.669011240088446,2.4660434509581988
4855.8,0.2982041912089314,1.0151663674638982,0.063428466761847,-1.4227278910687093,0.0987243389156074,2.6690123677870212,2.466042685193044
4855.834,0.2982009769207941,1.015169151523657,0.0634260419777026,-1.4227226413425647,0.09872332166300322,2.669011235727212,2.4660478251259863
4855.867,0.29820419120892583,1.0151716571774398,0.06343130343514417,-1.4227227208154243,0.09872535584168304,2.6690123547110507,2.466051182131826
4855.9,0.29819705400132296,1.015169151523657,0.06342783831713485,-1.4227226413425647,0.09872332166300232,2.6690134780435844,2.4660533246667016
4855.934,0.2982041649614869,1.015169151523657,0.06342325885599243,-1.422725147000385,0.09872216250891526,2.6690145927148547,2.4660445699360545
4855.967,0.2982094721739176,1.0151638618101153,0.0634285447084869,-1.4227251469976934,0.09872240629792202,2.669012354705069,2.4660500674607766
4855.999,0.29819461171730133,1.0151832396974347,0.0634225322480706,-1.422680212608979,0.06095143260974911,2.668884515039645,2.5937625479087423
4856.034,0.2982016855191462,1.0151663674638982,0.06342783734131699,-1.4227226413425647,0.09872398420947556,2.6690134736829334,2.466042345062286
4856.067,0.298204191204781,1.015167005756445,0.06342854859377313,-1.422722641354678,0.09872028354987533,2.6690134736829334,2.466048928859984
4856.099,0.29820168555470405,1.0151715777045802,0.06342852229734457,-1.4227226413425647,0.09872012795562626,2.669012354705069,2.4660434509761435
4856.134,0.2982016855551467,1.015169151523657,0.063426042952028,-1.4227226414515808,0.09872079039325597,2.669013414343198,2.466044569936088
4856.167,0.29820395499793173,1.015169151196608,0.06342604293864826,-1.4227251469963476,0.09871921102200548,2.669011413261893,2.466048944122036
4856.2,0.29820395499793173,1.015169151196608,0.06342604293864826,-1.4227251469963476,0.09871921102200548,2.669011413261893,2.466048944122036
4856.234,0.2982041912089314,1.015169151523657,0.06342854534601315,-1.4227226413425647,0.0987253563304739,2.6690112357272042,2.466052301055829
4856.267,0.29821249115562853,1.0151816123423085,0.06342799471131944,-1.4226769204692644,0.06103833498032696,2.6688832686926425,2.5899862818722923
4856.3,0.29819349400807926,1.0151774058745344,0.06341836210036167,-1.422674034080881,0.06112036216804384,2.6688835181304214,2.5915463234349563
4856.334,0.29797189766631416,1.015151064601838,0.0633205314700227,-1.4225907463622365,0.053086914140384245,2.668796912490089,2.601959735405025
4856.368,0.29788798720509213,1.0150953465223171,0.06324826564785635,-1.4226505313910378,0.04383009976987573,2.6690471307349135,2.6146339786642656
4856.4,0.2978519474321901,1.0150911347500609,0.06323211418028674,-1.422626035254119,0.03439605263745449,2.669012069440699,2.630713643022286
4856.434,0.29784293217385915,1.0150824595678003,0.06322235188620606,-1.4226338390955036,0.024777736873329737,2.669067699320456,2.649094096277471
4856.467,0.29784009587296456,1.0150764043622162,0.06321957528062594,-1.4226347529041172,0.015030959432050572,2.6690967782969235,2.6696933475369704
4856.499,0.2978444208558093,1.0150614737082417,0.06320857257644086,-1.4226500467705563,0.005237472926300946,2.6691392249779913,2.692407084011508
4856.534,0.2978453991926715,1.015054949182793,0.06320677485939363,-1.42265357115284,-0.004708828528135811,2.669176436507321,2.7172841180914524
4856.567,0.2978484072246568,1.0150462715403519,0.06320237330961831,-1.4226618686879693,-0.014752359375671098,2.669216715920385,2.744233887042853
4856.6,0.29782053788346463,1.015065327641099,0.06319609528156978,-1.42257682979219,-0.025842889960703275,2.668961410115184,2.775948093291481
4856.634,0.29785180096946107,1.0150313672498612,0.06319687880611635,-1.4226702688440467,-0.03512612099042656,2.669275479998742,2.8039917889867034
4856.667,0.2978479896903661,1.0150291217648366,0.06319126594622038,-1.4226546527755142,-0.045676136166254544,2.6692472989437093,2.8365776428595773
4856.7,0.2978557431495208,1.0150190558162366,0.0631903401588172,-1.4226722394316056,-0.055918680777134355,2.66930781318945,2.8692495224660277
4856.734,0.2978724490375493,1.015034171346378,0.0632223622160275,-1.4226839818792385,-0.06537032713987667,2.6692518312823044,2.89804172764015
4856.767,0.2980614868864704,1.0151052392589728,0.06332607702912885,-1.42271115724283,-0.06666678804939341,2.6692390023485046,2.897300467193663
4856.8,0.29813367277870206,1.0151276948009302,0.06336256215124436,-1.422730814787191,-0.06894990606676377,2.6692398787132756,2.8973000941554368
4856.833,0.29816645416966026,1.0151373538815172,0.06339666263279042,-1.4227403564001762,-0.07041928197668312,2.6692413189045183,2.8973001030187646
4856.867,0.29819318474918344,1.0151456081179644,0.0634097859792968,-1.4227448141111525,-0.07163238739643774,2.6692421755816724,2.8973001038902293
4856.9,0.2982166030068987,1.015143807568248,0.06341637418495427,-1.4227564689228531,-0.07248808206401147,2.6692381540209844,2.8973000752468323
4856.933,0.2982224852843185,1.0151548906061354,0.06342983618523235,-1.4227503127124432,-0.07323288864921196,2.6692429363909618,2.8973001039229818
4856.967,0.29823335403743734,1.015156790162087,0.0634361197085056,-1.4227532264918503,-0.07373418438332813,2.6692428666064103,2.897300104478928
4857.0,0.29825094266568186,1.0151655608159933,0.06343122069359186,-1.4227471070218538,-0.07410031309893483,2.6692403738038593,2.8973000958057966
4857.034,0.2982016855538151,1.015169151523657,0.06342604295196777,-1.4227276526514763,0.09872332036489387,2.6690134736829334,2.4660481783571067
4857.067,0.2982041649632648,1.015169151523657,0.06342601653538477,-1.422722720851763,0.09872214491243339,2.669012476809271,2.466051182059148
4857.1,0.2982016855551485,1.0151663674638982,0.06342317087753643,-1.4227276526864692,0.09872332128416772,2.6690112357272042,2.4660456889139275
4857.134,0.29819948091915144,1.015169151523657,0.06342577955336373,-1.4227201356887822,0.09872127075585305,2.6690134274251505,2.4660456889139017
4857.167,0.29820419120892594,1.0151663674638982,0.06342846080759834,-1.422725146996497,0.09872332166300324,2.669014592678743,2.4660445699360602
4857.2,0.2981722973199883,1.0151366239034632,0.06342904713614761,-1.422707915148842,0.05250953178205631,2.6690986862910524,2.535337637573763
4857.234,0.29751541803501613,1.014959250403403,0.0630052371450649,-1.4225188241397149,0.04810278853175998,2.6691174037530736,2.532815692725835
4857.267,0.297073363680016,1.014806757569982,0.06273805392164444,-1.4224655857866004,0.03730939260220367,2.6691894783656807,2.5554591105513715
4857.3,0.2968648262258329,1.0147469579927844,0.06261402181601472,-1.4224323827633176,0.026734995639848158,2.6692411426640454,2.5772940046537833
4857.334,0.2982041124701536,1.0151663674638982,0.06342595522598826,-1.4227276526501302,0.09872332031051778,2.669012354705069,2.4660544372867457
4857.367,0.2982016593094819,1.0151663674638964,0.0634285485937897,-1.4227251558266651,0.09872429959373831,2.6690123548665743,2.466050063100126
4857.4,0.2982016855551485,1.0151716571774398,0.06342601663168138,-1.4227251469963476,0.09872398419144365,2.6690123547050932,2.4660500044064126
4857.434,0.29820168544709225,1.015169151523657,0.06342325888821766,-1.422722641342714,0.09872398415531353,2.669012354705069,2.466050063100126
4857.467,0.2982016845826423,1.0151663674638982,0.06342888611566534,-1.4227251479774938,0.09872535584368629,2.669012354705069,2.4660434509581988
4857.5,0.2982069752686896,1.0151663674638982,0.0634310949224922,-1.4227276526501305,0.09872433907719955,2.6690134148283797,2.4660401957498657
4857.534,0.2981256318729333,1.0151681056829132,0.06337995583490841,-1.4226579654372493,0.05894185186917866,2.668906854692551,2.4662736206781997
4857.568,0.2979826571351083,1.0151529170131717,0.06332526492625679,-1.4225930310789066,0.05470256879720292,2.6688290620147335,2.4638863918254152
4857.6,0.2977659672006636,1.0151009670518638,0.06318779828023491,-1.4225429464844597,0.0428819621318306,2.6688049907987654,2.4718126187578235
4857.634,0.29764804171869486,1.0150729851833074,0.06311521789023011,-1.4225034199292175,0.030937728974848255,2.668769642820809,2.4826415454083683
4857.667,0.2976150626447156,1.015029797872856,0.06307957690054788,-1.4225544486680652,0.01984543017233964,2.668959253703136,2.494108289331189
4857.7,0.29755398218063167,1.0150376596757926,0.06304911619198883,-1.422469260076805,0.006716988163571358,2.668765867836168,2.5129625050492734
4857.734,0.29752561088711094,1.0150315388801205,0.0630347938437481,-1.4224432277389063,-0.005891366396588715,2.6687267488626567,2.532746086008842
4857.767,0.2975399286155733,1.0149983548392845,0.06302720382118654,-1.422501753411038,-0.017567518460831266,2.668933418571033,2.5527807606930004
4857.8,0.2981963958405611,1.0151741628312227,0.06342596067502972,-1.4227251469963473,0.09872330720359902,2.6690134736829334,2.466046706166532
4857.834,0.2982016854338075,1.0151663664827517,0.06342596403062525,-1.4227251469963473,0.0987243390772023,2.669012354705069,2.466052205688423
4857.867,0.2982041912089314,1.015169151523657,0.06342854763148369,-1.4227226413425644,0.09872332182526587,2.6690112357272286,2.466042331980334
4857.9,0.2981991799003197,1.0151663674638982,0.06342391208598468,-1.4227251469963473,0.09872228778406944,2.669013473683007,2.466051182077759
4857.934,0.2982016855551485,1.0151691426933391,0.06342358665864802,-1.4227276526501305,0.098721145260095,2.6690134736829334,2.4660500645536763
4857.967,0.29856055652165114,1.015235614459983,0.06364326708842327,-1.4227776040981785,0.04801539850685366,2.669070182730877,2.5643279050764427
4858.0,0.2982299189328943,1.0151864969457005,0.06346609062553465,-1.42264991567132,0.05245478752494481,2.6688372416998334,2.570897549419321
4858.034,0.2978279117564071,1.0151084722196666,0.06325187264480814,-1.4225618733965195,0.04687526855714541,2.6688350094729714,2.5869204183002132
4858.067,0.29820688778313476,1.0151716571774398,0.0634310945915263,-1.4227251471053637,0.09872215797157106,2.6690104699620494,2.4660489620358144
4858.1,0.2982041912089314,1.0151663674638982,0.06342831184292397,-1.4227251469976934,0.09872433907787004,2.6690134736829334,2.4660423319803337
4858.134,0.298206975255356,1.0151663674638982,0.06342072693148915,-1.4227226148516132,0.09872332036490207,2.6690101167493396,2.466050061573898
4858.167,0.29819885069913193,1.0151638618101153,0.06342783441975382,-1.4227226413546774,0.09872433907719953,2.6690123547050715,2.4660533183084588
4858.2,0.298201676806593,1.015169151523657,0.06343130603381116,-1.422730436711235,0.09872320353579804,2.669012354705069,2.4660500585207448
4858.234,0.2982041912089314,1.0151663674638982,0.06342618096439893,-1.4227226413425647,0.09872114526232083,2.669012354705069,2.466053318138878
4858.267,0.29819894368931477,1.0151663674625524,0.06342325889049417,-1.422725146996497,0.09872394331929032,2.6690134736829334,2.466044569936063
4858.3,0.29820418828074546,1.015169151523657,0.06342601664455164,-1.4227226413425647,0.09872332182526587,2.669014592715298,2.466044569936037
4858.334,0.29820168551914616,1.015165652208161,0.06342604197770264,-1.4227251469963476,0.09872429123828062,2.669012354705069,2.466048944122261
4858.367,0.29810977216211754,1.0151522914611162,0.0633915271775427,-1.4226683992050617,0.06061857354145417,2.6688822544428774,2.5886161440360755
4858.4,0.2980434590959531,1.0151469925923342,0.06337273792286702,-1.4226363965323152,0.05884954473886328,2.6688325837406346,2.5930324820403126
4858.434,0.29785321677666143,1.0150796166547016,0.06323759900628101,-1.4226562518477506,0.04819407431488276,2.6690452220947236,2.607030697334439
4858.467,0.29775771477370316,1.0150535112976282,0.06317982888074436,-1.422640920583376,0.03758516187193628,2.6690577819148302,2.624164898628262
4858.5,0.29767628960772363,1.0150533931101862,0.06315390216980266,-1.4225656017412707,0.02639229171309765,2.668840473810258,2.64487660730728
4858.534,0.29765030885903787,1.0150423532702444,0.0631398118858515,-1.4225528508181178,0.01528070949858229,2.668823727273452,2.6665954745585054
4858.567,0.29763243886760016,1.0150367011249957,0.06313415362908437,-1.4225319141928265,0.0040396723473534735,2.668775757640592,2.690485005561955
4858.6,0.2976198661006073,1.0150286721375057,0.06312881105955004,-1.4225149261556371,-0.007338885817362417,2.6687287316415187,2.7165260463115075
4858.634,0.2976503005110249,1.0150037887824581,0.06311859707256318,-1.4225779056269872,-0.018452746973125045,2.668971112747343,2.7435977543846803
4858.667,0.2976426887181791,1.015001143095259,0.0631156348540518,-1.4225766475475243,-0.029960289369641124,2.668995499565691,2.7737349211861613
4858.7,0.29761335419695456,1.0149961974855355,0.06310726202331995,-1.42250710102517,-0.04265914904186818,2.6687376070173503,2.808798693327521
4858.734,0.29760445747093467,1.014988048312853,0.06310275315228786,-1.4224931416220752,-0.054716052997238585,2.6686992324988026,2.8432738923692504
4858.767,0.2975837061598119,1.0149893631450952,0.06310869753578352,-1.4224674687512708,-0.06690241117792439,2.6686405749278883,2.8796639985068193
4858.8,0.29770817627267476,1.0150111996536753,0.06317409289942333,-1.4225556813960454,-0.07413140123177353,2.6687894020377243,2.897366393086676
4858.834,0.2978626636228663,1.0150629094114487,0.06327244130130705,-1.4225896986039608,-0.07686699123153584,2.668768134337453,2.897300100652428
4858.867,0.297947154368849,1.0150999790772115,0.06332785891471904,-1.422605364120173,-0.0790292516717992,2.6687716244375643,2.8973001053575995
4858.9,0.29800391496167133,1.0151205167295192,0.06336345034512103,-1.4226189475034978,-0.08069687032707851,2.6687716309886316,2.8973001069605964
4858.934,0.2980497172613328,1.0151383361692634,0.06337572930432156,-1.4226151392824873,-0.0820368696238285,2.6687689827183743,2.8973000962037965
4858.967,0.2980778204651804,1.0151480422703303,0.06338968697899272,-1.4226171304208535,-0.08302217110271481,2.6687688028783683,2.897300097098796
4859.0,0.2981004933245579,1.0151553664953852,0.06339821745216412,-1.4226191972636002,-0.08375349294331347,2.668767907675919,2.8973000988279924
4859.034,0.2982041911729291,1.0151663674638964,0.06342854856838999,-1.4227259682158977,0.0987233173894193,2.6690112357272042,2.466053318307761
4859.067,0.298206975268542,1.0151716571774398,0.06342293442338297,-1.422727652650125,0.09872205136741626,2.6690134736829334,2.4660456889139275
4859.1,0.29819917017965325,1.0151642216966863,0.0634260429520295,-1.4227276526501302,0.09872429818768468,2.669015533619465,2.4660467061665567
4859.134,0.2982041912089314,1.0151716571774398,0.06342604262258643,-1.4227251469963473,0.09872433905914837,2.6690134736829334,2.4660533183084588
4859.167,0.2982041911729291,1.0151734475754854,0.06343133266018143,-1.4227276526501305,0.09872433907787004,2.6690157116386626,2.4660445699360545
4859.2,0.2982094809224712,1.0151716571774398,0.06342849151084297,-1.4227226413425647,0.09872429948576104,2.6690134736829334,2.4660423319803337
4859.234,0.29819917986431765,1.015169151523657,0.0634282546022661,-1.4227251469963476,0.09872331742414216,2.669012354705069,2.4660434509581983
4859.267,0.2982016855511482,1.0151663674638982,0.0634264174148343,-1.4227251469963476,0.0987190632362603,2.669014592660798,2.4660423319803337
4859.3,0.29820697429662846,1.0151663674638982,0.06342604251899686,-1.422729798417791,0.09872011048535151,2.6690134780435844,2.4660467056577895
4859.334,0.2982041912089314,1.0151741628312227,0.06342630374236734,-1.4227304367098892,0.09872433469677874,2.6690112357272042,2.466048944122184
4859.367,0.29820697418847164,1.015169151523657,0.06342596305613835,-1.4227251469963476,0.09872332180723668,2.6690112357272042,2.4660478442178833
4859.4,0.2982016855551485,1.0151716571774398,0.0634285398234568,-1.4227226413425647,0.09872433907178602,2.6690134737008786,2.4660533183084588
4859.434,0.29820419119648617,1.0151663674275595,0.06342618097687264,-1.4227251469963476,0.09872240478347077,2.6690112357272042,2.4660456873877084
4859.467,0.29820697526854023,1.015171657177438,0.06342854568103042,-1.4227251469963476,0.09872530751753154,2.6690134751364836,2.4660511227382553
4859.5,0.29819847126732096,1.015169151523657,0.06342530343187994,-1.4227276526501305,0.09872332182526578,2.669012354705069,2.4660500631001256
4859.534,0.29820689652769006,1.015169151523657,0.06342595525626468,-1.4227272927635595,0.09872535173295578,2.6690134736829334,2.46605224171612
4859.567,0.29820697526849266,1.0151663674638982,0.06342603418170298,-1.4227201386322204,0.09872433907787004,2.6690134736829334,2.4660533183084588
4859.6,0.2982016068181486,1.0151689131050778,0.06342782942735581,-1.4227226325122468,0.09872332177117008,2.669012354758904,2.4660521644802738
4859.634,0.29820419120493113,1.0151716306864866,0.06342852229838265,-1.4227201356887815,0.09872332036490211,2.669013414345192,2.4660511820779902
4859.666,0.29820419108892376,1.015169151523657,0.06342533219244043,-1.4227304368189102,0.09872006751386359,2.6690134736829334,2.466046706220392
4859.7,0.2981963958405611,1.0151663674638982,0.06342854856953226,-1.4227226413425647,0.09872433761728369,2.669012315459212,2.4660467061662996
4859.734,0.2982041911969306,1.0151663674638982,0.06342782953610188,-1.4227251469963476,0.09872422030161733,2.6690112488091566,2.4660456889139244
4859.767,0.2982041912089314,1.0151716571774398,0.06342831086435961,-1.4227226413426144,0.09872535194916034,2.6690124724426387,2.466050022053482
4859.8,0.2982016068181486,1.0151663674638982,0.06342830751235752,-1.4227201356887818,0.0987233218072367,2.6690131204702237,2.4660500631001256
4859.834,0.29820419120891495,1.015169151523657,0.06342757524319272,-1.4227226413425647,0.09872328239544427,2.6690134736829334,2.4660397422307274
4859.867,0.29820159806959307,1.0151663674638982,0.06342309526889563,-1.4227276526501305,0.09872535194938292,2.6690123547589777,2.4660456888573923
4859.9,0.2982041912089314,1.0151663674638982,0.06342846665358819,-1.4227251469964028,0.09872397106619357,2.669012354705069,2.4660478251444213
4859.934,0.2982016855551485,1.0151663674638982,0.06342325777359642,-1.4227276526501305,0.09872331987811418,2.669012354705069,2.466053242014514
4859.967,0.29820206498590834,1.015169151523657,0.06342530536599182,-1.4227251469963476,0.09872535632846179,2.6690112357272042,2.466051168339847
4860.0,0.2982041912089314,1.015169151523657,0.06342388572642627,-1.4227226413425647,0.09872228800845734,2.669012354705069,2.4660523005471124
4860.034,0.29820089818514955,1.015169151523657,0.06342390320853157,-1.4227226413425647,0.09872535630643527,2.6690157116386626,2.4660434372221487
4860.067,0.2982069751602169,1.0151663674638982,0.06342521865435752,-1.4227276526501305,0.0987253563304742,2.6690134736829334,2.4660467061644384
4860.1,0.29820419120493113,1.0151663674638982,0.06342844334177894,-1.4227251469963476,0.09872225574166513,2.6690134736829334,2.466044569936063
4860.134,0.2982041912089314,1.0151638608289688,0.06342641739754858,-1.4227226413425647,0.09872433902378248,2.669011235727212,2.4660500631001256
4860.167,0.2982067128120239,1.0151691514146406,0.06342580606880355,-1.4227201356887818,0.09872433712870657,2.6690134780435844,2.4660445699360642
4860.2,0.29820418991151565,1.015169151523657,0.0634257711118201,-1.4227208512715677,0.0987242991612605,2.669012236973481,2.466053318302178
4860.234,0.29820418242437174,1.0151663674638982,0.06342580519743295,-1.4227276526501305,0.09872114526232083,2.6690123939509256,2.466047825144394
4860.267,0.2981995596521513,1.0151663674638982,0.06342382038983913,-1.4227226413425647,0.09872319899244716,2.669014592660798,2.466045806481888
4860.3,0.2982016855551485,1.0151716571774398,0.06343130327904535,-1.4227226413425647,0.09872224407480569,2.6690112357272047,2.4660445830180153
4860.334,0.29819639569255174,1.0151663674638982,0.06342572726817074,-1.4227276526501305,0.09872433467273709,2.6690112357272042,2.4660434509581983
4860.367,0.2981991795762939,1.0151663674638982,0.06342562809706581,-1.4227276526501305,0.09872240191681983,2.6690134736829334,2.466051182077991
4860.4,0.2981851332346004,1.015169165486812,0.06342853940117088,-1.4226893857895835,0.060947146799730234,2.668886766657865,2.599439231594312
4860.434,0.2980050587555434,1.0151554830028058,0.06334715815150549,-1.4226070298366178,0.05411154966621279,2.6687971756394955,2.608282795000054
4860.467,0.29781563577727344,1.0151090592005945,0.06322518125563548,-1.4225653500468338,0.041920165777815654,2.6687705364997996,2.624447539398208
4860.5,0.297710251206321,1.0150847266801506,0.0631609482626212,-1.422527614307195,0.029593927586473612,2.668727131409641,2.6427958072921705
4860.534,0.29768035397368564,1.015043790089054,0.0631307102972869,-1.422582701313642,0.018097261361814887,2.668947811783937,2.660897425989168
4860.568,0.29820168555114823,1.0151638618101153,0.06342854846147285,-1.4227227208154243,0.0987243389156074,2.669011235729198,2.4660434509581988
4860.6,0.29820697526720313,1.0151716571774343,0.06342525359802487,-1.4227201356874524,0.09872332182519157,2.6690123547071365,2.4660434509581988
4860.634,0.29820419088491085,1.0151663674517852,0.06342854860581847,-1.4227233565983017,0.09872535487010922,2.669012354723014,2.4660445699358307
4860.668,0.298199179888171,1.0151716571772904,0.06342919887637928,-1.4227230012291356,0.09872433761750628,2.6690123547051425,2.466048944122261
4860.7,0.29862805988627805,1.0153152962845686,0.0637089762543619,-1.4227584352313691,0.04606704248768878,2.668820441171782,2.5604051480681456
4860.734,0.29847833102581056,1.0152704186557422,0.06359909826081989,-1.422700404058352,0.05085905932974111,2.66880314137304,2.5365712643819744
4860.767,0.2980771128139903,1.0151294938104458,0.06334286658852761,-1.422673743914233,0.04120136263620289,2.6690541241187162,2.5596270442571125
4860.8,0.29792767982928936,1.015088192384047,0.0632764892865545,-1.4226396047188974,0.033408707851829256,2.668999670801039,2.5666057697873086
4860.833,0.2978561882126698,1.0150639010145648,0.06321739887984457,-1.4226411216471648,0.023389988226163005,2.6690647158246694,2.5782612358794577
4860.867,0.2978386972031375,1.0150524520559125,0.0632044139022252,-1.422642705585388,0.013754401895853086,2.66909046430586,2.592030965425492
4860.9,0.2978307364453556,1.0150483441072558,0.06319809276712984,-1.4226468800593786,0.0038734941394489297,2.669131929783351,2.6085264005235658
4860.934,0.297829267620652,1.0150378975909424,0.06319139800542217,-1.4226514826773027,-0.006172848170657552,2.669168864003627,2.6276443088103445
4860.967,0.2978383385194734,1.015039092648382,0.06317775980634455,-1.4226445470734674,-0.01634365751762168,2.669214263632961,2.6493128107251955
4861.0,0.29784161294068223,1.01503109443387,0.06317357933103818,-1.4226495040546023,-0.026575509901184624,2.6692541969552614,2.6734199374762966
4861.034,0.29779966520488443,1.015021792010021,0.06317568545614538,-1.4225865696373727,-0.03736644723737559,2.669002845309631,2.7011110043869095
4861.067,0.29784830157897435,1.0150200241738876,0.06316214004365328,-1.4226491886648036,-0.04748066397192208,2.6693103994349148,2.7290382378615465
4861.1,0.297846877990267,1.0150154379412273,0.06316055143675214,-1.4226410330931234,-0.05808847663644645,2.6692950514632727,2.760025636019991
4861.134,0.29785078131865994,1.015009886187725,0.0631546681092221,-1.4226477509540727,-0.06873950091979086,2.669355379650188,2.791736255710436
4861.167,0.29780871637270323,1.0150014495108497,0.06315965165512161,-1.4225855815996997,-0.07995569000278024,2.6690726515928773,2.8257067901616644
4861.2,0.297861111920084,1.0149999593864365,0.06314593051266737,-1.4226544715205005,-0.09038169202103674,2.669404061102213,2.85875243778195
4861.234,0.29785761893751506,1.0150014321319292,0.06314557968290746,-1.4226435316413042,-0.10136193100750379,2.6694034120775765,2.89405727716459
4861.267,0.29801679347371923,1.015061152839933,0.06327805453914426,-1.4226999165463736,-0.10405241323686809,2.6693105089248945,2.897301361275984
4861.3,0.29812129549000144,1.0150983155914046,0.0633246549640738,-1.4227206261956278,-0.10638613823591214,2.6693265766540417,2.8973000818597043
4861.334,0.2981771777965685,1.0151287405127283,0.06335047545902839,-1.4227238769968311,-0.10810983694339171,2.6693193657427923,2.8973001048427385
4861.367,0.29821124994177595,1.0151405792141226,0.06336819463999177,-1.4227288945167338,-0.10939336397089594,2.6693198918692893,2.897300105739127
4861.4,0.29823084322164917,1.0151533342211234,0.06338301525991152,-1.4227246830964972,-0.11040556003297386,2.6693198018210325,2.8973001029714816
4861.434,0.29824145401559043,1.0151493915087455,0.06339670637651373,-1.4227366553288565,-0.11115106487341286,2.6693222974277138,2.8973001139216787
4861.467,0.2982536030671836,1.0151554145513382,0.06340486697099035,-1.4227367272750948,-0.11172545719238514,2.66932304863378,2.8973001144823574
4861.5,0.2982635690318256,1.015155219549226,0.06340876992787337,-1.422742840473,-0.11215266690294712,2.6693211515224267,2.8973000821037083
4861.534,0.29827706138439325,1.015168108036173,0.06340612639103149,-1.4227306009254521,-0.11248523091445595,2.669321163718756,2.897300106531116
4861.567,0.2982838365470881,1.0151704941179487,0.06340842241410893,-1.4227292817789738,-0.11273446758009253,2.669320981938885,2.8973001070450994
4861.6,0.2982495583158009,1.0151744950943709,0.06342799131771404,-1.4226859261799278,-0.11348875115400947,2.6691494554779744,2.898807003465638
4861.634,0.2981174782026539,1.0151468204992247,0.06339165106543554,-1.4226145103170964,-0.11907452673233543,2.6690818758160226,2.8937075897133884
4861.667,0.2979792846824534,1.0150924309459546,0.06331077504142613,-1.4225721863945928,-0.12891425731811612,2.6690338911494287,2.894278274109702
4861.7,0.29789350703385775,1.0150633840664396,0.0632690207539035,-1.422531475373951,-0.13928632788752537,2.6689775861798175,2.898364510762086
4861.734,0.29792432942363334,1.0150880743443507,0.06331393461274892,-1.42251478107986,-0.14536374583622003,2.668907625383067,2.89319621912413
4861.767,0.2978363575090306,1.0150608264067715,0.06327157140624706,-1.4224781711375254,-0.15676183930501164,2.668857509652897,2.8948515857550934
4861.8,0.29782443247466617,1.015041291727953,0.06323349872998474,-1.4224834863981304,-0.16764319238333236,2.6689078590342987,2.8981429692907703
4861.834,0.2978135953119274,1.0150492973096075,0.06326955276564128,-1.422440802459647,-0.17625542702032249,2.6687653724540787,2.893482731559022
4861.867,0.29776051418312033,1.0150202419022083,0.06323672785022705,-1.4224151179794546,-0.18843509374493284,2.668714626354701,2.895787618537815
4861.9,0.29780731906980495,1.0150253366291295,0.06327250502869397,-1.4224703662732434,-0.19720522804323792,2.6686768847162483,2.893938417621049
4861.934,0.29780768664780055,1.015019314023312,0.06324904004234089,-1.422484616791201,-0.2075812120964109,2.668958194360531,2.887746268176338
4861.967,0.2977331993682144,1.0149967860056703,0.0632384853775223,-1.4223954524447828,-0.22101863954272005,2.668653012479755,2.890030213020262
4862.0,0.29774835618224227,1.0149741316293666,0.0632039881477624,-1.4224611528382276,-0.2329727743144847,2.6689636848455205,2.892895793267293
4862.033,0.2978241624394711,1.0149815453535505,0.06324672021836086,-1.4225271488296212,-0.2420365440661847,2.66901938939432,2.8917661080737567
4862.067,0.29820206498590834,1.0151663674638982,0.06342896498716372,-1.4227226413425644,0.09872332182526587,2.6690134736829334,2.466044569936063
4862.1,0.2982041912089308,1.0151663674637488,0.06342852128821283,-1.4227251469963473,0.09872320353580108,2.669015711656608,2.4660434509581726
4862.134,0.2982016845790865,1.015169151523657,0.06342603418298383,-1.4227226501728822,0.09872433907786973,2.669013473846433,2.466043450939279
4862.167,0.2982009769221495,1.0151663673548819,0.06342846674982615,-1.4227251469963476,0.09872433842881938,2.669014592660798,2.466046706184477
4862.2,0.29820419088491024,1.0151716571774398,0.06342775927588143,-1.422730436709889,0.09871782720007129,2.6690145928223035,2.466044450674251
4862.234,0.2982041912089314,1.0151663664827517,0.06342067394047805,-1.4227251469963473,0.09872239315442556,2.669012354705069,2.4660423319782403
4862.267,0.298206972352505,1.015169151523657,0.06342501404312853,-1.4227226413425644,0.09872398274310218,2.669012825657343,2.4660445699353652
4862.3,0.2982039520817464,1.0151716561962933,0.06343133154670075,-1.422720136015814,0.09872433323640399,2.669012354705069,2.46605129981556
4862.334,0.2981993234451519,1.015169151523657,0.06342569803818374,-1.4227276526501305,0.09872500144405066,2.669012354705069,2.466046692424201
4862.367,0.29820419108892376,1.0151709419217025,0.06342844236209905,-1.422727652650131,0.09872433323641498,2.6690123590657198,2.4660523010557776
4862.4,0.29820419120493113,1.015169151523657,0.06343101693175383,-1.4227173516291725,0.09872433907720199,2.6690123590657198,2.466048944122261
4862.434,0.2982094809224219,1.0151716571774398,0.06342244227567126,-1.4227251469963476,0.09872332182526586,2.6690101167493396,2.466047825142303
4862.466,0.2981991756880031,1.0151663674638982,0.06342782954412915,-1.4227201356887818,0.09872433859108212,2.669012354705069,2.466045688911834
4862.5,0.2982041912089295,1.015166340972945,0.06342772420657479,-1.4227304367098892,0.09872432593459617,2.669014592660799,2.4660511819084094
4862.534,0.29819909824708546,1.015169151523657,0.06342827568419875,-1.4227226413425647,0.09872332035889238,2.669014592660798,2.4660456889139275
4862.567,0.2981963957324994,1.015169151523657,0.06342854568103767,-1.4227201356887818,0.09872201199703395,2.6690123721476717,2.4660456888950852
4862.6,0.2982016855549983,1.0151663674638982,0.06342086203274998,-1.422725146997694,0.09872500097529192,2.6690134736829334,2.466045688967763
4862.634,0.2982016855551485,1.0151663674637468,0.06343062236441932,-1.4227251469963476,0.09872332182503504,2.6690134736829334,2.466053318308459
4862.667,0.29819917986431765,1.0151691505425104,0.0634285193757655,-1.42272765265028,0.09872327447268422,2.6690134736829334,2.466048944122184
4862.7,0.29820168555508264,1.0151691515236567,0.06342570441576159,-1.4227251469963476,0.09872332036289887,2.6690123677870212,2.4660522056884226
4862.734,0.29820395463790705,1.0151716571774232,0.06342846967899354,-1.4227226413425647,0.09872433884346227,2.6690134736829334,2.4660456889139275
4862.767,0.29820415621470864,1.0151716571774343,0.06342783734263152,-1.4227201356887818,0.098722162514249,2.6690134736829334,2.466052301055855
4862.8,0.29820419120759795,1.015169151523657,0.06342288513859685,-1.4227251469963476,0.09872315612310018,2.669014592660798,2.4660511820779902
4862.834,0.2982016768065436,1.015169151523657,0.06342508567545761,-1.4227251469963476,0.09872320283266206,2.669015533798907,2.4660511820779907
4862.868,0.29820697526869,1.0151716571653269,0.06342302115498334,-1.4227226413425647,0.09872332176516858,2.669013486764886,2.466046705819295
4862.9,0.2982016855551483,1.015169151523657,0.06342852116678635,-1.4227201356887818,0.09872429156300343,2.6690134736829334,2.466044569936063
4862.934,0.29820697526869017,1.0151716306864866,0.06342593767047243,-1.4227251469963476,0.09872240627380897,2.6690112357272042,2.4660434509581983
4862.967,0.29820419120759795,1.0151663674638982,0.06342854568281979,-1.4227226413425647,0.09872225705715242,2.669012356158619,2.4660489441222584
4862.999,0.29820415621470925,1.0151716571769913,0.0634278383171343,-1.4227201356887762,0.09872429526695713,2.6690166526152663,2.466044569936063
4863.034,0.2981991798869839,1.0151716571774398,0.06342390005703455,-1.4227276438198126,0.09872433712470771,2.669012354705069,2.4660434509581983
4863.067,0.2982041824603759,1.015169151523657,0.0634260429520356,-1.4227226413425644,0.09872332182524104,2.669012354705069,2.4660456889139275
4863.1,0.2982041912089314,1.015169151523657,0.06342829982169622,-1.4227251469963473,0.09872320304633392,2.669011235727869,2.4660500631001256
4863.134,0.29820167680659293,1.015169151523657,0.06342525370630057,-1.4227226413425644,0.09872225722007456,2.669014592660798,2.4660511820779902
4863.167,0.2982069752686901,1.0151716571774398,0.06342783788358654,-1.4227244317405603,0.09872433761750628,2.669012354758904,2.466046706166532
4863.201,0.2981991799003199,1.0151638618101153,0.06342086495233178,-1.4227276526501302,0.09872332182526587,2.669014592660798,2.4660500630812834
4863.234,0.298204191208882,1.015169151523657,0.06342325855546463,-1.4227276526501302,0.09872535633047418,2.6690134736829334,2.4660511883792924
4863.267,0.2982041912089314,1.015169151523657,0.06342831137379339,-1.4227226413425644,0.09872235372475242,2.6690112357272042,2.466045688405185
4863.3,0.29818617279647164,1.0151746530412131,0.06343188014655343,-1.4226882136019912,0.06093611774303742,2.668884866359848,2.604797511622108
4863.334,0.29818415641630835,1.0151753603434557,0.06343323972740489,-1.422685967397225,0.060930716027137066,2.6688800756302165,2.6048553030738013
4863.367,0.297955728865527,1.0151379084084562,0.06332966435430798,-1.4226060438091084,0.05196001778871473,2.6687957595161507,2.614857343015659
4863.4,0.2978596402764966,1.0151119035728833,0.06326169147497485,-1.4225975178850163,0.042520937286139926,2.6688003330803873,2.6274082156621983
4863.435,0.2978618378145912,1.0150866129847582,0.06324185595738818,-1.4226505330487154,0.03329897175997498,2.669014765142798,2.6408444812543195
4863.467,0.2978166377683351,1.0151063899952755,0.063226172767882,-1.4225546811137866,0.022509276469222073,2.668732777558734,2.6604869306113024
4863.5,0.2978426271823853,1.0150737806670111,0.06322901889990895,-1.4226439767299892,0.013699945067129349,2.6690339366117897,2.6773367306439795
4863.534,0.2978339150237277,1.0150721599130756,0.06322159051943999,-1.4226224563761667,0.0034840367373005776,2.668990670157573,2.6991066813739124
4863.567,0.2978465981651919,1.0150746638162333,0.06320976638636733,-1.4226255114923108,-0.006445470567391531,2.6690606529169845,2.7226341288119755
4863.6,0.2978492996061872,1.015068558301806,0.06320669425415026,-1.4226295334011123,-0.016532418883010713,2.669094368176225,2.748310161614734
4863.634,0.2978543576652788,1.0150637379950282,0.06320038403887374,-1.4226328178905794,-0.026719462760853574,2.6691399397067244,2.7760415801179903
4863.667,0.2982041912089314,1.0151691515232084,0.0634238214716887,-1.4227251469963476,0.09872332182526587,2.6690134736829334,2.466046704131562
4863.7,0.2982069723525032,1.0151741628312227,0.06342604193759017,-1.4227201356887818,0.0987253431811903,2.6690134736829334,2.466052301055855
4863.734,0.29820168555514037,1.0151689131050778,0.06342501663712376,-1.4227226413304572,0.09872134147638886,2.669012354705069,2.466047825144394
4863.767,0.2982069752646899,1.015169151196608,0.06342592591165118,-1.4227226413425647,0.09872240629591887,2.669012356104784,2.4660511820779902
4863.8,0.29820419119693065,1.015169151523657,0.06342088833988738,-1.4227226413425647,0.09872332180656893,2.669012354705069,2.4660467061665323
4863.834,0.2982039549939315,1.015169151523657,0.06342852215314072,-1.4227226413425647,0.09872098536398093,2.669012354705069,2.4660489833681094
4863.867,0.2982016855551485,1.015169151523657,0.06343030669303229,-1.4227226413425647,0.09872332182526587,2.669012354705069,2.466048944122184
4863.9,0.29820697516068334,1.0151691515235075,0.06342388577761053,-1.4227226413425647,0.09872327447268665,2.669011236213715,2.4660434509581983
4863.937,0.29820419120888203,1.0151663674638982,0.06342570613593457,-1.4227251469963476,0.09872433907786902,2.669012485524591,2.4660499394756776
4863.967,0.2982016855551485,1.0151691515232084,0.06342854860532339,-1.4227249085777685,0.09872332182526496,2.669012354705069,2.466046706166532
4864.0,0.29820419088491085,1.0151691426933391,0.06342603125953837,-1.4227251469963476,0.09872429962999453,2.669011235781048,2.4660500631001256
4864.034,0.2982014493441488,1.0151663674638982,0.06342853982457826,-1.4227226413425647,0.09872433907787004,2.6690112357272042,2.466044569936063
4864.067,0.2979921186888328,1.0150911444448516,0.06328586151168825,-1.4226945967898912,0.06111332204496467,2.6691317801005425,2.394689857478788
4864.101,0.2979918498824725,1.0151036676793552,0.0633074272617602,-1.4226771582027267,0.058264341854297186,2.6691159583559987,2.395141369635894
4864.134,0.29782514053588915,1.0150675893838432,0.06321308818807303,-1.4226668272365615,0.04706898509580615,2.669154315708621,2.400656465809961
4864.167,0.29772279374612953,1.0150462489750298,0.06315814945952791,-1.4226021102175466,0.03520947753459236,2.668978122980187,2.4097523136297987
4864.2,0.29768104486058533,1.015032075989426,0.06313310601416511,-1.4225857201892458,0.023822151121780877,2.6689605230609637,2.420395934758483
4864.234,0.29765209165921824,1.0150240576162712,0.06311971337101419,-1.4225576173491694,0.012144980391104454,2.6689304454735936,2.4343654982580514
4864.267,0.29763563333090115,1.0150138992239732,0.06311105898477809,-1.4225377871638658,0.0003824312992914969,2.668896887805433,2.451439601780102
4864.3,0.2976576217163531,1.014999053475,0.06311015510396079,-1.4225789329905378,-0.010517809916812837,2.6690798420669566,2.4691415692770864
4864.333,0.29762022820067013,1.0149933195511984,0.06310111382363637,-1.4225118768414138,-0.023387012394264772,2.668883631034298,2.4947218469739134
4864.367,0.29761890684939996,1.0149961143474604,0.06309183785550232,-1.4224848406060868,-0.03554652768802402,2.6688549770253562,2.5209968149749766
4864.4,0.29764450551254473,1.0149620586231194,0.06308693622038675,-1.4225492900042402,-0.04683948755389,2.6690620888066405,2.5474929640293205
4864.434,0.2976137634108422,1.0149773713047399,0.06308247453499938,-1.422461079022499,-0.06013620315888346,2.6688408864228013,2.58221428508209
4864.467,0.2976082408635694,1.0149708441875402,0.06307959720733258,-1.4224409527340587,-0.07270449523827072,2.6688035525494005,2.615981197376895
4864.5,0.2976006276250729,1.0149668088171167,0.06307674537264152,-1.4224157487699092,-0.08546436659753809,2.668753623807291,2.6520206719263033
4864.534,0.29759311355519014,1.014961003036043,0.0630729012911555,-1.422390259348254,-0.09839712799500333,2.6686995041086323,2.6896500268948387
4864.567,0.2975848289936298,1.0149620496050815,0.06307378079165993,-1.4223683137510363,-0.11138553014091546,2.6686490294870495,2.7291804517001115
4864.6,0.2975795539107091,1.0149399092530444,0.0630729278064921,-1.4223571749513129,-0.12455684979650528,2.6685856432425954,2.7693127482223634
4864.635,0.29755972634723626,1.014943457508565,0.06308307698021753,-1.4223303289941303,-0.13775816438077992,2.6685246339635516,2.8109380535455113
4864.667,0.29820168555470383,1.015169151523657,0.06342912287806649,-1.4227251469963476,0.09872011486636859,2.669012354705069,2.466045647705778
4864.7,0.2982041912089314,1.0151716571774398,0.0634285486058185,-1.4227251469963476,0.09872332181925615,2.6690112357272042,2.4660423319803337
4864.734,0.29820697235245563,1.0151638618101153,0.06342322089329308,-1.4227226413062257,0.09872327447268697,2.6690123939529933,2.4660467061665323
4864.769,0.29820206239374925,1.015169125032687,0.06343109575833163,-1.4227226413425644,0.09872193314006297,2.6690123551895857,2.4660434573160273
4864.8,0.2982041879567248,1.0151716571774398,0.06342109002322727,-1.4227251469976934,0.09872488317261506,2.6690123547070628,2.466042286174659
4864.834,0.29819639292437594,1.015169151523657,0.06342109878419315,-1.4227226413425647,0.09872433907787004,2.6690112357272042,2.4660511820772926
4864.867,0.29820168458308677,1.0151663674638982,0.06342604248271429,-1.422724917408086,0.0987232739858963,2.6690123561586274,2.4660456843345435
4864.9,0.2981991711477641,1.015169151523657,0.06342294223401855,-1.4227219260868107,0.09872433905984085,2.669015715999978,2.4660467015313463
4864.934,0.2982041912089314,1.015169151523657,0.0634261545616011,-1.4227276526501302,0.09872332036460534,2.6690134736829334,2.4660423319803337
4864.967,0.29820168555494914,1.015166364520459,0.06342530209801771,-1.4227201356887815,0.09871921248228728,2.669012354705069,2.4660478251378835
4865.0,0.29820168512312106,1.0151716571774398,0.06343129726476575,-1.4227251469963473,0.09872332182496635,2.669012354705069,2.466048944122261
4865.034,0.2981991766601142,1.0151663674638982,0.06342319854951703,-1.4227201356887815,0.09871996236767296,2.6690101167493396,2.4660423324654897
4865.067,0.2982034825759324,1.0151663674638982,0.06342324997358655,-1.4227204955753472,0.09872332182526587,2.669011235727205,2.4660523010558553
4865.1,0.2982041912089314,1.015169151511544,0.06342640604777217,-1.4227201445190993,0.09872433761750353,2.6690123547051425,2.466052301055855
