yuan18844-afk/dissertation/catkin_ws/src/franka_digital_twin/analysis/data/gazebo_smooth1_20250728_072246.csv
time,panda_joint1,panda_joint2,panda_joint3,panda_joint4,panda_joint5,panda_joint6,panda_joint7
898.533,0.4570325710385367,1.1412314916820152,-0.16236648804263065,-1.1436947347908688,0.07364697910679711,2.4147713821313057,2.314376316937282
898.566,0.4570272360295959,1.1412299813370528,-0.1623664792940751,-1.1436972404446517,0.07364596185419295,2.4147726774089326,2.3143694532002352
898.599,0.4570322429681556,1.1412252089093857,-0.1623629953378721,-1.143699737158602,0.07364596331455701,2.4147683401605025,2.3143741807606486
898.633,0.4570297377828469,1.141232176509851,-0.16236370398287187,-1.1436996665165584,0.07364789463414086,2.414771578599854,2.3143719428048457
898.666,0.45702973731896557,1.1412321761934416,-0.16236428340663375,-1.143702225261264,0.07364733397519177,2.414768399470034,2.314377435962997
898.7,0.45704044598847876,1.1412252615723357,-0.162361198329089,-1.1436971521414743,0.07364891188674502,2.414768177233027,2.3143774359689737
898.734,0.4570357356783136,1.1412249661381866,-0.16236119789706155,-1.1436997457713802,0.07364789463614776,2.4147712885589394,2.3143675686187213
898.766,0.45703297784682123,1.141226756936474,-0.16236299534987286,-1.1436997460984344,0.07364789463414095,2.414765849464275,2.3143698007602493
898.799,0.45703795341915004,1.1412296296584943,-0.1623637039828718,-1.1436972404446513,0.0736482495025352,2.4147693992469463,2.3143763165065923
898.833,0.456867643234812,1.14104840816466,-0.16251181789678615,-1.1436626028211236,0.03265039706056694,2.414888733009114,2.3752054570582004
898.866,0.45703502702791426,1.1412300304146676,-0.16236648804263065,-1.1436997460863196,0.07364789463414086,2.4147669417990025,2.3143763169352844
898.898,0.4570407215301921,1.141229938507014,-0.16236370397886613,-1.14369724044465,0.07364697910679711,2.414771357421764,2.3143737690962687
898.934,0.45702194194736145,1.1412249410163608,-0.16236648804263065,-1.1436947347908688,0.07364789463414086,2.4147693854847656,2.3143763954828276
898.966,0.4570403167417174,1.1412252584864655,-0.16236648804218617,-1.1436972404446517,0.07364789901523215,2.414766940397295,2.3143752568684466
898.999,0.45704326063060824,1.1412267419158089,-0.16236370398287003,-1.1437022517158786,0.07364789463414086,2.414767988508956,2.3143687469363208
899.034,0.4570297373144467,1.141229194978473,-0.16236898494785795,-1.1436997460984344,0.07364697910679711,2.4147650483466454,2.3143730617807163
899.066,0.45704244296475144,1.1412292029217581,-0.1623611954129038,-1.1436972404446517,0.07364608014388031,2.4147670587949253,2.314368629198743
899.1,0.45703508079243443,1.1412314913062316,-0.162361198329089,-1.1436972404442032,0.0736478946341436,2.414770164587761,2.3143672154040176
899.134,0.45703224297348927,1.1412298299097292,-0.16236648804263065,-1.1436947347908688,0.07364697910679711,2.4147712069942804,2.314373061781898
899.166,0.45703573696145683,1.1412316551701474,-0.16236648804263065,-1.1437022517522173,0.07364789463414086,2.414772505637429,2.314367554094296
899.201,0.45704065892129536,1.141229124034769,-0.162363464855687,-1.1437075414657591,0.07364596185419295,2.414767280492392,2.3143710018453003
899.233,0.4570371883693604,1.1412267569714503,-0.1623611195920891,-1.1437022517520679,0.07364494460166297,2.414770107624424,2.314368334383876
899.268,0.4570272316728526,1.1412277144624987,-0.16236370398287187,-1.1436947338097225,0.07364596185419295,2.4147659261768104,2.3143752997365192
899.3,0.4570297373143727,1.1412323354703489,-0.16236899369641294,-1.1437022517522173,0.07364793411805,2.4147670464487483,2.3143774345154315
899.334,0.4570460112059934,1.1412289062279268,-0.16236367773715585,-1.1436947249794047,0.07364916005083344,2.414767992869582,2.314373061782784
899.367,0.45703080026387116,1.1412268369458185,-0.16236119832907253,-1.143699746098429,0.0736459623469906,2.414768026356854,2.3143731209071783
899.399,0.45702723166099996,1.1412321860790313,-0.16236369523431632,-1.1437022517522173,0.07364697910679711,2.4147659396422663,2.3143686874350804
899.433,0.4570358143979132,1.1412269717975028,-0.162363703874865,-1.1436997460984344,0.07365017292234632,2.414766165922828,2.3143675686167193
899.466,0.45703225463428093,1.1412264771037337,-0.1623611983290396,-1.1436976003312225,0.07364804371198018,2.414766940343755,2.3143719428049194
899.499,0.45703511484214904,1.1412321363680609,-0.162361198329089,-1.1436997451171385,0.07364790047559591,2.4147693801351426,2.3143694109759942
899.533,0.457040483913176,1.141229860217725,-0.162361198329089,-1.1436997460979361,0.07364697910679711,2.4147672804684563,2.3143763169910434
899.567,0.4570328353277667,1.1412317297394716,-0.1623664880426306,-1.1437022507345824,0.07364891188674502,2.414767868216845,2.3143763165063707
899.599,0.45702444760109245,1.1412270864960725,-0.16236370106668668,-1.1436997460984344,0.07364789463414086,2.414765927475451,2.3143749465191568
899.633,0.45703776889269687,1.141227060641824,-0.16236119821973224,-1.143697160971792,0.07364697910679711,2.4147670844729845,2.314375299738513
899.667,0.45703284710140324,1.1412296717995538,-0.16236891495896918,-1.1436997460984344,0.07364494898268008,2.414770119958377,2.314373060329234
899.699,0.4570297373143727,1.1412321001018262,-0.16236370398287187,-1.143699746098434,0.07364697912482629,2.414765978852248,2.3143752997385127
899.733,0.4570485168851771,1.1412314622101054,-0.16236119832908893,-1.1436972404446517,0.07364698056716087,2.4147705776846946,2.314368687596586
899.766,0.457078030858173,1.141218857898676,-0.1624055292462101,-1.1437459134804175,0.03425674930471967,2.4148896852061554,2.4335469767464435
899.799,0.45690629425557727,1.1411143368678438,-0.16244242886637217,-1.1436976760839448,0.024333179313172693,2.4148842598272093,2.4444530550711114
899.833,0.45704601122739413,1.1412292366356451,-0.16236370398287187,-1.143696525188898,0.07364789463414086,2.4147701066553924,2.314366410395414
899.866,0.45704731406967003,1.1412331336919657,-0.16234342503998533,-1.1437162590165473,0.02103418905304366,2.4146962169291903,2.432065690908166
899.9,0.4570375326816972,1.1412314089382847,-0.162361198329089,-1.1436972404446517,0.07364839858104229,2.414772463478341,2.3143661557678823
899.933,0.4570513009575375,1.1412277105419302,-0.1623584142693302,-1.143697240443306,0.07364801292427339,2.4147681089985213,2.3143686875963394
899.966,0.4571472310314455,1.1413246910532022,-0.16227056452468247,-1.1437223285007514,0.021160935642961398,2.414638490205279,2.419671869766489
900.0,0.4571738140937489,1.141365275431891,-0.16221393016821306,-1.1437280015339866,0.026161503344964032,2.414616146977119,2.3897863488355675
900.034,0.4569436193753047,1.1411748531815356,-0.1623564577326002,-1.1436296107794268,0.012208396302715308,2.414638415690259,2.4253970159903098
900.066,0.45686662123597443,1.141158935458865,-0.16229861906930054,-1.143606003987177,0.005146408859906693,2.414519763210782,2.4194652202864333
900.099,0.456827106921863,1.1411223645886297,-0.16234265993373764,-1.1435897584908936,-0.005980328392197087,2.4145104649746223,2.4208372525690116
900.133,0.4568119179697794,1.1411309347144805,-0.16232851721833796,-1.1435545379424568,-0.01610524816179737,2.4144623997846377,2.424743505107436
900.166,0.4567924889888113,1.1411142387751623,-0.16231246202186522,-1.1435457717451625,-0.026776978864998746,2.414429975389732,2.432603721121396
900.199,0.456873058085006,1.1411115609960971,-0.1624089208684234,-1.1436053398443775,-0.03704380989180045,2.4146716495114493,2.4424915593613115
900.233,0.45678116053780293,1.1411084940043121,-0.16230728752411228,-1.1434996124614898,-0.04846873042434385,2.4143594840457503,2.458982621574748
900.267,0.45678460525802933,1.1410937932848961,-0.16231481812858384,-1.1435084967801599,-0.05950831191647765,2.4143951983455665,2.4775102099636577
900.299,0.4568639375369701,1.1410915874995542,-0.1624044958230071,-1.1435698001746637,-0.07040208546665383,2.4146392029788313,2.498213668084462
900.333,0.45685283258753007,1.1410774164836823,-0.16239110270173818,-1.1435701072798654,-0.08186050603740913,2.4146431754390925,2.5220336668421997
900.367,0.4568703603538715,1.141060031118962,-0.16241897529500005,-1.1435902003494895,-0.09335516579286196,2.414696302757479,2.5471578315497077
900.399,0.45688531994592996,1.1410698700016395,-0.16243813324321277,-1.1435849393093989,-0.10493697993974038,2.414744882979809,2.5735748318774068
900.433,0.4568906096794807,1.1410543663566077,-0.1624441049269798,-1.1436041626231308,-0.11674580402008417,2.414802634212455,2.6016042905298065
900.467,0.4568236688688607,1.141063615826715,-0.1623646275727051,-1.143496319923762,-0.12975351595764373,2.4144742712841083,2.633549902709218
900.499,0.45691407465730016,1.141050573381384,-0.16247234751079098,-1.1436030538368671,-0.14079380554730925,2.4148564466365023,2.6607669596874874
900.533,0.4569045609059801,1.1410370136625723,-0.1624634559884175,-1.1436001484609184,-0.153385036671291,2.414855181942986,2.692844117822748
900.567,0.4569244435989619,1.1410207402220411,-0.16249074891627036,-1.1436248358041716,-0.1658195833092755,2.414922332097378,2.7248688576533198
900.599,0.4568406845661359,1.1410324703395007,-0.1623816120841095,-1.143511091645573,-0.1795131326982613,2.414556089099234,2.7606154234621343
900.633,0.4569395714358855,1.14102181636214,-0.162508619897606,-1.14361761112922,-0.19211818802447134,2.414972903665509,2.7940128043131605
900.666,0.4568424422653212,1.1410238200326983,-0.16238563705438125,-1.143485877369626,-0.20578100233033858,2.4145180172433847,2.8302904917626
900.699,0.4568358666558767,1.1410111969385763,-0.16237415920150244,-1.1434842673013632,-0.21920968730857648,2.4145057358821216,2.866244987962416
900.733,0.4569387210712206,1.1410324011900848,-0.16247546682570757,-1.1435699089254898,-0.2313603337830168,2.4147728977017326,2.8975344337505913
900.766,0.4570189944864458,1.1411482070257621,-0.16235568935495515,-1.1436086080985337,-0.23386496749163754,2.4146857818400917,2.897300348959437
900.799,0.4570861564221458,1.1412010021339078,-0.16234738291710205,-1.143647443579657,-0.23673279355282695,2.4146957540197658,2.8973002001067165
900.835,0.4571155147400532,1.1412478584353538,-0.162318608916868,-1.143655334662376,-0.2389018375910279,2.4146958553949105,2.897300231779358
900.867,0.45714111862625106,1.14127246661812,-0.16230769850772653,-1.1436675877556528,-0.24052488402722982,2.4146984094145463,2.8973002340560345
900.9,0.45716009196011687,1.1412792609233993,-0.16230441942487772,-1.1436821223152824,-0.24164805503780595,2.414693977677823,2.8973002018985525
900.934,0.45717317757188525,1.1413055501676226,-0.16230108785631714,-1.1436701080189362,-0.24255591730663095,2.4146884568793165,2.897300250521731
900.967,0.45718207609633676,1.141297997502142,-0.16229648177514644,-1.1436892255842324,-0.24325585440470032,2.4146926989708675,2.8973002026749803
901.0,0.4571909991698524,1.141319904489678,-0.16229518612766203,-1.1436744582575429,-0.2437645971979716,2.4146865503359685,2.8973002511846637
901.034,0.4571964866410845,1.1413088720176203,-0.16229230975994202,-1.1436913069903811,-0.24416846814266702,2.414691171651027,2.8973002035288413
901.067,0.4572029912388844,1.1413278622372083,-0.16229218686175972,-1.1436757165147338,-0.24446555297201567,2.4146851468811956,2.8973002517873585
901.1,0.45703440787409116,1.1412250498249978,-0.1623584142693302,-1.1436997460984344,0.07364697926905975,2.4147734086268873,2.3143774359689817
901.133,0.4570344574372214,1.1412320237924396,-0.162361198329089,-1.1436997371591004,0.07364789463414086,2.414767321335819,2.314375299738513
901.166,0.45703326756262563,1.1412300658246146,-0.1623637039828718,-1.1436997195711416,0.07364804371198018,2.414769503345029,2.314377318207485
901.201,0.4570344859845896,1.1412277901065153,-0.162361198329089,-1.1436997460863214,0.07364891188674502,2.4147668826374873,2.314374141514792
901.233,0.4570329173008075,1.1412270872947825,-0.16236370398287187,-1.1436997372681168,0.07364789463414086,2.4147648463390756,2.3143740586624277
901.266,0.45703749460660226,1.1412274815589307,-0.162361198329089,-1.1436997372681168,0.07364713682608441,2.4147669316241793,2.314370823827055
901.299,0.4570329260015167,1.14123233618551,-0.16236370398287187,-1.1437022517522173,0.07364789463436344,2.4147672819218595,2.314373061782784
901.333,0.4570346444344868,1.1412293447057602,-0.1623584142693302,-1.1436997460984344,0.07364697910746486,2.4147704639110583,2.3143706486335507
901.366,0.45702959767694507,1.141226819332289,-0.16236370398287187,-1.1436997460863216,0.073645975015496,2.414765982704363,2.3143774354844657
901.4,0.4570304502118071,1.1412352497880687,-0.16236648804263065,-1.1437022517481799,0.07364891189275474,2.414768414472347,2.3143664496412706
901.433,0.4570322794070684,1.141229964101417,-0.16236370398287187,-1.1436997460984344,0.07364596185419295,2.4147672935508595,2.314368687596586
901.466,0.45703225560955907,1.1412292750580222,-0.16236370398287187,-1.1436997460984344,0.07364697910679803,2.414767868240402,2.3143655086821977
901.5,0.4570328444001757,1.1412316208160633,-0.16236648804263065,-1.1436997460984344,0.07364697910880036,2.4147694737878838,2.3143694533079056
901.533,0.45703079702316424,1.1412249760248703,-0.162361198329089,-1.1437022514251687,0.07364789465283782,2.4147673783272916,2.314367555536769
901.567,0.4570332145036297,1.1412300304276755,-0.16236119832908838,-1.1436997460983847,0.07364498403143512,2.414770223962278,2.3143785549468463
901.6,0.4570378743467001,1.1412250191226316,-0.16236370398287187,-1.1436972312872298,0.07364789609452935,2.4147670843127282,2.3143774359689817
901.633,0.45703535304364334,1.1412351466239081,-0.16236370397887162,-1.143699666625525,0.07364697910679752,2.41476722134384,2.31437530022303
901.667,0.4570847639850335,1.1413027894638494,-0.1622659630711869,-1.1436785411520098,0.03430342345183579,2.4146533438113025,2.2735682148335883
901.7,0.45703993091939454,1.1412243337023735,-0.162361198329089,-1.143705026981653,0.07364733397519146,2.4147658089246677,2.314365389985196
901.734,0.4570904764072843,1.1412371466562643,-0.16242139301755998,-1.1437429950747404,0.026733828589888375,2.414863460253436,2.2889156239362016
901.766,0.45711551567761877,1.1412782873423968,-0.16233398796664833,-1.1437327876609729,0.027984645837451083,2.4148318056089693,2.296124315965411
901.801,0.4568977316276781,1.141179361849015,-0.16235449555025028,-1.143625732186857,0.01482038427065735,2.4146354500110956,2.3107339051656464
901.834,0.4569266498340232,1.1411426889492304,-0.1624687405830434,-1.1436821432673252,0.005267139225090034,2.4148670693812857,2.3207018044717014
901.867,0.456818259437199,1.1411067067939857,-0.16239420306528896,-1.143601789378046,-0.0070214597939823875,2.4146276529661392,2.338757862404597
901.899,0.4568101260184463,1.1411081870740665,-0.1624044820169308,-1.1435728004504906,-0.018471903756956287,2.414616074698813,2.357818266212531
901.933,0.45686999587973,1.141074530804425,-0.16248223597521605,-1.1436512011728928,-0.02998637317860453,2.4148310427856323,2.3791940407457552
901.966,0.4568731598510656,1.1410792198142872,-0.16249876222589155,-1.1436328752075262,-0.0419550842839298,2.4148492631622425,2.4038076596392948
901.999,0.45703750291773504,1.1412313856720493,-0.16236370398287187,-1.1436997460984344,0.07364697910679711,2.414769123799303,2.3143676449106727
902.034,0.45703446072281884,1.1412252695940668,-0.16236370398287187,-1.1436997460984344,0.07364697926905975,2.414769146734749,2.314367097668466
902.066,0.4570360812233679,1.1412214677700594,-0.1623637039828718,-1.1437022517522173,0.07364697910679711,2.4147711832705845,2.3143741807606375
902.1,0.4570303825609378,1.141232365652004,-0.16236370398287187,-1.1436972404446517,0.07364789463414086,2.41477017916383,2.314373059844052
902.133,0.45742456091524186,1.1414829237446558,-0.16218909425995864,-1.1438331062087386,0.01584401002528768,2.414860509321535,2.4073168083056764
902.166,0.4570346849130566,1.1412276965474697,-0.1623664880306299,-1.1436997460863216,0.07364596187244471,2.414771558505958,2.3143774359669878
902.199,0.4570067642813296,1.1412200145892113,-0.1623210117286682,-1.1436828682551985,0.021475739914532,2.414648180114007,2.4096380720597814
902.234,0.45702976695676795,1.1412303084827013,-0.16236370398287187,-1.1437022517522173,0.07364891188874827,2.414768414149093,2.3143774359510365
902.266,0.45684537355515165,1.1411177262717862,-0.1624158381941152,-1.143620854086186,0.020982239615444875,2.4146436267667575,2.4099050400149444
902.299,0.45677314161246674,1.1410649645196935,-0.16244523093905627,-1.1436169910974714,0.017673244764945473,2.414778223586108,2.413579248498152
902.335,0.456640021339239,1.1409497336446908,-0.16255274880229642,-1.143596646352738,0.005398175007577777,2.414846740216351,2.4298180428413936
902.366,0.45658321568689875,1.1408826063167812,-0.16261164015400098,-1.1435916620317172,-0.006593111794067852,2.4148894849341005,2.44892552100524
902.401,0.45655688751407997,1.1408577021793747,-0.16265950721269462,-1.1435737362107856,-0.019239329070628308,2.414942007839487,2.4717898442558983
902.433,0.4565415615810977,1.1408245244746622,-0.16268204585460122,-1.1435809000293506,-0.03209643894354475,2.415002587709578,2.4980166982130303
902.466,0.45654247642427226,1.1407923423747235,-0.1627123400133046,-1.1435933049607305,-0.0453897038894473,2.415051669679789,2.5277403146119735
902.499,0.4570013573323942,1.1412402496632137,-0.1623869532422236,-1.1437100472298993,0.07364506289105356,2.4147647067962335,2.3143774316083063
902.533,0.4569667170326987,1.141250828113188,-0.162405443398725,-1.1437415408156288,0.07364992915738114,2.414765748991763,2.3143675293728565
902.566,0.4568695218431758,1.14126892548275,-0.1623999311885266,-1.1437687020331595,0.07364199456903671,2.4147691783470413,2.3143697673265997
902.6,0.45685666584442103,1.1412508290943346,-0.16241600907453108,-1.143753111789101,0.07365095077304741,2.414761257544663,2.3143687638366934
902.634,0.4568038914460434,1.14127950490985,-0.16244162731525483,-1.1437558958488598,0.07365094639195337,2.414756958185986,2.3143719408668515
902.667,0.4568205375853673,1.141298094337084,-0.1624579720538956,-1.1437714660861553,0.07364903017821309,2.414751363290681,2.314375298284963
902.7,0.4568289939225163,1.1413321206276874,-0.16245055644091277,-1.143804091160401,0.07364789463414086,2.414742337986275,2.3143785549468463
902.734,0.45685052728873277,1.1413749085765093,-0.16243390279343414,-1.1438407839087024,0.07363904453648461,2.414744452253127,2.314371001845571
902.766,0.4567297065021494,1.1411610665929564,-0.1625493681237531,-1.143741480808325,0.029730841030089827,2.4148624604770816,2.285578525500208
902.799,0.4566616185545618,1.141130415452941,-0.16257962936223347,-1.1437497115494333,0.031160667776091167,2.4148496323368622,2.275147488583869
902.833,0.4564546935026499,1.141028458545291,-0.16268887545481103,-1.1436858290109146,0.01935970909660245,2.414880370814732,2.2800860798007108
902.866,0.4563240870065499,1.140966567764405,-0.16265078985106207,-1.1436181689431217,0.008458561145614496,2.4146927748943554,2.2884449376804863
902.9,0.4563069093919099,1.140963105649008,-0.16267310855692685,-1.1435884146459214,-0.0021966902843226777,2.414698136050264,2.298643436798214
902.934,0.4562798311346441,1.1409433636733937,-0.16265039306869866,-1.1435759088271276,-0.013123475009076735,2.414658602562703,2.3121303775595834
902.967,0.45627469194587533,1.1409282685848385,-0.16265140324113858,-1.1435633940641416,-0.024090161150821743,2.4146239768757916,2.328730583974245
903.0,0.4563407120981857,1.1409252671754908,-0.16272454614230725,-1.143620854198577,-0.03483854106533624,2.414846586463277,2.3473228097579693
903.034,0.4563405238508169,1.1409049002721074,-0.16272983498456473,-1.1436249291709863,-0.04614133634037998,2.4148396009731705,2.369387620853759
903.066,0.4563554731376884,1.140911206643703,-0.1627567998648578,-1.1436190220846285,-0.05755736806874001,2.4148921001203014,2.3930072581353805
903.099,0.45628158538120633,1.140907639270666,-0.16267163044127653,-1.1435342347765864,-0.06952691338990391,2.4146390728570992,2.41941290852521
903.133,0.45636593378184287,1.1408802078118727,-0.16276977900090728,-1.1436358207349775,-0.08100140057773864,2.414933387808736,2.4456136607897196
903.166,0.4562760948825515,1.140890529471963,-0.16265876926419853,-1.1435232286481227,-0.0940225212194079,2.414617385042078,2.4766702159619634
903.199,0.4563687578622435,1.1408827039751435,-0.16277455858559176,-1.143610352786233,-0.10585188058859263,2.414931197721371,2.5055891392925798
903.233,0.4563588500560405,1.140866447716406,-0.16276741985680587,-1.1436121358101135,-0.118462588868117,2.4149465436881936,2.5372103730506446
903.267,0.45637488260427617,1.1408473518845348,-0.16279428960755649,-1.1436325303396604,-0.1311435865571875,2.415000568171507,2.5695207921534315
903.3,0.45629667985121447,1.1408464112411894,-0.16270172994979415,-1.1435372330211981,-0.14434817331313,2.414685011527265,2.6034201350928825
903.333,0.4562971689436104,1.1408542347350163,-0.16269838452900043,-1.143511184186023,-0.15752440272771562,2.414651370042222,2.638010549037201
903.367,0.45637477635671786,1.1408243511336682,-0.1627889403167515,-1.1436187752840885,-0.17046192153578765,2.414978099380244,2.6723318825551985
903.4,0.4563812202577111,1.1408317284030014,-0.16280380334654154,-1.1436060137702944,-0.18387320953716024,2.4150069842053092,2.707894597763465
903.433,0.4563874017427718,1.1408125674861562,-0.16281792739583167,-1.143627717149621,-0.19758833184387647,2.4150849857012435,2.7445025589790806
903.467,0.45631291673653873,1.1408204893630538,-0.16272305557610078,-1.143509190888385,-0.21257301032024944,2.4147000514745205,2.784685362266485
903.5,0.4562989085371001,1.1408076959925415,-0.1626978205984262,-1.1434970343075257,-0.22680983232723317,2.4146489248256273,2.8230268137606664
903.533,0.45628705094996214,1.1407927425710174,-0.1626803568317916,-1.1434780148731987,-0.24134551341581645,2.414559190891051,2.8622304110426775
903.567,0.45637312453450907,1.1407726435793393,-0.1627925113504629,-1.1435860930312662,-0.2549412064467216,2.4149688455772793,2.899257706851648
903.599,0.45646702573270304,1.1409285366326811,-0.16268259410270058,-1.1436036399586023,-0.2583714928408094,2.414788562256817,2.8973012531069084
903.634,0.4565340268571756,1.1410002085423203,-0.16264415794483078,-1.1436467312217058,-0.2613534097625516,2.4148068509652507,2.8973002435113617
903.667,0.45658210077337813,1.1410559951070747,-0.16262919907005546,-1.1436566315296535,-0.2637751741150218,2.414793889106871,2.897300261852365
903.699,0.4566058022820565,1.1410810514497465,-0.16260783860047034,-1.143675806202376,-0.26552726472977994,2.4148031022286958,2.8973002460037005
903.733,0.4566308615223127,1.1411105335667129,-0.1626047545876519,-1.1436744469745923,-0.2669118494047158,2.4147926033928258,2.897300264527823
903.766,0.4566456128748575,1.1411112154484426,-0.162597474911915,-1.1436956613883913,-0.26795858680353124,2.414797357373999,2.897300216227908
903.799,0.4582796821285904,1.1306366658635838,-0.16231805614211897,-1.1344348470445746,0.07439217976136618,2.415149066991661,2.3160951455388634
903.834,0.45806000056605733,1.1272894114378782,-0.16231952914962905,-1.1324366151460397,0.0749092021029443,2.4150175656932324,2.3164087435743554
903.866,0.4575479124147425,1.1240443995697562,-0.16232627115910442,-1.1315803255157197,0.07540584281362468,2.414668725616651,2.316589085193609
903.9,0.45650272097859557,1.1211586201891266,-0.16236885442572105,-1.1316176720081792,0.07550184856206259,2.414209446019768,2.3165960903896226
903.933,0.4547578337474267,1.1189435512898138,-0.16260940228131276,-1.1316123865860404,0.07553045133660376,2.413734340981127,2.316587755234128
903.966,0.452354249258539,1.1173528701132824,-0.16344989391065207,-1.1316186199541443,0.07554175220730373,2.41365177679062,2.316588298050482
903.999,0.4492668456478068,1.116236506179549,-0.1651595026137286,-1.1316128205803122,0.07556705317008457,2.4136528957684833,2.316585529858482
904.033,0.445512015336614,1.1154748484049664,-0.16782482007185007,-1.1315991442335478,0.07557838845360484,2.4136597610686237,2.316590826708948
904.067,0.4412603530433434,1.1150585014660397,-0.17163249258472027,-1.1316009636315685,0.0756009860520069,2.413659800370534,2.3166020913550414
904.1,0.4364490329739753,1.1148896690315517,-0.17633434884920765,-1.1315987865874773,0.07570118401068783,2.4136598020663813,2.3166269777723403
904.134,0.43091245136969203,1.1148994963429972,-0.18151893982993034,-1.1316500066354764,0.0759563462650542,2.4136494998133458,2.316647449983844
904.167,0.4243129630636331,1.1149133780841032,-0.18729863409067365,-1.1319477651653376,0.0761267992130205,2.413608632526226,2.316656236387359
904.2,0.41676945728177883,1.1149161482881342,-0.19303234448758616,-1.1323610536223188,0.076184692592077,2.413296985381465,2.3166485096286564
904.234,0.4084615841608893,1.114930068549527,-0.19877158240668152,-1.1327824897067942,0.07618920869628176,2.4127923480847895,2.3166529431538803
904.267,0.3991479803307978,1.1149332862211023,-0.20466915626024815,-1.1331364319848394,0.07619150354869571,2.4124165581749675,2.31665406213204
904.3,0.3887956419834148,1.1149363866437945,-0.21068735117394877,-1.1333325225383326,0.07618229139660677,2.412186604046214,2.316639367095505
904.334,0.37770335020114365,1.11494532959854,-0.21663587800086015,-1.133386769348985,0.0761754662311767,2.4121105128576033,2.3166306096293123
904.367,0.3655895188094083,1.1149562244074873,-0.22258399576895502,-1.133432593372138,0.07616458155049217,2.4120623419766782,2.3166097512518085
904.4,0.3532300875876479,1.1149565422995047,-0.22809189874734861,-1.133449042463349,0.07615899288647374,2.411992827484401,2.3166053968567084
904.434,0.3399207482059617,1.114962387806327,-0.2330948820515704,-1.1335553856976488,0.07615683334403568,2.4119479476434376,2.3165996315562785
904.467,0.32636997963614695,1.1149690862377466,-0.2372958121984935,-1.1337863548242104,0.07615286605887943,2.4118452733985056,2.3165889327132843
904.5,0.31201718072197776,1.1149712137701906,-0.24071058173586998,-1.1342532805071166,0.07614709012622628,2.411440672787446,2.316574527545805
904.535,0.2975509003011448,1.1149993006538224,-0.24290247124784942,-1.1347390293291006,0.07614225552821541,2.4107391119785206,2.3163578850890243
904.567,0.2825827278478217,1.1150070483397867,-0.24427561396723116,-1.1353414433081213,0.07612861909083814,2.4098145907746202,2.31629887192517
904.6,0.2676744628124663,1.1150268439229258,-0.2450033081585946,-1.1358906922424241,0.07611969140789407,2.408616693641744,2.3162261421666512
904.634,0.2528762864160599,1.1150258691240684,-0.2455355155427277,-1.1363866923983517,0.076107322170618,2.4073657364381904,2.315939372670713
904.668,0.2381822329337061,1.11504933099574,-0.24600453266917366,-1.1367370591003882,0.07609377826241309,2.4066919189915756,2.3157857409664895
904.7,0.22392142857500377,1.1150615004368387,-0.24643748868311008,-1.13680963088416,0.07607555706909422,2.4066162640279343,2.315485946170149
904.734,0.2098290106250071,1.115029638405664,-0.24714772130824508,-1.1367769343360998,0.07605474125859288,2.4066151448885598,2.3149915738035642
904.767,0.1964420854625214,1.115017681802232,-0.2480733219924548,-1.136704682321425,0.0760329689715262,2.4066162638664244,2.3147661977658345
904.8,0.18331359111199827,1.1150128581900365,-0.2493282054761825,-1.1366730002019412,0.07598031310734982,2.4066117940886813,2.314751206794897
904.834,0.1709158198612673,1.1150230807194288,-0.2504373363435227,-1.1367313380779311,0.07569393529853077,2.406418360008407,2.3145662791497132
904.866,0.20017478914541353,1.115149402221438,-0.2487336029090068,-1.13669201542334,0.03539972123934554,2.406950253272708,2.420248348341252
904.9,0.14739007732175494,1.1150255841555345,-0.25250247770680534,-1.137579878596704,0.07553417728157875,2.403591871281319,2.314271716651387
904.934,0.1364548757960428,1.1150319103605644,-0.25333063877204887,-1.138242623237685,0.07551928201574434,2.4010646583702666,2.314261302319303
904.967,0.170038597277256,1.1150547318922772,-0.25073244113447135,-1.137230355794622,0.03479088886233317,2.4047044817294854,2.4030619634094172
905.0,0.16116102004359956,1.1150538410021458,-0.2537447849959982,-1.1378419251541008,0.0330490542755042,2.4042359909107986,2.4037272528406852
905.034,0.1069907196563648,1.1150330539355378,-0.2557964551926153,-1.1401742763941543,0.07526801314577217,2.3953982127559166,2.3141215354195355
905.067,0.09836878566925071,1.115028765334458,-0.2576833495383769,-1.1404679372336397,0.07510114921195211,2.395404495386987,2.3139075766520496
905.1,0.09030389323576855,1.1150064535979043,-0.2606482851410373,-1.140424533353017,0.07510460948455136,2.3954305751743843,2.313904608746794
905.134,0.08273535227329742,1.1149893224470349,-0.2650424026026781,-1.1403716677627216,0.07510708945327302,2.3954729500215497,2.3139253748134334
905.167,0.11270208770547896,1.1150570661648063,-0.25622731861282855,-1.1391982285373645,0.03264337185963395,2.3976310365971294,2.406569391924233
905.2,0.10236924471175435,1.1150824783017557,-0.26078978874509584,-1.1399673625408742,0.02944733587299364,2.397002654351656,2.415217352332025
905.233,0.0967323598831289,1.115038379243022,-0.2637928947312913,-1.1406146546142608,0.017674487676852202,2.3970866893107985,2.4355916571122265
905.267,0.09385319672593351,1.1150181800991277,-0.26524389139274795,-1.140916894231439,0.005059047872292943,2.397009995910093,2.46239797591158
905.299,0.054627128106479995,1.114999623449081,-0.3023124005678053,-1.139736101279578,0.07512283064459285,2.3970999028384,2.3149218511442773
905.334,0.09067296893280652,1.1161297269035932,-0.272189056341424,-1.1401577252024984,0.003992520677364553,2.3969083782052714,2.469693171770956
905.366,0.046568071843165464,1.1150411341181177,-0.31941373707180176,-1.1397574852043482,0.0751275614929282,2.3976818752976743,2.314989030094093
905.4,0.04274150520095178,1.1151210974827548,-0.32752605035530274,-1.1398209855699206,0.07512847848070991,2.397687639984053,2.3149961451662437
905.433,0.039126429777726776,1.115308985358581,-0.334872001374063,-1.1399327579702931,0.075129535163137,2.3976883908907567,2.315006511499146
905.466,0.035414407613950996,1.1156008237008443,-0.34154499095620267,-1.1399877271430974,0.07513476517895787,2.3977007720975316,2.315017891850735
905.5,0.03164901579344651,1.1159967463739635,-0.3473384312839881,-1.1400204916740835,0.07513528909691274,2.397723083733833,2.3150153899089467
905.533,0.02793354064137115,1.1164394048823032,-0.3519256724897807,-1.1400373666756154,0.07512654642201279,2.3977905290600097,2.3150219824053173
905.567,0.024288298682482,1.1168826228505278,-0.3551663953670268,-1.140039537204061,0.07512878723108224,2.397915484771921,2.315021569055165
905.599,0.020692055033886596,1.1173224244929547,-0.356927765693046,-1.1400498354701574,0.07513222061508347,2.398078807582736,2.3150241675653103
905.634,0.017258618121861066,1.117815920913937,-0.35725809873810077,-1.1400494103068552,0.07513428645663778,2.398315009189147,2.3150278178537778
905.667,0.014537675577163655,1.1184968809962827,-0.3569774694284091,-1.1400392056275808,0.07514352652074868,2.3984636965233586,2.315147433900994
905.7,0.013009708510873222,1.1195102384133724,-0.35645316921051656,-1.1400364597557195,0.07514600194825065,2.3985337485114906,2.315481398654008
905.734,0.012753727050333067,1.1208004351802074,-0.3557890041426135,-1.1400423379616564,0.07514726298385196,2.3986004938431584,2.3155746660087275
905.767,0.013424261592037742,1.122192792528383,-0.35434821098824454,-1.1400334799582579,0.07514601509152452,2.398653813431346,2.315589875734963
905.8,0.010572552608009822,1.1182212468206956,-0.3578880827710078,-1.1403073556601528,0.0348027965765807,2.3985106730544032,2.4249797545274703
905.834,0.010169955531774022,1.1192405138686725,-0.35749128685193465,-1.140390595075286,0.03279587292644148,2.398501405785737,2.428527914976213
905.867,0.010139052429728679,1.1196192175929376,-0.35760532361157793,-1.1407254531684083,0.01944343311028618,2.3984426241502046,2.446870769048008
905.9,0.010101298330051911,1.1198245124940929,-0.35759199870120817,-1.1407908998992422,0.008537565917505319,2.398450740717019,2.4680929195215313
905.934,0.009996996816725279,1.119873545116941,-0.35752610842018306,-1.1407384934080902,-0.004267039169532971,2.398131920734537,2.4977431157267986
905.967,0.010064168048536715,1.1199005726334565,-0.357613601586376,-1.1408602194703104,-0.015807050207251372,2.398450848493699,2.5259093878850347
906.0,0.03164797691264946,1.1335142966982399,-0.3113067927149271,-1.1403863045754241,0.07519450552595985,2.398960941161281,2.317768755879305
906.034,0.0352183506194657,1.1348402862259002,-0.30124271028747834,-1.1407008962699696,0.07520172068025525,2.3989565238894537,2.317772999511054
906.067,0.039023628462720075,1.1357808146521498,-0.29038236579845356,-1.141041942080483,0.07519863885620459,2.3989604700551626,2.317776880967176
906.1,0.04286271026090526,1.136342153026846,-0.27929531577190847,-1.141232908340665,0.07519350587914794,2.398954765349182,2.3177724052737982
906.134,0.0472494819235958,1.1364972169338057,-0.2683241008192151,-1.141213775239533,0.0751894736353265,2.3989546546092044,2.31776957957212
906.167,0.029429736904823756,1.1320475928956366,-0.2996828745053488,-1.1410978637633766,0.023494943778007205,2.3986630826187643,2.383488706694667
906.201,0.03862442713276071,1.1350324695854122,-0.29143848263964856,-1.1415197763951532,0.020292322431701315,2.3986668744897024,2.3819637527545847
906.234,0.04396151856547448,1.1365526897059812,-0.28907149330485016,-1.1416349180869743,0.006795404759461832,2.398649411425069,2.398286049011812
906.265,0.04639619537722872,1.137248787289196,-0.2875840537142933,-1.1415755152616605,-0.006719465861158014,2.3983505398443334,2.4191728021574814
906.299,0.04760377867218235,1.1375511152826672,-0.28694989496794143,-1.1415750785660688,-0.01990520668582363,2.3982919740845254,2.442188682158484
906.334,0.04823234738177984,1.137715392617781,-0.2865941490243591,-1.1415422279440133,-0.033382204992041586,2.398212457337035,2.4691743882486374
906.367,0.04866990136305738,1.1377812287875395,-0.2864831736614919,-1.1416465232805102,-0.04653558140117475,2.398480874758439,2.4967485690055593
906.4,0.0488727197918335,1.1378306856170397,-0.2864040397067704,-1.1416445654674439,-0.06010100660499074,2.3985195727971806,2.526529663387338
906.434,0.048898554284257933,1.1378372106254533,-0.2862636655825366,-1.1415447795690508,-0.07510227790046375,2.398199952995892,2.561134187624104
906.467,0.04894827865484341,1.137853148396336,-0.2862171363377328,-1.1415090688810619,-0.08947159598186527,2.3981255557929035,2.5947130155747207
906.5,0.12980151459227993,1.1330597677659313,-0.21947823705576022,-1.1297023117630243,0.07520159158334007,2.399871942707006,2.3178612124431606
906.535,0.053007834912678575,1.13784225090364,-0.27635075879934146,-1.1410799270619512,-0.053625718848221204,2.398020065555585,2.5463000599682957
906.567,0.15319348143448147,1.132056698795533,-0.21942525015635855,-1.1288317543933137,0.07520455452403249,2.400601587103536,2.317910437022953
906.6,0.1650960108692715,1.1317075579485343,-0.21937724865841357,-1.12816121086832,0.07521391795321071,2.4009869490123554,2.3180495267696197
906.633,0.17702518130990233,1.1314673724591964,-0.21933728174626665,-1.1275640332143209,0.07521640070389818,2.401341374943678,2.318364334034011
906.667,0.18908690305396056,1.131249227622951,-0.21927540776301563,-1.127147127595695,0.07522025035450487,2.4016456030560085,2.318672226775248
906.7,0.20130846773484098,1.1311000269169027,-0.21923093613284964,-1.1268845315109055,0.07522936585010148,2.401872348201237,2.3189486432942856
906.734,0.21360099348040024,1.1310106624715208,-0.21908770379902043,-1.1267470163306792,0.07523608505355958,2.402049997412818,2.319034144330434
906.767,0.22606238696700395,1.1309783876529251,-0.2190244269312176,-1.1265749152018005,0.07523224060145424,2.402191655846531,2.319051632210018
906.8,0.23835577020443943,1.1309658684189607,-0.21890612744328405,-1.1263699674032028,0.07524088032046954,2.4026353897974384,2.319058069507814
906.833,0.25082203678360976,1.1309435764144646,-0.21877188284768664,-1.1261120293044418,0.07524988707877663,2.4036163694377866,2.319057692142128
906.866,0.2630004188554511,1.130909484001638,-0.2186947042193593,-1.1258211756048957,0.07525088680996478,2.405542009903817,2.3190669996011315
906.9,0.2753915885927105,1.130892761127741,-0.21864823498641675,-1.1256696753711057,0.07525333461165427,2.408888442434658,2.3190647196217724
906.933,0.28740906206530104,1.1308442866327306,-0.21859932768416013,-1.125548346833843,0.07525028285384178,2.412401260242692,2.3190624055528777
906.966,0.2996338145759699,1.1307766834201611,-0.21858079799698021,-1.1252221860747784,0.07525130010644594,2.4151134947053956,2.3190711378593796
906.999,0.3112841024954882,1.1307025253859215,-0.21856183352148667,-1.1247734267810423,0.07524936732649803,2.4165491211688215,2.3190624055535425
907.033,0.32303008868477057,1.1306226245933357,-0.21853312169306863,-1.1239847236008096,0.07525130010644594,2.4168087865537675,2.3190690176954725
907.067,0.33429508294287263,1.130582744445072,-0.2185332057937553,-1.1228744033272542,0.07525333461165429,2.4168010711559154,2.3190716088714702
907.099,0.30427116302633195,1.1309291713647198,-0.21872185699611268,-1.1247002043459267,0.03504142631185303,2.4144247770032816,2.2708284081820658
907.133,0.35591013759358037,1.1304834773063515,-0.2185477529525501,-1.1202360568653553,0.07527064890698042,2.416802150885239,2.3190712556507846
907.166,0.3660636651140154,1.1302281335927928,-0.21852898520332417,-1.1192891791678505,0.07529462596679445,2.4167999129295343,2.319067898717605
907.199,0.37618195949102456,1.1299320083830102,-0.21852259260453527,-1.1186239931890332,0.07534933774669703,2.4167976749658298,2.3190749181262302
907.233,0.3856821113845535,1.1296338535278556,-0.21851551722200743,-1.1182165437871565,0.07544980765912006,2.416795319525324,2.3190840691141985
907.266,0.35420427537703425,1.1307247231638202,-0.22008918295984792,-1.1206397633678984,0.03262551536577796,2.41603985271537,2.3531474405676587
907.299,0.3651233306200474,1.130160293531274,-0.21758592951385314,-1.1195989981317913,0.027708819914896488,2.4164889091652686,2.3703641804674387
907.333,0.36979067532284216,1.1296344426296212,-0.2147543108736567,-1.1188599128473928,0.013910755566149291,2.4164537314127355,2.393417562594564
907.366,0.3722361812711261,1.129392221712811,-0.21363130307147937,-1.1185084180263258,0.0016230878381895408,2.416562258110222,2.4173132556367793
907.399,0.3734648501345941,1.1292269141018192,-0.21313878266358977,-1.1184323012490083,-0.010633713804908851,2.416882480482668,2.4435886675473846
907.433,0.3740092164511122,1.129147259137218,-0.2128875372757797,-1.1183562261634847,-0.0233286811787643,2.4169653454245488,2.4724328327399014
907.467,0.37430182558994485,1.1291135274865338,-0.2127817840657178,-1.118315450074963,-0.03611314357572226,2.4170610187214567,2.5026035730440555
907.5,0.3744584576596157,1.1290838027239465,-0.21273078614125307,-1.1183035122403506,-0.049093801441173035,2.4171422685973933,2.533875759410698
907.534,0.3745512360026524,1.1290643644824572,-0.21271623114913307,-1.118299983439849,-0.06232405899063309,2.417221015005145,2.566359123412804
907.566,0.3746056398694737,1.1290426196433136,-0.21270331632249562,-1.1183114345613836,-0.07571571007488931,2.4173018403461644,2.600084799188604
907.599,0.37455588828592923,1.129028242950298,-0.2126000724037187,-1.1182132959242042,-0.09044320144878881,2.4169935112495295,2.6372132779035216
907.634,0.37456183603980264,1.1290156523001622,-0.21257844431627326,-1.118191131245453,-0.10462081374590593,2.416947339089095,2.673718329692054
907.666,0.37455826825982275,1.1290193798516155,-0.21255619170879392,-1.1181505801596412,-0.11901206221777727,2.416876424229052,2.7111382094262986
907.699,0.37464077686881314,1.1289948658427944,-0.21264693660021017,-1.1182509504145202,-0.13341613767116378,2.4172346531307163,2.7487562099030463
907.733,0.3746530704516111,1.1289787679615566,-0.21266604467551797,-1.1182605536844346,-0.1483481770985593,2.4173053748214492,2.788098216161025
907.766,0.3746733875581585,1.1289583219184518,-0.21269158801103494,-1.118285893018129,-0.16330655331261745,2.4173815000734855,2.8278015325950907
907.8,0.3746907949323015,1.1289427875051352,-0.21271434407814382,-1.1183049372271316,-0.17862737789315997,2.417464039870868,2.8683478539826357
907.833,0.4870005309139905,1.129269494653441,-0.21296386773534248,-1.1179092733085003,0.0762679393157882,2.4152068179353168,2.324374775209302
907.867,0.48798466231171517,1.1292632512146719,-0.21298377589465892,-1.117906471549802,0.07626967406046445,2.4152150426936414,2.324387137404368
907.899,0.4880989292295027,1.1292522370899198,-0.21302520514722637,-1.117895150657158,0.07627273020148276,2.415223699092516,2.3243916358132575
907.933,0.48750988131594464,1.1292575562349905,-0.21338824666019068,-1.1179086423583178,0.07627549387017882,2.4152236990928895,2.324383917775832
907.967,0.48618274769220865,1.1292926394783194,-0.2138129090429898,-1.1179367252864743,0.07628711573112035,2.415214216642816,2.3244013622447257
908.0,0.4841501079454343,1.1293115944973364,-0.21385989957095053,-1.1180541221875953,0.07631350047487015,2.41520948939201,2.324461699648299
908.034,0.4818178070351886,1.129312952463865,-0.21383932128000802,-1.1186265284941879,0.0763475337484419,2.41519329914288,2.3247112733225808
908.067,0.47959279540438415,1.1293460750946045,-0.21379679743455424,-1.1197837612295054,0.07640113337614775,2.415168931933923,2.3250697291921227
908.099,0.4777275162890647,1.1294289942597593,-0.2134988013286865,-1.1213887151583575,0.07646103093167332,2.415143335234061,2.3256078158279725
908.134,0.476401443397869,1.1296876254055344,-0.21312151250881492,-1.1230809960466637,0.07647600001989928,2.4151250119981125,2.3260604117710235
908.167,0.47571380312963457,1.130000902645951,-0.2129943109949268,-1.1247963129408938,0.0764720327357451,2.415130541006724,2.3260879584090888
908.199,0.4753585654677439,1.130199566855104,-0.21301752983101627,-1.1266202773224205,0.07647009995579718,2.4151451588324555,2.326090762221784
908.234,0.4750329495203479,1.1302418820300124,-0.21318570784015206,-1.1282501314184898,0.07646511541803676,2.415153934637589,2.3260874418355533
908.266,0.4745157279500697,1.1302288123571385,-0.21366202732789535,-1.1292122414507813,0.0764583340608235,2.415162194754688,2.3260892253508385
908.3,0.4735844341733965,1.1302264104895745,-0.21418079436871743,-1.1294415751088653,0.07645864943899026,2.4151690646951343,2.3260722328584533
908.334,0.47216634243239464,1.130166523181171,-0.21458068815184966,-1.1293953912776318,0.07646149966756803,2.415177813480895,2.326077800835994
908.366,0.4701421595481222,1.1301417184188307,-0.21504769411895272,-1.1293818793440336,0.07646612828954874,2.415184569647463,2.326075535077054
908.399,0.4677303877102405,1.1301820770917297,-0.21565280075238097,-1.1294177646838932,0.07646687295425529,2.415176291217107,2.3260700147456035
908.434,0.4648153944718389,1.1302129331824518,-0.21647911491137292,-1.1294790399460903,0.07646806545058854,2.41517759991341,2.3260765427968044
908.467,0.461320409867072,1.1302113325494292,-0.21742993520848872,-1.129631331497429,0.07646908221440155,2.4151752462472587,2.326075252476969
908.499,0.4679608396074011,1.130898245902129,-0.21540572857836437,-1.12944142522392,0.03641991548120416,2.4149368989274134,2.3369628841978347
908.533,0.4662030779614801,1.130717849059308,-0.21607478553900616,-1.129563370709036,0.03293636194274807,2.415074776915956,2.355135894764185
908.566,0.46523454859760793,1.130572721870089,-0.2166393133327853,-1.12957601766775,0.02024583895427856,2.415090331287244,2.372514390534082
908.6,0.4647936781540798,1.1304995002366152,-0.21688257212409656,-1.1296032122501867,0.00860201329160315,2.415108476163592,2.392469283074364
908.633,0.46459236132611537,1.1304654567652141,-0.21701109498389304,-1.1296183108478521,-0.003422291739611616,2.4151406276382996,2.4164319879523326
908.666,0.4644168635420183,1.1304484628379967,-0.21698484864830636,-1.1295430346252768,-0.015942025146459038,2.414893261969034,2.442807416212929
908.699,0.46444976775660685,1.1304485798182355,-0.2171102400613485,-1.1296134800685627,-0.02799855062943113,2.415153412611664,2.4691809964996168
908.734,0.46433408003592014,1.1304232411330144,-0.21703068107249734,-1.1295336165900265,-0.04183739225824468,2.4148644699140185,2.501472055441088
908.766,0.46431350411929007,1.1304136884233031,-0.2170344766755532,-1.1295212144204907,-0.05489273578064502,2.414828060622108,2.5320588379231452
908.799,0.4642902420149939,1.1304074296902673,-0.21702043802882987,-1.1294982233000006,-0.06810823620921447,2.41477350702106,2.5647281379640194
908.834,0.46427143047877273,1.1304099612085352,-0.21701121181966254,-1.1294625257923583,-0.08168225736731394,2.414692961422084,2.5985007826399222
908.866,0.46434022452478807,1.1303927577035306,-0.21709787052223373,-1.1295578688603047,-0.09505085243168665,2.4150008131840988,2.6326684412403623
908.9,0.4643447254661037,1.1303685634229836,-0.2171186861514416,-1.1295710174160458,-0.10895058928379342,2.415041122036021,2.66863919388363
908.934,0.4643573613433958,1.1303534441568797,-0.21714214506401142,-1.1295895394318576,-0.12305429582382121,2.415104819375177,2.7055662101703053
908.966,0.46437354404727493,1.1303589731035721,-0.2171707614787417,-1.1295909190212363,-0.1373019665788746,2.415172988756826,2.74345451849965
909.0,0.4643896295484051,1.1303484723050286,-0.21719424185805813,-1.1296032473572941,-0.1517886942224731,2.415242864698401,2.781984968437193
909.033,0.4643988095153899,1.1303318805223457,-0.21720926953795416,-1.1296239338767284,-0.1665774784586418,2.4153252550199475,2.821507325180651
909.067,0.46441629818118724,1.130322501224816,-0.21723011896192101,-1.1296404665260367,-0.18147055395889744,2.4154047139632198,2.8615855814171454
909.1,0.4643881377919987,1.1303308091233966,-0.21716698804043588,-1.1296090439491326,-0.19562704041612022,2.415240622601752,2.897522012810498
909.134,0.26659288285614374,1.1366531741442365,-0.2392467837112392,-1.135090699188891,0.07628962040289118,2.416468532109928,2.3246854010724896
909.167,0.25427209340704265,1.1367212978991426,-0.23988462661969365,-1.1350814369784163,0.07617972181978078,2.416582525088799,2.324513421633783
909.199,0.24207304183723488,1.1367035218225672,-0.2408100114271626,-1.1350445794789656,0.07608830960285898,2.416859045941809,2.324143514795047
909.234,0.23012477293343778,1.1366706088255012,-0.2424570086795266,-1.1348462351314892,0.07605708518418926,2.4171073283147244,2.32379019288455
909.267,0.2187173956500826,1.1366727889044403,-0.2451120039236249,-1.1344241784446825,0.0760331039087742,2.417286426218444,2.323740568812863
909.299,0.20776914883456618,1.1366454516324784,-0.24933317545301414,-1.1340269503278708,0.0760183616994773,2.4174903145129325,2.323735035891194
909.333,0.19767499848466694,1.1366181233074057,-0.2544049023157225,-1.1334519858487988,0.07601484137111546,2.4178406158518686,2.32374070349838
909.366,0.18796202612677312,1.1366081141561435,-0.26018650028018214,-1.1328168637297396,0.07601160309736621,2.4187003331602193,2.3237365183371668
909.399,0.17885617432661619,1.1365829645057872,-0.26692426145052023,-1.13227354326504,0.07600433848803548,2.420520518087901,2.3237438817547824
909.434,0.1703374869747713,1.1365509687822817,-0.27437873454979345,-1.131798652429872,0.07600433694654041,2.4233526252623805,2.3237382105013267
909.466,0.1623418036791816,1.1365439327808848,-0.28243836617951773,-1.1315360205178169,0.07600591290292799,2.427344757567233,2.3237469990113926
909.499,0.1548766855184817,1.136537255169247,-0.29096001627549156,-1.131514634958376,0.07599870423833599,2.4321149691663435,2.3237415298370516
909.534,0.14779835523730273,1.136533203946867,-0.29973802293393254,-1.1315074073927587,0.07600431774546036,2.43658286831947,2.3237447053350095
909.566,0.141193396847432,1.1365411093514421,-0.3084507765616445,-1.131513194664573,0.07600205671114724,2.440779172158772,2.3237428346490288
909.599,0.13479328855930253,1.1365357924715223,-0.31737075043379465,-1.13149466347975,0.07600205800921019,2.4452769191910213,2.323741920120112
909.634,0.12890697945658144,1.1365357095986082,-0.3263803330679973,-1.1314963795130675,0.07600433692847691,2.451111377233828,2.3237470542557572
909.667,0.12361904486075337,1.136557422251519,-0.33524163108420313,-1.1315134684217198,0.07599985979546969,2.4574582252277186,2.3237419196296054
909.692,0.11864319743228524,1.1365481584249644,-0.3439960551925238,-1.1315056864390045,0.07599780918450225,2.4634698443554495,2.3237385093513203
909.733,0.11397523035767382,1.1365478629914683,-0.35250901819637903,-1.1314921587668865,0.07599593402288222,2.4700546325349997,2.3237396283751215
909.766,0.10969606559249592,1.1365553482456088,-0.3607046407973163,-1.131505428736825,0.07599696230799631,2.4765000299047566,2.323749498640183
909.799,0.10569187485092726,1.13655045042533,-0.36827656433376627,-1.1314947560364998,0.07600024698882482,2.483123935960866,2.3237408010822804
909.834,0.10189674787069752,1.1365476578625109,-0.37514199184417185,-1.1314922681640391,0.07600036966138414,2.4908061890898323,2.32375543638006
909.866,0.09850285032731372,1.1365637403454212,-0.38141504810752025,-1.1315017385796957,0.07599421013370397,2.498366510608866,2.3237534329139016
909.899,0.09552343405848487,1.136550655373672,-0.3873528642558767,-1.1314960894328456,0.07598562740632543,2.5050021878657778,2.3237533461846653
909.933,0.09298363678105212,1.1365372548032877,-0.39344871711175833,-1.1314730452828254,0.07598352634244494,2.510405411682236,2.323753300632115
909.966,0.09851947558737795,1.1364452269983492,-0.3783344772692061,-1.1317194083772604,0.0342863331327834,2.494171716251742,2.4310663371257117
909.999,0.09451297078431597,1.1358939881894177,-0.38260498130279963,-1.131652905142106,0.029353407736273596,2.4969862089428947,2.437178701363763
910.033,0.08751325591045735,1.136550655264585,-0.41145002227673594,-1.1315015726932602,0.07597887906465371,2.517025127995377,2.3237499979617615
910.066,0.09214853251091082,1.1357769965886177,-0.38797039933279187,-1.1319285197089153,0.01756660159159562,2.500125198886888,2.4472962358180954
910.099,0.09107864468292703,1.1359120665053153,-0.3918812394298481,-1.1317634093829527,0.013463929988176915,2.502867853844423,2.4464686889838028
910.133,0.08951221403822895,1.1353864248398144,-0.392163832477018,-1.1317540705958349,-0.00024187876198933367,2.5022402207970025,2.474869196935501
910.167,0.08886671801401835,1.1352107796228266,-0.39254490046774837,-1.131743640436527,-0.012727626533846959,2.5022456671956625,2.5037700142810717
910.2,0.08860326003636931,1.1351083897981784,-0.39278928962942494,-1.1318533464623588,-0.0260590969433121,2.5024925109876293,2.5357099437808746
910.234,0.0884596376527984,1.135072503791453,-0.3928878213717377,-1.1318560234625563,-0.03924452736778594,2.5025256435525627,2.5683141561945284
910.267,0.08838307407059443,1.1350353829899467,-0.39293729091029217,-1.1318789114273606,-0.05267044186200298,2.502580059535301,2.602246932272866
910.298,0.0882659601158089,1.1350195621631363,-0.39290081151243506,-1.131766289471142,-0.06748298208983794,2.502261969989892,2.6405500180477617
910.334,0.08822316504987082,1.1349980203069086,-0.3928912762617509,-1.1317430626708962,-0.08174238043983006,2.502196159821265,2.6774701593963037
910.367,0.08820010363713227,1.1349799426999052,-0.3928951707874342,-1.1317225068948549,-0.09617785599216422,2.5021236743399022,2.7158448431432927
910.399,0.0882629152735177,1.13497075930976,-0.3929695036785681,-1.13182142281571,-0.11056580739133981,2.502461099965757,2.7543953119373317
910.433,0.08826609163524779,1.1349448146961496,-0.3929984179513202,-1.1318417023611929,-0.1255955206738104,2.5025213854579746,2.7950729857947962
910.466,0.08828006128216703,1.1349438713888667,-0.39302948247350855,-1.1318511453994642,-0.14070454262722354,2.502601111265575,2.8362287982125967
910.499,0.07332848234454545,1.1366012875578444,-0.44858352233154086,-1.133143955931222,0.07602229692915245,2.477900221845823,2.3230571914983766
910.533,0.07418854155051162,1.1366141425888514,-0.44693658046408086,-1.1331292426460169,0.07603253805645299,2.4663262586286376,2.3230592535522043
910.566,0.07526122822008573,1.136606373098767,-0.4441381236204383,-1.1331239157071131,0.0760552062295912,2.4534749964169107,2.3230569507375
910.599,0.07632403313469978,1.1366036334301004,-0.4398990391081182,-1.133124156280344,0.07606943881964444,2.439743843400528,2.323065623798965
910.633,0.07716235712088536,1.136611662479725,-0.4340312514514524,-1.1331430275545722,0.07609256416229215,2.4252863454689453,2.3230751270835555
910.666,0.07793062234839306,1.136603151560881,-0.4264353997403302,-1.1331283722325083,0.07610905044216759,2.4098096202923043,2.3230817581485543
910.699,0.07856233491859022,1.136606746166239,-0.4171176009942544,-1.1331156077463145,0.07612054520477482,2.3948189998029887,2.3230887020144064
910.733,0.07893931139589615,1.1365728546637617,-0.4063203556130849,-1.1330572555108576,0.0761241246590514,2.380768639956179,2.323090058173622
910.766,0.07945079762086722,1.1365800986815684,-0.3942710138244469,-1.132788950017058,0.07613324499554422,2.367525106741445,2.3230873962580403
910.799,0.07994240275370812,1.1365507822095235,-0.3814122912545828,-1.1326776318452076,0.07613522679275936,2.356950946076635,2.3230915566044645
910.833,0.08061984542575873,1.1365645582466795,-0.36779433162052777,-1.1324229516286113,0.0761364503429241,2.3488867118043215,2.323097474701264
910.866,0.08136786824465382,1.1365264077894268,-0.3538831430851284,-1.1321743855778759,0.07612933037514114,2.343083446010618,2.3230974747012882
910.899,0.08257399950192182,1.13647659349735,-0.3397943774245397,-1.131599024900843,0.07614097354237712,2.3387906317751876,2.3231072657576033
910.933,0.08410186143471982,1.1363727064611493,-0.3259050935162169,-1.1310818288364357,0.07615613623128986,2.335394299808674,2.3231505706317668
910.966,0.08619567934050316,1.1361545123041232,-0.3118227667496469,-1.1307838675301165,0.07616897397688763,2.332492638472258,2.3233983268901723
910.999,0.0882195013067465,1.1357840803981363,-0.2990925353077144,-1.1307265746388453,0.07617577996740436,2.329774117726154,2.323408400976746
911.033,0.09098934634483245,1.135336786329722,-0.2837881053946205,-1.1307159093444727,0.0761814635525047,2.3257703883753287,2.3234113256770943
911.066,0.09360945593858179,1.134816843691096,-0.2699246893238088,-1.1306751013033314,0.07620033707313299,2.3202541899510485,2.3234217291367223
911.099,0.09658852716996269,1.1341648152812598,-0.2558073861198328,-1.130572484316398,0.07620795428130143,2.3124868440074295,2.3234662447485412
911.133,0.0997444089874771,1.1333172357325099,-0.2416572643122335,-1.1302693085413946,0.07622671146623167,2.3022347561257055,2.3237509526617983
911.166,0.10317894106648252,1.1323930732864678,-0.22761787719063448,-1.1295545433803449,0.07624395335154113,2.2887549495988204,2.32403887029
911.199,0.09475255446306186,1.1348657012139336,-0.26296916293247197,-1.1307625259955234,0.03563940466720972,2.3119014796874833,2.3885799858890255
911.234,0.11105100762357899,1.1300676232068132,-0.1990046816346051,-1.1266041046637103,0.07628264531061346,2.2578449445526245,2.324283381821044
911.266,0.115617693721276,1.1289272260492227,-0.1844572022840052,-1.1237967865481364,0.07628030713747251,2.2426069349869255,2.324284662016526
911.299,0.12035037756567378,1.127991180173687,-0.17050818531040968,-1.119617972457882,0.07628131124386386,2.2291941756312066,2.3242939462940067
911.333,0.10442462363815785,1.1317766211999176,-0.2130474364350219,-1.1267936444705775,0.034995327953640576,2.266512417172045,2.411890727623515
911.367,0.11078092904124759,1.13114403808233,-0.20211602458232658,-1.1253302558974019,0.03588705454509178,2.258567213319484,2.4164099823605696
911.399,0.11655399018979207,1.131017694805081,-0.20038082662064927,-1.1247861731090625,0.02208618095796311,2.2597406614544493,2.438062239045168
911.433,0.1188450322834278,1.1308865735415399,-0.19901020347314535,-1.1245183474505547,0.01065608967578946,2.2595792953712284,2.455832628829361
911.466,0.12010292643748155,1.1307910499254268,-0.1985492913048823,-1.1244944047984742,-0.0011039831338131023,2.2599148315229876,2.474011142544109
911.499,0.1206734451102669,1.1307595777753123,-0.19828394761404056,-1.1244254890743335,-0.013294870536479486,2.25996729347559,2.494701772453542
911.533,0.12097348416109277,1.130717879313659,-0.19814620587172804,-1.1244135794378343,-0.025827903870064617,2.2600451381917974,2.5171216428345247
911.567,0.12104413033849504,1.1307100611999985,-0.19795242188011386,-1.1242866338084898,-0.03885150545076144,2.259738083581384,2.5422854381956483
911.6,0.1211384799770805,1.130691301547098,-0.19790182047710214,-1.1242692878062401,-0.051763970420287464,2.2597045190170704,2.568299927389525
911.633,0.12127506806066357,1.1306787620542957,-0.1979762976766537,-1.1243561897788474,-0.06464518745228709,2.260038269464875,2.5955191391471395
911.666,0.12120339675357261,1.1306775311815453,-0.1978353285399308,-1.1242317700354603,-0.07834830347850197,2.2596660448327164,2.6262817079492677
911.7,0.12133254021115647,1.1306682384737732,-0.19796624279143682,-1.1243368294132052,-0.09160223140524071,2.260048042490588,2.6559399986472467
911.733,0.1212384340888164,1.1306675202568837,-0.19783029920496986,-1.1242080532147884,-0.10586489076561456,2.259647842103819,2.688885427593185
911.766,0.12122978956257491,1.130655516897753,-0.19779694492072775,-1.1241885746127167,-0.12003557861954217,2.2595836172165598,2.7217790943633418
911.799,0.12122399593680289,1.1306481787406373,-0.19777620060917567,-1.1241658057787625,-0.1344703629325581,2.2594958029216556,2.7559939782707126
911.834,0.12131815347711061,1.1306312772231006,-0.1978907562508514,-1.124277147676108,-0.148894109127502,2.259905351259185,2.790442649496379
911.866,0.12121555288579078,1.1306340553716936,-0.19774957305882435,-1.1241419488767441,-0.16387667932018246,2.2594502338085967,2.826593799465071
911.899,0.12133240392149869,1.1306233720521464,-0.19789798601603703,-1.1242598445207506,-0.17851466066567312,2.2598061360029558,2.8621534877077526
911.933,0.12134139044077585,1.1305965685745463,-0.19791158848583912,-1.1242751217577567,-0.19377600700098974,2.259618519648285,2.899444074559204
911.966,0.2662015961191992,1.1220254736397954,-0.001305159088909044,-1.0653977009985456,0.07636555251479149,2.196031049225576,2.327803827907065
911.999,0.27329425653528394,1.1220039249372702,0.0006850288307320234,-1.06441391437804,0.07636260250029663,2.196036147538333,2.327921807636088
912.033,0.28000247658739297,1.1220005640112778,0.0020581112001335686,-1.0630037593902286,0.0763626024822394,2.1960366604163397,2.3280192950064724
912.066,0.28651919266023346,1.1219952634559944,0.003074633176324595,-1.0612846794870783,0.07636361973484357,2.196034423987071,2.328086549644828
912.1,0.2927628624441053,1.1219894454465273,0.004077864459174839,-1.0592968022590274,0.07636158522963524,2.1960366619428,2.328149841630187
912.133,0.2986541528018932,1.1220292389852236,0.005293865053656006,-1.0568650677660094,0.07636158522963524,2.1960344385770814,2.3281990785453215
912.166,0.30391319285015905,1.1220193473377895,0.006657902515664477,-1.0545861702905421,0.07636463698744773,2.196032287756602,2.328297174598
912.199,0.3088546275183719,1.1219776757521542,0.008325019875613193,-1.0529231158177166,0.07636361973484357,2.196034423987071,2.328501909394328
912.233,0.313468261109319,1.121992267541718,0.010034204650260909,-1.0518144347219256,0.07636158522963524,2.1960300498008727,2.3287373859164298
912.266,0.31786597631929747,1.1220379221278265,0.01179046340971558,-1.051667515990339,0.0763626024822394,2.1960173119190802,2.328963486838425
912.299,0.32203134457126864,1.1221099515563147,0.01334941525181403,-1.0520402712351127,0.07635645863413809,2.1959615835036943,2.329148528272701
912.334,0.3260682062166123,1.1222332373284223,0.014220502649652519,-1.0527610885692795,0.07635823296809692,2.195884915036618,2.3293293007416302
912.366,0.3297541084137314,1.1222690873371386,0.014508546489723738,-1.0536639447487883,0.0763591786427776,2.1956057820442827,2.3295558680804427
912.4,0.3332814087257541,1.122486651970414,0.014526908902440515,-1.054426874502536,0.07635283306932447,2.195151034513848,2.3296278735949842
912.434,0.33637977023910615,1.1228231649448697,0.01452998584529091,-1.054817266729784,0.0763558789809709,2.19462060100007,2.3296765715656784
912.467,0.339093271831187,1.1233587832984713,0.01453819381393818,-1.0548904469160734,0.07635297629899448,2.194206375194334,2.329747026623154
912.499,0.3414636688812876,1.1239344718788455,0.014550565521044698,-1.0549039917505971,0.07635282722115516,2.194064820061526,2.3298508979224355
912.534,0.34349213840661197,1.1245541012890587,0.014543125194589076,-1.0549371860011323,0.07634987719191445,2.1940707215544735,2.3299820885390603
912.566,0.3451343594224146,1.1251121521305092,0.01453110197313878,-1.0549469450268758,0.07634576784902147,2.1940795569419613,2.3300544656618554
912.6,0.34630942993924896,1.1255399557815968,0.014540678080434483,-1.0549564949989423,0.07634524615598579,2.1940854311368048,2.3301693406441157
912.634,0.3468694862446886,1.1256665810200226,0.014578560679481675,-1.054968154164704,0.07634028831277782,2.194092743004761,2.3302171466303605
912.666,0.3468045836770099,1.125641532912821,0.014535828504788142,-1.0549540435879177,0.07633628004646119,2.19409857544923,2.330207596969987
912.7,0.3465325351734709,1.1255268708729604,0.014426611956929382,-1.0548897006741202,0.07633459518930402,2.1941170170268784,2.330188167494292
912.734,0.346440059437207,1.1255481100751643,0.014346759499641945,-1.0548993563952598,0.07633153028620618,2.1941182554441006,2.3301789919764753
912.767,0.3464512482575376,1.1256267767088892,0.01433955975269028,-1.0549355576936936,0.07633061475886331,2.1941196348142284,2.3301789483671973
912.8,0.3464618532669303,1.1256084154111416,0.014338458238454102,-1.0549262140716662,0.0763306147588624,2.1941164661172614,2.330177198313703
912.833,0.3464683194706862,1.1255275080370446,0.014340139905873132,-1.0548865614941263,0.07633153028620614,2.1941299716984783,2.330181041918479
912.867,0.34647913608216396,1.1255216245316648,0.014347935273148165,-1.0548638485172923,0.07632959750625823,2.194136522926239,2.3301662287775096
912.899,0.34647635202242244,1.1255322039587456,0.01434793527319766,-1.0548657623574196,0.07632664747370614,2.1941460010157803,2.3301762014340466
912.933,0.3464492123122833,1.1254926332980384,0.014328124339566818,-1.0548254580136602,0.07632563022110198,2.1941596197155846,2.3301717037992624
912.967,0.34639777295191065,1.1254300965224315,0.014301567191409336,-1.054720744099273,0.07632064568334156,2.194176772234928,2.330166210459752
913.001,0.34634409992979764,1.1253720738169088,0.01427140354393363,-1.0546465553137514,0.07631607974679107,2.1941949262339144,2.330162484301139
913.037,0.34632879579054987,1.1253230310626323,0.014264242016038578,-1.054586603674383,0.07631767745924563,2.194212330672251,2.330165091318157
913.067,0.3463624889415807,1.1252861495872382,0.014277632106641121,-1.054560548185863,0.07631414694871504,2.1942198889303106,2.3301626383687704
913.1,0.34636875925984034,1.1252510137805705,0.0142778163511473,-1.0545378881458647,0.0763118876775337,2.194226797885603,2.330155948930311
913.134,0.3461483300592487,1.12534022611496,0.014298257975934092,-1.054579568113553,0.037603356600487636,2.194085804040938,2.2375590383843615
913.167,0.3461326145303518,1.1252284510249346,0.014230993552296844,-1.0545811872679955,0.030463837184575127,2.194200197825875,2.2350362829788306
913.2,0.3459770177872379,1.1251688712366796,0.014316089112554664,-1.0544636906041758,0.016974741114415437,2.1940238617125942,2.231014485718644
913.234,0.34592834536567185,1.1251057830842006,0.01432719089867529,-1.054443093376233,0.004094238615316215,2.1939924000898205,2.225928569676185
913.268,0.345999048732784,1.1250842762719158,0.014174584240699062,-1.0544777255536761,-0.007813277402984653,2.1941717514452677,2.21958257954409
913.3,0.3463525151328037,1.1248790220314193,0.014272447702767315,-1.0542967874809086,0.07630393994083458,2.1943032616388054,2.3301455224507954
913.334,0.34636585819837407,1.1248469680239412,0.014277728662256768,-1.0542697291164742,0.07630293585194482,2.194307298659786,2.3301413132018514
913.367,0.34639290883041585,1.1248315867840124,0.014291512669671122,-1.0542555988134823,0.0763067714999569,2.194313147240532,2.330149590623708
913.4,0.3464073603012318,1.1248458729775561,0.014299998237619639,-1.0542707185615108,0.07630390263365057,2.1943130290258073,2.3301387797577933
913.434,0.3464288987053488,1.1248409751997988,0.014310989903988089,-1.054268036646006,0.07630598759170008,2.1943175209495753,2.3301463374026827
913.467,0.34643071393903746,1.1248330638956914,0.01431698102354476,-1.054257403896273,0.0763017538584087,2.194313146763377,2.3301398058718514
913.501,0.34641230166585824,1.1248323486395049,0.014314185271791225,-1.0542599407032451,0.07630389092632908,2.1943186208539536,2.330141920257175
913.535,0.3464168482711256,1.1248406630905412,0.014311679617859842,-1.05426770491349,0.07630359752144618,2.1943152829938497,2.3301320674645987
913.567,0.3464191009287142,1.1248376406117508,0.014314185271791197,-1.054262693605925,0.07630070466361952,2.1943186337392957,2.330133173361172
913.6,0.3464222397003255,1.1248273395906414,0.0143088955582496,-1.05426017728739,0.07630150255116239,2.194316910233082,2.3301407620155064
913.634,0.3464597451226753,1.1248266388081145,0.01433046616471556,-1.0542697380561636,0.07629637727403886,2.194320285205324,2.330131953065034
913.667,0.3464834854501649,1.1248291322473893,0.014342837741549156,-1.0542832956481398,0.07629427212037398,2.194310346139026,2.33013826944785
913.7,0.34645165820563734,1.124888989532203,0.01432483738623237,-1.054306997131866,0.07629518764548832,2.194304838988191,2.330139386248171
913.734,0.34642696920514643,1.1249183783447017,0.014310563661717889,-1.0543379438852725,0.07629518764548834,2.1942964638206695,2.330130786956898
913.766,0.3464450035933561,1.1249237744558798,0.014320576938620783,-1.0543563798923727,0.07629518764548832,2.194289851678742,2.3301306576602743
913.8,0.34644071109059466,1.1249630794859766,0.014318071285283401,-1.0543919232958363,0.0762932548655404,2.194274117358274,2.3301339126895697
913.834,0.34644007991698544,1.1250214325687935,0.01431807128483789,-1.0544329611941947,0.07629427211814456,2.1942627894628193,2.3301241630705083
913.867,0.3464350176298727,1.1250540658145094,0.014309997511537451,-1.0544674657292723,0.07629722215069665,2.194252527927175,2.3301306574628775
913.9,0.34644249902099256,1.1250229718911977,0.014325866652162452,-1.0545925571450676,0.07630222359914136,2.1942456393241883,2.3301317764586873
913.934,0.34647757989120626,1.125067467420018,0.01434812746357705,-1.0546277068451444,0.07630210496319664,2.1942309023857876,2.330122887115174
913.967,0.34649303135572845,1.1251361799325725,0.014359778161460033,-1.054718695738276,0.07630312237839021,2.194216164914536,2.3301251642988148
914.0,0.34649914565976164,1.125155465479244,0.014364682130963813,-1.0547952590317133,0.0763055121415956,2.1942035695711777,2.3301269473325252
914.034,0.34651342253961936,1.125156503041585,0.014357724308382608,-1.0548124193069148,0.07630708998850204,2.1941919050354035,2.3301284195244287
914.067,0.3465024172810086,1.1251773573235766,0.014357715429705487,-1.0548414809007003,0.07630846219792674,2.1941781070120103,2.330129525418347
914.1,0.3465048441964581,1.1252095127203485,0.014363005142752138,-1.0548996320354271,0.07631320981892399,2.1941625737550217,2.330132793543801
914.134,0.34652323292136733,1.125228641141925,0.014366164093726866,-1.05500749738282,0.0763135658900185,2.194144042300335,2.3301306574805767
914.166,0.34648543236590623,1.1252491752242768,0.014347826179603243,-1.0551973908361347,0.07632271328446126,2.1941170837075354,2.329934083681995
914.2,0.3464362530953113,1.1251928617347786,0.014338649989833871,-1.0562103324284804,0.07631660582999247,2.194071814241396,2.329331857032265
914.235,0.3464207208147659,1.1251576017575713,0.014338238677826888,-1.0574707250280637,0.07631865796577302,2.19403249865306,2.329337493911622
914.267,0.3463819564266648,1.1251472560654052,0.01431418820103525,-1.0591953988902447,0.0763248067829344,2.1940382676246077,2.3293366169896843
914.3,0.346177727835753,1.125107858301375,0.01427910685827371,-1.061154726759121,0.07632378953033023,2.1940404467582697,2.3293276541698864
914.334,0.34571779945277953,1.1251089642174865,0.01394452331938977,-1.0627909815978662,0.0763248067829344,2.194045205723444,2.329335391496064
914.367,0.3463069556490952,1.1246239621875205,0.014390812250984375,-1.0591445165617905,0.03648420463111357,2.1940209409679703,2.421163388698414
914.4,0.3461852268446677,1.124917712839089,0.01425510565128274,-1.0597552392283625,0.03089139045183309,2.194112193813357,2.4228424416288927
914.434,0.34606746140038336,1.1251333539311812,0.014141384569713367,-1.0598248523870701,0.018318542078226585,2.194126563589105,2.4315040419515377
914.467,0.34601664764010565,1.1252314398634766,0.014083827664988391,-1.0598880946890405,0.006173270509728823,2.194146261904784,2.439553084890603
914.5,0.3460026812321235,1.125278662609781,0.014037230735757689,-1.0599266735230497,-0.006248260337858191,2.194175450162934,2.447635426173621
914.533,0.34600134523533654,1.1253060083096527,0.014001976525061188,-1.059943322490259,-0.01890282312544489,2.194217197655899,2.4557755958321152
914.567,0.34589668582940014,1.125314218752231,0.014135833605770642,-1.059883089352474,-0.03297578321693351,2.193935247566417,2.466102077005054
914.6,0.3459949794434305,1.1253181271890282,0.01398825430015016,-1.059954419570861,-0.04602642212849162,2.194205057092983,2.4733608661940316
914.634,0.3460064080177361,1.1253144647170181,0.013960787223386895,-1.0599647684730424,-0.059608740304322616,2.1942464419134353,2.482416293518307
914.667,0.321058943973063,1.1238131830487406,0.01242766169186548,-1.0751187923302612,0.07637327909153549,2.19015835232468,2.3293327540339197
914.7,0.3166261221875301,1.1232851586722024,0.011926923566644768,-1.0793449402160282,0.0763709571181791,2.1888580969734885,2.3293376093211267
914.734,0.31165407233661974,1.1224439215156912,0.011255547245464256,-1.0839257304022236,0.07636662072584303,2.1878896953381832,2.329337636327552
914.767,0.30613431717727624,1.121285148576311,0.010216150197156024,-1.0883345375195668,0.07637198372469096,2.187382504631307,2.329339696264084
914.8,0.300086686349713,1.11945851481911,0.009094491088844303,-1.0934330881966259,0.07637176280081924,2.187244351142553,2.3293376624921223
914.834,0.2931420399566237,1.1168753810224412,0.008226760480237572,-1.099223838363596,0.07637271912434443,2.186935977828861,2.3293397609544315
914.867,0.2855998244106103,1.1135229039347803,0.008002420307668798,-1.105921368696683,0.07636661074614587,2.186564254807097,2.329337640688868
914.9,0.27763214140944886,1.1091511139031007,0.007996058762634801,-1.1136872881440243,0.07636656976739566,2.185659628554209,2.3293310169238812
914.934,0.26932785086373306,1.1038495598582965,0.00800351423341419,-1.1229188377436543,0.07636158522963524,2.184236351487666,2.32933774098317
914.967,0.26057777341257793,1.0980043289518266,0.00803741449186875,-1.1330540152287034,0.0763519138583149,2.1820448878107555,2.329326540454282
915.0,0.251838720117121,1.091745362075913,0.008002185440751973,-1.1439540662676093,0.0763489616645707,2.1789685053220786,2.329319000005029
915.034,0.24273028355828852,1.084222116863904,0.007968644998669897,-1.1558252848841748,0.07633816915095651,2.175937364935038,2.3291251297383626
915.067,0.23322250875450243,1.0763731750993621,0.007946708098848756,-1.1687062448315042,0.07633038151460451,2.173776840353548,2.3286663782035957
915.1,0.2235876903061192,1.068341998902258,0.007931788119555354,-1.1818210680619785,0.07631087042225838,2.1731533878363454,2.327859732821136
915.134,0.21375536663067302,1.0602264288726573,0.007785803530353788,-1.194757897109534,0.0762923740352796,2.173174156709554,2.326973852992601
915.167,0.2037526496568832,1.0516236439095188,0.007722744907055705,-1.2074459123836117,0.07626458246601125,2.173183641371983,2.3255195057356666
915.2,0.1936619315018554,1.0436960744583466,0.007645266382916808,-1.2193859139210255,0.07613330508995779,2.173201719086376,2.3241251155079716
915.234,0.18336361959979885,1.0361170332292087,0.007302109800737754,-1.2299506755985674,0.07607290971692061,2.1732553513215156,2.3228108006796453
915.267,0.17321897142354267,1.0282628188882172,0.006932303181147413,-1.2398211006816207,0.07600346413147278,2.173297657922978,2.321235016739077
915.3,0.16291367455092212,1.0214402372223876,0.006176061053221918,-1.248320758388201,0.07572802044986711,2.173331550586728,2.3189196597721415
915.334,0.15254454268823087,1.0151773722286404,0.005154087177418798,-1.2559122359628792,0.07565487403732328,2.1733724053160604,2.316079725059543
915.367,0.14223025647971263,1.009128876078113,0.00394023513008858,-1.2628812048219804,0.0756173676346984,2.1734235399831996,2.312817709007208
915.4,0.13176632992373138,1.0036728665374444,0.0020285210038157786,-1.2688931443857043,0.07552484228357753,2.1734519416940334,2.3101157190070634
915.434,0.12163471111326646,0.9988283146567545,-0.0004142010501669719,-1.2743256054869616,0.07544529878556233,2.173567775571652,2.3090083448275402
915.467,0.11144923201886646,0.9947356445708712,-0.0033706450446268077,-1.2790721799186926,0.07537889632853181,2.1738596983610456,2.3086527807027357
915.5,0.1011833889368117,0.9916665975236172,-0.006840661855307624,-1.2826501686055067,0.07518904831098681,2.1739804940663836,2.3084083430705964
915.534,0.09112298645500876,0.9894632180631777,-0.01096401115800139,-1.2850734100029595,0.07489851351429815,2.174070889884019,2.3079721593928104
915.567,0.08115252060402632,0.9883613810520279,-0.016229784898163343,-1.285909166902808,0.07484161721950483,2.174337154374295,2.3072755314291546
915.6,0.07154992580746646,0.9880051743931635,-0.022406609192488422,-1.285809048569195,0.0748293256605116,2.174901588733148,2.306443702118597
915.634,0.09474658657713064,0.9911116374159583,-0.011400505515154258,-1.2806448475878005,0.04269534573049949,2.1741795999334954,2.2170710462797683
915.667,0.08659717372792386,0.990071870664404,-0.015941190639436442,-1.2809741024778276,0.04104422173821565,2.1744247024781096,2.2145355904326323
915.699,0.08210421172707605,0.9897110898080541,-0.018536637751663143,-1.2806989302825,0.0321107457466443,2.1745359990525728,2.211577624906841
915.734,0.07972336685496817,0.9895287772981627,-0.019789976918366925,-1.2805350367028785,0.021667949307264678,2.1743956545879186,2.2100027936356668
915.766,0.0785447426598127,0.9894265184399513,-0.020431860544475988,-1.2804814565634537,0.011741126047871475,2.1743952032973564,2.2061273123431917
915.799,0.0779046099630305,0.9893692059344312,-0.020788801901211684,-1.2804455287767658,0.0015440449859287497,2.174374757045401,2.2011326705060092
915.833,0.07753346515177562,0.9893507508007993,-0.02097327243460878,-1.280406264162938,-0.008876919422914575,2.1743434452625188,2.1948455535016755
915.867,0.07729817161076902,0.9893284362158035,-0.021062802498427402,-1.2803870307125536,-0.019372721691406802,2.174310677533036,2.187105840519582
915.9,0.07716217920049573,0.9893129842151493,-0.0211289968326005,-1.2803727034237502,-0.029927689363182353,2.1742787745115297,2.1779233815546917
915.933,0.07715942687270783,0.9892886889534731,-0.02126580151143198,-1.2804422780722229,-0.03968503130840251,2.1744571016254035,2.166046790671011
915.967,0.07701991747037074,0.9893026692164186,-0.02118437858797595,-1.2803627958215689,-0.05120118737336643,2.1742671011655084,2.1552841332368864
916.0,0.07706398181601504,0.9892849767816507,-0.021301934471340545,-1.280430491132769,-0.061134387666230694,2.1744516868729153,2.140761137943585
916.034,0.07705943266626836,0.9892734474260774,-0.021341387154087066,-1.2804444050828234,-0.07182965356526871,2.174477573063257,2.125998723957945
916.066,-0.05637371327325951,0.9880107708798652,-0.14920411208495704,-1.273181207789849,0.07483485225836435,2.2177804713150335,2.304444748929139
916.099,-0.06402353329380878,0.9880165544553932,-0.1572666233510737,-1.270757928581641,0.07484206733438704,2.2242420865254977,2.30445952487746
916.134,-0.07127281433717224,0.9880218171510116,-0.1649524023181193,-1.267816470600787,0.07484003282917868,2.230735243186941,2.3045013165659634
916.166,-0.07796796575448206,0.9880813565956684,-0.17212202786003106,-1.2643006581374157,0.07483810004923078,2.237227354754595,2.3045410196622393
916.2,-0.08399836967639172,0.9880608259996853,-0.17845048985001036,-1.2609702157927536,0.07484105008178285,2.243435081490502,2.304571460399474
916.234,-0.08942205220066526,0.9880745754019461,-0.18439359160766808,-1.257792762661497,0.07483259260948792,2.2497887210015746,2.304576973468901
916.267,-0.09420042701471197,0.9880823972719666,-0.1899479144622625,-1.2550796743236718,0.07482973022486158,2.256717622750086,2.304574909743539
916.301,-0.09842384956686222,0.9880856182784051,-0.19526007983587945,-1.2523974767176802,0.07482833050128036,2.262469228257465,2.3045802301030185
916.334,-0.10174564225677567,0.9880799863510434,-0.2004313005405598,-1.2499585450943618,0.07483151612016889,2.267014630803369,2.304583975195083
916.367,-0.10426298838534849,0.9880558634409088,-0.2052732699601385,-1.2476624395411782,0.07482958925095144,2.2706323492192144,2.304586727568777
916.401,-0.10611854867512141,0.9880909168283222,-0.20971992184776836,-1.2453343136298556,0.07482847245899464,2.27315754144915,2.304608934868701
916.434,-0.10723170478094174,0.988088132775985,-0.21362621560522055,-1.2431514914780792,0.07482837443450009,2.2745310594459323,2.3046468730190304
916.467,-0.10762679283053056,0.9881475107099806,-0.216714821102994,-1.2408230167177428,0.07483270912995513,2.274821083189384,2.304749140619169
916.5,-0.10753761311674288,0.9882768074998609,-0.21839561764881893,-1.2385733267553451,0.07483606554402245,2.2748291671606222,2.3049452500987084
916.534,-0.10712267651666507,0.9883456869379007,-0.21826850417625454,-1.2369282669197932,0.07483911730183494,2.2748283956405766,2.3050527182757907
916.566,-0.10578949222785097,0.9885248294550437,-0.2175025069583726,-1.2360189685842495,0.07483845491762514,2.274838863013694,2.3051155362290014
916.6,-0.10363356419887927,0.9888689196869983,-0.21601375522479263,-1.235811781495106,0.07483947217022931,2.274853288136515,2.3051871516791893
916.634,-0.10077407350435384,0.9895362117177853,-0.2137360613673607,-1.2358117815445533,0.07484672448918187,2.274860584595221,2.3053061557993173
916.666,-0.09705087563256272,0.9905397496766374,-0.21086351332902645,-1.2358125761775927,0.07484980809026201,2.2749063855522,2.3054005395676853
916.7,-0.09253948481223048,0.9918136553832732,-0.2076181273541377,-1.2358055263062286,0.07485705597403666,2.2749942972811357,2.3054888016088504
916.733,-0.08752688322081335,0.9932768354843382,-0.2040654293370438,-1.235793736802511,0.07485958335134718,2.2752985288646035,2.3055790797430857
916.767,-0.08193776542305112,0.9947858384816346,-0.20005986351239305,-1.2357930180880117,0.07486830909354937,2.2756789657292407,2.30572459817109
916.799,-0.075849860746415,0.9963305193477168,-0.1957329963725898,-1.2357469102222693,0.07487182507873162,2.2762760617823514,2.305992369920284
916.834,-0.06901682494149924,0.9980056820766575,-0.19122926979788685,-1.235456172163615,0.07488030063443714,2.2772604929514695,2.3061003714291926
916.866,-0.061840086944025395,0.9996867442093617,-0.18682599330679486,-1.2350461121767142,0.07488906360997093,2.278683744887815,2.3062782987493717
916.9,-0.05410507517835293,1.0011633450719586,-0.18260665434946033,-1.234707152549642,0.07489463028311637,2.28071691548264,2.306482215462599
916.934,-0.04588439265044908,1.0023976313208582,-0.17843490561802966,-1.234441780489228,0.07490513446429256,2.2833719336456264,2.3067901147802945
916.967,-0.03724335703394494,1.003411408360432,-0.17439313210705334,-1.2343665593563589,0.07491094265664769,2.287259629179715,2.3070139300212973
917.0,-0.02816761489792127,1.0042460665108366,-0.17069996591388834,-1.2343542375526708,0.07491617100437482,2.2928434798993056,2.307049929012485
917.034,-0.018465159631439573,1.0049495729054094,-0.16744344350180007,-1.2343429092304516,0.07491776774987853,2.29887157282647,2.307061234242504
917.067,-0.008488710456849544,1.0056153133490553,-0.16483962040353436,-1.2343491581895887,0.07491870104528406,2.304248738217522,2.3071088864691216
917.1,0.0017249668760646298,1.0063523159056587,-0.16274675677265943,-1.2343441851641817,0.07493499677075367,2.309142239754043,2.307346280344166
917.134,0.012236073517186937,1.0072103936766759,-0.16070332448718652,-1.2343466789944073,0.07497483161052954,2.3135711020299508,2.3078259293871226
917.167,0.02219223280613065,1.0082312266420035,-0.15894750013855768,-1.2343382633929485,0.07516412281329916,2.3169732168240174,2.308363364834197
917.199,0.0325329316287505,1.009515425331096,-0.15702391511973643,-1.2342466378748893,0.07520751598938183,2.319706753864093,2.3087185635701815
917.233,0.04282142809282611,1.0111745669326824,-0.1550975484178797,-1.2337183469701571,0.07521894629887979,2.3219868063201217,2.3088065581947315
917.266,0.021014859104696804,1.0084014065171027,-0.15968698750414845,-1.2340794450962358,0.03866140740351032,2.3151580059927515,2.416443650816875
917.3,0.028255009416314536,1.0089079932684077,-0.15601249726890742,-1.2336677753251868,0.028452776760362397,2.31533330130339,2.4261232333362095
917.333,0.03232592649216404,1.009080803630269,-0.15387831549506092,-1.2336271283966713,0.016366707497079247,2.3156144421376545,2.4357556192440484
917.366,0.03432042483496023,1.0091542754637741,-0.15277202710182092,-1.2335647455392786,0.004059525183548018,2.315678669634437,2.448265092047924
917.4,0.03540515929316079,1.009182649991443,-0.15220745132178504,-1.2335458835562596,-0.008370445833764784,2.3157491579180203,2.46273389013159
917.433,0.036007874116092964,1.0092084818747686,-0.15191351538948084,-1.233528901239115,-0.020981572686116223,2.315826501224322,2.479390238080157
917.466,0.036334932339586956,1.00920344226925,-0.15173818578060505,-1.2335317956467513,-0.033761301607334815,2.3158939427217753,2.498325624124412
917.5,0.10867655092339402,1.0341561981540939,-0.13386908417155338,-1.2095328809891062,0.075230467976393,2.3275469450856408,2.308829654494056
917.534,0.11748257546729857,1.0384885674821185,-0.12946788586081526,-1.203907893667329,0.07523046798299536,2.327608670878546,2.3088321804707213
917.566,0.1259072363170988,1.0427865090884634,-0.12473495888690518,-1.197881883882496,0.07523064879307066,2.3276405788948424,2.3088480040627295
917.6,0.13428930023265248,1.0469048764905895,-0.11945875239852355,-1.1916294714375655,0.07523730066418362,2.3276815593927327,2.3088731608787345
917.633,0.1428006929260798,1.0512881745285996,-0.11364027290982694,-1.1848856560112948,0.07524676374023802,2.327700553925382,2.3089310315879077
917.666,0.150920559200512,1.0555145711173344,-0.10740261197545686,-1.1781953677907158,0.07526507191775761,2.3277993693340013,2.309193425496498
917.699,0.15907113359499273,1.0597306681512817,-0.10086968522967446,-1.171875276002912,0.07526421921451885,2.3282839404797655,2.30959234122026
917.734,0.16709680363099955,1.0633953321277485,-0.09377901945105065,-1.1661106797678686,0.07526402540008197,2.3292803036972636,2.309934810569536
917.767,0.1749946860890687,1.066845177802859,-0.0868282475286332,-1.1603016906872825,0.07526607304881179,2.330107030623086,2.3101952323317954
917.8,0.18307686555441818,1.0700818977680222,-0.08014227655031693,-1.1546430783895005,0.07526775943897694,2.330669553494815,2.310287573359384
917.834,0.19115011853591607,1.0729146304104364,-0.07367234093715455,-1.1496967610537934,0.07527085062861441,2.3312202155663964,2.310298402304564
917.867,0.17380528540188234,1.064787070126707,-0.08864751218312339,-1.1651880420370482,0.03717822836330953,2.329244158970301,2.251008944811584
917.9,0.2067115756056719,1.077897088593154,-0.062300881321186545,-1.1413653076581907,0.07528043903894348,2.3317841048314216,2.3103690567621977
917.933,0.2147264668692247,1.0799367893677385,-0.057365164533509184,-1.1381818553013787,0.07528237230579057,2.331834433595854,2.3103758070943266
917.967,0.22265332792325504,1.0815803701811642,-0.05299828054060119,-1.1354592950824918,0.07528350784785953,2.331841733132733,2.310379735886445
918.0,0.19707526982024692,1.07452816923535,-0.0700697866600084,-1.1479753379193411,0.03318063846377761,2.3308453462984815,2.300581255360223
918.034,0.20483830235547273,1.0764936856950458,-0.06498823972880885,-1.1445425535413953,0.03359110126929998,2.331200147532172,2.320232054506514
918.066,0.20969937913738423,1.0761808968569904,-0.06269934195566318,-1.1453644206886011,0.020859967704034865,2.331001738673713,2.3314759811409296
918.1,0.21179532265447865,1.0762845180770508,-0.06168343315730862,-1.1451975768764626,0.010765197831070772,2.331279872689173,2.338947779023041
918.133,0.21260957726508511,1.0762671260313885,-0.06128873830780179,-1.1452167298369806,-0.0003642698500065933,2.3312802442247538,2.350036740469452
918.166,0.21296475476043764,1.0762561713709475,-0.06111089149761462,-1.1452140029463234,-0.011538978334308503,2.33134139817264,2.3630431496224134
918.2,0.2130620140867041,1.0762683997873443,-0.060936319448336995,-1.145115790672353,-0.02392273758331065,2.3310920623029556,2.3804363443894125
918.234,0.2132346500292721,1.0762342101227285,-0.06100429096794713,-1.1452153932069198,-0.03528717424554184,2.331381098296026,2.396793588536866
918.267,0.2132891995151205,1.07624151073753,-0.06099105684584494,-1.1451974990292024,-0.047246517580854075,2.331393945746475,2.416737248502013
918.3,0.21332113092580673,1.0762239045044062,-0.06098481366449526,-1.1452155774301005,-0.05937313181773529,2.331453534994603,2.4389549919915403
918.333,0.21335744089799658,1.076208004804724,-0.06100485559606206,-1.1452307950824334,-0.07169933508634774,2.3315022418183524,2.4635326643883086
918.366,0.2133889855645119,1.076212087154099,-0.06102555006078347,-1.1452319895646932,-0.08416078621238832,2.3315600038329567,2.4899668105537778
918.4,0.21330829043175203,1.0762059738005236,-0.060913845264073174,-1.1451461484375214,-0.09796115726855437,2.3312551819043037,2.5204757395230057
918.435,0.21330770716117353,1.07621476809042,-0.06090027105117368,-1.1451154450676722,-0.1111466306393547,2.331210449461672,2.5500489807513933
918.467,0.213287206304563,1.0762037748023392,-0.0608638239417747,-1.1450964697981139,-0.1245870598867933,2.33113857214493,2.581279657004181
918.5,0.21327950911614213,1.0761941717175931,-0.060851647302690104,-1.145078980194075,-0.1382358840675657,2.3310674406572574,2.613682583373354
918.534,0.21326500275183768,1.076203125743227,-0.06082771166690826,-1.1450393274358763,-0.15217920384406636,2.3309849882034293,2.647396298734222
918.566,0.21324048394224793,1.0761924571551251,-0.06079188125476609,-1.145019128075882,-0.1662676139033108,2.3309052546213422,2.6818342308674588
918.6,0.21322975145713485,1.0761826189985175,-0.06077886540496813,-1.1450000853621098,-0.18059592139337255,2.3308245678914705,2.717161488910765
918.634,0.21321281956273896,1.0761916101265196,-0.060752688367599283,-1.1449583091960909,-0.1952216168392784,2.330730716708919,2.7535129027831253
918.667,0.21318661948334583,1.0761810636935483,-0.06071418036811238,-1.1449359602901659,-0.2099919741897276,2.330640152118397,2.7905207385701534
918.699,0.21317412107792144,1.0761709918250002,-0.06069776219216827,-1.144914692469026,-0.22501715384568044,2.330548328836631,2.8284302668229824
918.733,0.21326866553555224,1.0761403137045509,-0.060829240413373675,-1.1450284950845369,-0.23909741091349979,2.330912754685663,2.8641511703827796
918.766,0.21324429581658233,1.0761664036155336,-0.0607584353327546,-1.1449947965393745,-0.2532531138920975,2.3305087256253323,2.8974766575473083
918.799,0.21336945899196724,1.076279776167416,-0.0607296984572816,-1.1450536754424272,-0.25711639590357205,2.3305288539248856,2.897300095762329
918.834,0.21343461190670343,1.0763414180442945,-0.06070836658315493,-1.1451001007286035,-0.26026290929137197,2.3305407149281976,2.8973012936824087
918.867,0.332211461261022,1.1016503146298773,-0.030976476537763267,-1.1277005444636172,0.07537416060026848,2.338171106390637,2.311030550509843
918.9,0.3309014597027835,1.1016768223932054,-0.032652709485767734,-1.1276604424485597,0.07537427892923963,2.3386441330946712,2.3110251911124555
918.934,0.32891337682986393,1.1018664591579868,-0.034897753452513,-1.1276579783535188,0.07536803525249208,2.3390723901314727,2.3110213638611294
918.967,0.32644975666160014,1.102288263410129,-0.03794903019204328,-1.1276643776375164,0.07536705819401428,2.3395793164903034,2.311011102326789
918.999,0.32353684941206856,1.1029853095063904,-0.04214570198418331,-1.1276751131425655,0.07536461534113978,2.3403252921689957,2.3110019588123314
919.034,0.3201931228183836,1.1039679686406405,-0.0474113589713758,-1.127686472336654,0.07536154634753862,2.3412722802575407,2.3110015655827385
919.066,0.3164467000737706,1.1052429814400992,-0.05378208836028957,-1.1277021010358672,0.0753572241432036,2.342136546561346,2.310995284048031
919.1,0.3121812548948897,1.1068004177288255,-0.06097684302919532,-1.1277122317362158,0.0753508555807759,2.343146650057223,2.3109821388919065
919.134,0.3077054846286703,1.1086448117486971,-0.06903949929859853,-1.1277440557083174,0.07534535051422354,2.3445385736585767,2.3109355545433914
919.167,0.3029666439114332,1.1107796405814103,-0.07806145190955677,-1.1277486255378053,0.0753400630487336,2.346404956612781,2.310752888656392
919.199,0.29770499954162954,1.11313397691221,-0.08780629608234383,-1.127758884053645,0.07533539134505644,2.3491125491174576,2.310672281649887
919.234,0.2920031257003412,1.1157737685956215,-0.0981830222154293,-1.1277414344233394,0.07532066580321593,2.3527425207394708,2.3105803556110733
919.266,0.28595560246099294,1.118450798061422,-0.10910538524016308,-1.1277238909147371,0.07531580868152445,2.357196669951101,2.310460268389359
919.299,0.2796519747414485,1.1212938901875629,-0.12052055638152592,-1.127720750308412,0.07530763021994334,2.3623773320155883,2.3103912224112184
919.333,0.2731303195857395,1.1241181007103465,-0.1322230666569507,-1.1277005218774723,0.075301904473351,2.3687668131838193,2.3103376062149095
919.367,0.2660494932249477,1.1269387589882096,-0.14443902355536567,-1.1276874567867143,0.07529141257868874,2.3764804758938234,2.31018087959075
919.4,0.25893959232485697,1.1297160966190862,-0.15638653657991358,-1.1275198529973383,0.07526407480738197,2.3845095789887214,2.3100380504247076
919.434,0.25159118384217843,1.1320463988639449,-0.16841816128635587,-1.1274908570737112,0.07524325262347452,2.3931482742785724,2.3098859241696363
919.466,0.2445368841023313,1.133857024803054,-0.17970386017331408,-1.1275017386305823,0.07521787197528902,2.401001163020257,2.309789657427996
919.499,0.2369166955303095,1.1350812454111603,-0.19125802043781318,-1.1275077501711737,0.07520199965796859,2.4088726558695064,2.3097451852336572
919.534,0.22941816456422742,1.1356950225428706,-0.20196083556793326,-1.1275080596858644,0.07519109634775285,2.4164181542317613,2.3097202915884547
919.567,0.22182223815668686,1.1356959707576664,-0.21209439721382492,-1.1274549994961658,0.0751794373761319,2.4224468412862374,2.309690338305926
919.6,0.2140085247415429,1.1356246508864916,-0.22221961626833278,-1.127159514985314,0.07517511981065894,2.4272928183295672,2.3096309776110853
919.634,0.20649167689061404,1.1356333811352823,-0.23213044498612934,-1.1263454863461724,0.07516107003679001,2.430684053931985,2.309582659705954
919.667,0.19907209853320856,1.1356145972435931,-0.2420309068375208,-1.1256269637636112,0.07516064810090717,2.4320319599145903,2.3095577322777605
919.7,0.2164895944031997,1.1368183067336366,-0.2177808576799114,-1.1274929296415008,0.03442867941073402,2.422122517070413,2.3425110390448083
919.734,0.20834369130820818,1.1362360635828948,-0.2243103869784413,-1.1273958697108242,0.030457789104861632,2.423702062651687,2.357583034446339
919.767,0.20296172379124577,1.135535275188773,-0.22654546793425023,-1.127537978779504,0.016761158074610094,2.423147017378504,2.3840267152870585
919.8,0.20078328088226716,1.1352891551167934,-0.22783510383925432,-1.1276939644783184,0.005617100896833094,2.4233923477091217,2.4069301308046835
919.834,0.19962184545093287,1.1351593359476144,-0.22843248255517423,-1.127753043348931,-0.006902198042966212,2.4233633712140445,2.434497284603154
919.867,0.19905331331789178,1.135119110649021,-0.22875877881075812,-1.1277812614556888,-0.019455478114618785,2.423391713008174,2.4628367181571544
919.9,0.19866454345011508,1.1350783592511489,-0.22882952492748654,-1.1277151182174388,-0.03341343560699084,2.423093627466729,2.4958356782199917
919.934,0.1985027937771946,1.1350728593653976,-0.22890177616031604,-1.1276938742093288,-0.04682904320418402,2.4230322709462655,2.5279060181061777
919.966,0.19839328499078324,1.1350542727901995,-0.2289166320981142,-1.1276778322155563,-0.06046523319487207,2.4229508118100647,2.5616893476023677
920.0,0.19833318752825146,1.1350386627787632,-0.2289341560040059,-1.127661699181628,-0.07432395287322713,2.422873915915691,2.5962785561547523
920.034,0.19837734425586184,1.135025993076641,-0.22903124447382073,-1.1277527038717796,-0.0881430956783964,2.423182830840993,2.6314949503935665
920.067,0.1982675905934892,1.1350217026138543,-0.2289414390031288,-1.1276392189798257,-0.1026779602722554,2.422818826471964,2.668847955299304
920.1,0.1983513417067302,1.1350126770658155,-0.22906104531841276,-1.127740161399836,-0.11687386401878186,2.423175052044197,2.7059286903290847
920.133,0.19825014011864273,1.135007934254629,-0.22896511801677022,-1.127618357364783,-0.1319394765796602,2.4227889661218622,2.7451936909653085
920.167,0.19822773331666355,1.1349969152419463,-0.22893911652113008,-1.1275974268256217,-0.1469129400205924,2.422713066968992,2.7845730822660553
920.2,0.19821279869951436,1.134983834418838,-0.22892695972181087,-1.1275748303482178,-0.16214104122833284,2.4226239388822126,2.8247973486857845
920.234,0.1982924417613976,1.1349694789560596,-0.22902471352782428,-1.1276804001721423,-0.17735872925017837,2.4230191559423773,2.86535711016659
920.266,0.11594091653993442,1.1348649144423635,-0.4323899204719234,-1.117452647509347,0.07406572919351641,2.4296717974340223,2.3036171722185292
920.3,0.11565709720115158,1.134903404446934,-0.44416869518888813,-1.1176609303572453,0.07406914373869486,2.428173318765568,2.303474507213532
920.334,0.11529966399372873,1.1348778372592208,-0.45429711755801705,-1.1179023522717735,0.07406711118088827,2.425723795007175,2.3034080317522982
920.367,0.11508179608629242,1.134882515171118,-0.4625447680082671,-1.117902371221848,0.0740660465757049,2.421990689489688,2.3032772494692604
920.4,0.11493301021431655,1.1348292711900743,-0.4687242319088887,-1.1178557811199146,0.07407016288461322,2.4160851723272785,2.30309842903198
920.434,0.11499756955738905,1.1348144046678654,-0.47358156827828923,-1.117824857111751,0.07407012294971622,2.4083258630595403,2.302461844764792
920.466,0.1150176471410136,1.1347773190345634,-0.47645990840859737,-1.117797237341997,0.07407413023047976,2.3988072854527474,2.3017734830574543
920.5,0.11504316991976919,1.1346900381144391,-0.47753920329266264,-1.1176539328116013,0.07408104908327484,2.386516166567748,2.301531654377342
920.534,0.11541554704820296,1.1344649791746508,-0.4773844818599623,-1.1175064452283765,0.07410046369577054,2.3689903812785005,2.3015327526397162
920.567,0.11660318511509359,1.134281631118644,-0.4770228028342777,-1.1174753683569134,0.07412097705237423,2.3474695362690965,2.301540382040644
920.6,0.09341048201013269,1.1297776459338493,-0.48092060503719125,-1.119722326055511,0.02962154112826454,2.386474898707135,2.308786696854094
920.634,0.09656734911197074,1.1301337219206626,-0.4813212010733068,-1.1196274420369416,0.029702423218727958,2.376870025415144,2.3027792536896072
920.667,0.09779292427609931,1.1304315626957067,-0.48015013797556083,-1.1192735131717626,0.015018731852898703,2.378740579505454,2.318796287925572
920.7,0.09844005210246021,1.1305070695667148,-0.4798894645494034,-1.1192209250584169,0.003920593651280058,2.3782667693075794,2.3337786772810176
920.734,0.0987690828702652,1.1305525837338815,-0.4798725454221975,-1.1192680396548447,-0.007813350133758057,2.3785756281029933,2.351706197337494
920.767,0.09884553458731116,1.1305416397717183,-0.4798239908152775,-1.1192553905192915,-0.019932660938137836,2.3785431823523933,2.372583327954718
920.8,0.09889074915598517,1.1305276474349837,-0.47984057135457636,-1.1192717999917825,-0.032190514814216975,2.3785805306555012,2.395174248079165
920.834,0.09880338266090316,1.130515774074091,-0.47973185788517014,-1.1191479485278846,-0.04578646266743114,2.3782772356022726,2.422840781679117
920.867,0.09890765057970974,1.130514476988826,-0.4798477225001676,-1.1192673359352963,-0.057585329026615284,2.3785959120930613,2.447006258846976
920.9,0.09891165186838702,1.1304984675503729,-0.47985654332096406,-1.1192728497982154,-0.07061318289463614,2.378596958882712,2.475530601969588
920.934,0.09892917207361673,1.1305038353058752,-0.4798865833706003,-1.119282858079476,-0.08369384887779141,2.378655888397537,2.504731684064854
920.967,0.09883535677938138,1.1304761016550637,-0.4797832969842011,-1.1191705341020572,-0.09817625691777465,2.378317441030747,2.5379695150471644
921.0,0.09883009176278801,1.1304788754378103,-0.4797771252387104,-1.1191436684260125,-0.11199916933109844,2.3782710097217876,2.5702060376124507
921.034,0.09892342078640848,1.1304618634488675,-0.47988199153887834,-1.1192692878908357,-0.1258829118319582,2.378614558352698,2.603154403311269
921.067,0.09893265519141714,1.130465409745816,-0.47990256810297005,-1.1192677734998489,-0.1401302990005675,2.378651148481632,2.6373894606026465
921.099,0.09883352464638051,1.1304358450140795,-0.4797902301534229,-1.1191430232669308,-0.15587347534705742,2.378263131515814,2.6752995544105325
921.134,0.09882474795011387,1.130435585903478,-0.4797774268268009,-1.1191083266574173,-0.17103517690160341,2.378195974895574,2.7121547236698405
921.167,0.09892606896444,1.130417694861313,-0.47989343501420123,-1.119246772953577,-0.18615913302321818,2.3786004354822055,2.7491805216725265
921.2,0.09881744133339332,1.1303995107915012,-0.4797676133874553,-1.1190949185077352,-0.2020809447021481,2.3781445388564,2.788250718563594
921.234,0.09880886072647943,1.1303981138737003,-0.47974835325459786,-1.119056039030185,-0.21807735852286214,2.3779971525702805,2.8275736969741736
921.267,0.09879043679553856,1.1303783944865504,-0.4797051479301109,-1.119017043338821,-0.23417986391712287,2.377656287273936,2.8675045485528976
921.3,0.09892908220823227,1.1304360116975278,-0.47983054851979023,-1.1191616454251712,-0.24736462576415352,2.3776438386516787,2.89740259756028
921.333,0.14951005146684024,1.132823644671596,-0.2869561048713891,-1.0388436712062965,0.08466565885732277,2.028561971488831,2.304882820444193
921.367,0.14962558223945002,1.1328194330601566,-0.2688373660923279,-1.0337887578322091,0.08695475667129657,2.0201260361799203,2.3052653629134365
921.4,0.1497407843702457,1.1329000692976277,-0.25083340205023474,-1.0283629223492652,0.08822338195349728,2.0115885703089784,2.3057626556350392
921.434,0.1499238443036096,1.132841728165112,-0.23268060437098984,-1.0235670444461438,0.08836151226659733,2.0031800595973017,2.3070354936653468
921.467,0.15025904799021414,1.132891522996288,-0.2162453790965317,-1.0193904317609646,0.08837110140358868,1.995900885098511,2.3085230519870676
921.5,0.15078991061349326,1.1329282054209935,-0.19859921304233624,-1.0153775594447907,0.08835957080489906,1.989892361602252,2.31013705712582
