yuan18844-afk/dissertation/catkin_ws/src/franka_digital_twin/analysis/data/gazebo_smooth2_20250728_072359.csv
time,panda_joint1,panda_joint2,panda_joint3,panda_joint4,panda_joint5,panda_joint6,panda_joint7
970.133,0.37546787904995915,1.157256744936893,-0.05080441261174386,-0.9893563938926712,0.08817876700714529,2.1231283526553044,2.389561196948198
970.166,0.37547387739649984,1.157259965846413,-0.05080654099426832,-0.9893518327790414,0.08817966932679049,2.1231262556706922,2.389565491197823
970.199,0.3754660820291753,1.1572549545388473,-0.05080691826552675,-0.9893518327913765,0.08818024975351871,2.1231263341624067,2.3895690071172373
970.233,0.37546858768295815,1.1572549545388473,-0.050809702325285526,-0.9893571125117623,0.0881767521275153,2.1231272341619567,2.3895658906437167
970.268,0.37547387739649984,1.1572574601926302,-0.05080441261174386,-0.9893521529415197,0.08817694008041582,2.123126216424836,2.3895632641234514
970.299,0.37547137174271694,1.157259965846413,-0.05080162855198509,-0.9893543384451088,0.08817673882074178,2.1231294716331695,2.389566576522043
970.334,0.37547387739649984,1.157259965846413,-0.05080691826552675,-0.9893518327790414,0.08818116751378297,2.1231272336774403,2.3895621480293032
970.367,0.37547137174271694,1.1572627499061718,-0.05080691826552675,-0.9893571225049201,0.0881764492888293,2.123130590611034,2.389565688880607
970.4,0.3754660820291753,1.1572521704790886,-0.05080691826552675,-0.9893543384451559,0.08817696218364403,2.1231272336774403,2.3895626127510283
970.433,0.37546858768295815,1.1572599648652666,-0.05080970200012936,-0.9893518324582733,0.08817789698614303,2.1231272336774403,2.3895680404181308
970.467,0.37547137174271694,1.1572574601926302,-0.05080441261174385,-0.9893518327913785,0.08817746703021648,2.1231272336774403,2.389570210674046
970.5,0.37547137174271694,1.1572549545388473,-0.05080971108406195,-0.9893571215056044,0.08817643320765971,2.123128352655302,2.3895643235808794
970.534,0.37547137174271705,1.1572574601926302,-0.05080162855198509,-0.9893518327913785,0.08817846609558008,2.12312723367744,2.389566846619859
970.567,0.3754685876829582,1.1572627499061718,-0.05080691826552675,-0.989351832791356,0.08817671644598567,2.1231262164248355,2.3895657188427095
970.6,0.3754738773964999,1.1572574598655814,-0.05080970236132987,-0.9893518327913785,0.088176589328136,2.1231294716331774,2.3895700085093736
970.634,0.3754096796899935,1.1572640915595036,-0.05069804592943061,-0.989311545467654,0.047388835780322935,2.1230032969672585,2.306109641425431
970.666,0.3754144893121767,1.1571921751282144,-0.05077838073875274,-0.989349661744531,0.041714452937529956,2.1231241121731035,2.304135198953116
970.7,0.37536920672765905,1.1571151459310896,-0.050854835106480145,-0.9893319031035457,0.028767757783448644,2.1231637170403808,2.2991214555881623
970.733,0.3753531555780647,1.1570728845723472,-0.05089818521801259,-0.9893286702982698,0.016038710814511248,2.123198830625654,2.293728649404903
970.767,0.37535808716259833,1.157043588091188,-0.05094066431154953,-0.9893360357320677,0.003105583891245267,2.1232340245493404,2.2883494499145645
970.8,0.37537318135591136,1.1570443901419267,-0.050984907282799696,-0.989327626809728,-0.009953803729891852,2.1232707745800212,2.282983905059268
970.835,0.3753901424098016,1.1570324638977345,-0.05102154850236307,-0.9893332970572661,-0.023349246285912173,2.1233072978248124,2.2778390457159823
970.867,0.3754115231323789,1.15702484370693,-0.05105939689892747,-0.9893401409622316,-0.036891742205853006,2.1233458904421596,2.272824944515392
970.9,0.3754340612044329,1.157018995039003,-0.05109625906249171,-0.9893480147713003,-0.05066387997656108,2.1233849560709075,2.268050802773235
970.934,0.3754575322618665,1.157013069508344,-0.0511331362798666,-0.9893551255606479,-0.0646760534244839,2.123425725329426,2.2635681195526907
970.967,0.37547137174271694,1.1572574601926136,-0.05080691826552675,-0.9893543384450092,0.0881788755143995,2.1231283526553044,2.389564676978064
970.999,0.37546858768295815,1.1572574601926302,-0.05080441261174386,-0.9893543384451614,0.08817918461700557,2.12312723367744,2.3895637459646357
971.033,0.37546858768295815,1.157259965846413,-0.050809702325334966,-0.9893543381120562,0.08817871129698358,2.12312723367744,2.3895724948930304
971.067,0.37547387739649984,1.1572627499061718,-0.05081220797906842,-0.9893518327913616,0.08817453825503466,2.12312723367744,2.3895701060193075
971.1,0.37547137174271694,1.157259965846413,-0.050806918269531674,-0.9893493271375956,0.08818172196939109,2.123129471651114,2.389564595509432
971.134,0.37546858768295815,1.1572574601926302,-0.050809702325285526,-0.9893571224679029,0.08817567442721272,2.1231262164248355,2.389562626014342
971.167,0.3754685876709574,1.157259965846413,-0.05080441261174386,-0.9893540925764645,0.08817591046927876,2.1231262164248355,2.389567984301156
971.2,0.37546858768295815,1.1572574601926302,-0.05080970232543385,-0.9893490843038577,0.08817694913128563,2.1231294716331695,2.3895679426849004
971.234,0.37546858768295815,1.1572549545388473,-0.05080441261174386,-0.9893518327913785,0.08817643743234616,2.123128352655305,2.3895698275735655
971.266,0.37547387739649984,1.157259965846413,-0.05080441261174386,-0.989359628158703,0.08817694867912416,2.123128352657963,2.3895676749579082
971.3,0.37547137174271694,1.1572549545388473,-0.05080441261174386,-0.9893518327913785,0.08817762029526434,2.123126216424836,2.389566808838265
971.334,0.37547137174271694,1.1572574601926302,-0.050804413584941165,-0.9893518327539099,0.08817979772350287,2.1231272336774403,2.3895689438713825
971.367,0.3754635763753924,1.1572574601926302,-0.05080441261174386,-0.9893515898406484,0.08817551746538321,2.1231272336774403,2.389571065764119
971.399,0.37546858768295815,1.157259965846413,-0.050809702325285526,-0.9893563936582638,0.08818309393678762,2.123126216424836,2.3895713629720414
971.435,0.3754660820291753,1.1572574601926302,-0.05080694454185421,-0.9893518287941152,0.08817599500405846,2.1231272336774403,2.3895732265158722
971.467,0.37546858768295815,1.1572599655193643,-0.05080441261174386,-0.9893542575005821,0.08817871621891649,2.1231294716331695,2.3895669690391
971.5,0.37546858768295815,1.157259965846413,-0.05080441261174386,-0.9893494044539989,0.08817684343078447,2.1231283526559683,2.3895679733725745
971.534,0.3754713717067147,1.1572574601926295,-0.05080691826552675,-0.98934932713759,0.08817680119113354,2.12312835265464,2.3895713025070755
971.567,0.3754660820291753,1.1572574601926302,-0.050809702325334966,-0.9893518327913785,0.08817964303522952,2.1231283526553044,2.389567580858207
971.6,0.37547137174271694,1.1572599658463965,-0.050809702325285526,-0.9893543384451107,0.08817660841446609,2.1231271944315835,2.389562448228228
971.634,0.37543373448070483,1.157274783748142,-0.05070357592276675,-0.9893237946908044,0.04643444708103228,2.12296597258012,2.479621962294985
971.667,0.3754900855291723,1.1572592304365639,-0.05082383424461234,-0.9893693690848124,0.04524646191378778,2.1231923947397835,2.4793864853830634
971.7,0.37528525960359893,1.157168057039149,-0.05065647694997644,-0.9892407870677005,0.031147847430974096,2.122902406071404,2.4909443080222147
971.734,0.37546858768295815,1.1572574601926302,-0.05080691826552675,-0.9893543113524401,0.08817648864658392,2.123129471633169,2.3895709376665546
971.767,0.37541181306692284,1.157214992805292,-0.05078288724442892,-0.9892990284058429,0.02027978719180812,2.122954934036807,2.489658291569601
971.8,0.3753423461959189,1.1572861686607787,-0.05055162623952292,-0.9892536151680789,0.020714314733610628,2.122831243998288,2.491986680959492
971.834,0.3754158327615169,1.1571862509049735,-0.05080835241800852,-0.9893093461939211,0.007228380263769374,2.1231147334768465,2.510169298524879
971.867,0.37539238813007625,1.1571565791054175,-0.050814058078305635,-0.9892940771264565,-0.004831112576391128,2.1231266336002754,2.5227065173878422
971.9,0.3754018445983833,1.1571356645612312,-0.05085805934395715,-0.9892996850184144,-0.017418061678811547,2.1231825010540746,2.535503254984622
971.934,0.3754159194088684,1.157123061919787,-0.050892905922440335,-0.9893075776787272,-0.03029418839569953,2.1232342375696316,2.5484740678774713
971.967,0.37547387739649984,1.1572599658459644,-0.05080691826552675,-0.9893518327872661,0.08817966939096757,2.123128352655305,2.389568031251449
971.999,0.37547137174271694,1.1572599658423754,-0.05080691826552675,-0.9893518237975195,0.08817656750684612,2.123126229506788,2.3895646787574982
972.034,0.37583386489733517,1.1575810898952925,-0.05088278171821248,-0.989594925687693,0.00251882036244222,2.123294001520801,2.488750509521104
972.067,0.3754685876829582,1.1572574601926302,-0.05080691826552675,-0.9893543384081498,0.08817568165165585,2.1231283526553035,2.3895669632060637
972.1,0.3754685876829582,1.157259965846413,-0.050806918269531674,-0.9893571211724992,0.08817591524100236,2.1231294716331446,2.389561480850691
972.134,0.375471371742717,1.157259965846413,-0.05080441261174386,-0.9893518327913785,0.08817693604143197,2.123128391901186,2.3895632658885666
972.167,0.3754738773964999,1.157259965846413,-0.05080441261174386,-0.9893543384451614,0.08817981839862216,2.123128352655305,2.3895713259454436
972.2,0.3755727506070663,1.1573165373521626,-0.050879838244107134,-0.9894165965920694,0.03836243920417903,2.123231910393219,2.4060466993002816
972.234,0.3754738773964999,1.157259965846413,-0.050809702325285526,-0.9893543084656876,0.08818070769224443,2.12312723367744,2.389562540488828
972.267,0.3754685876829582,1.1572627499061718,-0.05080441261174386,-0.9893518327913785,0.08817765434138455,2.123127233677514,2.3895646460285125
972.3,0.375384183051529,1.1571805290213755,-0.05076037149566481,-0.9892844940611436,0.04089200695044681,2.123018738186129,2.391721189484354
972.333,0.37546357637539246,1.1572627499061718,-0.050809702325285526,-0.9893543384451614,0.08817756774588892,2.123128352655305,2.3895670873756556
972.367,0.375471371742717,1.1572574601926302,-0.050809702325285526,-0.9893571220607799,0.08817644928887446,2.123127233695385,2.389567984981739
972.4,0.37546608202917536,1.157259965846413,-0.05080441261174386,-0.989349324102636,0.08817591489844272,2.1231272336774403,2.3895724231028486
972.433,0.3754738773964999,1.1572574601926302,-0.050809702325285526,-0.9893543384410322,0.08817792407018563,2.1231293953392236,2.3895623161034703
972.467,0.3754685876829582,1.1572574601926302,-0.05080441261174406,-0.9893518327913785,0.08817989273761205,2.1231294716331695,2.389567458810261
972.5,0.3754688261015373,1.1572549545388473,-0.05080691827754153,-0.9893493271252576,0.08817660247081399,2.123128352655305,2.3895636955725856
972.534,0.375471371742717,1.157256744936893,-0.05080162855198509,-0.9893493271375449,0.08817748821336825,2.1231272336774403,2.3895642598053453
972.567,0.3754738773964999,1.157259965846413,-0.050809702325285526,-0.9893571195069671,0.08817694606778723,2.123128352655305,2.389569239197099
972.6,0.3754685876829582,1.1572574601926302,-0.05080441261174386,-0.9893543384451614,0.0881807047710193,2.1231294716331695,2.389566967262555
972.633,0.37546608202917536,1.1572574601926302,-0.050809702325285526,-0.9893571225049026,0.08817792210568075,2.123128352655305,2.3895667916299845
972.667,0.37540625771758407,1.157250637376932,-0.05070887969803817,-0.9893158233848167,0.04718870145733689,2.1229835440529623,2.375042317416092
972.7,0.3753681087376224,1.157247834334055,-0.05064720565298142,-0.9892953096813644,0.046304504529877555,2.1229423574898405,2.3724797133868503
972.733,0.3753986890574428,1.1571638482723845,-0.0508486910548287,-0.9893133933372429,0.03419996161443706,2.123157270648516,2.3768777214765215
972.766,0.37535779517112733,1.1571202890953227,-0.050832696484059525,-0.9893060584096736,0.023272803505162365,2.123157387661559,2.3811771270234043
972.8,0.37536704902265505,1.1571010867840368,-0.050876620663321326,-0.9893109510203475,0.011900206912626388,2.1232060701152715,2.38551413589979
972.834,0.37537687161461086,1.1570897268189757,-0.05090056785367292,-0.989319932300516,0.00036768875540893475,2.1232436627096902,2.3897137470732837
972.867,0.3753928959199957,1.1570806683697805,-0.05092849672823796,-0.9893304089027968,-0.01133725381651196,2.1232854102634278,2.3938747282821886
972.9,0.3754089174604749,1.157078430388256,-0.05095389146924134,-0.9893451580765875,-0.02318705832140111,2.1233269406883366,2.398053507455037
972.934,0.37530848898580427,1.1570760911327493,-0.050787357755840645,-0.9892628539625843,-0.036346559041184,2.1230738970862966,2.4041993778849786
972.967,0.37530815576321963,1.157087194783399,-0.05077829638348774,-0.989242698656744,-0.04879997376868328,2.1230433127455015,2.4088786828017614
973.0,0.3754161641845277,1.1570556177534153,-0.050949392787183356,-0.9893427596782471,-0.060418825023204725,2.123309981743791,2.4120619693711767
973.034,0.3752959286162314,1.157082334728111,-0.05074532848915769,-0.9892219664395272,-0.07430509552195197,2.1229855227679444,2.4191878532590323
973.067,0.3754240074425468,1.1570451433980251,-0.05095406980088946,-0.9893418335345672,-0.08613333074067864,2.123310787710288,2.4230580254021348
973.099,0.37542417368343894,1.1570483239127514,-0.050952894303381235,-0.9893390048666273,-0.09925797993689134,2.1233178242331334,2.429290441697031
973.134,0.37545293913440947,1.1570506223197015,-0.05100039213445218,-0.9893413440678263,-0.11247396514642194,2.1233717625523276,2.4360877993326717
973.167,0.37547529298426774,1.1570445012065909,-0.05103375039473779,-0.9893542485235347,-0.12586522244357212,2.123423540803836,2.443562961668693
973.2,0.3753571966071698,1.1570469341050025,-0.05082486148886023,-0.9892631296220573,-0.1406453852651035,2.1231113299268216,2.453791258302134
973.234,0.3753525143853418,1.1570447109935413,-0.050801556036494944,-0.98924952528197,-0.15479412191570763,2.1230763390322878,2.463212770109525
973.267,0.3753373567906113,1.157041132278513,-0.050758513478522005,-0.9892307692129174,-0.1692385273606778,2.1230037667846133,2.473674829454197
973.3,0.3753135646171142,1.157046014600711,-0.050708644525533586,-0.9892030229024087,-0.18392983568314847,2.1229357542355594,2.4852414831689256
973.334,0.37530126834177135,1.1570292501219432,-0.05067931895519351,-0.9891913872197922,-0.19897440844018188,2.122859117375974,2.498124684388376
973.366,0.3752836357913809,1.1570260966064625,-0.05063631251188472,-0.9891701253070782,-0.21419832134171468,2.12278325876148,2.5122777488830543
973.4,0.3752653894648468,1.157021576452272,-0.05059264352508741,-0.9891491233494882,-0.22973652403371414,2.122703311631609,2.5279355702301345
973.434,0.3752464321146318,1.1570145830551777,-0.05054738980643858,-0.9891256786078211,-0.2456077208463885,2.1226194601831168,2.545241908328439
973.466,0.37523105383967703,1.157012571490836,-0.05050775457497192,-0.9891013629826002,-0.26174674418707156,2.122550999910377,2.5642893103221986
973.491,0.3754050748139097,1.1572519743066085,-0.05084735609303441,-0.9893515899576381,0.0881839132984081,2.123130590628979,2.3895711199421616
973.534,0.37542039001706223,1.1572496759560655,-0.05084485923051091,-0.9893571135106211,0.0881784675563901,2.1231272336774403,2.389570929620772
973.567,0.3754570753379227,1.157267494941502,-0.05082509807962183,-0.9893646354566177,0.08818112211127317,2.1231239784691067,2.389573581319927
973.599,0.3754231199214333,1.1573145334176793,-0.05084120398257263,-0.9893880255682426,0.08817858892424511,2.123117264601919,2.389571008311755
973.633,0.3759020472309613,1.1581941635393624,-0.05035558840468379,-0.989709542974408,-0.046271871187755664,2.1226894469424575,2.4796468790544264
973.667,0.3753937223877637,1.1572911473157592,-0.0508456215484179,-0.9893596281587032,0.08819220414624622,2.123127233677437,2.3895637839328026
973.699,0.3754980614864851,1.157314533732621,-0.05080278023933674,-0.9893724348335935,0.08818899845512855,2.123129471633169,2.389575704325994
973.734,0.37554855948596033,1.15732725602367,-0.05078576412291895,-0.9893724348335935,0.08818909632776112,2.1231272342344045,2.3895790352452253
973.766,0.3755433095505363,1.1573334763850454,-0.05079032955044194,-0.9894034171940613,0.08817898511614629,2.123097440255414,2.389569105415148
973.8,0.3755433095505363,1.157372478836461,-0.050790332476847395,-0.9894448997522569,0.08817770576578561,2.1230824707035176,2.389575423702459
973.833,0.3755408038967534,1.1574459702280613,-0.05078503983690027,-0.9894778993640435,0.08817805248244108,2.1230732080141963,2.389570224410736
973.866,0.3755139207771278,1.15745801739943,-0.050799076328726794,-0.9894842771140268,0.0881736056845131,2.1230717808696493,2.3895764439332017
973.899,0.37550825603881427,1.1574137773945763,-0.05080390951821715,-0.9894629598165812,0.0881739233192388,2.123072854691718,2.3895779555311627
973.934,0.3755025317344807,1.1574087395417063,-0.05081231660853351,-0.9894583988551706,0.08817474307397959,2.123073341494342,2.3895768350398563
973.967,0.37549658510804323,1.15743212564368,-0.05081234288945923,-0.9894661714112668,0.08817281911329852,2.1230707754595772,2.389574657291282
974.0,0.3755054167785432,1.1574679850253766,-0.050802153287486086,-0.9894895668280254,0.08817705571579548,2.1230662428707827,2.3895746578595425
974.034,0.3755291095541917,1.1575057551551309,-0.05078799404321566,-0.9895179992056221,0.08817790860888108,2.1230628447532656,2.3895669263325825
974.058,0.3755400908833532,1.157522400119848,-0.05078291145437642,-0.9895332252792686,0.0881788731871807,2.123056288370719,2.389573581283839
974.1,0.3755219945124816,1.1575257379799557,-0.05079283223058479,-0.9895304416738793,0.08817680102816162,2.123061353647607,2.389572521145998
974.134,0.3754894477851215,1.157502073472006,-0.05080912027147143,-0.9895081441275518,0.08817709368525702,2.1230570809562654,2.389569827430235
974.167,0.37545301019978616,1.15746308644797,-0.05083124159721627,-0.9895056373586505,0.08817648607434067,2.123051464407244,2.38956537489581
974.2,0.37539983814129513,1.1574572532736815,-0.05085260764171577,-0.9894995381622983,0.088181168824044,2.12305583858746,2.3895725028102333
974.234,0.37540409174652406,1.1575438343679028,-0.05084416351924862,-0.9895429287990346,0.08818284421190883,2.123054821227185,2.389569103488962
974.267,0.375445472390421,1.1575887693683902,-0.05082480777294974,-0.989573363686393,0.08817868621791719,2.123046988328298,2.389568634476823
974.3,0.37546422104766164,1.1575742607130197,-0.050802542482925116,-0.9895723666308216,0.08818788577592798,2.1230502817852996,2.3895712804143066
974.334,0.37551804928900934,1.157585067004304,-0.05078861216552971,-0.9895723666308225,0.08818910930817024,2.1230548211195144,2.3895674761986103
974.366,0.37537752022346194,1.1575364021663175,-0.0507313562055165,-0.9895090211414761,0.046481391806886485,2.1228942290510524,2.463705102698375
974.4,0.37526179892682965,1.157494942906963,-0.05061105232884522,-0.989450669196585,0.038776093414947255,2.1227979025491663,2.4662744224616198
974.434,0.37544343040287265,1.1576714674117916,-0.0508151006682923,-0.9897850767018498,0.0881941369803569,2.123045910009175,2.3895720458928054
974.467,0.37537769844800817,1.1575363226144324,-0.05074130513098485,-0.9895499523490026,0.03122040108377888,2.1228548968003516,2.458274198767004
974.5,0.3752750585192004,1.157572057726341,-0.05053926221100635,-0.9894911286364287,0.027396749387654573,2.1226974208738003,2.464683328068995
974.534,0.3752182780102533,1.1575172025243967,-0.050565350713866586,-0.9894507983323653,0.014026582048010994,2.1226611782756315,2.4811999443554917
974.567,0.37517580902337144,1.1574656423617329,-0.05053944035926694,-0.9894323312018392,0.0006613827346955148,2.1226053711629262,2.49725446255197
974.599,0.37526360832404637,1.1577449906673516,-0.05086655945978931,-0.9899011918602407,0.08819331792328094,2.1230386948336015,2.3893636085520096
974.634,0.37447770509736544,1.1578013149379938,-0.05098639922897725,-0.9903176266090138,0.08819525070322884,2.1230408536326486,2.389227359796769
974.667,0.37373170341811024,1.1577939334551492,-0.05121484373831887,-0.9903752393877294,0.088196267955833,2.1230451070570764,2.3891829403231846
974.7,0.37539511949638094,1.1578008699562847,-0.050565486928973336,-0.9898698063776559,0.021562595284141395,2.1227818121120965,2.475117112306304
974.734,0.37512065493641433,1.1578250690691512,-0.05057682110587347,-0.9900340515684514,0.030447438940676363,2.122801179429036,2.462995758780581
974.767,0.3747990639119205,1.1577391752355455,-0.050765825944761644,-0.9899751783359125,0.020413940516081475,2.1229292733681824,2.4811810554506355
974.8,0.3745645771202284,1.157688300229112,-0.05067982515190206,-0.9898978291837359,0.009972238545116419,2.1226556184479453,2.4864732537278265
974.834,0.3745275969192523,1.1576697721972042,-0.05070660614282474,-0.9898868234368718,-0.0007154453085265189,2.122678825631631,2.4907651682920893
974.867,0.37462312289367183,1.1576412680531831,-0.050877727275495666,-0.9899747126911889,-0.01126622051926951,2.12292793953419,2.4935936604000766
974.9,0.3746104977751479,1.1576374071944189,-0.05086249208410276,-0.9899655252446209,-0.022370798311719398,2.122908719029116,2.4980944707368486
974.933,0.37450120813813825,1.1576478111166386,-0.05069012930716088,-0.9898758112411707,-0.03402276758217315,2.122628959624489,2.5043589448445385
974.966,0.37451072070401725,1.157656146345075,-0.050707215213382284,-0.9898657970220617,-0.04626859591757704,2.1226281364696504,2.5097853187902786
975.0,0.3744881776121156,1.1576514685457093,-0.050661750804904315,-0.9898399577823103,-0.05894227185625134,2.1225519506764385,2.515807940020677
975.033,0.3744721795425381,1.1576511279448551,-0.05063133522092489,-0.989817448570327,-0.07124013432240606,2.122494514054683,2.522117506480125
975.069,0.37445556730262197,1.1576504469871693,-0.0506001136812495,-0.9897951867155719,-0.08385875669454723,2.122432245963168,2.5291202115274327
975.1,0.3744401641660522,1.1576528034742157,-0.050567778915214134,-0.9897728766218057,-0.09652158182178283,2.1223702335221084,2.536699434908476
975.133,0.3745473382569475,1.1576261704238782,-0.05074349555753965,-0.9898779743623578,-0.10905194659389572,2.1227122154959552,2.543665283784545
975.166,0.3745457508024286,1.1576234702507406,-0.05073814639787866,-0.9898656978007745,-0.12225972396030826,2.1226955243649694,2.553084410102155
975.2,0.37456915938064306,1.1576045439378095,-0.050787482362935954,-0.9898988081933062,-0.1355795232404473,2.1227754332985977,2.563466589328911
975.234,0.37458963888577923,1.157595465623106,-0.050819273597106474,-0.9899139383722293,-0.1492099520600254,2.122834369518003,2.5750426593702276
975.267,0.37447957008261046,1.1576219957106781,-0.050621369637412705,-0.9897887453401406,-0.164155274724318,2.122452786480718,2.589902761200559
975.301,0.3744773860060153,1.1576188329026396,-0.05060312867122896,-0.9897758302210162,-0.1784080302367741,2.122417369751444,2.60425226045278
975.334,0.37445893384625073,1.1576228262730055,-0.05055751900733707,-0.9897467704715028,-0.1930751103881736,2.1223287062180454,2.620236741516919
975.367,0.37445069901070216,1.157600541080246,-0.05052076739481226,-0.9897399937750588,-0.2079874768258989,2.122256661887617,2.637883687967669
975.399,0.37441937217382293,1.157608044371198,-0.050466167242254834,-0.9897054728437782,-0.22315732652727505,2.122169940837585,2.6573298455624474
975.434,0.37439971662706917,1.1576035707958932,-0.05041936502343969,-0.9896798901588664,-0.23877314569667263,2.122079563655456,2.6788990064992007
975.466,0.3743820975971506,1.1576002686535194,-0.050373400856199346,-0.989651207908917,-0.254537343822669,2.1219318589078178,2.702523384796198
975.5,0.37436657861678757,1.1575912343230081,-0.05032637565631237,-0.9896251706178223,-0.2704891506370837,2.121634917253754,2.72809525233345
975.534,0.3743525412678972,1.1575729740944585,-0.05028831754912666,-0.9896009116475115,-0.28671645849454297,2.1211360145248968,2.7548443796489224
975.567,0.3743386295874771,1.1575606628073807,-0.050240034437302405,-0.9895718894738215,-0.30304891780724663,2.1204572370798136,2.782614865060916
975.6,0.37448052562381573,1.1575406851499972,-0.05047119059971461,-0.9896662838355512,-0.31923665277644453,2.1200772371416754,2.8104773356481356
975.634,0.3745020967852737,1.1575196870914395,-0.05049547970628332,-0.9896660944248659,-0.33590947390113346,2.119088855356326,2.8402167666500002
975.667,0.3745393078273187,1.1574988550346408,-0.050542776994960015,-0.989674718882636,-0.35265603878793605,2.1179061658645626,2.870590903518478
975.7,0.3745940608404634,1.1575057301595182,-0.05061999911858717,-0.9896889298171887,-0.36851096653926785,2.1165526768606355,2.897629626360578
975.734,0.37461636807276655,1.1576053262577366,-0.05061755738801654,-0.9897680539902574,-0.37484226077403093,2.1162941350947797,2.8973004545597743
975.766,0.3746503540350261,1.1576742087806267,-0.0506532994426383,-0.9898176510878409,-0.38069236265717254,2.116064350652996,2.897300290229186
975.8,0.374705447665054,1.1576361113506772,-0.05073851935501317,-0.9898449457133074,-0.39117855748962604,2.115056582680447,2.8977689263603033
975.833,0.3746999249073433,1.1575925384839874,-0.05069758077643094,-0.9898245398565617,-0.4033424769485352,2.1136033461708017,2.894827042651613
975.867,0.3747762788871487,1.1575453339282848,-0.05083909186381863,-0.9898498721713516,-0.41800875196253706,2.112069258569502,2.8959465477460764
975.9,0.09543794241793271,1.1722104876084274,-0.2165913545968253,-1.002414478238881,0.08692355121196622,2.1327190044936644,2.335545309508219
975.934,0.08253919190215235,1.1731628474336184,-0.22013415762739266,-1.0024118853424298,0.08690763810907416,2.138279747632247,2.3355375966726446
975.967,0.06995548538214443,1.1742129735687548,-0.22374568215310825,-1.0024141462812188,0.08691656095867682,2.144146419003378,2.335535358713068
976.0,0.05750223129664665,1.1753857008606396,-0.22746606069033043,-1.0024228373722792,0.08689890971930028,2.1499937438931225,2.3355271607071235
976.034,0.045211504756293756,1.1765810715819205,-0.2312693054968316,-1.0024080575874679,0.0869010156271422,2.156375384988043,2.3355337772107547
976.067,0.032977236227785,1.1778976236992917,-0.2352292330633649,-1.002431367921883,0.08689473279513449,2.163176756508916,2.335524626012443
976.1,0.020793889047754706,1.179155528665996,-0.2394474744153822,-1.002405543429045,0.08689011293712846,2.1703749046082494,2.335528453626499
976.134,0.008771973057353829,1.1803880522405878,-0.2438628884290609,-1.0023566042180563,0.08686120618439284,2.178764740102873,2.3355327100223713
976.166,-0.0029965531419255584,1.1814123593752308,-0.24893104770412525,-1.0022873386517623,0.08676562530811566,2.1864390163896554,2.335531591421033
976.2,-0.014109193636304394,1.1820803116208656,-0.25408186827657925,-1.0022835997192179,0.08668227478329844,2.1932009397764127,2.335527392525625
976.233,-0.02507681565382288,1.1824463362922932,-0.2593992329182605,-1.002251660792111,0.08642058920799102,2.198402309146708,2.335493782134739
976.266,-0.035280238771251554,1.1824885141852481,-0.26516139093138935,-1.0020524419792365,0.08596550400980314,2.200791093509228,2.3350265954406453
976.299,-0.044910666164874595,1.182471815310625,-0.2714691684963902,-1.0013998448441224,0.08550441973361418,2.200943464285858,2.3335590797432757
976.334,-0.05379148651981113,1.1824659818094647,-0.27851119485584946,-1.0007450158895794,0.08535124612798017,2.200931411935537,2.331635957203506
976.366,-0.061816549629925686,1.1824501839533037,-0.28607481421981223,-1.0004222575769042,0.08532903093724448,2.2009287013006795,2.3298766283325376
976.399,-0.0691573504594059,1.1824466481083449,-0.29442304924956586,-1.0003947240610591,0.08529932179618607,2.200900068903688,2.3288743558200435
976.433,-0.07594083331664922,1.1824598119123657,-0.30322947604935047,-1.0004142330198071,0.08529320265427992,2.2008964928650236,2.3288073216767033
976.466,-0.08212501722928242,1.1824938886114753,-0.3117475802032388,-1.0005749392169958,0.08529063235500058,2.2008877662253297,2.3288127718176534
976.499,-0.08791093553656042,1.1824945166028558,-0.3203448626874416,-1.000738356199024,0.08528492316847475,2.2008471627468764,2.32880505374395
976.534,-0.09304535388362294,1.1824892268933749,-0.32891557712722913,-1.0007302982617199,0.0852759017768587,2.200818746544121,2.3288047525521205
976.566,-0.09759530288849792,1.1825082816001227,-0.337534092299889,-1.0007611218291836,0.08527819021034166,2.2007572458271105,2.328797017225939
976.599,-0.10165210171016989,1.182527972523743,-0.345804376845832,-1.000987184469649,0.08527714705796367,2.2006859241224244,2.3288100638139495
976.633,-0.10530529876873941,1.1825460594695814,-0.35313950893734175,-1.0012289641800511,0.08526953796944134,2.20042450209946,2.3287901907750737
976.666,-0.1084524811862591,1.1825808196978675,-0.3589694817402004,-1.0012824296058405,0.08528320985008658,2.1998733542240547,2.3287547647825453
976.7,-0.11140323576641324,1.1825443529678812,-0.3633297471816783,-1.0012337588989344,0.08528520015213223,2.198664880139707,2.3287316677861254
976.733,-0.10566204022877734,1.1823242225871677,-0.3499122591579127,-1.001437638910721,0.04360424568211574,2.2000920722057966,2.423268914770267
976.766,-0.11037421540850723,1.181886525339336,-0.35375220218213954,-1.001699853649761,0.03714846645578085,2.19982400009758,2.4287927591675995
976.799,-0.11322716053541093,1.181457152791758,-0.3548784746101523,-1.0019885058705613,0.023697221541361557,2.1998360279886207,2.442775245176886
976.834,-0.11452010742948904,1.1813197675724654,-0.35555069814629015,-1.0021128625676026,0.010906780077496236,2.1998342499918166,2.459850480255106
976.866,-0.11517031436446779,1.1812405974277356,-0.3558596147174464,-1.0022003274917308,-0.002271625265750643,2.1998592246708633,2.4805427099281445
976.899,-0.11548665784263612,1.1812082601452758,-0.3560379916250307,-1.0022544029484788,-0.015690294394728355,2.1998930327882604,2.5047526026959144
976.933,-0.11564322035001151,1.181179749584289,-0.3561557927816299,-1.0022990535600504,-0.02932478925258497,2.1999340311310647,2.5309596256336757
976.966,-0.11572611204618877,1.1811638687205868,-0.3562288997916543,-1.0023363128058964,-0.04321042389989227,2.1999844176236856,2.558326366384943
976.999,-0.1157594420003667,1.181166082725837,-0.3562918765413823,-1.0023543277846745,-0.05731028578537689,2.200042476395442,2.586702799457534
977.033,-0.11591169678162849,1.1811462390080818,-0.356144553587316,-1.0022247550954502,-0.07386302581092252,2.19964293795438,2.6204421505762063
977.066,-0.11593728596731356,1.1811337419974182,-0.35614379590214895,-1.0022097202542533,-0.08908534975582505,2.1995695205385744,2.6517013936506544
977.1,-0.11597523921287767,1.181134323993211,-0.3561131665294157,-1.0021635925549592,-0.10478381882252474,2.1994581797367,2.684570089732901
977.133,-0.11601224574674251,1.1811147736923058,-0.3560715599851667,-1.002131993542382,-0.1207349083008884,2.199337975390888,2.717946143763246
977.166,-0.11602904298280503,1.1811011076116182,-0.3560524023369176,-1.0021031418952626,-0.13691610079862482,2.1990815124898084,2.752259824643792
977.2,-0.087862776145572,1.1823121836640307,-0.3259359693777624,-0.9966683482186768,0.08609491996435209,1.9206778702312581,2.329368796443641
977.233,-0.08439169989211477,1.1823172216040403,-0.31736034331467794,-0.9963337119634453,0.08612577362858267,1.9166694266631736,2.3295130710913123
977.267,-0.08078205498142405,1.1823123199945957,-0.3079518489795507,-0.996062236820786,0.08612699714303015,1.916306236054563,2.329536039778557
977.299,-0.07699590807879017,1.1823278687221321,-0.29739609051263816,-0.9955143288057962,0.08613099081232879,1.9163011316847214,2.329566430663864
977.333,-0.07277631370968728,1.1823200056678371,-0.28565020404122304,-0.9950531579138273,0.08613465326008755,1.9162816711683552,2.3297503294517536
977.366,-0.06814138687550413,1.18231939874423,-0.2734188607971167,-0.9946061705539714,0.08614559453073017,1.9162178157383487,2.3300014992666704
977.399,-0.06301961747193621,1.1823381020601564,-0.2605846376479793,-0.9944102836116123,0.08614610190515612,1.9158536786683213,2.3300754274111415
977.433,-0.05750166964253141,1.1823303066526,-0.2478104138938261,-0.9942814285112356,0.08615329130159483,1.9146888431130338,2.3300764919646477
977.466,-0.051299756480595836,1.182335596396653,-0.2351056046654421,-0.9939032117808784,0.08613906526570549,1.91212013637937,2.330077786363882
977.499,-0.04445423582721327,1.1823303066888944,-0.22248279886426742,-0.9931776946361279,0.08614303157728588,1.9075202884935816,2.330090230642186
977.533,-0.036848870470749175,1.1823516099040168,-0.20983857580393406,-0.9920388667941957,0.08613615758637351,1.9016087982972107,2.3303684077815077
977.566,-0.02868284301635068,1.1823413115443369,-0.1973328768319426,-0.990471982093041,0.08612793541948,1.8963135704765564,2.3306985452156117
977.599,-0.019574628030567646,1.182336323559116,-0.18466345615276822,-0.9884022019313305,0.08613316325337543,1.8923559239828163,2.330775711383773
977.633,-0.009757945683147693,1.1822704407946607,-0.17282299619455263,-0.9859197305651138,0.08612579749465842,1.8890752907333874,2.331175988123751
977.666,0.0010091436336286748,1.1822934422682188,-0.1622006581160404,-0.9829712003823848,0.08612996976242172,1.886198514724602,2.3319753935166556
977.699,0.012731420293277654,1.1822636134125817,-0.15272052247256215,-0.9802226598484983,0.08613315059666687,1.8832976786654785,2.3326060653832124
977.733,0.02462403417238455,1.1823005483803197,-0.14449171320063597,-0.97718563250337,0.08613493880090169,1.8804011564777792,2.333118105926138
977.766,0.03855636775475074,1.18226118134489,-0.1363608345003776,-0.974485413313212,0.0861291964550813,1.8769271467786752,2.333413730763654
977.799,0.051547963466410836,1.1822777960642814,-0.12996086254113123,-0.972075105812149,0.08612802145915995,1.8730571176823705,2.333445043808158
977.833,0.06519562324962938,1.1822834160360514,-0.12415084992817656,-0.9698226822568379,0.08612396812631076,1.8682591175374692,2.333455350016516
977.866,0.07887135676638334,1.1822861969931084,-0.11894264354630779,-0.9677374424658586,0.08613020932585586,1.862676489840119,2.333468906985634
977.899,0.09318543642428007,1.1822973302037834,-0.1141358999052403,-0.9656847071714986,0.08613112923502922,1.8569026238156883,2.333475873593369
977.933,0.10750667941425145,1.1822945491082584,-0.10961306946133248,-0.9636746159402445,0.08612522771286991,1.8513077298367526,2.333469261454625
977.966,0.12223156607710979,1.182272423137195,-0.10550831353951641,-0.9615815261067465,0.08611409113333435,1.844996155063047,2.333476992574
977.999,0.13705699236441357,1.1822700124707137,-0.10201414648846122,-0.9591188444561329,0.08612618750083684,1.8383099743036242,2.3334703804320753
978.033,0.15184817233678874,1.182286636346707,-0.09861520139294769,-0.9561071979335344,0.0861136767410216,1.8313941163350864,2.33347475461827
978.066,0.16673881602528212,1.1822861932138615,-0.09548895789072896,-0.9522321839116438,0.08611647115606212,1.8236385495876948,2.333469392727265
978.099,0.18139514712687446,1.1822809072795666,-0.09303563567070076,-0.9473382583704939,0.08611453840852533,1.8169787884165407,2.3334694394707585
978.133,0.1962781663442057,1.1822703723572847,-0.09121524671464679,-0.9419110033124747,0.08611850566996468,1.812930508065684,2.3334737533780006
978.166,0.210729223291112,1.1822720835334377,-0.09036343823031927,-0.9357116405156966,0.08612269123907766,1.8109983758477508,2.33347261693359
978.199,0.22529883744108786,1.1822688648826423,-0.09010444078469496,-0.9290770120056582,0.08612227914061003,1.81095165211428,2.3334738092969696
978.233,0.23916110007134325,1.1822894669248345,-0.08998554269565999,-0.9218075362189897,0.08612720138036231,1.810957907696459,2.3334692614546246
978.266,0.25281271029936897,1.1822925817580714,-0.0898418977831914,-0.915189132045817,0.08614082258345868,1.8109560678740282,2.333460589374255
978.299,0.265834417488924,1.1822948364423946,-0.0895877990886837,-0.9092399341622761,0.08616949494028438,1.8109643251856464,2.3334747546362187
978.333,0.2785394179623002,1.182302549419728,-0.08938459557754258,-0.9043790486955864,0.08616754021231,1.81096107693424,2.3334758735961456
978.366,0.2904742773639197,1.1823188468706785,-0.08929364294203775,-0.9005014858525775,0.08617630308944697,1.8109610552315172,2.333469261508534
978.399,0.30188858215153686,1.1823390930741782,-0.08927263057355402,-0.8974907497436481,0.0861851170692139,1.8109588518989574,2.333463807542483
978.433,0.3123377018004644,1.1823173785774799,-0.08923310145870147,-0.895871565168636,0.08619108855935285,1.8109694930781943,2.333473766467719
978.466,0.28875369571204956,1.1814034791078587,-0.08876458278763888,-0.9028340274541788,0.04946380287336183,1.8116105341257978,2.269345754567709
978.499,0.29785299335486304,1.180155350595128,-0.085797749738723,-0.901182462585064,0.041843896019067905,1.8118928216226635,2.268033562492546
978.533,0.3023334117859813,1.1791904461439486,-0.08350050325500824,-0.9005807714334946,0.028396920963718486,1.8119230541506042,2.261104398823658
978.566,0.30477838627887177,1.1786742194279718,-0.08277505518222661,-0.9003417498397654,0.016256387207085332,1.8122098245650662,2.2449076736299816
978.599,0.3059665526757396,1.178414978475086,-0.0823159359351866,-0.900166373347699,0.0035905706421459627,1.8123196449875199,2.2281060844270755
978.633,0.30662288253518266,1.1782478924986988,-0.0820769217719608,-0.9000898859562305,-0.009326869827872564,1.8124273474770298,2.2102942782742936
978.666,0.3070243989064032,1.1781478036363202,-0.08197928072729965,-0.9000507670097457,-0.02227507288315511,1.812501839254061,2.191893339337174
978.699,0.369304912899102,1.1857210695759737,-0.08861106583927618,-0.8974166514310958,0.08622424708803494,1.8110000643530608,2.3340073408171813
978.733,0.37544666247160235,1.187060786302925,-0.08861729766994889,-0.897427342141682,0.08621401251429393,1.8110095442266367,2.334092290390378
978.767,0.38034846112233267,1.1881847281979285,-0.08863373294813842,-0.8974194698477291,0.0862115143471297,1.8110246163371686,2.3341148985695077
978.799,0.38542195384835803,1.1893493119200238,-0.08864959749090376,-0.8974106432648327,0.08620856431457731,1.8110479838161269,2.3341301183404526
978.833,0.38932735863191614,1.1900927308042735,-0.08865289210395792,-0.8974081124281922,0.08619878905416493,1.811099719009207,2.3341236822685216
978.866,0.3924923035201756,1.1904810175243692,-0.08865401556199076,-0.8973992797746901,0.08620082355870141,1.8113698205974214,2.3341314001031717
978.899,0.3949287074600857,1.1904942809492651,-0.08866001556956744,-0.8973196792844411,0.08619583900288377,1.8117194341781264,2.3341302578678276
978.933,0.3966534534497005,1.1904485204438018,-0.08866528958115041,-0.896896169317964,0.08619546967665469,1.8121187721934384,2.3341279828464794
978.966,0.3976149338402645,1.1904276148652533,-0.08866569787768465,-0.8961953759696394,0.08619764891279191,1.8124176794647746,2.3341313354369304
978.999,0.3979313162547699,1.1904091705264679,-0.08866638139312459,-0.8957834064995196,0.08619971778052213,1.812690806001658,2.3341326973975653
979.033,0.397789696001651,1.1903927980242412,-0.08884156038630671,-0.8957091702083388,0.08619622967603402,1.8129032205535018,2.3341292294535907
979.066,0.39735291420514585,1.1904041334230655,-0.08934402165641027,-0.8957434635558666,0.08619116003362746,1.8129294972685284,2.334128109837458
979.099,0.3965580878477297,1.1904262014917402,-0.08990720724476782,-0.8958009880955505,0.08619566179908476,1.8129857910674092,2.334126985198921
979.134,0.3953180152275896,1.1904182856375531,-0.09033459156442082,-0.8958184651712395,0.08619360329853698,1.8130678859949307,2.334126985198921
979.166,0.39365576841893385,1.1904126611691785,-0.09074215122779083,-0.8958042117495365,0.08619258953244668,1.8133796412653023,2.3341237668769494
979.199,0.39159003454485164,1.1904151946994563,-0.09141212984377964,-0.8957946271310773,0.08620173469178816,1.8142403413785229,2.334120393097156
979.233,0.3890723731546696,1.1904152627267752,-0.09235075823576636,-0.8957825858562833,0.08620377359125347,1.8159940109258332,2.334126472825122
979.266,0.3860351635015111,1.1904067960598266,-0.09371582597321548,-0.8957762270688786,0.08621542902972536,1.8186887528037914,2.334121097849913
979.299,0.3823903948923295,1.1904250478454514,-0.09529094302983046,-0.895810177714533,0.08621649888157844,1.821794794147501,2.3341038316827425
979.333,0.3781025242496328,1.190439600670781,-0.09652548544936508,-0.8958368543784379,0.08621548162897426,1.8246017818349192,2.334075756844261
979.366,0.3728812746899748,1.190432491815578,-0.09730729123320718,-0.8958401041031077,0.0862261796483142,1.8271558691751058,2.334062207793757
979.399,0.36693842598000903,1.1904318053583975,-0.09748696453319286,-0.8958272803442845,0.0862276104035319,1.8293760665963847,2.334052299431798
979.433,0.36060218805217703,1.1904292996557135,-0.09748414352896474,-0.8958141688670767,0.086233530480842,1.8311842793444026,2.3340290639298735
979.466,0.35379442649805076,1.1904239039419702,-0.0974571705671905,-0.8957986496773004,0.08623677856723466,1.8327770766220128,2.3339835509699287
979.499,0.34637559007425106,1.1904154941662515,-0.0974819747067029,-0.895786497249628,0.08623484578728678,1.8345585871451027,2.3338370683978344
979.533,0.3640315200352182,1.1904223412288157,-0.09578137015483357,-0.8956529936773219,0.046775316283472534,1.8298989183218524,2.2746559949582945
979.566,0.3583228775402052,1.190342648629903,-0.09697870882389381,-0.8956602825220017,0.04411443552135008,1.8306261554497745,2.2743245390579645
979.599,0.3556916287590539,1.1901858481894605,-0.09862068900380283,-0.8958072432931417,0.03172763052600036,1.8306465504193365,2.2689476859640436
979.633,0.3544389058699151,1.1901608885215014,-0.09915806447950981,-0.8958187526660115,0.02008546739977035,1.8306553291102254,2.2610205557955716
979.666,0.3536951722393811,1.1901285405857926,-0.09917609861776899,-0.8957909431996178,0.007074738983541273,1.8304925291884082,2.2508525670871826
979.699,0.3533952710109638,1.1901207034175947,-0.09927209556693306,-0.8957960645642036,-0.005272230829575619,1.8304635274919967,2.236286137872515
979.733,0.3533797117794393,1.1901327018543535,-0.09959388490865884,-0.8958500146238775,-0.017536842574479294,1.8306003020999633,2.219155931789331
979.766,0.35329670131369095,1.1901209683460472,-0.09964262713925631,-0.8958663322112219,-0.030220726218619376,1.830621236340967,2.2026359839607537
979.799,0.3532712689062487,1.1901190444363365,-0.09971296840546184,-0.8958794855879129,-0.04298250790944014,1.8306456962563278,2.1853313649774293
979.833,0.35326458552453666,1.1901180660708448,-0.0997663935815547,-0.8958838539682752,-0.0559532510802514,1.830653119159095,2.1673698930145555
979.866,0.35327290532994127,1.1901090660907059,-0.09983838509559284,-0.8959112145249657,-0.06895186958891042,1.8306855957610466,2.148823210847185
979.899,0.3532883312082298,1.1901056080926313,-0.09989372528126594,-0.8959272323997638,-0.0821057729046446,1.8307073819127595,2.1297913144402543
979.933,0.3531442132255762,1.1901115399610767,-0.0996272600908803,-0.895863232161787,-0.09658442125585953,1.8305562033830398,2.111220712679433
979.966,0.35312313944666407,1.1901116134341772,-0.09957712347249892,-0.8958544372702058,-0.11029711840051615,1.8305259486078107,2.0917491685520133
979.999,0.19683132324568325,1.188806510613603,-0.09810653734786838,-0.8705899378773283,0.08618586997154062,1.8723090144926016,2.3321819009049323
980.033,0.3365869069393259,1.1931743001242792,-0.08647621751349188,-0.8890433807316684,-0.0774015538887376,1.844098268203986,2.134625464153416
980.066,0.17292176271138154,1.188587584695616,-0.0987787926124309,-0.8640775639825683,0.08616834648088428,1.8723017157051312,2.3304954130425104
980.099,0.16055486569327235,1.1885316708991354,-0.09940757618119313,-0.8610007860780158,0.08616354830398738,1.872283941232766,2.329066816538103
980.133,0.1480605507934094,1.1885028221437228,-0.10014129243691952,-0.8578209542928152,0.0861501161444631,1.872279168162232,2.327816726810638
980.166,0.13527844596781777,1.1883616116578808,-0.1011711186489348,-0.8550508493295638,0.0861322939434193,1.872273278888076,2.3265861381328325
980.2,0.12245175280363726,1.1882095372438932,-0.10262414974314306,-0.8523871571097138,0.08611634113840587,1.8722578612296694,2.324981936703603
980.233,0.10951666575254476,1.1881444365122573,-0.10482372371835103,-0.8496813835618166,0.08609698599994614,1.8722385490905902,2.322922247243329
980.266,0.09657083584759864,1.188179813449175,-0.10759725862607471,-0.8467018647223666,0.0860815910107136,1.8722348928507198,2.3204310184425005
980.299,0.08339621812791125,1.1881341538182102,-0.1106503084190632,-0.8438794979303548,0.08605963900170564,1.872236012313101,2.3177917267114374
980.333,0.07023420939774402,1.1879657727870123,-0.11388616761284372,-0.8412339558242654,0.086020349517288,1.8722397747872135,2.314496566142042
980.367,0.05702542886529638,1.1879330340685585,-0.11750759777634988,-0.8385398718387297,0.08599738066586214,1.8722479504687797,2.3101312279029593
980.399,0.044022006989383126,1.1879170160565782,-0.12133161311791965,-0.8359073958590413,0.0859901029809591,1.8722592501771667,2.306327635705031
980.433,0.03096649861099211,1.1879202104702147,-0.1251177035533974,-0.8331795381276393,0.08598489155424792,1.8722651676021318,2.3031222004768934
980.466,0.018063207919578016,1.1879036002416052,-0.12872817689013646,-0.8307168880120185,0.08597918416714916,1.872285479934548,2.3010691499305387
980.499,0.04916746620864565,1.1874257914856052,-0.12084316386552629,-0.8375026676591952,0.03876919475680651,1.8722034668249492,2.3555828097270233
980.533,0.03854905235257888,1.1872491923910422,-0.1242590702968247,-0.8358784047825916,0.03740189368123126,1.8725565760271081,2.35162298047371
980.567,0.03316812851922002,1.1864759478570974,-0.1267194562442091,-0.8363060595436052,0.022594217620754975,1.8725301014399847,2.357697446499854
980.599,0.030672303121851208,1.186301626875701,-0.12729367580971473,-0.8361155586490687,0.008308686627167106,1.8723672657300359,2.3641081930461105
980.633,0.029959763604369805,1.186202419418417,-0.1280100977626324,-0.8362497484000491,-0.004662422631524166,1.8726227872820438,2.3665052545532674
980.666,0.029346857283313987,1.1861772601676703,-0.1278289428639372,-0.8361282584809437,-0.020169899985058137,1.8723450188431414,2.370818305309996
980.699,0.02933268285353474,1.1861549642192148,-0.12827994873583926,-0.8362441231985196,-0.03346787545484453,1.872629593986023,2.3705148212966147
980.733,0.029030983637179375,1.186134842348853,-0.12796397387609915,-0.8361447702603364,-0.04961476076591165,1.8723476168180557,2.3721630245448733
980.766,0.029147245884267647,1.1861225693013626,-0.12835379194552754,-0.8362600367304598,-0.06342991608765836,1.872640050454434,2.3694538985232896
980.799,0.029107199668967354,1.1861310889736805,-0.12837461095335367,-0.8362488467821825,-0.07877815294683277,1.8726363451745485,2.367214981748335
980.833,0.028923385002650903,1.1861134604980137,-0.12807991791517903,-0.8361711876538944,-0.09551163684978281,1.8723798425138334,2.3653556339968578
980.866,0.02908075025710044,1.1861137497531837,-0.12842497993867497,-0.8362776746050713,-0.11114468118379772,1.8726873769349552,2.3595197116469144
980.899,0.02889638357321722,1.1861221571073184,-0.12807436199447597,-0.8361544193062826,-0.12877109151813126,1.872356791198424,2.355999963027564
980.933,0.028879279330718433,1.186111676897526,-0.12803249967744712,-0.8361534578005347,-0.14571665356717212,1.8723372390717792,2.3504885678586653
980.966,0.02885608713482224,1.186107155085824,-0.12798051992331327,-0.8361385841776983,-0.16286513243801082,1.8722690443717909,2.3442511249401736
980.999,0.02901164785282795,1.18610518937529,-0.12828598524216872,-0.8362384450629738,-0.18008911441905795,1.8725659236662473,2.3356885862253094
981.033,0.029035765039178152,1.1860924239316386,-0.1283376617000478,-0.8362587034091158,-0.19791727940135573,1.872595905728037,2.3283635143442574
981.067,0.028873004627608445,1.1860923652996078,-0.12800044124490295,-0.836157550564411,-0.21631758031820425,1.8722802140007584,2.3223243939739877
981.1,0.02905237222096435,1.1860946091441358,-0.12834597094946165,-0.8362700247112382,-0.2343747974809185,1.872618756607629,2.3121673334360153
981.133,0.02887641951542097,1.1860932707436325,-0.1279694410589487,-0.8361559331790245,-0.25332068515430883,1.872267227173534,2.3052064984201284
981.166,0.028868708448371194,1.1860909882008288,-0.12792945984895354,-0.8361518015239096,-0.2722797162244559,1.8722117528528237,2.295988641827101
981.199,0.029038996049157717,1.1860929267249656,-0.12825882848159154,-0.8362583614672818,-0.29132397535486465,1.8725458154097474,2.2845290585968243
981.233,0.029074380420786916,1.1860792588294071,-0.1283240100920473,-0.836281281109196,-0.31112137530134554,1.8725943291052705,2.274609288216599
981.266,0.029117183897803045,1.1860902160319489,-0.12839984671099547,-0.83629102332534,-0.33120233444616165,1.8726527052726443,2.264245269825178
981.299,-0.16940209146664523,1.1878501164113315,-0.25191285724713264,-0.805375467407556,0.08351791113449142,1.8722919215572487,2.255328281404869
981.333,-0.16891613277882964,1.1878492832016532,-0.2618739337322584,-0.804224247550799,0.08352845809954028,1.872278133234551,2.2553323416241398
981.366,-0.16847803385705223,1.1878538575140836,-0.2710243031879035,-0.8039351927193402,0.08352651208783593,1.872271830879067,2.255337897321929
981.399,-0.1680682543590025,1.187976020117752,-0.2788126591558768,-0.8040727144871075,0.0835338451369677,1.872228367729251,2.2553399785912096
981.433,-0.167900373383534,1.1882066397490805,-0.28471227129806276,-0.8045999778754312,0.08352953212804988,1.8721886626153297,2.2553334795583915
981.466,-0.1679831026498054,1.1884787142082798,-0.28892007306196066,-0.8053690238134789,0.08353012120830561,1.8720620360902656,2.255338962721027
981.499,-0.16816526909939897,1.1890697575732103,-0.2915893323093167,-0.8062376348457021,0.083535661396151,1.8720192659915167,2.2553377323327606
981.533,-0.1683781638438771,1.1900975671631233,-0.2925302671459792,-0.8071109567017721,0.0835417860481474,1.8720119004976428,2.2553383682189647
981.567,-0.16832757980126298,1.1917276437346507,-0.2923720621179492,-0.8079178745069726,0.08355156869929546,1.8720049005180601,2.255336838327
981.599,-0.1676529827431486,1.1943754959909145,-0.2919900687028813,-0.8083140083972048,0.08355156875981223,1.871995370253296,2.2553448144655093
981.633,-0.16624007110507938,1.1979470653668114,-0.2916612150053641,-0.8082967136609547,0.08355451879236432,1.8720008588547417,2.2553436873066928
981.666,-0.16399917889081927,1.20218383990928,-0.29132406744364325,-0.8082722352852919,0.08356622683109356,1.8720064386700968,2.2553495702406563
981.699,-0.16090418110321753,1.2071873221310536,-0.2904899934967902,-0.8082279416175859,0.08357498484162648,1.8720235429608736,2.2553601075701173
981.733,-0.1569180310030831,1.2128417834126717,-0.28884173418043213,-0.8081688111021627,0.08358567562695882,1.8720438481072261,2.2554202010259536
981.766,-0.1521249875616743,1.2190909757802053,-0.2857671958872353,-0.808152465176874,0.08358955827355384,1.8720579249936562,2.2555632325649837
981.8,-0.1461807658051358,1.2254123735587035,-0.2820249706673486,-0.8076353211352553,0.0835855909883976,1.8720744852971611,2.2555643951102424
981.834,-0.13917938266630772,1.231458729672867,-0.27795383386966194,-0.806856659629338,0.0835950633217523,1.8720848340813145,2.2556523094806504
981.867,-0.13122578470868076,1.2367764155442575,-0.27385687133154774,-0.8066120543666215,0.08359644022894354,1.8720960351735267,2.2563688635301915
981.9,-0.12034725241828213,1.242372501988406,-0.26863879156754633,-0.8066142140115299,0.0836039902754482,1.8720950923008965,2.2568885971483263
981.933,-0.10935690590061299,1.2465820408414097,-0.2637170318380343,-0.8065811615989755,0.08360606448782164,1.8720960351757712,2.2569597076468755
981.966,-0.09705528453238689,1.2498170393147836,-0.2590025611001133,-0.8066089272576668,0.08361482249688773,1.8720874393913756,2.2573514757541693
982.0,-0.0838699644648942,1.252309719800418,-0.25418125777305545,-0.8066372401769083,0.0836455240503399,1.8720831414984302,2.258701165625658
982.033,-0.06985489589330231,1.2542279046183042,-0.2491029047686485,-0.8066837173780119,0.08372121801888135,1.8720853794359822,2.261314802790986
982.066,-0.05513072320209036,1.255710018196053,-0.24422102574192817,-0.8067933295303343,0.08397894692259691,1.8720711285999547,2.2654192654295193
982.099,-0.03951536290957774,1.2567286490606504,-0.23981377083236255,-0.8069994076552116,0.08400108934836963,1.8720557664610762,2.2690507328852987
982.133,-0.02365073551222343,1.2573302580443702,-0.2362006759841192,-0.8073116282408949,0.08402997626896307,1.8720285469034663,2.2725587715382924
982.166,-0.00708220153191842,1.2576454569283424,-0.2327946881658053,-0.8072704322813646,0.08404494933639382,1.8720725045628424,2.275744387548468
982.199,0.010131692967125645,1.2576359554466596,-0.22919099232060844,-0.8071390546994578,0.08404886997642609,1.872078566296497,2.277599374929014
982.233,0.027685151961612406,1.2575790800637696,-0.2259584539661469,-0.8063747955318308,0.08404282825235482,1.8720855733665973,2.277784484350953
982.266,0.04603527905500575,1.2574993836512547,-0.22363742910271373,-0.804941331624895,0.08406002708054973,1.8721419021844499,2.2778651034539816
982.299,0.06504756552912268,1.25733373500529,-0.22235371302246848,-0.8032575391922324,0.084074512676101,1.8724814840994364,2.278673788159294
982.334,0.08423148453156741,1.2571386364404253,-0.22212523100575265,-0.8013700295931973,0.08411446596646602,1.8730040207714231,2.2814447607975143
982.366,0.10368735875910824,1.257051513425053,-0.22212183871423297,-0.7990541640726977,0.08412577238619022,1.8737777886657125,2.285584694815519
982.4,0.12317195831700785,1.2570558583337066,-0.22212813444018073,-0.7965362493250161,0.08414176786428895,1.8746568220642867,2.2895209542721546
982.433,0.14252879131601764,1.2570695386524293,-0.22203670327816846,-0.7941931158458967,0.08425991337668308,1.874848386590411,2.292468581896043
982.466,0.10035229127221079,1.2579282784015708,-0.22359465156116531,-0.7991235839560265,0.033693590244642024,1.8737801089164705,2.232974769080945
982.5,0.11519660638837159,1.257153502864596,-0.21894600112473217,-0.7972745980758686,0.02276890216748395,1.8742173179634918,2.2342871364354977
982.533,0.1226940437914914,1.2564612489841727,-0.21612304416373718,-0.7962971802550811,0.0058693987474329745,1.874578985490869,2.2300249434861765
982.566,0.1265438236853571,1.2560297331421308,-0.21476111335939407,-0.7957716220790454,-0.010879148221276225,1.8748196112405253,2.220973515401681
982.6,0.12856523151557564,1.2557747215479695,-0.21408080265422313,-0.7954673503402958,-0.028183407622279333,1.875001962893002,2.2090007062179744
982.633,0.12965915619778912,1.2556009912935648,-0.21372884908178325,-0.7953187813348501,-0.045759785636348305,1.8751587972112311,2.1946617174755545
982.666,0.13029749422817005,1.2554950042596982,-0.2135765871812616,-0.795241975407003,-0.06361091392050522,1.8752729576445404,2.1783366690213963
982.699,0.1306853650072597,1.255444899728115,-0.21351576450900733,-0.7951837172195013,-0.08182359676009288,1.8753682795618118,2.1607358407997417
982.733,0.13092071725158316,1.255395511934017,-0.21348949341360512,-0.7951719237667962,-0.10041455190690751,1.8754653731619282,2.141983098355878
982.767,0.29798869110860765,1.2573320560970875,-0.22147949912722387,-0.7932689606006516,0.08520422872503808,1.874833158316467,2.303359951929364
982.799,0.3118964128170448,1.2573842963819855,-0.22142649692832755,-0.7933360368175477,0.08528077504850433,1.8748259621376486,2.303433838739853
982.833,0.3254236607162633,1.2574494906586875,-0.22119015059288202,-0.7934418487698056,0.0853649886657849,1.8748161646967207,2.3035670015571874
982.866,0.33797476859640174,1.2575414087001469,-0.2210043761942394,-0.7938150637835142,0.08544677225046435,1.8748099252544919,2.3036631201966267
982.899,0.35019421746402024,1.2577672951644514,-0.22064863829994033,-0.7941731213195001,0.08548696787709133,1.8748131666647858,2.3036797734035384
982.934,0.36143545473179023,1.2582459304796283,-0.22023250346718168,-0.794382079477267,0.08556908761373458,1.8748179880773088,2.3036756986179885
982.966,0.37207903965371764,1.2589638282394304,-0.21977815163489592,-0.7943857371711882,0.08563783826629869,1.8748249551585334,2.3036756332800437
982.999,0.3819778562302662,1.2598459989878112,-0.2193685580150304,-0.794399421618693,0.08568385788532008,1.874819379666229,2.3036746320397463
983.033,0.39102437064177575,1.2608972930363957,-0.21896335317455567,-0.794420908398171,0.08578850263202929,1.874823482477469,2.3037100958247434
983.066,0.3994213656922875,1.262076943546965,-0.21811553859626673,-0.7945113867359389,0.08601957895694357,1.8748207144467828,2.303736166283063
983.099,0.4069754809749253,1.2633684867577883,-0.2166859739566515,-0.7947751138586545,0.08610083046221305,1.8748238361808987,2.3037872242175
983.133,0.41365801938363067,1.2647556066644705,-0.21475125849798704,-0.7951125901771728,0.0861652584394094,1.8748271602657114,2.304087099239734
983.167,0.4196778953489536,1.2662220119299286,-0.21255722930181578,-0.795488718387686,0.0861690341134866,1.8748272080706916,2.3043972489598326
983.2,0.42515487289013665,1.2677245520181886,-0.20997217500841434,-0.7958445900072377,0.08617292605763507,1.87482829331475,2.304766430508478
983.234,0.4300778370332101,1.2692672998684735,-0.20715565165459773,-0.7962555142837391,0.0861765485240357,1.8748339156430158,2.3050466428261864
983.266,0.4341253010609336,1.2708864726515416,-0.204075968244536,-0.7967593700153343,0.08617567297816273,1.8748408083192756,2.3051344273465464
983.3,0.43732118054545815,1.2725936493735825,-0.2007838996149921,-0.797017878072389,0.08617567297816275,1.8748401929185867,2.3052806418087313
983.333,0.44038512887487674,1.274666368330372,-0.19737653611753855,-0.7970106058100781,0.08617262122035037,1.8748540774956222,2.3055775206529896
983.366,0.4429278947825165,1.2766198743726553,-0.19473988522119734,-0.7969996042198131,0.08617068844040235,1.8748600042793147,2.305676840262908
983.399,0.4451509859541591,1.278390624838666,-0.19275448162678355,-0.7970073868822303,0.08616769842849314,1.8748636536730658,2.305809010484991
983.434,0.4382011992907131,1.2736355875906025,-0.1986993350844859,-0.7965427175124775,0.03466152334106276,1.8748886777129048,2.249661604361398
983.466,0.44170758043523506,1.2753680085946613,-0.19687660331388823,-0.7968893872189735,0.03415430338171266,1.8749746874757882,2.2462612261430337
983.499,0.44360330584695973,1.27621752587112,-0.19576685589844445,-0.797091875021346,0.018009278316310606,1.8746413203262353,2.246903739657647
983.533,0.4445625861931397,1.2765861494517123,-0.19577114279346652,-0.7972770311444437,0.00512933670481619,1.8748148933329531,2.239471870139493
983.566,0.4506665865124379,1.2816410237297677,-0.18819327878907124,-0.7966908691489254,0.08615795569618266,1.8748925023211374,2.3058276811959497
983.599,0.4449214506606012,1.27721451234334,-0.19484212823148184,-0.7970651527996244,-0.004753404273599493,1.8748322448583252,2.2385130220581164
983.633,0.44556417721263397,1.2779299409409264,-0.1933212885892477,-0.7969609248147744,0.001957070312753828,1.8746328815702569,2.2533223878824344
983.667,0.4462841495755665,1.2781596937893491,-0.19315049729865397,-0.7970436728853825,-0.01338604339787608,1.874559210658557,2.253031172374371
983.699,0.44671409262011164,1.278278644654896,-0.19330699825355335,-0.7971425157070513,-0.0262847030102904,1.8747326615531321,2.2467478694007603
983.733,0.44685459887047774,1.2783177205785323,-0.1932547450388764,-0.7971673865822062,-0.04108691022271138,1.8747390069436882,2.2398866352153615
983.766,0.44678119843815356,1.2783395976051546,-0.19292743923511413,-0.7970825989545576,-0.057283832974475146,1.8745029760095484,2.232057013450767
983.799,0.44698404740209696,1.278343111307179,-0.19324960046215534,-0.797193485789423,-0.07247773438867089,1.8747288806345708,2.219022704421695
983.833,0.44683615681202316,1.2783455515815358,-0.19288232046143072,-0.7970976651347863,-0.08965864863142414,1.8744836831497516,2.2069775426023632
983.866,0.4468423213660815,1.2783351563122807,-0.19285215693560076,-0.7971026709909417,-0.10611014345252556,1.8744479695291485,2.1919049059367985
983.899,0.44699886943228684,1.2783511475402207,-0.1931476041886402,-0.7971761355703428,-0.12267773459851394,1.8746630136957094,2.1739033581747105
983.933,0.4468486647510206,1.2783451069645517,-0.19280909131005863,-0.7970789508474452,-0.14111668693702573,1.8744038972394392,2.157900452234145
983.966,0.4468352296271707,1.2783365112044223,-0.19274984193142863,-0.7970757638154815,-0.1587669324988461,1.87437709761309,2.1393588634862173
983.999,0.446816349581578,1.2783246170648566,-0.19268513361376272,-0.7970694934972835,-0.17674390291624142,1.8743203216726663,2.1204370492774114
984.033,0.44697058187249183,1.2783394258352576,-0.19299687856574455,-0.7971440334063153,-0.19474664457338786,1.8745478357102705,2.098424967041483
984.066,0.44700226616935623,1.2783271460111276,-0.1930612206918223,-0.7971681810232294,-0.21306062046411345,1.8745802499086217,2.07777955717342
984.099,0.45080642693190803,1.2811989382503668,-0.18821781231120996,-0.7939765600318832,0.08610602237118616,1.8748878738217885,2.3057997349110635
984.133,0.4508032316371228,1.281189401342382,-0.18821649290642928,-0.7939681459393442,0.08610703962379032,1.8748915839683136,2.305798615663358
984.166,0.4508090815892066,1.2811793855455282,-0.18821436094563795,-0.7939623620302655,0.08610602237118616,1.8748932906919056,2.3057994411756426
984.199,0.4508093200200482,1.2811739871810437,-0.1882116550465541,-0.7939617090662994,0.08610703962379032,1.874892248492503,2.3057942627448673
984.233,0.4508040303065065,1.281167064704921,-0.18821371177467913,-0.7939585009683785,0.0861051068438424,1.8748912322089324,2.3058026576008332
984.266,0.45080932003231067,1.2811613433513176,-0.18821159934554174,-0.7939616583335094,0.0861051068438424,1.874888998613854,2.3058015244110477
984.299,0.4508093200200482,1.2811666291643435,-0.18821696830690732,-0.7939666955358439,0.0861051068438424,1.874888992799653,2.305802530084418
984.333,0.4508065359602894,1.2811660630949102,-0.1882175216786459,-0.7939635276736713,0.08610602237118616,1.874888992799653,2.305799699054727
984.367,0.45080932002408586,1.2811635391708918,-0.1882116560993363,-0.7939570156296475,0.0861051068438424,1.8748901117775176,2.30580252615612
984.399,0.4508139802715103,1.281150723057023,-0.18821370880854824,-0.7939560439734157,0.0861051068438424,1.8748912307553822,2.3057997508608024
984.433,0.4508097533022582,1.281146118542863,-0.1882090715538115,-0.793947814307784,0.08610408959123823,1.8748912307554562,2.3057972643355753
984.467,0.4508203337108638,1.281149178789373,-0.18821165240597434,-0.7939478139793662,0.08610602237118616,1.874893366985851,2.3057961484911806
984.499,0.4508203340379292,1.2811467666465168,-0.1882093046382358,-0.7939425199616428,0.08610602237118616,1.8748933684394011,2.305792746242372
984.533,0.4508178283844077,1.2811406704250135,-0.18821435714371346,-0.7939445954377151,0.08610602237118616,1.8748912351160412,2.3058058971679682
984.567,0.4508178283844077,1.2811428606971724,-0.18820377760811857,-0.793949606649573,0.08610602237118614,1.874893366985851,2.305797162813649
984.599,0.45083121009166355,1.281140076637268,-0.18820377760812043,-0.7939517524033279,0.08610602237118614,1.8748912307553822,2.3058015282783413
984.633,0.45082098743058086,1.2811375400954923,-0.18820628324990066,-0.7939445953330347,0.08610602237118614,1.8748933669858618,2.305800465954433
984.666,0.4508288092885972,1.2811396420583718,-0.1882090410759936,-0.7939471009823312,0.08610703962379031,1.874892719496618,2.305796070555756
984.699,0.45062744049445946,1.2811878769218978,-0.18805530337660237,-0.7939434244071837,0.035342354180865065,1.874748293382961,2.318716738284266
984.733,0.4508320424205068,1.281139642046209,-0.18819848789457685,-0.793952112289897,0.08610510684384239,1.874892248008011,2.3058008174922535
984.766,0.4506933116296228,1.281123291928811,-0.18809211099516254,-0.7938933017398053,0.02481973495642631,1.874773690096612,2.3108877417355504
984.799,0.4508115571795521,1.2811719327972941,-0.18828328335799682,-0.793979548444546,0.027289837018400043,1.8749124221388769,2.308709116407311
984.833,0.45083261786419904,1.2810617768226669,-0.18823130433753388,-0.7939404555213354,0.013011778124072393,1.8749173992191572,2.314888677229227
984.866,0.45088402477310563,1.2810018248002804,-0.18829664216186348,-0.7939403997066865,-0.0011868073355794095,1.8749523971215751,2.318598866519684
984.899,0.4509204252809953,1.2809901482993302,-0.18834948169706145,-0.79392560057551,-0.015930087688305505,1.874982385584655,2.320315417344389
984.933,0.45094777275708253,1.2809669902660126,-0.18838665584873038,-0.793944482095708,-0.03108461967679954,1.8750309975932602,2.3200836656290313
984.966,0.45098381508269636,1.2809499613335458,-0.18844397346009778,-0.7939644078072767,-0.04651012686117362,1.8750600152577928,2.317945998209577
984.999,0.4510175373727563,1.2809599617478193,-0.18850366763437432,-0.7939615896392196,-0.062348238045774274,1.8750934338839151,2.3140835963423623
985.033,0.45104367765171904,1.2809475413040987,-0.1885434384588036,-0.7939864028230632,-0.07857865754599658,1.87514529185054,2.3085621615851775
985.066,0.4509027553587375,1.280946450978413,-0.18822784062124587,-0.7938849503960634,-0.0963512678228744,1.8748733050674993,2.302705176474518
985.099,0.4508930194312786,1.280937166662338,-0.1881748518631099,-0.7938838887072137,-0.1134685134173603,1.8748479829669549,2.2940611350118782
985.133,0.45105230744796376,1.280941626499546,-0.18849237387027262,-0.7939735382157656,-0.12967929021908375,1.8751041154667138,2.282710749905867
985.166,0.45107452722245256,1.2809306388518742,-0.1885336800097921,-0.7939940801736398,-0.14709197086942272,1.8751244773793516,2.2709270082274102
985.199,0.4509196659981827,1.2809301451675328,-0.1881923246366286,-0.7938974957698353,-0.16610261051257602,1.8748549761046718,2.2587727118672127
985.233,0.45109763383624735,1.2809437972786544,-0.18855314965633863,-0.7939856484385261,-0.18398082073074207,1.8751247016848396,2.24199701845842
985.266,0.45093462586882893,1.2809168319412176,-0.1881894324583282,-0.7939068989654947,-0.20390960054390117,1.8748337837142266,2.226771627977792
985.299,0.4509199521474585,1.2809294091237673,-0.1881235390403182,-0.7938730013960171,-0.22321334686460048,1.8747676274239033,2.2090903509169575
985.333,0.45089356085605736,1.2809196958645872,-0.18803723838191466,-0.7938624459335495,-0.24288487143429816,1.874712722657513,2.1906973267587304
985.366,0.45087179645975084,1.2809098311955314,-0.18797267440362297,-0.793855948893472,-0.2625391703921185,1.8746495086153416,2.1710909806583523
985.399,0.45083200144846186,1.28120980035213,-0.18820044633257235,-0.7940029127578524,0.08610602237118614,1.8748789779372725,2.305794971115473
985.433,0.45083450710224476,1.2812072946983473,-0.1881930326689927,-0.794002513099135,0.08610602237118614,1.874874195843234,2.3058004658945914
985.466,0.4508320014484637,1.2812150901747377,-0.18819811954193238,-0.7940128171201338,0.08610703962379031,1.8748756667884416,2.3057962121917797
985.499,0.45082670879148096,1.281220104316677,-0.18820353740020634,-0.7940191568491748,0.08610510684384239,1.8748753005728291,2.3058047578111376
985.533,0.4508242060813987,1.2812201013732374,-0.18820118994112017,-0.7940213426859296,0.08610510684384239,1.87487442895414,2.305799345301671
985.566,0.45082412660853904,1.2812201013853501,-0.18820124236043995,-0.7940138671521341,0.08610408472135578,1.87487005606483,2.305803719487869
985.6,0.45082599353574365,1.2812208166289747,-0.18820127157830993,-0.7940138671356335,0.08610510684384239,1.8748767722195927,2.3058004642795358
985.633,0.45082921727968617,1.281215119500064,-0.18820164000822956,-0.7940139751727744,0.08610703962379031,1.8748723222969659,2.3057982263776418
985.667,0.45083200144846186,1.2812201013732374,-0.18820048454388977,-0.7940138671356504,0.08610703962379031,1.8748775394700767,2.3058004642795358
985.7,0.4508242060813987,1.2812151165566248,-0.1882037675459975,-0.7940113614818506,0.08610510684384239,1.8748711735478445,2.305796078518771
985.734,0.45082420604505996,1.281222886414342,-0.18819906731300512,-0.794021662502958,0.08610510684383964,1.874871785617824,2.3057982263238066
985.767,0.4508241262773861,1.2812331867824986,-0.18819817002905864,-0.7940251768412349,0.08610703962379031,1.8748707902471649,2.305794971116138
985.8,0.45083729116226495,1.2812303971499597,-0.18820052827318506,-0.7940143159589786,0.08610703962356774,1.8748767835442761,2.305803719505814
985.834,0.4508267117350684,1.2812105186778933,-0.18820095598619813,-0.7940035661273378,0.08610703962379031,1.874882277385224,2.3058015832574004
985.867,0.4508319985036767,1.281202005093827,-0.18819809233997417,-0.7939982948031545,0.08610805687639447,1.8748845168861001,2.3057938521384944
985.9,0.4508397968160423,1.281194210598777,-0.18819279339230402,-0.7939717756554006,0.08610805687639447,1.8748944864482322,2.3058015832574004
985.934,0.45085663691379324,1.2811552327808582,-0.18819000933253974,-0.7939528557448661,0.08610998965634238,1.8749037628534422,2.3057938521376085
985.966,0.45085747423687106,1.2811336426121085,-0.18819279339229852,-0.7939364438050748,0.08610907412899864,1.8749059681845397,2.30579501036133
986.0,0.4508812601717178,1.2812967209334927,-0.1883669119065292,-0.7940823081032917,0.036305149665197156,1.8749706654541605,2.304868841652681
986.034,0.45069732598262036,1.281245167394192,-0.18793056701343236,-0.7939632946723458,0.03376978195641911,1.874719707544294,2.2961361408687253
986.067,0.4507463577369304,1.2811091152463039,-0.18794056480874843,-0.7939207984745371,0.018634852586214556,1.8747219858185957,2.2920511003948025
986.1,0.45089760292413317,1.2810755721590983,-0.1882037180521685,-0.7939620325982704,0.0050640234697540976,1.8749137287059696,2.2830646027444246
986.134,0.45091123003743405,1.2810377289315378,-0.18821311178870026,-0.7939638014529571,-0.009383185438609942,1.874906089853578,2.2738512724279953
986.167,0.4509434024586394,1.281041573501298,-0.1882809936987595,-0.7939561607410397,-0.023928182503993867,1.87493827925735,2.262504417615176
986.2,0.4507961858504572,1.2810088399867077,-0.18796254730138973,-0.7938947404348768,-0.03990807868850599,1.8747283009825146,2.2502377778542098
986.234,0.45079547973623946,1.281022146349133,-0.1879378562604428,-0.7938680831391043,-0.05514264587124007,1.8746989416488447,2.2356887614406293
986.266,0.45095298592908684,1.281027671931426,-0.1882550431910781,-0.7939487888457517,-0.06946585701888086,1.874905582858343,2.219212548617463
986.3,0.45078322760915945,1.2810006229691915,-0.18789020702321757,-0.7938742435933754,-0.08629751798987062,1.8746627257144404,2.2039048628020055
986.333,0.4507802483381429,1.2810154280829602,-0.1878668148240461,-0.7938499463496678,-0.10220433973551657,1.874632892196253,2.18654912222582
986.367,0.4507542024405442,1.2810058081861753,-0.1877917805945577,-0.79384527500416,-0.11840897826284458,1.874597779808731,2.168523992972757
986.4,0.4507352046731983,1.280994702748517,-0.1877390839784674,-0.793840636227606,-0.13478995971478636,1.8745494370834308,2.150048789996216
986.434,0.45071225912874713,1.2810080810847948,-0.1876721865574158,-0.7938073454144146,-0.15142798280638292,1.8744935651165449,2.131174916732803
986.467,0.450869406194216,1.2809994535877411,-0.18799993831225859,-0.7939077971991733,-0.16783482192648513,1.8747205752238791,2.1095203794690853
986.5,0.4507007628289035,1.280994923932881,-0.1876319892311713,-0.7938135003317353,-0.1860448580670866,1.8744775720692033,2.0907485818061566
986.533,0.4508716850882184,1.280992034458217,-0.18798248844252097,-0.7939072736914818,-0.20420368728691152,1.8747061855604557,2.0667564666862184
986.567,0.4508963675019704,1.2810041364755076,-0.18803502074346934,-0.7939009103500752,-0.22188165380384017,1.8747275488307462,2.0456149876309304
986.599,0.45074606210012114,1.2809737687439542,-0.18769518377935057,-0.7938393001315607,-0.24135589631830445,1.874504914908977,2.0244882031337426
986.634,0.4501090925395775,1.27956924165144,-0.18818000681556823,-0.7897255910129354,0.08617567278856193,1.8749814594719143,2.305816434136094
986.667,0.4494518544772758,1.278432574649063,-0.18818293662069066,-0.788820836249367,0.08619638775067372,1.8749793232414456,2.305796382553546
986.699,0.4481909969515943,1.2770318553513806,-0.18819815992259586,-0.7881798482894736,0.08622080021486807,1.8749804422193102,2.3057939880115534
986.734,0.4461781486234372,1.2755536465972035,-0.18821417695530615,-0.7875487845377663,0.0862445625156844,1.8749814594719143,2.305794106512604
986.767,0.44341328900961985,1.2739336155746022,-0.18826900196059881,-0.7871250031627779,0.0862620436593623,1.874978204263581,2.305778837437425
986.8,0.4398165207205683,1.2721782781714854,-0.18863094260861396,-0.7870300428713473,0.08626408474644023,1.8749828947938836,2.3057280542507734
986.834,0.43526446634771987,1.2703513929355426,-0.18914731016548803,-0.7870407520344127,0.08625808295607565,1.8749793624873023,2.305537233862213
986.867,0.42982301870910944,1.268425666985189,-0.18978939815898566,-0.7870382493092205,0.08624636746456214,1.8749793237259624,2.305355433203617
986.899,0.4233403748856781,1.2662344408239181,-0.19112939436462847,-0.7870325209831148,0.08623261893328629,1.874978206203642,2.305291815888242
986.934,0.439778215321442,1.2713189461180194,-0.18752352052735244,-0.7870894826859258,0.032545286820657715,1.8748056523540306,2.3206397005134214
986.967,0.43543485083764466,1.2693602460600362,-0.18832912638242938,-0.7868133685435348,0.033747682481370944,1.8748329329260116,2.33094160162152
986.999,0.43283932086569,1.2682164876944624,-0.1893929171976838,-0.7863668310048215,0.022147552250016744,1.8748780469134871,2.344542888797454
987.033,0.4320129162800006,1.267723537796952,-0.1900940297440883,-0.7863216647680442,0.00922460070434905,1.875160990836191,2.352661713489457
987.067,0.43146180496930686,1.2675120240160158,-0.18986096641576466,-0.7861519704864159,-0.0059688615920467925,1.8749140424401922,2.362710420725591
987.1,0.4313437201578516,1.2674477541875904,-0.1899235597181601,-0.7861161015461642,-0.020250275388061567,1.8749178947213387,2.3694169423056
987.133,0.36090230856471733,1.247790458184936,-0.23286662366450134,-0.7814504369862671,0.0861893622577993,1.8751566443047358,2.300303044570199
987.166,0.34980270143816244,1.2459327011684116,-0.2407576331036201,-0.7801107601232885,0.08618310627672407,1.8752029123624858,2.2993983646003078
987.199,0.33802050560393776,1.2441565359945521,-0.24806850224236268,-0.7792234457615426,0.08618257043317001,1.875217680464011,2.297763087625775
987.234,0.3264006565379179,1.242503562899295,-0.25457434715867044,-0.7790470640092104,0.0861705673538559,1.8752606118033859,2.294836289147345
987.267,0.31411746812094626,1.2409834698701676,-0.26054956220139036,-0.7790395099722536,0.08616293182362547,1.8752905790293257,2.290066320567301
987.3,0.3629299064906224,1.2502149963569593,-0.23459237108941267,-0.7805331883627185,0.019925291147827373,1.8751452591994386,2.290307838440226
987.333,0.34221894910947626,1.2452482061973953,-0.24387898194217783,-0.7797328474582121,0.02023968351814176,1.8753121503526202,2.2787584096164313
987.366,0.3311266831581996,1.2423304310284298,-0.24788588778350373,-0.7796289059535653,0.0032038788945882857,1.8753417532917318,2.283538108168848
987.4,0.3265710519564342,1.2411785993574203,-0.2501072978364469,-0.7796438721664414,-0.012224470103444851,1.8756021542196422,2.2888935448793113
987.434,0.32445687324338834,1.2406895647489238,-0.2504461052277591,-0.7795222902065699,-0.02915751662276289,1.875348797220525,2.2979314929782255
987.467,0.32372336890974296,1.240491582399991,-0.25124600153427235,-0.7796248353354329,-0.04564209969498911,1.875631968165166,2.304140600547754
987.499,0.3231023538643072,1.2403772874583483,-0.2509784564108486,-0.7795030899227866,-0.0633304004819113,1.8753352116593298,2.312815249963368
987.533,0.32308353112254196,1.24032398166573,-0.2514852661788325,-0.7796388421963991,-0.08070539158205037,1.875650511345608,2.3184297583326607
987.567,0.32297002797005536,1.2403087920754539,-0.2515487768293241,-0.7796286419368608,-0.09879118131318876,1.8756601889576459,2.325124174307403
987.599,0.3227236277465684,1.240276587946549,-0.25119627396513966,-0.7795152318164522,-0.11761780391281551,1.8753610681624266,2.3330542924203144
987.634,0.3228897998203557,1.240262716812743,-0.25162413738814227,-0.7796576168777563,-0.1362951812404285,1.8756996179911312,2.3381997083150203
987.666,0.3228783246724021,1.2402716568864136,-0.25165946232464886,-0.7796483039463507,-0.1555985328492353,1.8757141241215223,2.344741088318097
987.699,0.3226807629153159,1.2402530470178705,-0.25126664244224006,-0.7795277944522407,-0.17570425658783062,1.875370485596271,2.352901792378244
987.734,0.32266249127655744,1.2402451824465786,-0.2512138519114222,-0.7795211375051903,-0.19607181067066293,1.8753338599406781,2.3600607823702013
987.766,0.32263621487613836,1.2402364148100968,-0.25113853077383386,-0.7795056708292591,-0.2168535654064936,1.8752497431170294,2.3676467975548423
987.8,0.3226058312104936,1.2402473703721313,-0.25104628055107714,-0.7794649182262239,-0.2381615523319276,1.8751530073644638,2.37586919141142
987.834,0.3228085462576704,1.2402406277531055,-0.2514562930728319,-0.7796136397959614,-0.25974982477661523,1.8755498235245494,2.3835966075543737
987.866,0.32283762016533935,1.2402519995930792,-0.25151090507721907,-0.7796157724105717,-0.2820256652211439,1.8755918087007597,2.393551691416171
987.899,0.3228784176648283,1.2402400785673784,-0.25157847791903976,-0.7796528169597554,-0.3049382897868975,1.8756884654558839,2.4046763548636907
987.934,0.32293611011944634,1.240231295178468,-0.2516656841618863,-0.7796901926107775,-0.32849467669346044,1.875711589926862,2.417139258219162
987.967,0.3229929806900813,1.2402431090811277,-0.251751822549922,-0.7796961230136805,-0.35240940823674194,1.8755253358605692,2.4309359508768207
987.999,0.32280518541180303,1.2402297938861215,-0.2512730522891289,-0.7795453671101642,-0.3771757420798405,1.8745613609809517,2.447502844002347
988.034,0.3228056912283481,1.240223489290404,-0.25117853250098143,-0.7795153715284284,-0.4037127992400338,1.873641650379458,2.4657908599932785
988.067,0.3227986968847256,1.2402093487266708,-0.25105923507138606,-0.7794869055718596,-0.42960571641452283,1.87240392087085,2.485365504031792
988.099,-0.046926802422362676,1.248417001152097,-0.3422715192584215,-0.7883777063122125,0.085807619954653,2.0297271897335225,2.249665813401832
988.133,-0.060036356770381216,1.2485354489016751,-0.34229499089675597,-0.7883719208249298,0.08576517218117297,2.0308545870997317,2.2473549345903394
988.166,-0.07248531088162327,1.248533302842525,-0.3424514327310999,-0.788360560855481,0.0856152033448019,2.030822849471518,2.245127821916673
988.2,-0.0842794637840851,1.2485248474600743,-0.34282978666980685,-0.7883133805542974,0.08523166658264172,2.030793846109534,2.241403537536235
988.234,-0.09539893460092319,1.248537607975638,-0.3432896344796469,-0.7883530634226104,0.08511162273716114,2.0307209295184885,2.236501383309168
988.267,-0.1062058528316234,1.2486221850016896,-0.3437773937099094,-0.7883899029350991,0.0850590827564485,2.030388456168439,2.2297098856162307
988.3,-0.11632058232494087,1.248719620598267,-0.34405386252418413,-0.7884264648356832,0.08500050323572766,2.0299725647092957,2.2227970469441996
988.334,-0.125994025791457,1.248943700087172,-0.3442117135631572,-0.7884666765968024,0.08491303105543334,2.0295360472575648,2.214962636218762
988.367,-0.13507459777587222,1.2492436814995838,-0.34423209723716464,-0.7885079578895995,0.08484766768119298,2.0290247736438833,2.2045783223463733
988.4,-0.14354642659141711,1.2496460507813876,-0.3442382605071189,-0.7887726719130121,0.08483358532045578,2.0282020600094945,2.1936138243750887
988.434,-0.15157575325497608,1.2502729506656722,-0.3442880738653698,-0.789218034238838,0.0848297985499421,2.0263138166639942,2.1829935487633114
988.467,-0.15910946950595836,1.2509202203862897,-0.3442828758564304,-0.7897747354452843,0.08482601805008844,2.0229226629393047,2.1744430027266546
988.5,-0.1658728334119892,1.251662156506536,-0.34426761968663894,-0.7903412681885101,0.08483443219512239,2.0183672142345985,2.1660065632412637
988.534,-0.1716263443192389,1.2524946193282658,-0.34424954720712475,-0.7911506846288145,0.08483863166312174,2.013245700641854,2.1571236246335532
988.566,-0.17649997253196595,1.2534790233430595,-0.34423178071289784,-0.7922356848164842,0.08485341103773611,2.0079227302533633,2.14697414953077
988.6,-0.1803203628107124,1.254836487804401,-0.3441512118672415,-0.7932020024484532,0.084861093784953,2.0025938963931487,2.1376053974173486
988.634,-0.18309992930663058,1.2567139894397388,-0.34369274399028105,-0.7937579406970747,0.08487489844967266,1.9980603029328565,2.1273538796698968
988.667,-0.18471865357406914,1.2591768051931502,-0.34278311124184363,-0.7939769579193142,0.08489873191776744,1.995092480174129,2.1171560792866946
988.7,-0.18510120733759705,1.2623615262841887,-0.34135644616502747,-0.794002799426817,0.08490699586205226,1.994051070064381,2.108278560596729
988.734,-0.1846443287126244,1.2661460574182135,-0.33852684979533065,-0.7940219563094314,0.08491793788472811,1.994043754052396,2.102238438438393
988.767,-0.18166316328589271,1.2577172227557476,-0.3424166212199502,-0.792698314651723,0.031134177550574016,1.9988643145507545,2.1985877562570018
988.8,-0.18350529655669146,1.2600089189390724,-0.3422879303528008,-0.7935958001590082,0.026897291287320435,1.9980575918361723,2.2002071833065067
988.834,-0.18424628358353168,1.2611222448361463,-0.3426326010787726,-0.7943122466264603,0.009784340440204709,1.9979705629631717,2.220149095751804
988.867,-0.18463107771727394,1.2616679080060713,-0.3427171389360577,-0.7946362638546924,-0.00568940392162709,1.9978716755280708,2.239791787535765
988.9,-0.1847825373028158,1.2619339782920207,-0.3428263073218636,-0.7948152338923355,-0.02172578893903676,1.9978283578609002,2.2605939352650513
988.934,-0.18486114375329255,1.2620816118268898,-0.34288366019420646,-0.7949168317211734,-0.04013933955134075,1.997821209784366,2.2850959530217665
988.967,-0.18486904239689483,1.262150522076178,-0.34295877191993185,-0.7949664787382824,-0.057387406978404165,1.9978203789792008,2.30841020799123
989.0,-0.1848727913735253,1.2621733233126289,-0.34299721349738554,-0.7950155596994781,-0.07523930603070106,1.9978523011191278,2.3326448021785495
989.034,-0.18485535641556083,1.2621887876417572,-0.3430510782020155,-0.7950494270462496,-0.09358821769745429,1.9978886782481684,2.3575014886503087
989.067,-0.18482296179838453,1.2621931448864565,-0.3431200154994123,-0.7950881679710253,-0.11237272298313172,1.997928741264447,2.3830183061346
989.101,-0.18479061274564135,1.2622093536070524,-0.34318201034168894,-0.7951070098678095,-0.13157789718703405,1.9979755630249905,2.4090397947875513
989.134,-0.18475631242634716,1.2622116891874189,-0.3432433174270235,-0.7951345375841923,-0.1512004725544065,1.9980339034010157,2.4353812709757463
989.167,-0.18491835163673098,1.2621942460184101,-0.34291034852414715,-0.7949832823979248,-0.17169306767306836,1.9976135417243484,2.463213305601144
989.2,-0.18493167068938376,1.262185902447949,-0.34284222078165794,-0.7949658120027827,-0.1925481515286016,1.9975317649164062,2.4910734264782075
989.233,-0.18475205327175281,1.2621898012306385,-0.34316910635933695,-0.7951222770614237,-0.2140112166340309,1.9979271387907094,2.5189883733280833
989.267,-0.07210481932263277,1.3016826012278384,-0.15131570077147735,-0.794217764408285,0.08559152371586017,1.9926612510173356,2.098498575322904
989.3,-0.05869776890785011,1.3016723046259517,-0.13914577802727943,-0.7942191637609509,0.08564210591009544,1.9917833333297232,2.1013027670758606
989.334,-0.04454163569132453,1.301612532088797,-0.12732040895686195,-0.7941646110590123,0.08564205888708108,1.991151482438429,2.1036429887079695
989.367,-0.029897074652930913,1.3015853423267394,-0.11631320936143845,-0.7938325075003458,0.08563802588941516,1.9910641849835728,2.105856896861131
989.4,-0.014304377784182061,1.3015350950012958,-0.1059818077293576,-0.7933065310948597,0.0856464491165525,1.9910669326644783,2.1085525217605943
989.434,0.0014996715875272828,1.3013728890575167,-0.09654460247825068,-0.7925985789490118,0.08564010828367423,1.9910678494751437,2.112125834337696
989.467,0.017131810359817763,1.3010518177346848,-0.08831127343734917,-0.7919890568056771,0.0856372775158448,1.9910700136932389,2.1159064424994827
989.5,0.03587710021822062,1.3003015648734515,-0.079950221432805,-0.7916025528810658,0.08564401812354998,1.9910669384806936,2.1213971871351114
989.534,0.05333998916040949,1.2992839089236137,-0.07350390026139764,-0.791485242632608,0.08564527916203427,1.9910684273302777,2.127785004855794
989.567,0.07129651114271267,1.2979775788853192,-0.06816274338358604,-0.7912845298692945,0.08564212500780029,1.991068010768218,2.1353539622947375
989.6,0.08970097132994537,1.2963081302779496,-0.06405115245516786,-0.7909557297928073,0.08564401817765961,1.9910682873335905,2.1443815683885696
989.634,0.1081290128414902,1.2940851818894872,-0.061224796200248705,-0.7908596514450884,0.08563420334969365,1.9910603365348702,2.1557000379049898
989.666,0.1263611277679047,1.2914679747144437,-0.05950439938290668,-0.7908497516397844,0.08564507689328497,1.9910511132876902,2.166928679970362
989.699,0.14517615550040802,1.2884059919237216,-0.05869274099743165,-0.7907392970711647,0.08563913482757068,1.991053880104913,2.1781023186258657
989.734,0.16358096141054732,1.2851773229853827,-0.058594260812152334,-0.7902897213357533,0.0856370876658764,1.9910419707378144,2.1888736271380784
989.767,0.18100985898383315,1.2819523299382904,-0.05860910748094732,-0.7895291870755528,0.08563079123820784,1.9909888190410694,2.1979375691431216
989.8,0.19995793687392632,1.2780070735689677,-0.05865383139068826,-0.7887683239498828,0.0856341505962789,1.9909743849359645,2.2053673862686933
989.834,0.2165568393784137,1.2740289297178657,-0.05859659771184646,-0.788232900982581,0.08564244459308497,1.9908545990163242,2.2102503517474474
989.867,0.2324567358475767,1.2698678758061628,-0.058582025933704804,-0.7882613078194319,0.08564687605824242,1.990161781077732,2.2134419991379666
989.9,0.24774479327628443,1.265682906180904,-0.05856353777460513,-0.7883199891469959,0.08566320944416826,1.9881790132609471,2.2150739155209993
989.935,0.26189430587038837,1.2620243966156657,-0.05853274066060965,-0.7883254242031773,0.08569298125985562,1.985076079784295,2.218028122639697
989.966,0.22395170837077139,1.2721939041544754,-0.0582610965114263,-0.7887571576719523,0.03342625953857237,1.9889199171479746,2.138850644461975
990.0,0.23857639844157585,1.2685601250080563,-0.05534398399724161,-0.7877784144299262,0.027853630414126584,1.9882475706763625,2.1405002317741193
990.034,0.2456214581175553,1.2667138365196688,-0.052142950714251235,-0.7865047679691548,0.010721873751905697,1.9887505098820224,2.134967873542699
990.067,0.3123055552614407,1.2557778496180239,-0.058302536127325735,-0.788407471889265,0.08573412949272473,1.9722681252430088,2.2308058049723942
990.1,0.323379242958749,1.255914749537125,-0.05829546015185418,-0.7891343434397009,0.08573017917101275,1.972166385595971,2.233436333272878
990.134,0.3334327760929076,1.2559613222961714,-0.05829951597392458,-0.7909380855366159,0.08572163023709456,1.9721664052009582,2.2348433208438214
990.167,0.3425588620219091,1.2559825888033265,-0.058332627965983375,-0.7925153941035675,0.08571840144528282,1.9721664052010321,2.2362212641340253
990.2,0.3509078716900552,1.256149684974046,-0.058357217916029366,-0.7930552660131007,0.08571640649335702,1.9721664052009582,2.23817551836102
990.234,0.3578343384393449,1.2561298232513707,-0.05838283675220115,-0.7929502645268078,0.085719418210342,1.9721859107770523,2.241043559370886
990.266,0.33471330864700377,1.2558053333309926,-0.05772406811829445,-0.7908786039538303,0.030530723900082712,1.9739144328036176,2.254511580424186
990.299,0.34584283260280824,1.255441488661167,-0.05407466098977487,-0.790669805494657,0.020784953325152955,1.9737238832219894,2.2704362872643244
990.334,0.35134655733127396,1.2551972145847108,-0.0518807703625761,-0.7904252599535866,0.0035200814230895716,1.973784549769995,2.2827063341544314
990.367,0.354076902644044,1.2550598540107627,-0.05076083010055843,-0.790268338098663,-0.013509219402812356,1.9737824024513344,2.2919098614215123
990.4,0.35544476916928236,1.2549564834273719,-0.050155603430257045,-0.7901924465366363,-0.030988692178969046,1.9737890555707303,2.2994925341036563
990.434,0.35633863357170004,1.2548965465076307,-0.05018401898221825,-0.7902183056895842,-0.04856366872380047,1.9740393611362386,2.304519240854898
990.467,0.3565523027744115,1.2548560554949475,-0.04970170794261808,-0.7901167091443568,-0.066967379328851,1.973817390636757,2.311537936544866
990.499,0.3567534084972257,1.2548248504646713,-0.0495755014063608,-0.7900962420856255,-0.08557566486068868,1.9737813910679165,2.316572862844053
990.534,0.3568506381618466,1.2548060357421358,-0.049456016582558604,-0.7900711002864327,-0.1047537778263532,1.9737310630628055,2.32128977788029
990.567,0.3569060904805941,1.2548121795482023,-0.049355054680341404,-0.7900288661169936,-0.12395661404549596,1.9736684195587966,2.325481833724581
990.6,0.3569209485186029,1.254794218676544,-0.04925371740490725,-0.7900132562988604,-0.14394353527989612,1.9736189548053655,2.329770171139078
990.634,0.3569264020764358,1.2548005519251397,-0.049176903981542175,-0.7899777233415284,-0.1642324248539433,1.9735388910915024,2.3339636572345572
990.667,0.37838524197213713,1.2557236378499903,-0.06826777128132272,-0.7907568451295057,0.0856921264600181,1.9722077337173924,2.2568265072300013
990.7,0.37497815058806017,1.2557289386874775,-0.0751622401548003,-0.7903719451943122,0.08569415447447035,1.9722274733063359,2.2568164788172016
990.734,0.37069106988529005,1.25572904245445,-0.08342102122564861,-0.7901993448943891,0.0856951717272971,1.9722482438307456,2.256809082900109
990.767,0.36553752352320384,1.2557226877105114,-0.09223975573207836,-0.7901566170915911,0.08569710450703068,1.972274163619352,2.256777380073423
990.8,0.3597137263827055,1.2557513607767512,-0.10144119881997114,-0.7901842681723399,0.08569812175962782,1.9722726297301743,2.2566856924091616
990.834,0.3530334907282358,1.255766548573578,-0.1110519654594934,-0.790239008947651,0.0857014740151552,1.9722771017475536,2.256683210604281
990.867,0.34534772320851453,1.2557669831828038,-0.12071070108974265,-0.7902535064259989,0.08568847903352465,1.9722804625752264,2.2566491466166227
990.899,0.3371033266183001,1.2557236798441753,-0.1305863864607479,-0.7901818640112456,0.08567766746172184,1.9723071477752416,2.256478727412509
990.934,0.3282311454023595,1.2556929112704265,-0.1410264628706675,-0.7901371900136563,0.08567694313087577,1.9723851835629427,2.2563469483013683
990.967,0.3186778917074034,1.2557256846222644,-0.1517255694375237,-0.7900915838868081,0.08566646654519497,1.9724829155504364,2.25628635340725
991.0,0.30867236541478765,1.2557211502550523,-0.16265493243595106,-0.790084171548714,0.08564885877374911,1.9725998940520981,2.256029837155861
991.034,0.29827643697976114,1.2556998706957705,-0.17350331350802498,-0.7900473694455307,0.08564562497054469,1.9728692719715333,2.2552025207413138
991.067,0.2872388167336411,1.2557139094503282,-0.18423372737104265,-0.790048664523255,0.08564685473559346,1.9732941108615383,2.2532471346220606
991.1,0.27593060189780105,1.2557565317039752,-0.19441299579824323,-0.7900783495044591,0.08563914579800713,1.9736989472606792,2.25005667872069
991.134,0.264009773857317,1.2557573262437483,-0.2039274772690955,-0.7900660263582839,0.08563912314215545,1.974009372577276,2.246868832597938
991.167,0.2518093718072436,1.2557234849489274,-0.21281509651898234,-0.790033446597377,0.08562508174391352,1.9744782061410653,2.244190401767957
991.199,0.23910407747757692,1.2557214720167422,-0.221433256652693,-0.7900233957197061,0.08561175015911016,1.9755339997551986,2.2419035703041508
991.234,0.2264327255527433,1.255732433338778,-0.23014665349288324,-0.7900248738265983,0.08558157217484719,1.977308204755462,2.239806144086993
991.267,0.2135141826407583,1.2557010214695374,-0.23938502555053132,-0.7900015014591358,0.08555244169318374,1.9795681926142044,2.2384053583971077
991.3,0.20050604349712112,1.2557051594638815,-0.24897684894641894,-0.7897153897525221,0.08555439880781746,1.9823208229439513,2.2381039146164525
991.334,0.18738196592205422,1.2557219099294687,-0.25862573203780903,-0.7896392470762509,0.0855476749892588,1.9855150757214706,2.2381053075070945
991.367,0.17424085720365273,1.2556973651549346,-0.2684816261334077,-0.789548165444122,0.08555393047462741,1.988624900834705,2.2381053043674264
991.399,0.16100899480781392,1.255711217618486,-0.2784908439012208,-0.7894744458235775,0.08554877991556231,1.9921197903687056,2.238091651797095
991.434,0.1478941953672701,1.2557240555921674,-0.2884372666270701,-0.7894699429660009,0.08555379450339352,1.996526903215997,2.238084138912131
991.466,0.13444929060351338,1.255718332985486,-0.29833339653035934,-0.7894673987749663,0.0855509804421001,2.0016150824919476,2.2380490482031403
991.5,0.12111138829088437,1.2557271501315939,-0.3079142362136663,-0.7894650111551138,0.08555538941403172,2.007431175457709,2.238022261394365
991.534,0.10754659174739815,1.2557271884447747,-0.3171537112927286,-0.7894783151690138,0.08555991471272875,2.0139867975276453,2.2380127997243844
991.567,0.09401362424656316,1.2557352618741655,-0.3258036761735405,-0.789461710257918,0.08555301494730844,2.022031683068775,2.237837535657588
991.599,0.08044904706226008,1.2557352996301332,-0.3341356472465236,-0.7894528282839186,0.08555301342437552,2.03033471199678,2.2369621834537896
991.634,0.06712961234404266,1.2557166094540062,-0.3422265039982198,-0.7894319868183756,0.0855523502630303,2.0388142790933936,2.2354901531975027
991.666,0.05370106624638928,1.2557292792666408,-0.350059724156037,-0.7893424280879133,0.08555596059128694,2.047333317687269,2.23343450002341
991.699,0.08445202159971554,1.2558014740393757,-0.3310213245204121,-0.78951810421428,0.028298791203810403,2.0294405795573365,2.1943936788192175
991.734,0.027491258114898193,1.2557717982991996,-0.36378096309240177,-0.789362561250985,0.08554567138706103,2.0672327300531452,2.2308854849152318
991.767,0.06386682773845376,1.255361200136858,-0.34217352376241106,-0.7901322337910894,0.01607082334692489,2.0394843299017396,2.2052716687834355
991.799,0.0546705303117756,1.2550421903328077,-0.3464217713920412,-0.790338527788311,0.011804771674554182,2.0425023557085993,2.216485068596956
991.834,0.04945315624955526,1.2544242161450248,-0.347929236979307,-0.7908636748650268,-0.007736210910813668,2.041735910219817,2.2251613010781703
991.867,0.04716485982133811,1.2542673981555295,-0.34915263335046376,-0.7912436313406053,-0.02571088098710206,2.0419022655549632,2.233363732652421
991.9,0.045986328833014234,1.254186115176247,-0.3496524739806519,-0.7914158124070898,-0.044624073851727175,2.04185045156429,2.2459858962576256
991.933,0.04537874464508462,1.2541690147806612,-0.3499584349151883,-0.7915091498234244,-0.06410006821558589,2.041839707542371,2.261218142006797
991.967,0.04485592162836838,1.2541212312430217,-0.34977340822139347,-0.7914450845303014,-0.08552463934349319,2.0414945434175547,2.2810567901206262
992.0,-0.06619786493702061,1.2560061803490041,-0.38781458365762667,-0.7895369719085839,0.08541511658827462,2.160023450666105,2.217372229923597
992.033,-0.07568081168239608,1.2560971135998582,-0.387836866233081,-0.7895652890337496,0.08540794756481186,2.1702654767423506,2.2131677913885004
992.066,-0.08414220467857517,1.2563070175282853,-0.3878473808526838,-0.789566147288715,0.08539829874556523,2.1806394923130625,2.210051361506596
992.1,-0.09183721614533961,1.2564410746681967,-0.3878556774359538,-0.7895586803071226,0.08534216229910592,2.1892117706244023,2.2072226288563535
992.133,-0.09884317793443038,1.2565715874261887,-0.3879093086923408,-0.7896108134654017,0.08530444758985122,2.195184673779423,2.203006147599124
992.167,-0.1049013442234637,1.2567964154346223,-0.3878943861869779,-0.7897213227313923,0.08529930131965215,2.197328302273734,2.198814750438787
992.199,-0.10996809724014621,1.2572651695051267,-0.3878849355025781,-0.7901044502659342,0.08530520138473152,2.1972443848576773,2.194074425523369
992.233,-0.11404043431980364,1.2580928783965397,-0.38786530055498003,-0.7909502727687391,0.08530621863736047,2.196761067432943,2.1887132074579907
992.266,-0.1171153022433088,1.2595959196407795,-0.38772400945785407,-0.7919921383676655,0.08531895138157733,2.19555569835305,2.184145080924608
992.3,-0.11919070039192298,1.2618539667215543,-0.38760937857642663,-0.7929910675369565,0.08531600134902528,2.193514401541664,2.1808896084510856
992.333,-0.12030131019919166,1.2647549012217796,-0.3873691128382002,-0.7939412388599918,0.08532372293697453,2.1895572224780473,2.1775926478439622
992.367,-0.1204457510940604,1.2681262991074709,-0.3870020294836568,-0.7949009029870346,0.08532964216368787,2.181953862502987,2.1737734568361096
992.4,-0.1199566872148713,1.271803724998831,-0.3861161106985462,-0.7954010928130393,0.08533017293110182,2.1706910966942807,2.170932700281475
992.433,-0.11898215068684694,1.2757458859698378,-0.3843940793662051,-0.7954023381567557,0.08533815567424403,2.1567766929641135,2.1693458648101185
992.467,-0.11749033523053132,1.279593214014295,-0.3818537913628472,-0.7953658317769683,0.08535095521255776,2.1403721439355694,2.1682589342087017
992.5,-0.11541477831295698,1.2831843743676798,-0.3789953633909713,-0.795365411389548,0.08534186944915043,2.1216285519932168,2.167355472594255
992.534,-0.11259935209592872,1.286590179138762,-0.3757998056623932,-0.7952607900451475,0.08535611740626543,2.101190036499008,2.16706705305005
992.567,-0.10923401838456187,1.2895160445713634,-0.37209211580886964,-0.7952650137256972,0.08536700107743532,2.0792613344529474,2.167069287116144
992.6,-0.10553227657590736,1.2918215926958982,-0.3675639865143143,-0.7952662215102053,0.08537556624604369,2.056150707256555,2.1670659311511695
992.634,-0.1017964240710325,1.2933757987674706,-0.36245311224053933,-0.7952560474722649,0.08537363347411155,2.0335856688124707,2.1670705625988997
992.666,-0.09714524766714354,1.294089300026134,-0.3553193105633994,-0.7952865309633864,0.08539530229617676,2.0070064547528843,2.167066440456043
992.699,-0.0923855145537613,1.2940969092467005,-0.3474096031756447,-0.7951780316072331,0.08542339333722311,1.982243331938233,2.167085591838373
992.734,-0.08748460941780963,1.2939881221864014,-0.3393696844339196,-0.7945819808323011,0.08542450211468566,1.9596046580107922,2.167100478505483
992.767,-0.08206619721044771,1.2939493654968688,-0.3315325865567752,-0.7931893895086672,0.08542785820362474,1.939641891473051,2.167102251424378
992.8,-0.07583376002078097,1.2936802446612883,-0.3239657912864042,-0.7918980072187058,0.08542465747084185,1.9232189534797162,2.167263549616183
992.834,-0.06838664365837684,1.2930161702782788,-0.3167551940854986,-0.7911887962774272,0.0854308082362016,1.9111480061163866,2.1677639010486205
992.867,-0.060142085294638915,1.2919438859918213,-0.3099035122428679,-0.7909089784826572,0.08542595513184789,1.903016139527593,2.16810564681542
992.9,-0.05117024377982026,1.2905053424902075,-0.3032437621411817,-0.7908445220191654,0.08542582369844119,1.8994703149373482,2.168123417740856
992.934,-0.0404968785427282,1.2887899232126536,-0.2967014054694906,-0.7907934145483143,0.0854228736658891,1.8989008374498335,2.1681375084622703
992.967,-0.028944893913260727,1.286923112529873,-0.291079704292228,-0.7906089410231074,0.0854248064458361,1.8989001310798854,2.168225552990881
993.0,-0.016063930034980956,1.2850012290664934,-0.2863289351498287,-0.7901812848311219,0.08543090962223983,1.8988991138272813,2.168865330179873
