yuan18844-afk/dissertation/catkin_ws/src/franka_digital_twin/analysis/data/gazebo_static1_20250728_062551.csv
time,panda_joint1,panda_joint2,panda_joint3,panda_joint4,panda_joint5,panda_joint6,panda_joint7
3876.308,0.3199461785650346,0.7208437863136616,-0.5245681966747284,-1.2992121898265188,0.39702551782257345,2.055205552863548,2.69702108161912
3876.331,0.319976718110186,0.7208619091511315,-0.5246078775619569,-1.2992156934743662,0.3881255997455533,2.05524385511937,2.7099789268636734
3876.367,0.3199949052155846,0.7208609985935661,-0.5246277209752428,-1.299224126207232,0.37907324957421906,2.0552680408759585,2.7242179388507974
3876.393,0.31981038572226783,0.7208316822443646,-0.5244112416243993,-1.2991454267918163,0.36962183488824696,2.055063507698698,2.740895993903619
3876.434,0.32004014963291727,0.720876515539743,-0.5246723414614411,-1.2992359485450624,0.36073060373224664,2.0553024384025917,2.756668139709287
3876.469,0.320027694573211,0.7208725950966466,-0.524653248530476,-1.2992304994769093,0.3513331895724239,2.0552979396675664,2.7750572891100767
3876.5,0.3198430531275509,0.7208440651297234,-0.5244430665048281,-1.299150142403727,0.3415977143046476,2.055075036019602,2.795907140030849
3876.534,0.3198494555422098,0.7208413028288181,-0.5244453772155948,-1.2991513469819207,0.332016778876989,2.055058989445529,2.8172206715517802
3876.568,0.3200255356340236,0.7208778664811017,-0.5246352348115533,-1.2992232378544122,0.3226531717824308,2.0552827328380765,2.838636852712913
3876.6,0.3198250803306122,0.7208477399536939,-0.5244109177511964,-1.2991310945216368,0.3120156175486555,2.055007240888802,2.8641511821181673
3876.634,0.32004122980033234,0.7208844721848013,-0.5246593107447923,-1.299228310200336,0.30297298478460544,2.0552919450300244,2.8855781312605107
3876.667,0.3199683514280265,0.7209059288215718,-0.5245460192504199,-1.2992162596947434,0.2965913544052956,2.0551793627734334,2.8973310742791814
3876.7,0.31999867680982597,0.7209727723240773,-0.524529078224707,-1.299233220631975,0.29460646034686544,2.0551813274094926,2.8973122496585866
3876.734,0.3200086849622519,0.7210023773957452,-0.5245073756276417,-1.299245830437675,0.2927815025735505,2.0551790053271297,2.897302092251312
3876.767,0.32002542487419827,0.7210179466095958,-0.524511306238967,-1.2992580365876183,0.2914431247126279,2.0551793920861794,2.8973001904487763
3876.8,0.32004836994175,0.7210487626621562,-0.5245252611092059,-1.2992617309378103,0.2904533385747703,2.055189581996016,2.897353242489263
3876.834,0.3200394471034782,0.7210513932575999,-0.5245042495477978,-1.2992598537388087,0.2896321233698753,2.055184255943562,2.8973014582957806
3876.867,0.3200419430171948,0.7210567340615466,-0.5245033098023155,-1.2992668220088515,0.28904185179821695,2.0551816851775833,2.897316727568665
3876.9,0.32005002537067284,0.7210715392075517,-0.5245057048056365,-1.299263798134353,0.2885991381879034,2.055183064785883,2.897314564834627
3876.934,0.3201372205745061,0.7210877665254296,-0.5246004000539584,-1.299307703084966,0.288408275862456,2.055327701029615,2.896834771155566
3876.967,0.32014776073996476,0.7210209873999336,-0.5246506322763143,-1.299311919155807,0.2819539720875257,2.055352277814979,2.896533664524444
3877.0,0.3201727803127481,0.7210027639012013,-0.524710759736366,-1.2993066551983548,0.27483471442780605,2.055410895054276,2.8964729479524145
3877.034,0.3202022052743878,0.7209999756111962,-0.524766809001239,-1.2993176090959615,0.2678172962229288,2.0554812716729742,2.8959497499806055
3877.067,0.3202305083538217,0.7209661104290213,-0.5248096374172473,-1.2993335444563918,0.25924223236249677,2.05551332880016,2.896869084408685
3877.1,0.3202860781626393,0.7209987814287553,-0.5248762263390843,-1.299357330366445,0.2527173846777888,2.0555816448142856,2.896070043663318
3877.134,0.32029539466313217,0.7209838749896065,-0.5248857638968758,-1.2993597303728581,0.2442060711146814,2.055618235454002,2.8955704397243327
3877.167,0.31996234392353917,0.7210225073987876,-0.5243676563436223,-1.299248921377617,0.481745636926757,2.0551508229782818,2.5964786443385544
3877.204,0.3199623676141152,0.7210275103121008,-0.5243722867520706,-1.2992464157238341,0.4817447213994132,2.0551497035159003,2.596485256479846
3877.234,0.31996495666943026,0.7210294176566959,-0.5243729434548589,-1.2992439100700586,0.481745636926757,2.0551485845380357,2.5964820419908614
3877.267,0.32038971867338617,0.7219323631277996,-0.5241918723232946,-1.2996149535745243,0.35781795342243594,2.055155307472539,2.740077965844554
3877.3,0.3202311078919422,0.7216884162887549,-0.524045401423753,-1.299488943310588,0.39412993529009377,2.0550037344547363,2.695543792262619
3877.334,0.3199447232091206,0.7210234429569304,-0.5242821615517927,-1.299203447911598,0.3749294957572342,2.054995928877018,2.7232113264280002
3877.367,0.3198286461053481,0.720874718846674,-0.5242719743263669,-1.2991316521204803,0.37182036245852235,2.0549668957807548,2.731427381843293
3877.4,0.3197715674841133,0.7208089725153775,-0.5242846316078751,-1.299106205017468,0.36285910380706987,2.054925103465873,2.7440885406808153
3877.434,0.319729767176538,0.7208057211710548,-0.5242518974429222,-1.2990827557287608,0.3550006050173913,2.054883845419617,2.7573774011211185
3877.467,0.319686458865049,0.7207946735901016,-0.5242084803520939,-1.2990676497111835,0.34660020823797133,2.054839783214808,2.772546001001473
3877.5,0.31966747865242784,0.7207858672080389,-0.5241939075261746,-1.2990600252237527,0.33818733532972267,2.054801711732509,2.7892717554704394
3877.533,0.319634663505064,0.7207878380917929,-0.5241547840220901,-1.2990370814940198,0.3295376557283545,2.054753862512662,2.807761110471361
3877.567,0.31982462608797135,0.720807416101807,-0.5243759304049647,-1.2991330222659432,0.3211878232820684,2.0549855694749297,2.8262827175538234
3877.599,0.31957980716305023,0.7207772560076462,-0.5240938070131618,-1.2990136406726087,0.3114911671406002,2.0546814831311586,2.8488183055658993
3877.634,0.3198168041824907,0.7208127812410705,-0.5243779875825965,-1.2991253489829289,0.3034549867608103,2.054995312509428,2.867585152078121
3877.667,0.3195861896861203,0.7207786470367319,-0.5241073524952844,-1.2990117855777896,0.29339606048974076,2.0546634848906606,2.8921419438628604
3877.699,0.3197564944245652,0.7208556205315375,-0.52426384888809,-1.2991136685916125,0.2902235094695689,2.0548637911078167,2.8973007976730774
3877.734,0.31972413727327353,0.7208963374529516,-0.524179577577593,-1.2990931225387374,0.28816079468716715,2.054784305563196,2.8979303863233223
3877.766,0.31977029817303304,0.7209166551432018,-0.5242215730282345,-1.2991266073900691,0.2867338087552298,2.0548268510007404,2.8973902406314753
3877.8,0.3197650294794423,0.7209366925462577,-0.5242025100633274,-1.2991190589645667,0.2855188608834789,2.054814070269188,2.8973138169065678
3877.834,0.3197656355408265,0.7209448926913673,-0.524193294364971,-1.2991214039907462,0.284671605883152,2.0548167823104784,2.897301568812532
3877.866,0.31977818640690003,0.7209608700057135,-0.5242040454877364,-1.2991253056678183,0.2840090454012154,2.0548182923934206,2.89733244088025
3877.899,0.319769002379112,0.7209604686410538,-0.5241857695247205,-1.2991216327673385,0.2835030558863867,2.054815311776732,2.8973321429137826
3877.934,0.3197784732592899,0.7209718087921351,-0.5241955805591383,-1.2991235142435809,0.2831254242999197,2.0548162328366573,2.8973000747031623
3877.967,0.3197826548097433,0.7209673984378036,-0.5241952843732758,-1.2991344400132672,0.2828375782799144,2.0548159318796753,2.8972999976966527
3878.0,0.3198611779172307,0.7209375087134999,-0.5243065366171482,-1.2991588447017621,0.2780747759445461,2.05494926044609,2.891769220876501
3878.035,0.31964422579240725,0.7208531592684819,-0.5240989886278369,-1.299037238820266,0.2693170215441558,2.0546662678610534,2.891373428940918
3878.067,0.31961150735037425,0.7208236200933449,-0.5240717082328494,-1.2990125412658822,0.26063346848756463,2.0546361634245844,2.8922293293293144
3878.1,0.31981269327507267,0.720844811348317,-0.5243169299291655,-1.299099354193335,0.2516888900886096,2.054916497553391,2.8949007050432165
3878.134,0.3198270431814336,0.7208664829360671,-0.5243405544256783,-1.2991120010790969,0.24437907126950265,2.054958956713836,2.8961901580084675
3878.165,0.31986175366012937,0.720856067110371,-0.5243740527777891,-1.2991396859914977,0.23680351620285478,2.0549906773040867,2.8960117351435617
3878.2,0.3198982002330082,0.7208722386906725,-0.5244230361520641,-1.2991492490929053,0.22835861315249417,2.055050532210796,2.8953096577229207
3878.234,0.31994451519585443,0.7208791827753078,-0.5244954069377785,-1.2991714977238278,0.21919442579460124,2.055136901508803,2.89564964189341
3878.267,0.31973645185495414,0.7208305701180935,-0.5242479539948306,-1.2990588523202673,0.20818174626290364,2.0548078000543484,2.8986514651240416
3878.3,0.31997049860706195,0.7209051138032931,-0.5245006455788213,-1.2991720033263023,0.20223878578734755,2.0551333089802952,2.8960784599481375
3878.334,0.319749427915359,0.7208403214789145,-0.5242477471492677,-1.2990654575924054,0.19115485041770874,2.054804708581342,2.8987686872708913
3878.367,0.3197259662798304,0.7208593196971531,-0.5241991235727905,-1.2990470453623484,0.18324976141357752,2.0547374963515175,2.897476415704478
3878.4,0.31996495568822886,0.7210295824892771,-0.5243774973435354,-1.299244625325938,0.4817466541859839,2.0551485845380357,2.596485256479846
3878.434,0.3202398054473665,0.7218780739804247,-0.5243580599153024,-1.2995171922172206,0.2539430694184235,2.055090805506296,2.8001784863321575
3878.467,0.319962447963187,0.7210225078307985,-0.5243697337914824,-1.299248921377617,0.4817447213994132,2.055150822493765,2.596479036814844
3878.5,0.31996245101549853,0.7210294261231773,-0.5243749417570575,-1.299248921377617,0.481745636926757,2.055149703515903,2.5964775390884673
3878.535,0.32046814669464574,0.7219524099618697,-0.5244308806460047,-1.2996269826672933,0.3207463837652442,2.055261857010205,2.7404209003384263
3878.567,0.3199649566649447,0.7210324489693208,-0.52437964000258,-1.2992439100700512,0.48174767143858804,2.055153060449494,2.5964851801859004
3878.601,0.3199599453618651,0.721028949543531,-0.5243724340836132,-1.2992567167449416,0.48174563692676525,2.0551485845380357,2.5964809210556776
3878.634,0.3199624510035185,0.7210296648005422,-0.524379640112168,-1.2992517054373758,0.481745636926757,2.0551519414736235,2.596485256479846
3878.667,0.3199681006152954,0.7210294231110818,-0.5243727081990254,-1.299243907247741,0.481745636926757,2.055150822493765,2.596484294718694
3878.7,0.31996237154277174,0.7210295854327312,-0.5243750437393511,-1.299246415723834,0.481745636926757,2.055151954553582,2.596475403665724
3878.734,0.3199599452528489,0.721026443527651,-0.5243770954990147,-1.299246415723834,0.48174767143858804,2.0551485888986867,2.596482002731709
3878.767,0.31996766125633,0.7210262015479234,-0.5243749445090755,-1.2992517054373756,0.481745636926757,2.0551485845380357,2.5964863684517905
3878.801,0.3199598570573418,0.7210295854309383,-0.5243750254453841,-1.2992411260102923,0.4817466541859839,2.0551497035159003,2.596482001433018
3878.834,0.31996495662092367,0.7210293470181917,-0.5243703617217803,-1.299246415723834,0.4817447770304399,2.0551497035159003,2.5964841375019816
3878.867,0.3199677407291897,0.7210296616349552,-0.5243747919409927,-1.2992489213776168,0.4817466541859839,2.0551497035159003,2.596479703976462
3878.9,0.31995635479943557,0.7210250131615792,-0.5243757216533551,-1.2992542110911585,0.48174563692676525,2.0551497035159003,2.596484137519927
3878.934,0.31996774040032705,0.7210245476342141,-0.5243722827919425,-1.2992517054373756,0.481745636926757,2.0551485845440176,2.5964829422308315
3878.966,0.3199677407291897,0.7210296649054426,-0.5243719743030895,-1.2992489213776168,0.4817466541859839,2.0551509794791856,2.596480116546926
3878.999,0.3199599452528489,0.7210271504255292,-0.5243750482355977,-1.2992489213776168,0.48174665418620816,2.0551497035159003,2.5964807057292925
3879.035,0.3199602154870037,0.7210303032003827,-0.5243722827933287,-1.2992496366333541,0.4817466541859839,2.055150822493765,2.596484150583934
3879.067,0.3199677407291842,0.7210236174024324,-0.5243727008185008,-1.2992464157238341,0.48174767143858804,2.0551497035159003,2.596485256551637
3879.1,0.3199577995946532,0.7210271588924599,-0.5243770997802545,-1.299246412889411,0.4817466541859839,2.055150822493765,2.5964789981970675
3879.134,0.3199617357437602,0.7210296636014352,-0.524371815820652,-1.299246415723834,0.48174767143858804,2.0551508224937676,2.596480882293648
3879.167,0.31996424140831015,0.7210246532750159,-0.5243775928368198,-1.299243910070051,0.4817466541866596,2.055148585022774,2.5964864147036004
3879.2,0.3199599453618651,0.7210264410561724,-0.5243757005815102,-1.299246415723834,0.481745636926757,2.055148584538036,2.596481941932442
3879.233,0.31996245101160836,0.721029664908282,-0.5243721273835763,-1.299248921377617,0.48174563839847656,2.0551497035159003,2.5964820056328284
3879.267,0.3199628108658729,0.7210244151834855,-0.5243724388513602,-1.299248921377617,0.4817466541859839,2.0551519414716295,2.5964753891299996
3879.299,0.3199649566694309,0.7210294235058731,-0.5243668736070727,-1.2992464157238341,0.4817447213994132,2.0551485845380357,2.5964765081078642
3879.334,0.32006915620698173,0.7210473102402517,-0.52449481538574,-1.2992943804124,0.45145661596492026,2.0552234877803333,2.680637498091727
3879.367,0.31981231635218865,0.7209544264255152,-0.5242353471304781,-1.299186967594462,0.4458286820305952,2.0550086487091015,2.6863725802462763
3879.4,0.319793642096994,0.7208877336992741,-0.5242829893867471,-1.2991660362899378,0.4360255769941661,2.0550138460048704,2.6945594152389774
3879.433,0.31994273277386753,0.7208968441613912,-0.5244752548938294,-1.2992126351465068,0.42687449775011466,2.0551707211964576,2.701863279194793
3879.467,0.31995807280731636,0.7208798868466548,-0.5245182876734189,-1.2992274522922322,0.41735828986660817,2.055185413209397,2.7113915866801115
3879.499,0.3199889019274753,0.7208919115569321,-0.5245703797386154,-1.2992322681389812,0.40777011446797484,2.055228579735129,2.7218647746937563
3879.533,0.3200060292702398,0.7208883142389961,-0.5245955643478988,-1.2992388495022142,0.39795193949195085,2.0552556201403327,2.7334592873540196
3879.567,0.3200476236705887,0.7208868508530317,-0.5246474982243816,-1.299262740787075,0.38811227250711244,2.0552872545412235,2.746119902609733
3879.6,0.31985910132699136,0.7208626062490104,-0.5244265578690674,-1.2991762735438233,0.3772010204063818,2.05508728748919,2.76207047739382
3879.634,0.3198500674092335,0.7208542233133013,-0.5244065154173612,-1.2991690438365389,0.3668092685064517,2.0550513692530537,2.7774783059936805
3879.667,0.31981986954237573,0.7208570210680945,-0.5243609278102177,-1.299145020410327,0.356288389706358,2.054999490264592,2.7942561184940864
3879.7,0.3197758890176603,0.7208492753971703,-0.5243023728237102,-1.299123445502694,0.3456354688219907,2.0549441253230434,2.8124785804396772
3879.734,0.3199713770715995,0.7208871212331918,-0.5245285964820647,-1.2992052515653265,0.3352739343928244,2.055172169192886,2.8311269470698157
3879.766,0.3199624510156314,0.721024653601616,-0.5243727084012978,-1.299248921377617,0.4817466541859839,2.055149703521882,2.5964852695617986
3879.8,0.3199599424184093,0.7210247747414957,-0.5243729460543737,-1.2992439100700512,0.4817467098103629,2.0551485845381094,2.596481235506358
3879.834,0.3199649556882843,0.7210271592558475,-0.5243742722878821,-1.2992517054373758,0.481745636926757,2.055150822493765,2.5964873164163693
3879.866,0.31996245100353515,0.721027053287997,-0.5243695013015077,-1.2992439100700566,0.481745636926757,2.0551519414716295,2.5964753891319936
3879.9,0.32006155080647414,0.721420573884914,-0.5240701747107126,-1.2993658601844675,0.4167945600463936,2.054952112423422,2.693868470916925
3879.934,0.3199575286925995,0.7212122664612401,-0.5240975059258615,-1.2992755948531798,0.42922249092981524,2.0549503838677694,2.6582060992625216
3879.967,0.3199640675367643,0.7208995008929451,-0.5244326169142077,-1.29919503641334,0.41710446263790946,2.0551158428418255,2.6657789933418847
3880.001,0.319890138240007,0.7208088538481272,-0.5244393398750766,-1.2991527064580577,0.41082880065628835,2.055091423001988,2.669964596043009
3880.034,0.31991206838710173,0.7207814099864462,-0.5245262095909382,-1.2991724686763746,0.40243218179975315,2.055135298196479,2.676872043923627
3880.067,0.3199306242769042,0.7207950861962011,-0.5245616244906843,-1.2991713124284825,0.3945075929080124,2.0551652115183945,2.684627716812823
3880.1,0.319944079166242,0.7207915395245985,-0.5245803318070328,-1.2991793875673974,0.38628706685111425,2.055184700457083,2.693844316451951
3880.134,0.3197709842588097,0.7207639314530407,-0.5243825619285838,-1.299103967806495,0.3770694601147273,2.0549945096915714,2.7064423190603613
3880.167,0.3197706841614174,0.7207636741094596,-0.5243750265397997,-1.299102291386804,0.3685517836370851,2.0549938212068994,2.718587211595736
3880.199,0.31975093168382873,0.7207553973214491,-0.5243440220886972,-1.2990911624517736,0.35975153968665374,2.054950253231107,2.732354237182589
3880.233,0.31972298601672566,0.7207595769508792,-0.524305786190566,-1.2990700125899703,0.3508472290818059,2.0549092208018216,2.747669492679691
3880.266,0.3196834590745299,0.7207523558642981,-0.5242554092034934,-1.2990538161478362,0.3418555745848195,2.054864409215469,2.764564394264397
3880.299,0.31966548502589287,0.7207454029445453,-0.5242378340006404,-1.299046332913787,0.332793741813898,2.054825936396128,2.7830985153009635
3880.333,0.3198528069196147,0.7207740828321354,-0.5244516207114129,-1.2991327294962023,0.32451221544675235,2.0550479543549187,2.8007231373487933
3880.366,0.31961575746298987,0.720744894516943,-0.5241793424752252,-1.2990210949320495,0.3144257320382202,2.054761497150638,2.82369525558369
3880.399,0.31963665540049657,0.7207421610263847,-0.5242103059804277,-1.2990350773229142,0.30527508627079314,2.0547686016920963,2.8446569904110266
3880.433,0.3195996220605375,0.7207446625932521,-0.5241566152028625,-1.2990059288050197,0.2957426274953061,2.05470402733593,2.8672342081047564
3880.466,0.3195606937210158,0.7207375170808561,-0.5241053848548081,-1.2989888981535431,0.28620130915990494,2.0546503824245335,2.890466643083588
3880.499,0.3196858471713764,0.7208032265741462,-0.5242124875199066,-1.299067279742828,0.282107738894247,2.054790251753481,2.897304514069475
3880.533,0.3196833366400327,0.7208574026559633,-0.5241690234158121,-1.2990682793240733,0.28024150951771176,2.0547576339301337,2.8973015422121406
3880.566,0.31969533832477826,0.7208801396780284,-0.5241643471913084,-1.2990798513375186,0.2785871847590249,2.0547656320735825,2.8973004036918457
3880.599,0.31969112878594164,0.7208970868056745,-0.5241478632007217,-1.299080655894051,0.2773436665547644,2.054753309772087,2.8973757533725593
3880.634,0.3197120691117803,0.7209133572814981,-0.5241649191603628,-1.299087188498656,0.27648314895242443,2.054763892020695,2.8973082907650287
3880.667,0.31971040671346174,0.7209141824851208,-0.52415593193468,-1.2990963662844193,0.27573166707007424,2.054760337406041,2.897300133052939
3880.699,0.3197155958788205,0.7209295843248711,-0.5241577553149979,-1.2990897454451904,0.2752136394522484,2.054761480410029,2.897304341203176
3880.734,0.3197238036428587,0.7209274461647084,-0.5241637090419973,-1.2991006408849906,0.274817422642065,2.054764675190654,2.897301829443993
3880.766,0.31980038911398445,0.7209099995403268,-0.5242601697158022,-1.2991297534612718,0.27122745628288314,2.0548931288659418,2.894303648533951
3880.8,0.31980116308187867,0.7208503620215332,-0.5243108156332807,-1.2991138753624742,0.2627392472975103,2.0549382379417906,2.8934275196088795
3880.833,0.31960407508134825,0.7207952598782095,-0.5241096838082955,-1.2990076044636893,0.2532036156978261,2.054657212559004,2.897284302725785
3880.866,0.3198106709822639,0.7208137195333304,-0.5243388039397452,-1.299113194331281,0.245675475484874,2.054948132640419,2.8964386741420647
3880.899,0.3198336124528556,0.7208241604468375,-0.5243767114517377,-1.2991172843734882,0.23738883120297416,2.054988426284652,2.8963805926977564
3880.934,0.3198533664220857,0.7208184250602292,-0.524403951068356,-1.2991285214872041,0.22876261233735828,2.0550352658764766,2.896019626313409
3880.966,0.319899109916153,0.7208172638526307,-0.5244566599937883,-1.2991548221967921,0.22023313662150024,2.0550866398565724,2.896461938623883
3880.999,0.3196967868580396,0.7207868792411656,-0.5242236210193427,-1.2990540561864643,0.21088621684137898,2.0547858766837663,2.8984171415344484
3881.034,0.3199186194498429,0.7208398274072829,-0.5244618081630907,-1.299157746040418,0.2035365885640159,2.0550989406716784,2.896437511905644
3881.066,0.3199423705190778,0.7208241706746223,-0.5244921234177058,-1.2991788855087565,0.1943409581137212,2.055133432638282,2.8947451882362554
3881.099,0.3199831762930847,0.720822831224627,-0.5245599426038972,-1.2991830152211428,0.18336311779324355,2.0552031770819816,2.8973333912887167
3881.133,0.32000849335106096,0.7208183743340628,-0.524584064537966,-1.2991989717785328,0.17347437582924297,2.0552546815461383,2.890389420078856
3881.166,0.31979980684580145,0.7207778740517377,-0.5243427282779773,-1.2990841424299564,0.1616046514802285,2.054931120461543,2.890560256146701
3881.199,0.31996774072515,0.7210242687930669,-0.5243696577267738,-1.299246415723834,0.4817447213994132,2.05514970400042,2.5964841375618013
3881.234,0.3199670254734524,0.7210271563083707,-0.5243675670971316,-1.2992489213776168,0.481745636926757,2.0551519414716295,2.596477656341742
3881.266,0.31995994241438763,0.7210271326518386,-0.5243722414783756,-1.299246415723834,0.48174767143858804,2.0551497035159003,2.5964841375019825
3881.3,0.31996494682157733,0.7210296383096443,-0.5243721968219587,-1.2992489213776168,0.48174370414680906,2.0551508224939865,2.5964753891300028
3881.333,0.3199624480722088,0.7210295589054411,-0.5243743415767272,-1.2992489213776168,0.4817466541859839,2.0551497035159003,2.5964831638565493
3881.366,0.31995968041599404,0.7210271327270082,-0.5243777199493346,-1.2992489213776168,0.4817466541859866,2.0551485976202093,2.5964820012715126
3881.399,0.31996495634238026,0.7210271324378454,-0.524371763856139,-1.299243910070051,0.481745636926757,2.0551489377507455,2.596475547574952
3881.433,0.319962451015648,0.7210303031537256,-0.5243740035801151,-1.2992489213776008,0.481745636926757,2.0551497165998494,2.596483120249377
3881.467,0.3199600667934682,0.7210271592558308,-0.5243702054363895,-1.2992489213776168,0.48174370414680906,2.055148937750967,2.596485256479846
3881.499,0.3199649555790686,0.721029637098369,-0.524375016458671,-1.299243910070051,0.481745636926757,2.0551497035159003,2.5964753891299996
3881.534,0.31996209564197886,0.7210244151834855,-0.5243725438317249,-1.2992489213776168,0.4817447213994132,2.0551497035159003,2.5964852957336793
3881.567,0.3199598390705545,0.72102966487307,-0.5243750397844119,-1.299246415723834,0.481745636926757,2.055150822493765,2.59648294223061
3881.6,0.3199649563423766,0.7210296354752325,-0.5243716017426787,-1.2992489213776168,0.48174767143858804,2.055152882432282,2.5964765081676813
3881.633,0.319962451015648,0.7210295875790147,-0.5243777468654526,-1.2992542110911585,0.4817447213994132,2.0551508225123745,2.5964786835841895
3881.667,0.3197895395911292,0.7209322452625182,-0.5242965688005059,-1.2991878887070678,0.4497946761745393,2.055046046056919,2.6557025841328983
3881.7,0.31977885328829014,0.7209746596099205,-0.5242027732481214,-1.2991861185077402,0.4483314027805312,2.0549761663621915,2.661364783329182
3881.734,0.3199646387654306,0.7210296649096137,-0.5243667110103994,-1.2992489213776168,0.4817465359638981,2.055149703516122,2.5964866736916314
3881.767,0.31996495628984234,0.7210250043311195,-0.5243747361966763,-1.2992542110911585,0.4817466541859839,2.055147466206218,2.596476508107865
3881.8,0.31985549116024004,0.7210923222907111,-0.5241847893005618,-1.299235619708461,0.441426628774809,2.0549990626930317,2.655772451263676
3881.834,0.32002939193557367,0.7211263823147069,-0.5243624868546473,-1.2992841896036493,0.4426124139164642,2.0551145935048467,2.649209852536522
3881.867,0.3199799519974471,0.7210270201001068,-0.5244006759764916,-1.299250717850951,0.4323305405308471,2.0551303680235904,2.664938708252052
3881.9,0.3200026329014989,0.7210008376972867,-0.5244628472475954,-1.299263121599985,0.42424370888793383,2.0551531099593134,2.678721462970021
3881.934,0.32002754517940524,0.7210061229662177,-0.5245115045258162,-1.2992626862173466,0.4155440910143158,2.055192312224694,2.6937354769327335
3881.967,0.31984392783089266,0.7209594463246054,-0.5243060089212621,-1.2991945569939993,0.4058788110882503,2.0550061846024796,2.7117481647442077
3882.0,0.31984366592125824,0.7209662970156145,-0.5242989935220672,-1.2991827939804752,0.3968561520183469,2.0549915987624097,2.7287394614947544
3882.034,0.32002358041429524,0.7209860900253275,-0.5244996482906235,-1.2992628390815462,0.3879172680339913,2.0551684650003317,2.745771074680224
3882.067,0.32003325866417054,0.721000201871977,-0.5245194626767464,-1.2992595147566481,0.3786571630846458,2.055187732706557,2.764917494740967
3882.1,0.31984809349821575,0.7209658470303255,-0.524312018126345,-1.2991811135130753,0.36890016213654864,2.0549717159449834,2.7862607009965146
3882.134,0.32005483695741965,0.7209921533735848,-0.5245433479449817,-1.2992751723934806,0.35969119119052984,2.055200040149545,2.8067845069431936
3882.167,0.31984990035974725,0.7209616911791326,-0.5243103847487722,-1.2991822999406848,0.34973169223405165,2.05494969376276,2.8305240609301237
3882.2,0.3200479288072353,0.7209999706575232,-0.524529434628147,-1.2992648063424772,0.3403176105810317,2.055197774061998,2.853110296219951
3882.234,0.3200694003708584,0.7209943287351228,-0.5245595530327742,-1.2992843623525543,0.3304948174381579,2.0552146811288345,2.877540934459029
3882.267,0.3200639760052537,0.7210285985126168,-0.5245588933950138,-1.2992756805611467,0.3218532148350626,2.055179298124603,2.8974974169473455
3882.3,0.3200893273114245,0.7210848709329802,-0.5245141152120851,-1.2992998374722653,0.31982126410408274,2.0551697498748993,2.8974073573946963
3882.334,0.32010487759811834,0.7211285210251317,-0.5244988510273005,-1.2993096320431894,0.3177571128463095,2.0551648676548666,2.8973321240397247
3882.367,0.3201010145789578,0.7211509077259928,-0.5244660877350205,-1.2993135640659643,0.3162550790333052,2.0551580702171712,2.8973048319130825
3882.4,0.32012260429966144,0.7211614345661728,-0.5244765291802143,-1.2993270531345678,0.31516069258895474,2.055160297257583,2.8972998582614053
3882.434,0.32012377865537456,0.7211827763032552,-0.5244664072299212,-1.2993233116952458,0.3142738601478614,2.0551577458954284,2.897318533975863
3882.467,0.3201242229549468,0.7211896705900189,-0.524454021481132,-1.2993271631050787,0.31362169261528194,2.0551571903309416,2.8973000378608162
3882.5,0.3201346596814707,0.7212020695645283,-0.524463226730977,-1.29932686009405,0.3131260529353801,2.0551588924157542,2.8973029402005324
3882.534,0.320222373537729,0.7211975668515498,-0.5245788194134189,-1.2993675253779111,0.3103297881082794,2.055305268455239,2.896398308920759
3882.567,0.3202371062184515,0.7211521276728021,-0.5246140290400714,-1.2993741208901213,0.3053392997107123,2.0553234737681194,2.896177846015746
3882.6,0.3199655949619778,0.7210296384185252,-0.5243749146532606,-1.299246415723834,0.481745636926757,2.055150822493765,2.5964852695618235
3882.634,0.3199599188341079,0.7210296384186604,-0.5243729460213435,-1.29924641572518,0.4817447213994132,2.0551508224944297,2.5964832379870217
3882.667,0.31996165623455614,0.7210269198397719,-0.5243715326345872,-1.2992464157238341,0.48174767143858804,2.0551519414716295,2.5964768627741246
3882.699,0.3199624510156462,0.7210324486059352,-0.5243747403698357,-1.2992411260102925,0.4817456516439615,2.055151882131894,2.596484608452262
3882.733,0.31996281085376677,0.72102707095267,-0.5243701187689854,-1.2992464157238341,0.481745636926757,2.0551497035159003,2.596483120249377
3882.767,0.31996242354304993,0.7210264175091552,-0.5243748087751555,-1.2992464157238341,0.481745636926757,2.0551485845380357,2.5964775255279555
3882.8,0.319970246055922,0.7210271592558309,-0.5243725342200148,-1.299248921377617,0.4817476714446445,2.0551508224937893,2.5964851976253174
3882.834,0.3199599453484063,0.721032447988093,-0.5243775668359566,-1.299248921377617,0.481745636926757,2.0551497035159008,2.596477525362462
3882.867,0.319962451015048,0.7210246496774765,-0.5243718444239001,-1.2992439100700512,0.4817447213994132,2.0551497035159003,2.5964856491019863
3882.9,0.31996495568828454,0.721027079782986,-0.5243748067317395,-1.2992517054373758,0.48174472139941327,2.0551500567288317,2.5964840018687885
3882.934,0.31995990905944777,0.7210324486422899,-0.5243728563430567,-1.299248921377617,0.4817486886911922,2.055148585991587,2.596486299217822
3882.967,0.3199624480722087,0.7210246418281082,-0.524372199977305,-1.2992464157238341,0.4817466541859839,2.0551497035159003,2.5964831265481205
3882.999,0.3199677406200221,0.7210275187772365,-0.5243725464181633,-1.2992489213776224,0.4817466541859839,2.0551508225476,2.5964808822937218
3883.034,0.31996245101549853,0.7210270768393984,-0.5243689470432283,-1.299248921377617,0.4817466541859839,2.055150822493765,2.596487826630459
3883.067,0.31996485070561775,0.7210270758461397,-0.5243725437075081,-1.299248921377617,0.48174370432850283,2.0551519419561464,2.5964775297217866
3883.099,0.31996495666928143,0.7210271494443827,-0.5243719744027163,-1.2992439100700512,0.48174665418576235,2.055150822493765,2.5964808824551793
3883.134,0.31995958966160676,0.7210239340825301,-0.5243775761094885,-1.2992464157238341,0.4817456369267569,2.0551508224939865,2.5964797647697475
3883.167,0.31996470942051747,0.7210246526195717,-0.5243703511648617,-1.2992464157238341,0.48174665418598384,2.055150822493765,2.5964765082693697
3883.2,0.3199593515739702,0.7210296644735599,-0.5243726072516591,-1.2992517054373758,0.48174563692675726,2.0551485845380357,2.5964775254143118
3883.234,0.3199624510156474,0.7210296559662588,-0.5243718177828044,-1.2992464157238341,0.48174665418598417,2.0551519419581403,2.5964884484770754
3883.268,0.3199676612561805,0.7210271491159886,-0.5243743128304704,-1.2992464160508828,0.481745636926757,2.0551498212534702,2.5964764487687964
3883.3,0.3199649566532804,0.7210269208008577,-0.5243743413628785,-1.2992464157238341,0.4817466541859839,2.055148584591871,2.596478644571627
3883.333,0.3199649566694309,0.7210246526168307,-0.5243776023181597,-1.2992517054373758,0.481745636926757,2.055149703516122,2.596482001917543
3883.367,0.3199677407291842,0.7210194058832066,-0.5243722838148535,-1.299248921377617,0.4817466541859848,2.0551508225476,2.5964753891299996
3883.4,0.3199649566694309,0.7210271327648943,-0.5243726342150797,-1.2992464157238341,0.481745636926757,2.0551497035159003,2.5964841782073704
3883.434,0.31995986490367184,0.7210294264906028,-0.5243757185108551,-1.299248921376321,0.4817466541859839,2.0551485845380357,2.5964862398266892
3883.466,0.3199617269254058,0.7210244150744687,-0.5243722250150827,-1.2992464160508828,0.4817456369328134,2.055150839936368,2.596484608454329
3883.5,0.3199677407291897,0.7210271317835977,-0.5243741124257624,-1.2992464157238341,0.48174767143858804,2.0551519414716295,2.5964812398670087
3883.534,0.3199649180774707,0.7210348662105279,-0.5243704319025694,-1.299248921377617,0.4817466541859839,2.055150826854637,2.5964823544902043
3883.567,0.3199649566694309,0.7210271327635485,-0.5243740094703091,-1.2992439100700512,0.4817466541859839,2.055150822493773,2.5964753891300023
3883.599,0.31996461228703893,0.7210239802930022,-0.5243749474909094,-1.299248921377617,0.48174665860114274,2.055150822493766,2.5964812359908747
3883.634,0.31995994437937264,0.7210271592436848,-0.5243741152867616,-1.2992464157238341,0.4817466541859839,2.055155061548744,2.5964841506018788
3883.666,0.3199648770714044,0.7210294254690799,-0.5243722411099228,-1.2992517054373758,0.4817466541859839,2.0551497035159003,2.596482044878094
3883.7,0.3199622125970689,0.7210269178938237,-0.5243747824047076,-1.2992517054373758,0.48174665420415325,2.0551485845380357,2.5964820012715126
3883.734,0.31996030523632324,0.7210218695055185,-0.5243728423775164,-1.299243910070051,0.4817466541859839,2.0551485845387005,2.5964874944355754
3883.767,0.319962345050489,0.7210294264788886,-0.5243747832740969,-1.2992464157238839,0.481745636926757,2.0551497035159008,2.596480899736251
3883.8,0.3199571613016456,0.7210250121802851,-0.5243778100279768,-1.2992464157238341,0.4817466541859839,2.0551497049694505,2.5964774492280287
3883.834,0.3198657940644898,0.7210149519668256,-0.5242572315728751,-1.2992152648928688,0.45076909450405633,2.0550479964636796,2.665720689390044
3883.867,0.3199622125925827,0.7210264439960707,-0.5243726343352879,-1.2992517845952996,0.481745636926757,2.0551497035159003,2.5964834736235924
3883.9,0.31995994438071873,0.7210239353503981,-0.5243777985869852,-1.2992517054373758,0.48174767149309616,2.0551497035159003,2.5964831202493786
3883.934,0.3199599453605192,0.721027150098481,-0.5243750427389524,-1.2992464157238341,0.4817466541859839,2.0551497165978527,2.5964753905835583
3883.967,0.31996495372599165,0.7210289496175525,-0.524374780815063,-1.2992489213776168,0.481745636926757,2.055150822493765,2.5964765081617327
3883.999,0.3199624510151993,0.7210271563083208,-0.5243750427327644,-1.299246415723834,0.4817477270696147,2.0551485864761028,2.5964831202494016
3884.033,0.3199649566692316,0.7210296639284834,-0.5243741151084996,-1.2992517054373756,0.4817487443221949,2.0551485845380357,2.596480882294321
3884.066,0.31996245068859924,0.7210296634802889,-0.5243740026102959,-1.2992489213776168,0.48174767143858804,2.055151882616411,2.596476549291788
3884.1,0.3199649566558226,0.7210271592558469,-0.5243725348779495,-1.2992517054373756,0.4817466541859839,2.0551530011097587,2.5964786443383328
3884.134,0.31996243924189105,0.7210296639123316,-0.5243726747798124,-1.2992489213776168,0.481745636926757,2.055148585991586,2.5964840612100297
3884.167,0.3199591506331186,0.721029664909625,-0.524372010324692,-1.2992517054373756,0.48174599455462563,2.0551519414716295,2.596478645791883
3884.199,0.3200666771824787,0.721044402576787,-0.5245013352713332,-1.299288887788017,0.4512074448280199,2.055205769532348,2.55249367315934
3884.234,0.32006046406760547,0.7210474800698901,-0.5244970289235198,-1.299277661189529,0.4508787133623642,2.0551979425592712,2.546150587757216
3884.267,0.32003038571318676,0.7209608279635731,-0.5245556984801878,-1.299255974271265,0.44112083988111017,2.05521575997734,2.5478764353103216
3884.299,0.3200565203528223,0.720940628404878,-0.5246106152671794,-1.2992660738381243,0.4336466093122828,2.055231584842783,2.549111739931103
3884.334,0.32008182452955936,0.720952266027874,-0.5246540380849725,-1.299265149852638,0.42538789154460765,2.0552639252876883,2.5521627891398495
3884.366,0.32009585015298825,0.7209497073634186,-0.52467090368458,-1.299271206230487,0.41715026518105436,2.055274924643328,2.55647306449597
3884.399,0.3201352401793871,0.7209498356036033,-0.5247196403067473,-1.2992915193630026,0.40886430155150766,2.0552940959547854,2.56216712795446
3884.433,0.3201668425116688,0.7209692874194111,-0.5247572400769043,-1.2992930073314852,0.40047588193155637,2.0553263433164535,2.569323115241815
3884.467,0.32018433824981596,0.7209686518624165,-0.5247748190934605,-1.2993004254192062,0.3919420241291238,2.0553418513355766,2.578001506674058
3884.5,0.3202245249597997,0.7209696004462023,-0.5248218215244931,-1.2993215628425787,0.3834377637822506,2.05536332364513,2.588140322936276
3884.534,0.32025765800072126,0.7209889923749095,-0.5248611698843098,-1.299324092999207,0.37476294703150437,2.05539889947843,2.5999209981548184
3884.566,0.3200732917416582,0.720946321983762,-0.5246432501877365,-1.2992571859754065,0.36506428829096826,2.055221531805554,2.615397370038183
3884.6,0.3200818661247187,0.7209577270941754,-0.5246443500735278,-1.299248250861897,0.35610126206505566,2.0552150420585225,2.630582886146275
3884.634,0.32003988911257153,0.7209494756065853,-0.5245802677569182,-1.2992286823979065,0.346838248298746,2.055168193690127,2.6476085222809314
3884.667,0.3200249252882559,0.7209430207235563,-0.5245628357175942,-1.2992219311678346,0.3375269314108573,2.0551358302143825,2.666361726343947
3884.7,0.3199932319383896,0.7209466979465029,-0.5245199452855633,-1.2992003216921173,0.3281167640326146,2.055090465270352,2.6863469951487815
3884.734,0.31995201631397485,0.7209390776513294,-0.5244672771011114,-1.2991831153048414,0.31858165548150996,2.0550440945298867,2.707285170415304
3884.767,0.3201556014423188,0.7209788021965107,-0.5247082576196966,-1.2992672813953332,0.30935597891957745,2.055266367647423,2.728217669163394
3884.799,0.319929781896481,0.7209401869904282,-0.5244498243059565,-1.299168175779803,0.2993064442621671,2.0549960874450317,2.7518282243848304
3884.834,0.3199183291038912,0.7209387844484967,-0.5244340235016018,-1.2991617747596251,0.28950189705701757,2.054980136676072,2.775222748312462
3884.867,0.3201231059420877,0.7209779866353339,-0.5246684943875195,-1.2992502362294172,0.27995269560904834,2.055223563781656,2.79851177377469
3884.9,0.319901424569653,0.7209339592508455,-0.524417107608083,-1.2991544693002615,0.2690204874656814,2.0549321275885504,2.8255697413064755
3884.933,0.3198927385881509,0.7209401103933883,-0.5244018364207514,-1.2991393724228892,0.2587183668754163,2.0549003977697,2.8510394948279174
3884.966,0.3200888851355659,0.7209602012034617,-0.5246229865448759,-1.2992411656769907,0.24861925913452776,2.0551650648418516,2.876651636156547
3884.999,0.3200649537829854,0.7209933758693774,-0.5246056909389383,-1.2992255024715877,0.23946558837537868,2.0551009048114643,2.8976548577114087
3885.034,0.32009492446458143,0.7210549176201999,-0.5245790346712074,-1.299256136612689,0.23732239662996069,2.0551040645646417,2.897499648432561
3885.067,0.320116987035199,0.7210955717466598,-0.524579574592277,-1.2992773550748797,0.2351568927807195,2.0551054764950045,2.897365745822958
3885.1,0.32010184419659815,0.7211217231233,-0.5245389323929928,-1.2992719279952674,0.23356071975288284,2.055083404001463,2.89731933945896
3885.134,0.320113941331182,0.7211411459733545,-0.5245344412503172,-1.299279194216978,0.23236170490462538,2.0550903210748324,2.8973035579757322
3885.166,0.3201225737533395,0.7211459730400378,-0.5245360176313252,-1.2992892618431728,0.23147121731264697,2.0550880635477835,2.8972998641380876
3885.199,0.32013387099241,0.7211708131531847,-0.5245418996699538,-1.2992859254105724,0.23080583022148815,2.0550928659325827,2.8973031268915825
3885.234,0.32020151765709315,0.7211406918600938,-0.5246176961060289,-1.2993204382260055,0.22736172438735203,2.0552224320155226,2.895603142559793
3885.266,0.3202304515028729,0.7210770426744029,-0.5247043181937014,-1.2993231929459403,0.2183026856303103,2.055283959640141,2.8973370440642547
3885.299,0.32027824667232263,0.7210965001945189,-0.5247726333863971,-1.2993408209078208,0.21261331311891318,2.0553495460205404,2.897206142398364
3885.334,0.3200604232259616,0.7210452308559949,-0.5245154230300093,-1.299235601589217,0.20512541776653048,2.0550332401066704,2.8982797047712783
3885.366,0.3200610638978034,0.7210533828333316,-0.5245196822577674,-1.299216236143966,0.19726851826512437,2.055011536580519,2.8980039756145004
3885.399,0.3199599453255264,0.7210271589166785,-0.5243725464310319,-1.2992464158328503,0.48174767149309616,2.0551497035159003,2.5964786835841895
3885.434,0.3199603052349773,0.7210314948574618,-0.5243728567136585,-1.299248921377617,0.48174665418800267,2.055150822493765,2.5964808827961097
3885.466,0.3199598305497892,0.7210289483089105,-0.5243771860869804,-1.2992464157238341,0.48174767143858804,2.0551485845380357,2.596480882293648
3885.5,0.3199624479617802,0.7210271504214423,-0.5243742421145962,-1.2992464157238341,0.4817466541859839,2.0551507646075797,2.596477643098038
3885.534,0.31995994503436764,0.721026443853402,-0.5243726863274807,-1.2992489213816545,0.4817467733952737,2.0551485845380357,2.596480882293648
3885.567,0.3199642413771555,0.7210296645783887,-0.524371740708865,-1.299248921377617,0.48174767149309616,2.0551519415256863,2.596478801341731
3885.6,0.31996461217742445,0.7210271326545321,-0.52437254245935,-1.2992464157238341,0.4817476716021124,2.0551497035159003,2.5964823588448978
3885.634,0.31996245101564613,0.7210295815117364,-0.5243723123073887,-1.299246415723834,0.4817466541859839,2.0551485845380357,2.5964823559377974
3885.667,0.3199624470547236,0.7210242979054009,-0.5243718158568336,-1.299246415723834,0.481745636926757,2.0551489377507455,2.596487494919879
3885.7,0.3199622125970683,0.7210250045365906,-0.5243775205010702,-1.2992464157238341,0.4817447213994132,2.0551497035159003,2.5964863754577117
3885.734,0.3199649566694137,0.7210271592558475,-0.5243718184244006,-1.2992542110911587,0.48174665860114274,2.055150822493765,2.5964787620759027
3885.767,0.3199624509793093,0.7210271327648444,-0.5243690592478814,-1.2992464157238341,0.4817447213994132,2.055150822493765,2.596485256479849
3885.8,0.3199624509066318,0.7210236998914037,-0.5243741131509169,-1.2992464157238341,0.48174677339527344,2.0551489377507455,2.5964841375019816
3885.834,0.31996495666943087,0.7210289230121988,-0.5243718934116471,-1.2992542110911587,0.48174677339527433,2.0551474670137213,2.596476508109858
3885.866,0.3199596274704263,0.7210275191377827,-0.5243767877505296,-1.299248921377617,0.4817466541859839,2.055150822493765,2.596482882890858
3885.899,0.31996245101159376,0.7210296609845959,-0.5243749368010076,-1.299248921377617,0.4817466541859839,2.0551497035159008,2.596474274512794
3885.933,0.3199649566694309,0.7210324223693532,-0.524377563945706,-1.2992517054373758,0.481745636926757,2.055150822493765,2.5964765085924055
3885.967,0.31995994425550206,0.7210271592558475,-0.5243742684028013,-1.2992439100700512,0.481745636926757,2.0551497035159003,2.5964765081105226
3885.999,0.31996244807205926,0.7210270788004954,-0.5243720065136764,-1.2992517054373758,0.48174869310635104,2.05514858453806,2.5964831202494016
3886.033,0.3199649301782783,0.721027150412071,-0.5243729375892427,-1.2992439100700512,0.4817466541859839,2.0551519414716295,2.5964818232527205
3886.066,0.31995986588900543,0.7210271592558475,-0.5243767954781396,-1.2992439100700512,0.48174665418620816,2.055150822493765,2.5964820405712046
3886.1,0.3199649566694309,0.7210246535639314,-0.5243697030452139,-1.2992489213897298,0.4817466541859839,2.0551519414716295,2.5964776431518732
3886.133,0.3199649566694309,0.721029558570317,-0.5243742337727719,-1.2992542110911587,0.4817456369290001,2.0551497035159003,2.596478644338407
3886.166,0.31995994492580004,0.7210317248671779,-0.5243725453177372,-1.2992517054373758,0.481745636926757,2.055149703515903,2.5964776430982597
3886.199,0.31995994532502237,0.7210296648006141,-0.5243718331533573,-1.2992517054373758,0.4817447213994141,2.0551497035159008,2.5964797633161973
3886.233,0.3199649566694309,0.7210271474699721,-0.5243718359678099,-1.299248921377617,0.48174767143858804,2.0551497035238757,2.5964820013253562
3886.267,0.3198610592670015,0.7210101324304814,-0.5242586479521467,-1.2992162666996485,0.45074418338973476,2.055050187136029,2.6541216850136546
3886.299,0.3197928302063282,0.7209623360051696,-0.5241952863022838,-1.299179472887034,0.44692873776661823,2.0549781253560973,2.661872350490672
3886.333,0.3197305146906304,0.7208899806316147,-0.5241943955819748,-1.299140906640857,0.43705719829613177,2.0549648219211747,2.674554185921668
3886.366,0.31969565280037493,0.7208575674273296,-0.5241818109801075,-1.29912547726207,0.4280596516324726,2.0549307411756192,2.6872679229855265
3886.399,0.31985501736687727,0.7208826771613,-0.5243771041698979,-1.2991803106058537,0.4191324263360956,2.055094204431221,2.699699606410455
3886.434,0.31965998694156195,0.7208451092366035,-0.5241687451852757,-1.299102940254615,0.40892049211197357,2.0548988270486532,2.7162914649989762
3886.467,0.3196349768905442,0.7208381921152993,-0.5241375203198997,-1.2990903782011332,0.3993713467924245,2.0548735198504495,2.731862306222565
3886.5,0.31961333455915053,0.7208282782805338,-0.524112375291689,-1.2990808642489142,0.3896202752991762,2.0548328422025186,2.748519951846763
3886.534,0.3195810463173627,0.7208301650059772,-0.5240710839091509,-1.299058668907211,0.3797278570768796,2.05478656117549,2.7662849605408883
3886.567,0.3195378909161226,0.7208224706443946,-0.5240169012119429,-1.2990398022039145,0.36977455967767536,2.0547373467110077,2.7851590868151703
3886.6,0.3197316762796998,0.7208600899563189,-0.5242435880379226,-1.299119144739544,0.36007702099200944,2.054952209896957,2.804213663511643
3886.634,0.3197354052768526,0.7208569012039145,-0.5242589135046094,-1.2991241929883302,0.34990837146983456,2.0549757579033177,2.825647176271838
3886.667,0.31977702969144417,0.720857011959307,-0.5243150054975931,-1.299152089933722,0.3398259458313424,2.055017178232406,2.8483191108467665
3886.7,0.3198147131687916,0.720874935285222,-0.5243635460281677,-1.2991619419501568,0.3295693111458622,2.055069141821786,2.8724607206469663
3886.734,0.3198376599467432,0.7208745748957348,-0.5243894385631354,-1.2991731004712666,0.31909416056037276,2.0551102551992315,2.897509963149023
3886.766,0.31985184019214685,0.7209407797639518,-0.5243448137190017,-1.2991976097577345,0.3163145121317319,2.0550451329317774,2.8974166446602894
3886.799,0.3198437438912807,0.7209929681310481,-0.5242882728070075,-1.299197553723947,0.3139980975765422,2.0550296462869753,2.89734878124335
3886.833,0.319857929180154,0.7210167641095664,-0.5242704856816074,-1.2992058553601904,0.3122116008531819,2.0550296921653235,2.8973108516997534
3886.866,0.3199599443807187,0.7210296649096076,-0.5243697366790125,-1.299248921377617,0.4817447213994132,2.0551486237858865,2.5964765081078722
3886.899,0.31996495634193284,0.7210302767112234,-0.524372543863582,-1.2992517054373758,0.48174665418599216,2.055150822493765,2.5964863754636935
3886.933,0.31996750231061,0.7210295879100956,-0.5243757275377751,-1.299248921377617,0.4817447214055444,2.0551497035159003,2.596476625845434
3886.968,0.3199649566694309,0.7210296616386715,-0.5243693909367219,-1.2992542110911587,0.48174767143858804,2.0551508224938386,2.5964823937839143
3887.0,0.31996415894894303,0.7210271592558474,-0.5243756956644783,-1.299248921377617,0.48174472145392133,2.0551487022756056,2.596485727591656
3887.033,0.3199624506522605,0.7210271592437346,-0.5243747836286494,-1.299246415723834,0.481745636926757,2.0551497035159003,2.59648200197137
3887.067,0.3199599453618651,0.7210250134880375,-0.5243757291195303,-1.2992489213776168,0.4817466541859839,2.055148585991586,2.596484137503976
3887.1,0.319962451015648,0.7210295854246578,-0.524369749840579,-1.299246415723834,0.48174563692675726,2.055151954553582,2.5964808822936725
3887.134,0.3199649566692813,0.721029664787148,-0.5243775721504857,-1.2992489213776168,0.48174767143858804,2.0551497035159003,2.5964753891306644
3887.174,0.3199673853600234,0.7210271582742469,-0.5243717402809887,-1.299246415723834,0.48174767143858804,2.0551474655668174,2.5964844907146913
3887.2,0.3199624509793074,0.7210271239345261,-0.5243754603362345,-1.2992489213776168,0.4817466541859839,2.0551485845387005,2.5964785685289042
3887.234,0.3199649566694254,0.7210324489568221,-0.5243703498807272,-1.2992489213776168,0.4817447213994132,2.0551497035159003,2.596483120249377
3887.267,0.3199622096415168,0.7210321310779504,-0.5243756927272515,-1.2992517054373756,0.48174563694492634,2.0551485845380366,2.596480882293648
3887.3,0.3199599453618633,0.721032446023956,-0.5243722170793692,-1.299246415723834,0.4817447213994141,2.0551497035159003,2.5964851971401357
3887.334,0.3199677054079186,0.7210270709163288,-0.5243722246464549,-1.299246415723834,0.48174665420415325,2.055149703515974,2.596478644502497
3887.367,0.3199603052484361,0.7210238500384634,-0.5243770217498994,-1.2992464167049804,0.4817447213994132,2.055150822493765,2.5964852623545287
3887.4,0.3199649566693644,0.7210296556427491,-0.5243750403731035,-1.299248921377617,0.48174677339527344,2.0551497035159003,2.596478644392168
3887.434,0.31996245101564785,0.7210296384186772,-0.5243722145127953,-1.2992517054373758,0.4817447213994132,2.055150822493765,2.5964820012774945
3887.467,0.3199592301061223,0.7210270768273859,-0.5243729366025839,-1.2992517054373758,0.48174665418598395,2.0551497165978527,2.5964851845465517
3887.5,0.31996249297040197,0.7210296557468803,-0.5243747919611503,-1.2992464157238341,0.48174767143858804,2.055147465560171,2.5964808866543017
3887.534,0.31995986588900543,0.7210271592557977,-0.5243722443573207,-1.2992464157238341,0.481745636926757,2.0551487022756056,2.596483120250043
3887.567,0.319962451015648,0.7210294235462162,-0.5243725424406953,-1.299248921377617,0.481745636926757,2.0551519414716295,2.5964829422305935
3887.6,0.3199649301778734,0.7210271563083535,-0.5243750519803101,-1.299248921377617,0.4817466541859839,2.0551497165978527,2.596474270152135
3887.634,0.3199642414121982,0.7210249340035115,-0.5243722260837996,-1.299248921377617,0.4817447213994132,2.0551485845380366,2.596478997551043
3887.667,0.3199596804523328,0.7210271327608565,-0.5243747163883082,-1.2992464158328503,0.481745636926757,2.055149703516565,2.5964821190090834
3887.7,0.31995994536186445,0.7210264436730615,-0.5243748180856438,-1.2992496366333544,0.4817466541859839,2.0551497035159003,2.596481823252721
3887.734,0.31996245101564724,0.7210250123984727,-0.5243722145129468,-1.299248921377617,0.4817466541859839,2.0551508224937898,2.596483120249599
3887.767,0.3199624510156314,0.7210218695423004,-0.524372599670115,-1.299248921377617,0.48174987283680176,2.0551497035159003,2.5964753891302212
3887.8,0.31995994405366984,0.7210296560671481,-0.5243718186980839,-1.299248921377617,0.4817466541859839,2.0551497035159003,2.5964841768023383
3887.834,0.319959945349303,0.7210275186700147,-0.5243767962961556,-1.2992517054373758,0.4817466541859839,2.0551497035159003,2.5964775253604793
3887.867,0.31996487719657124,0.7210271563002227,-0.5243754171109286,-1.2992439100700512,0.4817466541859839,2.0551519414736235,2.596483120249599
3887.9,0.3199649566694309,0.7210275181612719,-0.5243756260096695,-1.299248921377617,0.4817466541859839,2.0551497035159003,2.59648525647992
3887.934,0.31996774072902356,0.7210246532624524,-0.524369446506775,-1.2992439100700512,0.481745636926757,2.055150822493765,2.5964810000314396
3887.966,0.3199623627124706,0.7210271592558473,-0.5243750259805631,-1.299248921377617,0.4817466541859839,2.0551485845380357,2.5964841375019816
3887.999,0.3199649566329369,0.7210246535899498,-0.524372535093537,-1.2992464157238341,0.4817447218899864,2.055150822493765,2.596482040517443
3888.033,0.3199649566694309,0.7210264430068509,-0.5243702066137856,-1.2992439100700512,0.4817488555836313,2.0551508229782818,2.5964785680443874
3888.068,0.3199670254734518,0.7210264351684466,-0.5243740083881069,-1.2992542110911587,0.4817456369328134,2.055150822493765,2.5964844907146913
3888.101,0.31995501553463285,0.7210271588076195,-0.5243715024598609,-1.2992517054373758,0.48174767143858804,2.055149703515974,2.5964841377182086
3888.134,0.319959944998328,0.7210296637831289,-0.5243750398382613,-1.299248921377617,0.481745636926757,2.0551497035159003,2.5964786443383328
3888.168,0.3199649566571685,0.7210324136480681,-0.5243728384897883,-1.2992464157238341,0.4817447213994132,2.0551497035159003,2.5964797633161973
3888.199,0.3199624510156462,0.7210246271097656,-0.5243729347149433,-1.2992439100700512,0.4817466541859839,2.055149703516122,2.5964820012715126
3888.233,0.3198655941636934,0.7210242912324833,-0.5242547719936947,-1.2992090511916157,0.45077911730760434,2.055047686221524,2.6726803208129795
3888.266,0.3197595206921573,0.720928048524315,-0.524185405568721,-1.2991577679816801,0.442851624170161,2.054966950901221,2.680659269892569
3888.299,0.3199624500344961,0.721029638089832,-0.524374245953099,-1.2992464157238341,0.4817466541859839,2.055150822493765,2.5964831333313296
3888.333,0.319962451015648,0.7210270444617168,-0.5243717657340491,-1.299248921377617,0.481746654240492,2.0551497035159003,2.5964820535993476
3888.367,0.31996237106888825,0.7210269178574904,-0.5243750519767685,-1.2992464157238341,0.481745636926757,2.0551497035159003,2.5964841803780048
3888.399,0.31996773778558435,0.7210296648975156,-0.5243722347256496,-1.299248921377617,0.4817466541859839,2.0551497035159003,2.5964820012715206
3888.433,0.3199649566694303,0.721027156271982,-0.5243725967104863,-1.299248921377617,0.4817470162290114,2.0551498212534782,2.596476330088757
3888.466,0.3199622125970689,0.7210271500984293,-0.5243726040900403,-1.2992464157238341,0.481745636926757,2.0551519419561464,2.5964766263501113
3888.499,0.31995960094313414,0.7210294264910513,-0.5243749493414979,-1.299248921377617,0.4817466541859839,2.0551508224944297,2.5964852695618066
3888.533,0.3199624510116098,0.721027159146814,-0.5243725348277967,-1.2992411260102925,0.4817447213994132,2.0551508226612523,2.5964765473540163
3888.567,0.31996244709106236,0.7210324401386228,-0.5243771074840643,-1.299248921377617,0.4817476714406068,2.0551485850225526,2.5964841375079635
3888.6,0.3199599453255258,0.7210324400300533,-0.5243703337863009,-1.2992517054373758,0.4817466541859839,2.0551519414716295,2.5964808822938696
3888.634,0.31996774072784384,0.7210296649095806,-0.5243754922470623,-1.2992464157238341,0.481745636926757,2.0551497049694754,2.59648342720519
3888.666,0.31996245003450163,0.7210271563083698,-0.5243729364167748,-1.299248921377617,0.4817466541859839,2.0551497035159003,2.596476343170833
3888.699,0.3199599452165101,0.7210296618571749,-0.524377098710518,-1.299248921377617,0.4817466541859839,2.0551497035159003,2.5964841375039756
3888.733,0.31996749348027625,0.7210250134884354,-0.5243725996595806,-1.2992517054373758,0.481745636926757,2.0551485845380357,2.596484533102432
3888.767,0.319962451015648,0.7210296550981663,-0.524372933741868,-1.2992489213816545,0.48174575613604653,2.055150826854416,2.5964841381482255
3888.799,0.3199577995946532,0.7210224018535434,-0.5243743416973204,-1.299248921377617,0.481745636926757,2.0551497035159003,2.5964808837479367
3888.833,0.31996494489143695,0.721031707222693,-0.5243703333543972,-1.2992439100700512,0.48174473464491474,2.0551508225476,2.5964753891299996
3888.866,0.31996495634238215,0.721027510201738,-0.5243725438145058,-1.2992542110911587,0.4817456369328134,2.055149821253544,2.5964841375558168
3888.899,0.31996173543286194,0.7210269208002816,-0.5243716102652701,-1.299248921377617,0.4817486886911922,2.055149704000417,2.5964786443390055
3888.933,0.3198673774052345,0.7210187682252265,-0.5242562635086685,-1.2992158568585248,0.45070725868084427,2.055054285253375,2.643023106803488
3888.966,0.3198258790491,0.721001985132629,-0.5242040912614367,-1.2991921391801489,0.449594360000269,2.0550032846745783,2.650027191945231
3888.999,0.31975345864381133,0.7209129123384574,-0.5241993018248801,-1.2991499751429059,0.4395689982004134,2.0549807600738674,2.664198347521493
3889.033,0.31972007158613547,0.7208819830453113,-0.524187474811102,-1.2991339036636846,0.4312582086565273,2.054949392888302,2.6777572081760965
3889.066,0.31996213307441107,0.7210271592396804,-0.5243774469709618,-1.2992517054373758,0.481745636926757,2.0551497035159003,2.5964765139220654
3889.099,0.31977579530339373,0.7209777123717478,-0.5242010715891388,-1.299173745010715,0.42282427859184324,2.0549983699406607,2.6916074401213184
3889.133,0.31973119143289086,0.7210206569793494,-0.5240615289045252,-1.2991642051471617,0.4254524808792386,2.0548745253537515,2.689528756153498
3889.166,0.3196950231629989,0.7209381881492476,-0.5241006432224307,-1.2991341861233217,0.414636622421523,2.0548790533588708,2.7083759133876804
3889.199,0.31963487914897737,0.7209095721411423,-0.5240427849419289,-1.2991044307501873,0.4061855270434451,2.054829380512709,2.7162317692823343
3889.234,0.31996245101562587,0.7210296645704681,-0.5243747402828286,-1.299248921377617,0.4817466541859839,2.05515194147163,2.596478644499839
3889.266,0.31978678734420285,0.7210926937209532,-0.5241329215264514,-1.2991863996804112,0.4039705069761732,2.0549478335663043,2.7137952001347987
3889.3,0.31968635489694464,0.7211047182570969,-0.5239037282903993,-1.2991745939466774,0.4096997487369256,2.0547589550653935,2.7014835690576025
3889.333,0.31965522360781407,0.7209883343403405,-0.523989802846252,-1.2991265158198946,0.39875743468396774,2.0547868616185916,2.7092163315784195
3889.366,0.31959739686347266,0.7209500217290135,-0.5239516197686029,-1.2990893031103319,0.38994474160636905,2.054736685402032,2.7165445639874672
3889.399,0.3195467024866403,0.7209232563547392,-0.5239107537978551,-1.2990645503830338,0.38057852165606487,2.0546973563506654,2.7255162434150932
3889.433,0.31952018152464756,0.7209059968497602,-0.5238932837696435,-1.299053165453369,0.37107944754542377,2.054659853047699,2.735905337105713
3889.467,0.31948488653442375,0.7209047559614072,-0.5238545432589561,-1.2990295415879078,0.36143127374583894,2.0546148732700473,2.7477874826958555
3889.499,0.3194399812165454,0.7208946337233222,-0.523801595943536,-1.2990099873463343,0.3516492852729076,2.0545667783411226,2.7612132661167053
3889.534,0.3194168284172747,0.7208847600705495,-0.5237794598658034,-1.299000141579282,0.34170334709806927,2.0545245403237438,2.776290290318567
3889.566,0.31938271819415665,0.7208871404953259,-0.5237375661652965,-1.2989765226221133,0.33164326728696825,2.0544731817400557,2.793045629694639
3889.599,0.31933786121463825,0.7208790359937538,-0.5236822955866813,-1.2989561173059805,0.32146011922148254,2.0544189937085093,2.811548588432922
3889.633,0.3193140306863711,0.7208701150543408,-0.5236580450494506,-1.298945445595166,0.3111209022418402,2.054370710217359,2.8319103298601433
3889.666,0.3192794386495006,0.7208731901901526,-0.523614952332232,-1.2989210728987048,0.30068487964393764,2.054312495010201,2.854142201949603
3889.699,0.3192334413448279,0.7208652220120957,-0.5235574781626475,-1.298899556234085,0.2901273707276486,2.054250826916448,2.8774746541919853
3889.733,0.31928818308808005,0.7208763269730705,-0.5236211208776487,-1.2989474402977024,0.2803899859446357,2.054366587292744,2.8976682821791595
3889.767,0.3193806570313713,0.7209716005582347,-0.5236693649254667,-1.2989863903735994,0.2781476132278211,2.054386774975036,2.897484830113532
3889.799,0.31935041961819977,0.7210010745306699,-0.5236023238011756,-1.2989890316512192,0.27585019456233795,2.0543626152019403,2.8973709428020804
3889.833,0.319371137199461,0.7210285190165333,-0.5236071472902868,-1.2990093731398629,0.2742080146245147,2.054364302766622,2.897315700217879
3889.866,0.3193806387357734,0.7210539923300754,-0.5236024266441124,-1.2990081389628685,0.2729461544288281,2.0543635392370625,2.8973007547267393
3889.899,0.3193811941157394,0.7210657248111456,-0.5235901374811878,-1.2990111574227585,0.27198868618867333,2.054364126627206,2.897307797763183
3889.933,0.3193935119181157,0.7210743545292777,-0.5235981905619562,-1.2990243825890104,0.27129283324373965,2.054365561701779,2.8973000943764795
3889.966,0.3193951879874364,0.7210894812301154,-0.523594211764026,-1.299017942265178,0.27072147814177416,2.054364126162456,2.8973056448692933
3889.999,0.3199648771965214,0.7210289467103042,-0.5243722092342129,-1.2992542110911587,0.4817447213994132,2.0551485845406945,2.5964786443443146
3890.034,0.3199624480722088,0.7210295824933296,-0.5243724299150941,-1.2992542110911587,0.4817456369274299,2.0551497035159003,2.5964755069400143
3890.067,0.3199599188709118,0.7210296649091816,-0.524375023376799,-1.2992464157238341,0.481745636926757,2.055150822493773,2.5964841375019896
3890.1,0.3199677392756229,0.7210271592558474,-0.5243725955346796,-1.299248921377617,0.4817466541859839,2.055150822495759,2.5964779209587032
3890.135,0.3199730304416856,0.7210271562029268,-0.5243641793562626,-1.299248921377617,0.48174767143858804,2.0551519414716295,2.5964820012715153
3890.167,0.31996495666928143,0.7210245446948121,-0.5243742632625383,-1.2992439100700512,0.4817466541859848,2.0551497035159003,2.596479763531538
3890.2,0.3199622122699703,0.7210269205100701,-0.5243754963882615,-1.2992517054373758,0.4817456369328134,2.0551485845380357,2.596481000049237
3890.234,0.3199624505674528,0.7210264429094805,-0.524374081372529,-1.2992460558372632,0.481745636926757,2.0551497035159003,2.5964852533440785
3890.267,0.31996471530696396,0.7210264438910939,-0.5243722058584446,-1.2992517054373758,0.4817466541859839,2.055150822493765,2.5964797633342163
3890.3,0.3198462414008505,0.7206350906641639,-0.5245982946953855,-1.2990971632675015,0.4493298729105275,2.0551881437799615,2.5704796566726795
3890.334,0.31965513323156447,0.7206557610333792,-0.5243507543235149,-1.2990550239278873,0.44956417829487894,2.0550358780634106,2.563495953547001
3890.367,0.3196235062939943,0.7206082252741917,-0.5243768336516368,-1.2990439701525496,0.4399430815522418,2.055031879420479,2.563973811476199
3890.4,0.31959355508082954,0.7205904655501456,-0.5243460067598171,-1.2990281807787305,0.43227051647196824,2.0550008119274263,2.5641934051613067
3890.433,0.3197615366418596,0.7206233749097866,-0.5245486286773708,-1.299082026217956,0.4242516218954453,2.0551337962869987,2.5646287195205026
3890.467,0.31975808789359217,0.7206116515193708,-0.5245526949524058,-1.2990900580545928,0.41584843906891145,2.0551210367328245,2.5679582902798757
3890.499,0.31979223991191486,0.7206297492139102,-0.5246084772691013,-1.299094670253779,0.40742238551792553,2.0551607526178515,2.572668902673662
3890.533,0.31980524925417164,0.7206264803049374,-0.5246254663119307,-1.2991002411436385,0.3987418833110734,2.0551742305532343,2.5789502115349627
3890.566,0.31963440513270136,0.7205986463975256,-0.5244268156231042,-1.299031136640938,0.3891288565221638,2.055020729140974,2.5886123594667474
3890.599,0.31985529388666123,0.7206419070618573,-0.5246810725057767,-1.299111903333035,0.3811192735671005,2.055207373258682,2.596117702087401
3890.634,0.31983681810735387,0.7206362629099239,-0.5246536771770725,-1.2991019288985628,0.37194281803789586,2.055195645061737,2.607243925107042
3890.666,0.3198826678068025,0.7206371305507799,-0.5247155969383037,-1.2991285519092326,0.3628641093120324,2.0552278544588862,2.619906376292599
3890.699,0.3199162343491331,0.720656678631296,-0.5247573091498232,-1.2991323275243927,0.35364777155580107,2.0552666495017426,2.6343081816850216
3890.733,0.3199355270281954,0.7206567207896972,-0.5247768843066334,-1.2991408821799286,0.3443327206178717,2.055289941145446,2.6504546796821415
3890.766,0.31997869722917827,0.7206576230836585,-0.5248278592671962,-1.299164762187452,0.33496005777486193,2.0553213277493594,2.668384726907192
3890.799,0.3200150187972728,0.7206774668929565,-0.524870427068679,-1.2991707403257244,0.32551748966829397,2.055363674212142,2.687909430775594
3890.834,0.3200356069435628,0.7206767707801518,-0.5248911812054402,-1.2991804052066112,0.315857032818176,2.055392368480838,2.708491741413198
3890.866,0.31985928063783575,0.7206514835096653,-0.5246846010382731,-1.2990987364994036,0.305229480178685,2.05517014655646,2.732470456217099
3890.899,0.3198410127547717,0.7206484811581184,-0.5246477969879111,-1.299086520053879,0.2952344266772622,2.0551396826045956,2.755046812658538
3890.933,0.3198209214882155,0.7206403711649285,-0.5246179203279242,-1.2990753265163093,0.28498565265461107,2.0550901504800265,2.7793223886863245
3890.966,0.3197893061526562,0.7206440746576925,-0.5245731715720634,-1.2990514284333958,0.27465457050409103,2.055032638170463,2.8041401696045494
3890.999,0.31998368372081565,0.7206648992115223,-0.5247965639214449,-1.2991506042655745,0.2645643360825556,2.0552820966952012,2.828668615160458
3891.033,0.3200025984858259,0.7206790934667664,-0.5248316162321229,-1.2991547222193613,0.254085980178937,2.055317458184824,2.854749124495651
3891.066,0.31980547863192665,0.7206384698389137,-0.5246094004354909,-1.299066649730534,0.24253826026228076,2.0550353320851347,2.883686033152383
3891.099,0.31995858466722016,0.7207068125252096,-0.5247504381129078,-1.299140174997465,0.2353201782737271,2.0552132326361594,2.8973652211187844
3891.133,0.31997532991331656,0.7207713640567377,-0.5247195250915624,-1.2991621172339274,0.2327781551772743,2.0551920325021946,2.897332946908598
3891.166,0.31996882143020766,0.7207979687390811,-0.5246835396172029,-1.2991761133506552,0.23062782284706618,2.0551764958538037,2.8973073860682117
3891.199,0.31999574676394804,0.7208273804385037,-0.5246940645791334,-1.2991921719416268,0.22913497401531746,2.0551865923540795,2.8973010193016897
3891.233,0.3199824625572205,0.7208477682474319,-0.5246649793080813,-1.2991833704304883,0.22791695919216526,2.0551660839447905,2.8974047271001826
3891.266,0.31996766114306013,0.7210294254613037,-0.5243697387140475,-1.2992489213776168,0.4817466541859839,2.055150822495759,2.596480882311594
3891.299,0.319962451015648,0.7210250124953763,-0.524377124828447,-1.299248921377617,0.4817466541859839,2.0551508224937676,2.5964834734620896
3891.333,0.3199591496480336,0.7210238322371532,-0.5243728306782243,-1.299248921377617,0.4817466541859839,2.0551487022756056,2.5964841418652918
3891.366,0.31996485068945085,0.7210289496174024,-0.5243697343941387,-1.2992517054373758,0.4817466541859839,2.0551485845400297,2.59648288289085
3891.399,0.3199677407291897,0.7210225068537057,-0.5243702034985359,-1.2992517054373758,0.4817486886912669,2.0551497035159003,2.596476508113846
3891.433,0.31996245101549853,0.7210246270020729,-0.5243750145193478,-1.2992464157238341,0.4817447213994132,2.055150822499747,2.596482132091035
3891.466,0.3199649288698262,0.721034239040386,-0.5243720103656497,-1.2992439100700512,0.4817466541859839,2.0551485845380357,2.596475389291505
3891.499,0.3199624509066318,0.7210275191303056,-0.524366615576775,-1.299248921377617,0.4817466541859839,2.055150822493765,2.59648088229565
3891.533,0.31996244218533026,0.7210271588197271,-0.5243750513225247,-1.299248921377617,0.48174767143858804,2.055150822493765,2.59648088234948
3891.566,0.31996495666808444,0.7210247750561325,-0.5243720102455889,-1.2992464157238341,0.4817466541859839,2.0551497035159003,2.596477567752049
3891.599,0.3199647182347013,0.7210317247737141,-0.5243774955504106,-1.2992464157238341,0.4817466541859839,2.05514858453806,2.596476508180309
3891.633,0.3199624421489411,0.7210268943449194,-0.5243704020835612,-1.2992517054373758,0.4817466541859839,2.0551497049873957,2.596482001278159
3891.666,0.3199676612562802,0.721019722466876,-0.5243757188777803,-1.299248921377617,0.481745636926757,2.055150822493765,2.596477525844985
3891.699,0.3199702463829726,0.7210271592558475,-0.5243721631522743,-1.299248921377617,0.4817466541859839,2.055151177160025,2.596480882299638
3891.733,0.31996245057913436,0.7210274367259202,-0.5243749627290276,-1.2992464157238341,0.48174767143858804,2.0551485845382573,2.5964785849988217
3891.766,0.31995994503480896,0.7210296648975003,-0.5243743215101744,-1.2992464157278716,0.4817466541859839,2.0551485845380357,2.59647350438698
3891.799,0.31996471825070233,0.7210296648974448,-0.5243703251189706,-1.2992464157238341,0.481745636926757,2.0551485845380357,2.596481000252614
3891.833,0.3199647143141514,0.7210289496498554,-0.5243740785150542,-1.2992517054373758,0.4817447213994132,2.0551508224937676,2.5964820143537115
3891.866,0.31987995591899043,0.721063499693809,-0.5242108450985938,-1.2992204504848477,0.450765739910195,2.055056068645552,2.5323804314346674
3891.899,0.31982697076127753,0.7210097000717175,-0.5241613415059918,-1.2992050469739747,0.44843177089750075,2.0549903379194063,2.5345849165688
3891.933,0.31998386416625646,0.720967709217061,-0.5244253148145557,-1.2992479958488836,0.43937901604859064,2.055126076319354,2.532325475545951
3891.967,0.31974125040665324,0.720909048487731,-0.5241693364699698,-1.2991519659319621,0.4299607943364885,2.054975233285951,2.532746707652768
3891.999,0.3199480776546393,0.7209375836663687,-0.5244316470808492,-1.2992220428856376,0.4219326794716247,2.0551245616395413,2.5315710815699166
3892.034,0.31994992782937004,0.7209263979190634,-0.5244422217169866,-1.2992293553330114,0.4129154981766936,2.055118747568441,2.53350995676241
3892.066,0.31975883853554876,0.7208992132731318,-0.5242228106299489,-1.2991526009453915,0.4030442535357075,2.0549860700829274,2.5386552487795875
3892.099,0.3199800704574658,0.72094259062409,-0.5244812210982284,-1.299228928367361,0.39418042749314974,2.0551454147835635,2.5423429531314987
3892.133,0.31976971129930565,0.7208944513908975,-0.5242354406165699,-1.299153450613419,0.38379390070567165,2.0549757765819727,2.5511521183546364
3892.166,0.3197656857743354,0.7209015826421172,-0.5242247058580478,-1.2991410274899167,0.37412417433672385,2.054960955644674,2.5599238733277936
3892.199,0.3197232102101424,0.7208932266831747,-0.524163882089443,-1.2991215649499912,0.3642331193955144,2.0549210722647686,2.5705199211594145
3892.233,0.31970331071392977,0.7208846313214794,-0.5241400221160504,-1.299113251949243,0.3542072018485012,2.054889610637323,2.5829485275727
3892.266,0.3196713083924987,0.7208876599203959,-0.5240970837250858,-1.299091139668609,0.344072532529923,2.0548494705257276,2.59723090752761
3892.299,0.3196276226421704,0.7208798405871226,-0.5240405449411938,-1.299071903139338,0.33382361244399306,2.0548059608685296,2.6134124624461474
3892.333,0.3196047024614872,0.7208708558219126,-0.5240152629602024,-1.299062451829248,0.32340981213344655,2.0547683463137734,2.6315966296267383
3892.366,0.31957101984265623,0.7208738410344946,-0.5239716295742598,-1.2990391577910145,0.31289577934270607,2.054720758620583,2.6517818173989287
3892.399,0.31952568799381176,0.7208657707460198,-0.5239137115946102,-1.2990188211241325,0.3022562369802966,2.054669667646987,2.673405424983157
3892.433,0.3195004516681763,0.720856270676455,-0.5238859824986548,-1.2990084845751255,0.2914478158725995,2.05462419446312,2.696538206594525
3892.466,0.31967914708755263,0.720892071784502,-0.5240908767007486,-1.299081800027725,0.2808654654431759,2.054838115229792,2.719703065973894
3892.499,0.31970836648953327,0.7208867306149438,-0.5241389492955104,-1.2991069346004167,0.2699150260805352,2.054870555979928,2.744535236442319
3892.533,0.3197468852928962,0.720903306137405,-0.5241942108905171,-1.2991183662259695,0.25882310968576405,2.0549253682550663,2.770366628997646
3892.566,0.319771628218227,0.7209031635326744,-0.5242243418160939,-1.2991312244141078,0.24757961240572257,2.05496990892242,2.7969404866776966
3892.599,0.3198190014573967,0.7209018170378201,-0.5242807960575515,-1.2991611082185672,0.2362054948187451,2.055020216912638,2.824398207366576
3892.633,0.31986377548061107,0.7209193163512033,-0.524334846276652,-1.2991744766518192,0.2246655290055708,2.0550810128051555,2.852584969143292
3892.668,0.3198926884841544,0.7209200754074514,-0.5243656884420567,-1.2991890228704435,0.21298365350510196,2.0551332371268387,2.881447958952073
3892.7,0.3199649566209774,0.721027159239697,-0.5243749730162425,-1.2992489223587633,0.4817466541859839,2.055151882132559,2.5964852608405717
3892.734,0.3199599453578275,0.7210296286070556,-0.5243701017562526,-1.299248921377617,0.4817466541859839,2.055150822493765,2.5964821204812507
3892.767,0.31996280763173096,0.7210268314437769,-0.5243747834048038,-1.2992464157238341,0.481745636926757,2.055147465560171,2.596476861482301
3892.8,0.3199624499254853,0.7210271558763377,-0.5243720074751022,-1.299248921377617,0.481745636926757,2.055150822493765,2.5964840612141
3892.834,0.31995997852487934,0.721026893328675,-0.5243743118754315,-1.299248921377617,0.4817466541859839,2.0551485845380357,2.5964818237372382
3892.867,0.3199677407278383,0.7210271209911373,-0.5243743205061067,-1.299248921377617,0.481745636926757,2.0551497035159003,2.596482001343293
3892.9,0.31996237154138524,0.721029661928501,-0.5243742694024675,-1.299248921377617,0.4817466541859839,2.055149703516565,2.5964823549687392
3892.934,0.3199617357100578,0.7210296382975481,-0.5243725429001083,-1.299248921377617,0.4817466541859839,2.0551498212534702,2.596482942236567
3892.967,0.31996245097527165,0.7210287112352585,-0.524375024137036,-1.2992464157238341,0.4817466541859839,2.0551497035159003,2.5964863754577108
3892.999,0.3199624510156474,0.7210264439637715,-0.5243717654122093,-1.2992464157238341,0.4817466541859839,2.055148584591871,2.5964845037966438
3893.033,0.3199599414251647,0.7210271323283751,-0.5243716105956633,-1.299248921377617,0.48174599455462563,2.0551497035159003,2.5964820405173694
3893.067,0.31996270488860856,0.7210250105330832,-0.5243718147378349,-1.2992517054373758,0.4817466541859839,2.0551485845380357,2.596474289533478
3893.099,0.31995962747042633,0.7210246536020646,-0.5243778354951355,-1.299248921377617,0.4817466546765571,2.055150822493765,2.596481236959933
3893.134,0.3199624510141526,0.7210270797461507,-0.5243725347326711,-1.299248921377617,0.4817466541859839,2.055150822493765,2.596479763477703
3893.167,0.3199646917598986,0.7210246536007132,-0.5243704277651408,-1.2992439100700512,0.4817447213994132,2.0551485845440176,2.5964830609097156
3893.2,0.31995716086577985,0.7210324136480684,-0.5243729375936508,-1.2992464157238341,0.48174563694492634,2.0551497078772156,2.5964768412266963
3893.234,0.31996280988473386,0.721029663928484,-0.5243729376649613,-1.2992464157238341,0.48174563692698125,2.055150822493765,2.5964786443403267
3893.267,0.3199628079587798,0.721024653601616,-0.5243756509990692,-1.299248921377617,0.4817447213994132,2.0551497035159003,2.596475389130074
3893.3,0.3199624510155797,0.7210271592558475,-0.5243740090247929,-1.2992517054373758,0.48174665420415325,2.0551485845380357,2.596476626006948
3893.334,0.3199622125952744,0.7210271592540012,-0.5243696260299402,-1.299248921377617,0.4817466541859866,2.055150822493765,2.596486388541665
3893.367,0.3199677407291725,0.7210236999156353,-0.5243740111051687,-1.2992464157238341,0.481746654240492,2.055150822499747,2.5964831020936394
3893.4,0.3199592301061278,0.7210296649091819,-0.5243722344130208,-1.2992517054373758,0.481745636926757,2.055152882591794,2.5964841375199295
3893.434,0.3199649478270003,0.7210275190334005,-0.5243747943740299,-1.2992464157238341,0.481745636926757,2.0551497035159003,2.596480882299884
3893.467,0.3199649566694309,0.7210271591064547,-0.5243719319906547,-1.2992517054373758,0.48174767143858804,2.0551485845380357,2.596485256479846
3893.5,0.31996221258495594,0.7210296638194179,-0.5243749715201224,-1.2992517054373758,0.481745636926757,2.055150822493765,2.596486299164725
3893.535,0.3199649537138788,0.7210269207242145,-0.5243717624174095,-1.299248921377617,0.48174767143858804,2.0551497035159003,2.596476512468515
3893.567,0.319962451015648,0.7210296635892497,-0.5243693887102737,-1.2992517054373758,0.481745636926757,2.055148585023217,2.596474283240069
3893.6,0.319962451015648,0.7210296648006141,-0.5243720007345579,-1.2992439100700512,0.4817466541859839,2.055150822493765,2.5964843368709576
3893.634,0.3199599188707125,0.7210268384155694,-0.5243740267154727,-1.299248921377617,0.4817466541859839,2.0551497035159003,2.596483120249377
3893.667,0.3199649566688328,0.7210221634160998,-0.5243728393696775,-1.2992489213776168,0.48174767143858804,2.0551497035159003,2.5964753893453403
3893.7,0.3199677394209945,0.7210324488198468,-0.5243721392574332,-1.2992489213776168,0.4817447213994132,2.0551485845380357,2.5964863754577108
3893.734,0.31996245068859924,0.7210274926514634,-0.5243743239711717,-1.2992489213776168,0.48174987283680176,2.0551497035159003,2.5964765081078642
3893.767,0.3199624500331502,0.7210246496290273,-0.5243750019530006,-1.2992517054373756,0.48174507902728186,2.0551489377567274,2.596478572405042
3893.8,0.3199577878207467,0.7210261787594416,-0.5243750511247735,-1.2992489478685703,0.481745636926757,2.055150822493765,2.5964808229549914
3893.834,0.3199592301020822,0.7210294264749008,-0.5243747284061153,-1.2992464157238341,0.481745636926757,2.055150822493765,2.596481017533638
3893.867,0.31995716126530127,0.7210271592558254,-0.5243750233729515,-1.2992464157238341,0.481745636926757,2.0551497035159003,2.5964758600802798
3893.9,0.3199571348108917,0.7210243886880403,-0.5243694984116911,-1.299248921377617,0.481745636926757,2.0551497035159003,2.5964812356678633
3893.934,0.3199624470910599,0.7210275103076145,-0.5243718414119731,-1.299248918543194,0.481746654240492,2.055147465560171,2.5964801179824573
3893.967,0.32006724512166596,0.7210493996171685,-0.5244941327190791,-1.2992962247991393,0.45145168833735116,2.0552241232858712,2.6820073228767765
3894.0,0.31981115538391247,0.7209349904886055,-0.5242633170573878,-1.2991852868847324,0.44314465047674734,2.055021239376565,2.6897872141455252
3894.034,0.31977337557132124,0.7208712426477701,-0.5242747779055907,-1.2991571714124497,0.4329433000427487,2.055000808285426,2.69843416498699
3894.067,0.3197275287409367,0.7208458885826019,-0.5242446868373865,-1.2991259387465401,0.42271725493191514,2.054961940150365,2.7078366858790446
3894.1,0.31967488045059067,0.7208235459125181,-0.5241946605213306,-1.2991013020329163,0.4123374056385485,2.054918001707243,2.718171742497658
3894.135,0.31995713481084126,0.7210264410551755,-0.5243771244556504,-1.299248921377617,0.4817466541859839,2.0551497035159003,2.596482014359449
3894.167,0.31996495630604155,0.7210271592518098,-0.5243724416354633,-1.2992464157238341,0.4817447213994132,2.0551497035159003,2.5964852566473335
3894.2,0.3200744566108291,0.7211524344958757,-0.5244270263568351,-1.2993344856806575,0.42197104006661945,2.0551941212595217,2.6852365985376974
3894.233,0.3199623715306754,0.7210316509689084,-0.5243775934430753,-1.2992517054373758,0.4817447213994132,2.0551497035159003,2.5964786462766214
3894.266,0.31996245101564613,0.7210296649091258,-0.5243729366017111,-1.2992489302079346,0.481745636926757,2.0551485845380357,2.596483120249377
3894.301,0.3199624467640136,0.7210246955971445,-0.5243743210707434,-1.2992516289079552,0.481744761135843,2.055149703521885,2.596482942249195
3894.333,0.3199649566653933,0.7210296649094808,-0.5243725967786776,-1.2992517054373756,0.4817466541859839,2.0551485845380357,2.596484176747863
3894.366,0.31996424141354407,0.7210271592437322,-0.5243743128064449,-1.299246415723834,0.4817456369268317,2.055150822493765,2.596484138955533
3894.399,0.3199624509066318,0.7210246447717285,-0.5243729347165381,-1.2992411260102923,0.48174665860114274,2.055149644176165,2.596477564612315
3894.433,0.31996492981508956,0.7210246506586254,-0.5243747027306415,-1.299246415723834,0.48174665418598417,2.055150822493765,2.5964786443403267
3894.466,0.3199649566694309,0.7210271592195088,-0.524377212945768,-1.2992489213776168,0.481745636926757,2.055150822493765,2.596476553175899
3894.499,0.3199649566694309,0.7210270796699284,-0.524372537110784,-1.2992464158328503,0.481745636926757,2.05515005672861,2.596476625846099
3894.533,0.3199599453618633,0.7210296531237605,-0.5243748057758563,-1.2992517054373758,0.4817486886911922,2.0551497035159003,2.596480886815879
3894.566,0.3199599453618651,0.7210317337136516,-0.5243777207527187,-1.2992464157238341,0.48174767143858804,2.055150644474559,2.5964786448228767
3894.599,0.3199624510155982,0.7210295589457953,-0.5243726994948188,-1.2992464157238341,0.4817447213994132,2.0551485251983004,2.5964765085930455
3894.633,0.3199624509066318,0.7210289201100339,-0.5243742713882547,-1.2992489213776168,0.4817466541859839,2.0551485845380357,2.596474624820389
3894.666,0.3199649566694309,0.7210296644734158,-0.5243719285081924,-1.2992517054373756,0.481745636926757,2.055149703516565,2.596483120249377
3894.699,0.3199599453617156,0.7210270797829879,-0.5243775127545454,-1.2992517054373756,0.4817466541859839,2.0551497035159003,2.59647752536645
3894.733,0.3199599420913578,0.7210296648726935,-0.5243774865711643,-1.299243910070051,0.48174868869119225,2.055149703677406,2.59648200175603
3894.766,0.3199623715302268,0.7210294255098881,-0.5243718157087559,-1.2992489213776168,0.4817466541859848,2.055150822493765,2.5964775253843975
3894.8,0.3199599453618651,0.7210271591450368,-0.5243768181222465,-1.2992464157238341,0.4817456374173302,2.055149703677406,2.5964878478097906
3894.834,0.3199624510156314,0.7210250104236184,-0.5243767876685342,-1.2992542110911587,0.48174767192918616,2.0551497035159083,2.596474741258234
3894.866,0.32007757309060114,0.721069701481575,-0.5244994535277572,-1.2992909307025045,0.45148329637815543,2.05523465717134,2.6781458926281996
3894.9,0.31995994438071873,0.7210275101667403,-0.5243771243487132,-1.299248921377617,0.481745636926757,2.055150822493765,2.596476508113846
3894.933,0.3200999302956147,0.7210276472492501,-0.5245600069949052,-1.2993096516697653,0.44609199667662125,2.055267036897906,2.672931535750376
3894.966,0.31996774072918416,0.7210296639244463,-0.524374970543409,-1.2992517054414132,0.4817466541859839,2.0551485845380357,2.596482001433019
3895.0,0.3199677407287411,0.7210296649096303,-0.5243700908315555,-1.299248921377617,0.4817476714567574,2.055149703515903,2.596480116528907
3895.034,0.319962810902219,0.7210296648732917,-0.5243740122482675,-1.2992464157238341,0.4817466541859839,2.0551485845380357,2.596482014355681
3895.067,0.3199603052484361,0.7210271588036319,-0.5243716094054771,-1.2992517054373758,0.4817466541859839,2.055149703515903,2.5964820012774945
3895.099,0.3201066676003661,0.7211099901826348,-0.5244728584528602,-1.299309355512606,0.44934634776958493,2.0552231473301212,2.6255115148351162
3895.133,0.3200604538632268,0.7210190975941018,-0.5244864647547738,-1.299290916303189,0.44463819636341917,2.055181955514236,2.6184599493558345
3895.166,0.32006757386093376,0.7209646002088181,-0.5245879559377622,-1.2992689755741464,0.43506397791319795,2.05524129063366,2.6170272180094276
3895.199,0.3198671137002318,0.7208979018283204,-0.5243894610315447,-1.299188449563867,0.4254441668802018,2.0550837744846824,2.6181159650799177
3895.233,0.3200567846743372,0.720910346035958,-0.524621501954976,-1.2992610952275587,0.41623688220909827,2.05523980352001,2.61735971654622
3895.266,0.3198468597596964,0.7208753505173897,-0.5243854248442261,-1.2991737601006133,0.40572953955820434,2.0550713540850634,2.62127701992312
3895.3,0.31983795961904704,0.7208641444281811,-0.5243753801953535,-1.2991692188511568,0.39578131942044337,2.0550491503246437,2.6251380830528266
3895.334,0.3200182313248945,0.7208915482015588,-0.524581575574488,-1.2992392181715848,0.3865314693328994,2.0552024264851703,2.6287857443830465
3895.367,0.3200411267844103,0.7209073089115909,-0.5246202540747564,-1.299242246787836,0.37655826774148515,2.05523369153965,2.635582825360684
3895.4,0.3200602285196634,0.7209070340431634,-0.524647583745562,-1.2992498501255838,0.36641372617232104,2.0552603935691014,2.6440780852716
3895.434,0.32010270484346215,0.7209062775321051,-0.5247008288056678,-1.2992736134345426,0.35614272170232564,2.0552912715429947,2.6543218266148454
3895.467,0.3199117972567409,0.7208822444848071,-0.5244740131075485,-1.2991870531352774,0.3448374421666571,2.0551020392913273,2.6683642464302473
3895.499,0.3198994901626069,0.7208738091829874,-0.5244482245063837,-1.2991779552400056,0.33404159591886984,2.055065178624549,2.6825284631257045
3895.534,0.3198680668571372,0.7208757265842651,-0.5244007442521754,-1.2991528136001484,0.3230239726754016,2.0550140301950286,2.698701719942605
3895.567,0.31996244218532394,0.7210271592517877,-0.5243768715295991,-1.299246415723834,0.4817466541859839,2.055150776235982,2.5964786445536734
3895.6,0.3199677407290402,0.7210271563124083,-0.5243725178653544,-1.2992489213776168,0.4817447213994132,2.0551497035221034,2.596482001273728
3895.634,0.3199649566694309,0.7210267772866619,-0.5243724339454757,-1.2992464167049804,0.4817476758537469,2.0551485845380357,2.596483060927587
3895.667,0.3199649301784777,0.7210242981925219,-0.5243728413060257,-1.2992517054373758,0.48174767143858804,2.0551497035159003,2.596475402211952
3895.7,0.3199602257754047,0.7210302943705136,-0.5243726743562419,-1.2992517054373758,0.481745636926757,2.0551511757246415,2.5964852569650274
3895.734,0.3199624510143019,0.721027158928776,-0.5243701190867958,-1.299248921377617,0.481745636926757,2.0551519414716295,2.596481941931851
3895.767,0.3199677139111877,0.7210271503165135,-0.5243676449897868,-1.2992517054373758,0.48174767143858804,2.0551485845380357,2.5964864147574027
3895.8,0.31996495666938113,0.7210271474815902,-0.5243722430812332,-1.2992464157238341,0.481745636926757,2.0551519414716295,2.5964841375026464
3895.834,0.31996172692958746,0.7210271581655353,-0.5243722092339285,-1.2992489302079346,0.481745636926757,2.0551497035159003,2.596483120267347
3895.867,0.3199599099273907,0.7210262026339989,-0.5243724388854138,-1.2992489213776168,0.481745636926757,2.05515005672861,2.5964779209587032
3895.899,0.3199677407287393,0.7210349546231659,-0.5243740026543035,-1.299246415723834,0.48174665418598417,2.055152882430288,2.596486666912002
3895.934,0.3199649566694291,0.7210249340155762,-0.5243719814364162,-1.299246415723834,0.481745636926757,2.0551507631540296,2.5964754022139465
3895.967,0.3199599453618651,0.7210271504129461,-0.5243748068458123,-1.2992517054373756,0.4817447213994132,2.0551497035159247,2.596483133815846
3895.999,0.3199624421853303,0.7210271592557969,-0.5243748174266899,-1.2992517054373756,0.48174767143858804,2.0551485888986867,2.596476508113849
3896.033,0.3199677407291897,0.7210271592193591,-0.5243720004013659,-1.2992490008504767,0.481745636926757,2.055150822493765,2.5964823942165896
3896.066,0.319962451015648,0.7210268932557039,-0.5243743502928527,-1.299248921377617,0.48174563692877576,2.0551485845380357,2.5964875076970766
3896.099,0.3199649566694309,0.7210271582747011,-0.5243724562241024,-1.299248921377617,0.481745636926757,2.055150940233329,2.5964785893592484
3896.133,0.319962451015648,0.7210264436690236,-0.5243775936804778,-1.299248921377617,0.4817466541859839,2.055149703515903,2.5964841522049715
3896.166,0.3198814096341396,0.7210390749697062,-0.524243412886495,-1.2992240261335875,0.45075505126335536,2.0550407739312746,2.6814185778069017
3896.2,0.31981710069868896,0.7209959629467528,-0.524176965048567,-1.2991881713333955,0.447861372832171,2.054968790233989,2.6841419612876827
3896.233,0.31975527258283165,0.7209185386117172,-0.5241828830396944,-1.299148674449036,0.43797474918000834,2.0549588954215565,2.692561601426789
3896.267,0.31971990811198747,0.7208855224280741,-0.524169634881182,-1.2991328946414367,0.42923106105562603,2.0549240858594544,2.700846662097522
3896.3,0.31968310184663373,0.7208773869597724,-0.5241378718562135,-1.2991090627149706,0.42013616026633205,2.0548892663043787,2.710168555823632
3896.333,0.3198639526490661,0.720907886019015,-0.5243553188794463,-1.2991802612957537,0.41189515278025723,2.0550695760169884,2.718421080481443
3896.366,0.3198509790675912,0.7209019959941481,-0.5243494112071394,-1.2991760557551872,0.4027320526398901,2.055069939625131,2.7295353016052033
3896.399,0.31989056078127476,0.720901101429634,-0.5244060695444421,-1.2992019174458314,0.39365504564616227,2.055101967681235,2.7415932009755792
3896.433,0.31992339042309936,0.7209195028900277,-0.5244487717130584,-1.2992071271961203,0.38444801262306605,2.055143859701401,2.754811378903117
3896.467,0.3197422584887768,0.720879219308662,-0.5242405368699767,-1.299135584778874,0.37420317077477616,2.054934737194708,2.7713331189707073
3896.499,0.3199373426045744,0.7209188233378416,-0.5244526470234305,-1.2992089494500423,0.36491612064473333,2.0551557292608873,2.7860654102168567
3896.533,0.3197447378721048,0.7208878517308479,-0.5242338875654244,-1.2991229861337112,0.35423445458237346,2.0549142974261763,2.8055386503582778
3896.566,0.31971978374759935,0.7208832653695127,-0.5241951613366513,-1.299108307606824,0.3442207444586991,2.0548799970306,2.8243957517095915
3896.599,0.3199179609917593,0.7209205835532373,-0.524421053680932,-1.2991905756079163,0.3343796790739839,2.0551117592397787,2.843775969985135
3896.633,0.3197160594849491,0.7208785368538182,-0.5241993138556849,-1.2991051286914068,0.3231587903142774,2.054851493151414,2.8681132876893844
3896.666,0.31969469626002667,0.7208829133897403,-0.5241658449515736,-1.299083968810482,0.3125774789445481,2.0548022766279956,2.8919711310382112
3896.7,0.31982129313158225,0.7209566741805542,-0.5242645345217403,-1.2991524198470659,0.3078655151565508,2.054934793562671,2.897307182546898
3896.733,0.31982190227529284,0.7210052920691341,-0.5242176786172346,-1.299165983751335,0.3055168082039925,2.054918560598349,2.8973022475629158
3896.766,0.31986323393714233,0.721041540230372,-0.5242405574643261,-1.2991967731309053,0.30372847313774276,2.0549486169884155,2.897547785348479
3896.799,0.31984967696706956,0.7210666621767823,-0.52420586900333,-1.2991887199761294,0.30229585650212343,2.0549212795274148,2.8973467758748157
3896.833,0.31985593997297634,0.7210811250686522,-0.5241961817695993,-1.2991929198737262,0.30125007894779454,2.054923361530708,2.8973058037183748
3896.867,0.319954655648062,0.7210324476610444,-0.5243778091376678,-1.2992439100700512,0.48174868869119214,2.055150822493766,2.5964813532439277
3896.9,0.31996495634238215,0.7210247721145043,-0.5243754661026989,-1.2992464157238341,0.4817447213994381,2.055150823953297,2.5964754414578084
3896.934,0.3199649537258415,0.7210250131600853,-0.5243771084474882,-1.2992464157242827,0.481745636926757,2.055150822493765,2.5964821582616127
3896.966,0.3199649478391132,0.7210320957526251,-0.524371817461815,-1.2992489213776168,0.4817447213994132,2.055150822493773,2.596479763477703
3896.999,0.31996495666524355,0.7210264439637715,-0.524372439540916,-1.2992489213776168,0.4817466541859839,2.0551485251983252,2.5964831202673304
3897.033,0.3199649566694309,0.7210264351697869,-0.5243694178888753,-1.299246415723834,0.4817447213994132,2.0551519414716295,2.596477525360468
3897.067,0.31995716097479554,0.7210271592432693,-0.5243694148299757,-1.2992517054373756,0.4817447213994132,2.055147465560171,2.596485256479871
3897.1,0.3199624500343281,0.7210287112352973,-0.524369735358817,-1.2992489213776168,0.481745636926757,2.055150822493765,2.5964852971792776
3897.134,0.3199649566694309,0.7210324488598726,-0.5243747402814634,-1.299243910070051,0.48174670981036294,2.055149703515901,2.596476508109858
3897.166,0.3199649566694309,0.7210271563124083,-0.5243749617458388,-1.2992489213776168,0.481745636926757,2.055150822493766,2.596480704274868
3897.2,0.3199649566694309,0.7210296616377965,-0.5243757204509749,-1.2992489213776168,0.4817466541859839,2.0551485845380384,2.5964786486996565
3897.234,0.31996495655996604,0.7210270797789003,-0.5243701966603538,-1.299246415723834,0.48174665418800267,2.0551497035704003,2.5964766665986763
3897.267,0.3199649565604147,0.7210271563123861,-0.5243754954327204,-1.2992542110911587,0.481745636926757,2.0551485845380357,2.596483238471464
3897.3,0.319962451015648,0.7210296648975009,-0.5243743374513923,-1.2992517054373758,0.4817466541859839,2.055148703729156,2.596480886660289
3897.334,0.3199624245246948,0.7210271324378454,-0.5243693997118427,-1.2992439100700512,0.4817466541859839,2.0551497035159003,2.5964765081338586
3897.367,0.31996244087708525,0.7210271592557971,-0.524374038060647,-1.299248921377617,0.481744761135843,2.0551497035159003,2.596476625845508
3897.4,0.31995994503481634,0.7210287112351644,-0.5243757217194072,-1.299248921377617,0.4817466541859839,2.0551497035159003,2.5964831202493808
3897.434,0.3199667075820118,0.7210246447300246,-0.5243802377535217,-1.2992517054373758,0.48174564134191583,2.0551489377507455,2.596473504440889
3897.467,0.3199624509793093,0.7210271592195088,-0.5243722047524092,-1.299248921377617,0.48174665418620816,2.0551508617396217,2.5964765082773456
3897.5,0.3199595890115524,0.7210322105144713,-0.5243756953083412,-1.2992464157238341,0.4817447213994132,2.0551508226552704,2.5964808822938696
3897.534,0.3199624510035349,0.7210267155821555,-0.5243722439015431,-1.2992464157238341,0.4817466541859839,2.055150822493765,2.596480234267142
3897.567,0.319962451015648,0.7210270768395486,-0.524374314764068,-1.2992464157238341,0.4817466674314605,2.055149742761757,2.596476861320574
3897.6,0.31995986588765957,0.7210246238365857,-0.5243775239976758,-1.2992464157238341,0.4817466541859839,2.0551497035159003,2.5964841375019816
3897.634,0.31996245068859924,0.721026443987847,-0.5243719023650839,-1.299248921377617,0.48174665418598417,2.055147465560171,2.5964765095640976
3897.667,0.319962371536956,0.7210264436730611,-0.524372215158271,-1.2992517054373758,0.4817466541859839,2.0551508229782818,2.596477643098038
3897.7,0.3199649566694309,0.7210296645704607,-0.5243728582835717,-1.299248921377617,0.48174767143858804,2.0551508355757173,2.596481176167258
3897.734,0.31995779959465254,0.7210296559701469,-0.524374961888607,-1.299248921377617,0.481745636926757,2.055150822493765,2.596483060909642
3897.767,0.3199599453618651,0.7210271298172679,-0.5243701025621906,-1.299248921377617,0.4817456369268317,2.055152882430289,2.596480704759376
3897.799,0.31996774035368925,0.721027158269301,-0.5243750144810402,-1.299248921377617,0.48174563692676525,2.0551497035159003,2.5964797807774107
3897.834,0.3199677406201734,0.721031733677263,-0.5243747114767576,-1.2992439100700512,0.4817447213994132,2.0551485845380366,2.596484137663487
3897.867,0.3199603052484361,0.7210218695422893,-0.5243704406181916,-1.2992464157238341,0.48174767143858804,2.0551497035159003,2.5964797633162053
3897.9,0.3199624510156462,0.7210289496524808,-0.524372467360252,-1.2992517054373758,0.481745636926757,2.0551485845380357,2.596482001756276
3897.934,0.31996242452454526,0.7210324401027326,-0.5243741159289057,-1.2992517054373758,0.48174670981036294,2.0551508748235676,2.596477525360469
3897.967,0.3199599453618651,0.7210271578380378,-0.5243746807938026,-1.299248921377617,0.4817466541859839,2.0551519414716295,2.5964863161179754
3898.0,0.31996774072912326,0.7210275191055739,-0.5243724423255806,-1.2992542110911587,0.48174565033575795,2.0551485845380357,2.5964786443403267
3898.034,0.3199702463829228,0.7210296649082827,-0.5243750510054236,-1.2992489478685703,0.481745636926757,2.055149703515901,2.59648525647992
3898.067,0.31996495666928143,0.7210324489689404,-0.5243750520878893,-1.2992464157238341,0.48174767192916124,2.055150822493765,2.5964831246106925
3898.1,0.31996773188660926,0.7210271559849109,-0.5243750513957414,-1.2992517054373758,0.48174767143858804,2.0551485845380357,2.596477525384469
3898.134,0.3199624510156478,0.7210295854246572,-0.5243748173245133,-1.2992439100700512,0.481745636926757,2.0551508224937893,2.596483133349939
3898.167,0.3199649566694309,0.7210275190172515,-0.5243747313807239,-1.2992464157238341,0.481745636926757,2.055151921377751,2.5964873183544364
3898.2,0.3199677407291897,0.7210270699715181,-0.5243701966247325,-1.2992464157238341,0.4817466541859839,2.055147465560171,2.596479778336881
3898.234,0.31996030492138733,0.7210296550981644,-0.5243740122523932,-1.299246415723834,0.48174563839847656,2.055154001408227,2.596476521351322
3898.267,0.3199599452528489,0.7210296648975169,-0.5243743384024172,-1.299246415723834,0.4817466541859839,2.0551485845380357,2.596485197140111
3898.3,0.3200770644365569,0.7210645328123269,-0.5245000921668455,-1.2992869192015517,0.45146227409154793,2.0552356631095137,2.6754773809517474
3898.334,0.3199624510151992,0.7210296608719736,-0.5243749897852621,-1.2992489213776168,0.4817476714386129,2.0551497035159008,2.5964753891299996
3898.367,0.3201069120024602,0.7210486172094122,-0.5245488751783691,-1.2993133694628742,0.4464625231853816,2.0552624431350957,2.6646425054371683
3898.4,0.3201069120024602,0.7210486172094122,-0.5245488751783691,-1.2993133694628742,0.4464625231853816,2.0552624431350957,2.6646425054371683
3898.434,0.3199677407291897,0.7210296648732915,-0.5243802368376732,-1.299249159796196,0.4817466541859839,2.0551485845380357,2.5964820143601863
3898.467,0.31989943514061725,0.7209408202937757,-0.5244017649963091,-1.2992136179301612,0.4302156034436013,2.0551086189130015,2.6957937372095486
3898.5,0.31997989634641133,0.7211007698679257,-0.5243494924711731,-1.299265469730777,0.43824522096148577,2.0551285782970012,2.6834864916636523
3898.534,0.319887269450402,0.7209941061083658,-0.5242995841232707,-1.2992124235666518,0.4289798114012431,2.0550547194853355,2.702175904639498
3898.567,0.3198442501946559,0.7209548301847857,-0.5242884930242573,-1.2991916732062831,0.42195495062729726,2.0550221124501,2.7101943957503565
3898.6,0.31981480949013186,0.720947207317546,-0.5242645328322038,-1.299169888023786,0.41382610458674307,2.054994409838482,2.7198712907122378
3898.634,0.3197742764477294,0.7209378073025636,-0.5242161173342348,-1.2991555086633602,0.4058465311948689,2.0549557475767735,2.7303284688479437
3898.667,0.319758795075189,0.7209301248024955,-0.5242047408036337,-1.2991499690533166,0.3976491595939544,2.054925849082437,2.741912923888691
3898.7,0.3197280745961155,0.7209336989084418,-0.5241653054245399,-1.2991294469047467,0.3893962283296286,2.054886824072735,2.7545522364044945
3898.734,0.31968969706254136,0.7209259763914879,-0.524118340577223,-1.2991150072369484,0.38100157721672456,2.0548463978443046,2.7683599280790894
3898.767,0.3196736081567888,0.720918863458416,-0.5241042550139019,-1.2991086473339157,0.3725122782282817,2.054812357781284,2.7833744572270405
3898.8,0.3196427359493761,0.7209228623839801,-0.5240646271983316,-1.299087371755233,0.36394393912632594,2.054768829117645,2.7996330836488443
3898.834,0.3196037903062834,0.7209156137373567,-0.5240164771224745,-1.299072111727945,0.35526907441480127,2.054724089893135,2.817205896645209
3898.867,0.31958690193954276,0.7209088475590573,-0.5240013406795896,-1.2990650313995564,0.3465069250366879,2.054685693871928,2.836152607624385
3898.9,0.3195553021202082,0.7209130570989801,-0.5239608599333749,-1.2990430802535569,0.33767475491871224,2.0546366401281553,2.8564166908733313
3898.934,0.31951547540579117,0.7209057146576106,-0.5239111170623287,-1.2990271120055663,0.3287453465248369,2.0545869021851093,2.877509502529602
3898.967,0.3194976989788305,0.7208988491437509,-0.5238943419177096,-1.2990193136744619,0.3197356280023138,2.054543722121135,2.8993265621382918
3898.999,0.3196180010959786,0.7209968342616069,-0.5239687300033093,-1.2990861070313091,0.31869626626832037,2.0546675436351176,2.897299888970604
3899.034,0.31958173519970234,0.7210130892006417,-0.5238997485675698,-1.2990785966373242,0.316601415509826,2.054619467819059,2.8975066002495815
3899.067,0.3196343643612778,0.7210393789146723,-0.5239532133901168,-1.2991055351440561,0.3153400275510041,2.05465099425218,2.8973326119008505
3899.099,0.3196293693602055,0.721055480014904,-0.5239362811304549,-1.2990983581677593,0.31431134598377497,2.0546429591026794,2.8973064158645343
3899.133,0.3196229825296335,0.7210596148847985,-0.5239213431921881,-1.2990995665678087,0.31350601306233994,2.054641771158808,2.897300329753987
3899.167,0.31963129323533046,0.7210598298491488,-0.5239272706437577,-1.2991099539237778,0.3129269005800799,2.0546396606255755,2.897303710505069
3899.2,0.31971791049493525,0.7210863381163906,-0.52402033453642,-1.2991401429105558,0.31251459891887556,2.0547686323662155,2.897653692602315
3899.233,0.3197022589860925,0.7210335549317941,-0.524034846183727,-1.2991248451656592,0.3073083454627499,2.0547075443942084,2.8971175563933382
3899.266,0.3197462953860857,0.7210393729727311,-0.5240881919123801,-1.2991469098085835,0.3038677125499225,2.054812625014236,2.895761838714245
3899.3,0.3197308510383712,0.7210000403237142,-0.5241120969428534,-1.2991191352505007,0.2954746770114838,2.054780143596048,2.8967550759397227
3899.334,0.3195727843073799,0.7209825259887497,-0.5239298941766011,-1.299051965896222,0.28925098774587266,2.0545774537197694,2.8973786613850496
3899.366,0.3195413386804189,0.7209622344403943,-0.523880228170337,-1.2990283858672003,0.28192698147985684,2.054530292815876,2.8975573661508776
3899.4,0.319742807641064,0.7209957752362683,-0.5241103529685578,-1.299117052423287,0.27462756910640884,2.0548016633395694,2.8960569320354104
3899.434,0.31952449293538443,0.7209479930412073,-0.5238676564867824,-1.299017635660233,0.2658430134789338,2.054498137491832,2.8974712571243693
