yuan18844-afk/dissertation/catkin_ws/src/franka_digital_twin/analysis/data/gazebo_fast1_20250728_065921.csv
time,panda_joint1,panda_joint2,panda_joint3,panda_joint4,panda_joint5,panda_joint6,panda_joint7
5866.399,0.32356345272811904,1.0448625768551363,0.03785640467910234,-1.2717322880049728,-0.006474424446958338,2.493915405738478,1.981911618106615
5866.435,0.3237382830505426,1.0450200937098566,0.03796495947182315,-1.2718716381255855,0.21290368743075253,2.4938704988294176,1.5447661488519773
5866.468,0.3237357770727392,1.045014117872149,0.0379671965437191,-1.2718736860025535,0.21290265652688897,2.493868262327165,1.5447661488519773
5866.499,0.3237357780448521,1.0450179770816936,0.03796775360458917,-1.2718783425285194,0.21290266969052915,2.493868260873713,1.5447662209466169
5866.533,0.32373790297173616,1.045021636895328,0.03796811728481105,-1.2718733256570862,0.2129036742670382,2.4938704988294185,1.544761771486939
5866.566,0.3237332801675119,1.0450204562490097,0.03796519720861688,-1.271871649886641,0.21290255170469397,2.4938682608736884,1.5447716420164508
5866.6,0.32373828272652205,1.0450191426761402,0.03796245677667434,-1.271875986597794,0.21290368741269536,2.493869379851553,1.5447595367100502
5866.633,0.32373828272652205,1.0450198052730009,0.03796038005854345,-1.2718709862441506,0.21290266855299855,2.4938704988294176,1.5447595367100502
5866.666,0.32373577718074603,1.0450201231805902,0.037964985796254194,-1.271873531545493,0.21290058615907442,2.493869379851553,1.5447606556879148
5866.699,0.32373828272652205,1.0450226288303355,0.03796499469214763,-1.2718734553658553,0.2129026701781402,2.4938682999580393,1.5447694040607245
5866.733,0.32373828272652205,1.0450190898866911,0.037965672683667365,-1.271868443824951,0.21290267017204684,2.493867201235559,1.544768285082446
5866.767,0.3237332714189563,1.045025412567083,0.03796499465566543,-1.2718737104329323,0.212901652871146,2.493867141895824,1.5447694040607245
5866.799,0.32374106775834255,1.0450223096347317,0.03796496243046355,-1.2718762189659003,0.21290161294618698,2.493869379851553,1.5447595362140851
5866.833,0.3237357770727392,1.0450198847497487,0.03796717218272314,-1.2718742203096616,0.21290368578747115,2.4938692228681263,1.5447650298741127
5866.867,0.32373828272652205,1.0450148304132454,0.03796499747050371,-1.271871034439765,0.21290255170471598,2.4938693205118176,1.5447627919183835
5866.9,0.32373790297173616,1.0450200436951635,0.037969874543507906,-1.2718737700565044,0.21290460295608638,2.4938704988294176,1.5447672276028388
5866.934,0.3237357770727392,1.045021595650393,0.03796774367681858,-1.2718709578688154,0.21290165146290901,2.493869379851553,1.544763910896248
5866.967,0.3237332714189563,1.0450200433806651,0.037967769843514826,-1.2718736856640491,0.2129016484834669,2.4938682608736884,1.544768285082446
5866.999,0.3237357770727392,1.0450232669689534,0.03796499454735651,-1.271870960698535,0.2129016483744553,2.493869379851553,1.5447672678298419
5867.034,0.3237357770727392,1.0450169012535184,0.037962533063331784,-1.2718718680283598,0.21290356895130377,2.4938693797974962,1.5447639108964697
5867.067,0.3237382827265222,1.0450193990945351,0.03796574868102788,-1.2718759691714068,0.21290160391728083,2.4938682608736884,1.5447661488519773
5867.099,0.32374106678628084,1.04502012318059,0.03796316411832425,-1.2718685462124006,0.21290153445211454,2.493867141895832,1.5447692833797153
5867.134,0.3237357770728873,1.045012448942046,0.037962690620645986,-1.2718712129630012,0.21290251215918088,2.4938693798515557,1.5447694040627185
5867.167,0.3237357770727392,1.0450201221994437,0.037963165118177176,-1.2718764481764817,0.21290266579001219,2.493869379851553,1.544760655687923
5867.2,0.32373577707318363,1.0450254099506429,0.03796732710031762,-1.2718808875516034,0.21290267016001407,2.493869379905388,1.5447694040607245
5867.234,0.32374106678672526,1.0450178979405131,0.03796245382338822,-1.2718780280125164,0.21289947123102418,2.4938682608736884,1.544763910896248
5867.267,0.3237382827625243,1.045022617060616,0.03796245381759474,-1.2718732491389955,0.2129036874307526,2.4938682608736884,1.5447682850817657
5867.3,0.3237357770727392,1.0450179770858807,0.03796245392584913,-1.2718757509317675,0.21290058666266723,2.493867141895824,1.5447595367100502
5867.334,0.32373327141895636,1.045022625890932,0.037963410724765376,-1.271871666474994,0.21290165146290932,2.493867141895824,1.5447672678299158
5867.367,0.32373327142295655,1.045021913215226,0.037968142633042795,-1.2718707408973289,0.21290165292554336,2.4938704988294176,1.5447694171486583
5867.4,0.3237332714189563,1.0450200437077306,0.03796497152428108,-1.2718710259014954,0.2129016529248012,2.493870498990923,1.544766145673477
5867.435,0.3237357770727392,1.0450200963504255,0.037965047492100355,-1.2718693648980968,0.2129026306870052,2.4938725587659407,1.544761672940519
5867.467,0.32373828272652205,1.0450175910344914,0.037967822824994085,-1.2718759863308648,0.21290267017613385,2.493867143349374,1.5447694040607245
5867.5,0.3237077091580378,1.0450347472047428,0.03799307713352906,-1.2718463655752714,0.1801605394213075,2.4938413741764185,1.6521724222936829
5867.534,0.3235910675540934,1.0450201558057053,0.03798978021421995,-1.2718021490797948,0.17566613313108537,2.4938063279304687,1.6590847769886095
5867.567,0.3234469505426203,1.0449820515022,0.0379114413283439,-1.2717685106691414,0.16508206787815105,2.4938173859787094,1.675094650472361
5867.601,0.3233718129643739,1.0449612123650667,0.037883505209601154,-1.2717396412582112,0.15471610432371463,2.4938145918866796,1.694363171736983
5867.634,0.3233963629489196,1.0449390653067914,0.037806059045974116,-1.2717516579902313,0.14384564452326032,2.4938560154388254,1.7175138796594887
5867.667,0.32331332083093933,1.0449160088165197,0.037850820073673574,-1.2717171972181358,0.13273059328831227,2.493814864349887,1.744859181822683
5867.7,0.32373828272652205,1.045022548380367,0.037965540516297955,-1.271871187451911,0.21289947090800054,2.493869379851553,1.5447694040607245
5867.734,0.32373828272652205,1.0450251741485022,0.037967851682280764,-1.2718782820622372,0.21290526430284154,2.493869379851553,1.544763851724001
5867.767,0.32373899233202724,1.0450179774132102,0.03796561065756894,-1.2718755499794772,0.21290367426702994,2.4938682603891715,1.5447631451310933
5867.801,0.32373577739675974,1.0450226287253384,0.037964985778409926,-1.2718759610878425,0.2129036874307525,2.493867141895824,1.5447669188747482
5867.834,0.3237332714189563,1.0450204737967401,0.037964959904557484,-1.2718692434821666,0.21290367426703546,2.4938704988294176,1.5447694040607245
5867.867,0.3237357770727392,1.0450226288343676,0.03796180065998409,-1.2718757546811894,0.2129016529255415,2.493870498829344,1.5447672678298419
5867.9,0.3237417754192798,1.0450179655183367,0.0379649594769163,-1.2718795194714134,0.21290562021070053,2.493869379851553,1.544768285082446
5867.934,0.32373828272652205,1.0450218841442267,0.037965225789039214,-1.271874373473521,0.21290263068677828,2.4938682608756824,1.544768285082446
5867.967,0.32366316029812836,1.0449659073138298,0.03787738127585705,-1.2718480700947863,0.17840427261893232,2.493857935738988,1.5130270524040146
5868.0,0.32362657124411065,1.0449362737412278,0.03785758670983963,-1.271832830476881,0.17931141193474875,2.493863842321182,1.5027893738256424
5868.034,0.3234564330308336,1.0448907632627105,0.037760185722634176,-1.2717916526445272,0.17131229980310891,2.493878046358769,1.5045895239717382
5868.067,0.3233921276738583,1.0448552780999671,0.037713988255772435,-1.2717793030661717,0.16331278595621068,2.4938825342849613,1.5104584512369978
5868.1,0.3233876596079286,1.044849254030889,0.03768132756914522,-1.271756889557885,0.15505561214977348,2.493897495143906,1.5204611728260309
5868.134,0.32331550655904184,1.044826444325298,0.0377449340227054,-1.2717368456754432,0.14628342362715685,2.493891807939117,1.5354347298484567
5868.167,0.32332266068284277,1.0448190801516466,0.037737080865602124,-1.271729356172787,0.13775091334901823,2.4938931142799676,1.5516169393110957
5868.2,0.32331430114906023,1.0448134000371523,0.0377521741496647,-1.2717198730735575,0.1290301722381324,2.493891896228404,1.5699084114298172
5868.234,0.3233842043757784,1.0448163674035102,0.03768688776616003,-1.2717304217206609,0.12058194695938163,2.4939147751289683,1.5894996965870307
5868.267,0.323382774382063,1.0448094001316024,0.03768916244115683,-1.2717251066420552,0.11168246831979278,2.4939186879389323,1.6119326626053647
5868.3,0.3233136206332139,1.0448022451657604,0.037755578945142254,-1.2716935437040577,0.10181306916548394,2.493891700354312,1.638087032287741
5868.334,0.32338657026777895,1.0447846675568524,0.037679913255820985,-1.2717298586957169,0.092949961476255,2.493924806301531,1.6624987772387785
5868.367,0.32338141686411603,1.0447789403300787,0.037683319177422625,-1.2717250038225352,0.0834616278685294,2.493928319510263,1.689837114416509
5868.4,0.32332876455791926,1.0447918284761437,0.03772867219965814,-1.2716736619449147,0.07301660189493919,2.4938822132985647,1.7204086252575994
5868.434,0.32338428595316326,1.0447723521381045,0.037673842873672925,-1.2717176687608758,0.06352029764249778,2.4939444776905253,1.749253593631984
5868.467,0.3233187412705609,1.0447673635667272,0.03772823213382015,-1.2716776096063995,0.052534597866747745,2.4938692318909004,1.7827410157032997
5868.5,0.32331244435825024,1.0447617541650374,0.03772834668990388,-1.2716709889698148,0.042206389448392834,2.4938582850611626,1.8146648543063737
5868.533,0.3232968799072289,1.044759091735708,0.03773843112727526,-1.2716527227399563,0.03155349779162453,2.493841876540773,1.8480297577703944
5868.567,0.32335785782559867,1.0447618757202335,0.03767728647812607,-1.2716809102983664,0.021205565958328343,2.493925351526358,1.8809979138451993
5868.6,0.32334562050930593,1.0447449038010062,0.03767763927567458,-1.2716892142957432,0.01030375945228812,2.493935650977339,1.9153877091582672
5868.634,0.32334930707196285,1.0447384833924191,0.03766483356683725,-1.2716926757154354,-0.0007231964833369631,2.49395625629245,1.9504317218273162
5868.667,0.32335397397547805,1.0447320419156174,0.037654386019206676,-1.2716988191536256,-0.011874706239831667,2.493977476371829,1.985923663902252
5868.7,0.3233581948785016,1.0447252322888767,0.03764365372260148,-1.2717046600148452,-0.023240625557490624,2.494000455982442,2.022079176873806
5868.734,0.3233628402504509,1.0447184959928624,0.03763227384485823,-1.271711344460173,-0.034813419090093056,2.4940268964896335,2.0589625641427247
5868.767,0.32336896936844717,1.0447104236080555,0.03762146840593594,-1.2717181148584924,-0.046517206903338604,2.4940535517362408,2.096239831335833
5868.8,0.32331393078494663,1.044727784601391,0.03766564363985925,-1.2716477194888638,-0.05877998035343879,2.493892095516496,2.1348048361689926
5868.834,0.3233636470793346,1.0447027400443272,0.03762028237741788,-1.271704900403563,-0.07073049558308586,2.494048065383507,2.172791976278269
5868.867,0.3233683905241458,1.0446876345996419,0.03760110740307354,-1.2717216510168683,-0.08301845529473262,2.494077410233385,2.2116222137586146
5868.9,0.32337338335919874,1.0446777730215357,0.03758710860476455,-1.271731581900001,-0.09555508147729963,2.4941119934680787,2.2510674486617823
5868.934,0.3233136733529891,1.0446956570354606,0.037634096873008005,-1.2716451950011347,-0.10954660244467807,2.49390832853354,2.2944503562443703
5868.967,0.3232998251759964,1.0446920580910533,0.03764119256454368,-1.2716221487725425,-0.12293893376886533,2.4938567124635176,2.336133672057221
5869.0,0.3237357770727394,1.0450179773999133,0.037964615358568155,-1.2718731007385253,0.21290267017792555,2.4938682608736884,1.5447683243283026
5869.033,0.3237358033184058,1.0450201140227688,0.037965207926426554,-1.271869365839021,0.21290263068098614,2.4938704988294176,1.5447701610135038
5869.067,0.3237357770727392,1.0450201231803908,0.03796798029404445,-1.2718709752008017,0.2129026701781237,2.493869379851553,1.5447605963661246
5869.1,0.32374106678628084,1.045017250383884,0.037962533713040994,-1.2718709788049294,0.2129026696906034,2.4938671417343183,1.5447682850826676
5869.134,0.323733271422973,1.045017977364926,0.037968466923799335,-1.2718763046885169,0.21290368743052662,2.4938693798517746,1.5447584177321856
5869.167,0.32373577707273976,1.0450145919581797,0.03797246774543014,-1.2718764428114828,0.21290267017814846,2.4938704988294176,1.5447605350069065
5869.2,0.3237382827305223,1.045020123168453,0.03796711762322318,-1.2718735602511377,0.2129026701781402,2.4938682608736884,1.544770523038589
5869.234,0.3237332714189563,1.0450226190173089,0.03796316453930993,-1.2718760457357599,0.21290063550440608,2.493869379851553,1.5447642641089578
5869.267,0.32373828272652205,1.0450201130407313,0.037965678529052416,-1.2718711997226213,0.2129004638033421,2.4938704988294176,1.5447661488517501
5869.3,0.3237332714189563,1.0450226288222546,0.03796498913440166,-1.2718712557947083,0.2129016392140932,2.493869379851553,1.5447650298741127
5869.334,0.3237357858212947,1.0450176175226202,0.037964959484742995,-1.2718742245464258,0.21290263068091184,2.4938682608736804,1.5447627962810282
5869.367,0.32373899135966916,1.0450173777994183,0.0379649687108941,-1.2718684478009452,0.21290265685169604,2.493870498996905,1.5447661488519773
5869.399,0.32373828272652205,1.0450226020163709,0.03796566976540795,-1.271875960784731,0.21290048864212113,2.493871657053139,1.54476065574175
5869.433,0.32373830897218864,1.0450223904151956,0.037965669765996496,-1.2718783598616248,0.21290367426681528,2.493868273955641,1.5447674430293192
5869.467,0.3237332714189563,1.0450153657834702,0.03796271721225525,-1.2718737081987852,0.2129004886474808,2.493871618291799,1.544768285082446
5869.5,0.3237304873591975,1.0450200927228803,0.037970119930427725,-1.2718709535962285,0.21290231473979093,2.493869379851553,1.544768285082446
5869.534,0.32373828272652205,1.045020114349824,0.03796987475850768,-1.2718760457045133,0.21290367421197484,2.4938704988300824,1.5447682850824707
5869.567,0.3237364857058863,1.0450254118038138,0.037963479790148705,-1.2718730425685574,0.2129036742663694,2.4938682609295175,1.544760655687923
5869.599,0.32373577707275564,1.045017235666189,0.037964585766388184,-1.2718710287295822,0.2128995689224964,2.4938682608736964,1.5447629101404703
5869.633,0.3237382827625243,1.0450253834556944,0.03796496239439306,-1.2718693733973174,0.21290368742465923,2.4938704988294176,1.5447661488519773
5869.666,0.3237357770860734,1.045017352617275,0.037967178147721915,-1.2718736877522454,0.21290263014528857,2.4938682608736964,1.544768285082446
5869.7,0.3238786221872276,1.0450211558480937,0.03797207591154095,-1.2718600236514765,0.1815848888099545,2.4938882530582758,1.5342831360121778
5869.733,0.3237235820118931,1.0450046697811244,0.03803823455209443,-1.2718300906218163,0.17955512666364815,2.4938557550971057,1.5529579517228305
5869.767,0.3237385189375223,1.0450201230711198,0.03796774454155021,-1.2718718680647785,0.21290012005812697,2.4938704988353995,1.5447705215466563
5869.799,0.32373327152696313,1.04501987592765,0.03796806217407558,-1.2718730255693682,0.21290263068692816,2.4938704988294176,1.5447650298679814
5869.834,0.3237332714189563,1.0450226288343232,0.03796269068890801,-1.2718739690007963,0.2129023147576354,2.4938682608796703,1.5447661488519855
5869.867,0.3239178334185846,1.0450529578664938,0.0379989622152177,-1.2718836711017083,0.17758542588883142,2.4938754439973527,1.5874411849470027
5869.899,0.32385889354117925,1.0450434408687075,0.03799291003379679,-1.2718616766407056,0.17732585783203536,2.493853687105365,1.6015791820767395
5869.934,0.3236035357158533,1.0449941915875076,0.037960858038770695,-1.2718060065742147,0.16722429792814175,2.4938458339003082,1.6281273967122933
5869.966,0.3235130704746565,1.0449707941766242,0.03791769419899804,-1.2717846936821324,0.15782567967286631,2.4938445973990673,1.6537010712262132
5870.0,0.32345712381758496,1.0449568970806258,0.037906631799224044,-1.2717671879698589,0.14805151103021075,2.4938384266270175,1.6815145044712532
5870.034,0.32342123747915075,1.044947637313653,0.03790526709583997,-1.2717524643724545,0.13804369949505624,2.4938289676666114,1.7108212388771893
5870.067,0.32339601123821726,1.044941541583376,0.03790957903867653,-1.2717387755797844,0.12787847352986415,2.4938175435299827,1.7411848903754183
5870.1,0.32344534428096505,1.0449213490802487,0.037845594000604166,-1.2717723985828826,0.11784331184855557,2.4938582544248247,1.7718447786307117
5870.134,0.32337031972547425,1.0449257577036093,0.03790367765377489,-1.2717258971233152,0.10697908686519675,2.4937988969030593,1.8052278917542495
5870.167,0.3234302771133768,1.044904188595769,0.03783739934165631,-1.2717678824886374,0.09660358324175089,2.4938580306486555,1.8379199848204344
5870.2,0.3234268959228972,1.0449015816568439,0.03782943375457748,-1.2717690830768635,0.08574359337975057,2.4938714152095693,1.8723428462789755
5870.234,0.3233577314651148,1.0449092588209812,0.03788596865936622,-1.2717158814605813,0.07430474264700848,2.49378974323652,1.9084290164725886
5870.267,0.3233524646343451,1.0448931240909056,0.0378817880078417,-1.271713562434078,0.06296365355189337,2.4937614319890136,1.9447115104397632
5870.299,0.32333850058790237,1.044889353668661,0.03788929382577155,-1.2717010379962197,0.05141270820969979,2.493732787685615,1.9816954611278152
5870.333,0.323323042863211,1.044884009325152,0.03789528840763978,-1.2716886115171349,0.0396469041898424,2.493700964160074,2.0193620400461505
5870.367,0.32338031960221425,1.044883991966005,0.0378376415203201,-1.2717211798112968,0.02811282566126838,2.493817134328082,2.056768761362793
5870.399,0.32374106678628084,1.0450225228544097,0.03796777093680736,-1.2718737044549289,0.21290267017814846,2.4938704988294176,1.544768285082446
5870.433,0.32466780448178145,1.0453464924190206,0.03835246830801875,-1.2722361408438907,0.07575194695100684,2.493774917880308,1.9529448545638495
5870.466,0.3237357770727392,1.0450200957084241,0.037965196270822434,-1.2718684787111207,0.21290266969060348,2.493869379851553,1.544768285082447
5870.499,0.3237304876845515,1.0450200306203892,0.03796987537197654,-1.271873041176634,0.21290048864814967,2.4938682608736884,1.5447672678298419
5870.533,0.32374106678628084,1.0450179685830088,0.037967093264483304,-1.2718705217602715,0.21290160391728052,2.493869379851553,1.5447694171426767
5870.567,0.3237332714189563,1.0450201133690686,0.03796567409176313,-1.271874146652735,0.2129036874305297,2.4938682608736884,1.544763910896248
5870.599,0.32374106678628084,1.0450171532503723,0.03796340965034074,-1.271871207398288,0.21290364777702006,2.493869379851553,1.544761672940519
5870.634,0.3237357770727392,1.0450176165093055,0.03796733007202804,-1.271875533626038,0.21290161294685606,2.493869379851553,1.5447677387861023
5870.666,0.3237357770727392,1.0450226019679025,0.03796598657507591,-1.2718755509474822,0.21290231329522402,2.4938682608736884,1.544770640776159
5870.693,0.323738991359521,1.0450196764557742,0.03796495983283028,-1.2718739340544656,0.212898454140935,2.49386826087391,1.544767269283392
5870.732,0.3237410667862863,1.0450204830667107,0.03796853383719939,-1.27187665230647,0.21290266855297346,2.493869379851553,1.544770523038589
5870.767,0.32373828272652205,1.0450201218719462,0.03796496964907451,-1.2718743828504253,0.21289946700764073,2.4938704944687666,1.5447607735869904
5870.8,0.32373828272652205,1.0450148216928423,0.03796798452030011,-1.2718709494770106,0.2129036742610181,2.493869379851553,1.5447584177321856
5870.833,0.3237357770727392,1.0450169432850558,0.037965197321528386,-1.2718709863128557,0.2128994713954709,2.493869379851553,1.5447606556879148
5870.867,0.32373828272652205,1.0450176086963345,0.03796181040389062,-1.2718757877495055,0.21290104436729912,2.493869379851553,1.5447661488519773
5870.9,0.32373577707674495,1.0450124227412378,0.03796570776039271,-1.2718691664846,0.21290368596811768,2.493869379851553,1.5447694040786695
5870.933,0.3237357770727392,1.0450204820858646,0.03796269458654231,-1.2718762001709834,0.21290113954045914,2.493871617807282,1.5447650313276875
5870.966,0.32373828272652205,1.045019090033414,0.03796342722560735,-1.2718734890393224,0.21290368741269539,2.493868614086398,1.5447727609943174
5870.999,0.32379597341936517,1.0450026599466486,0.03804337859169493,-1.2718455254210514,0.18108914343789806,2.493889246195484,1.5139647265988483
5871.034,0.3237435349636133,1.0450182020896577,0.03805218543701283,-1.27182359962951,0.1792767396639139,2.493852016872162,1.5283421808008075
5871.06,0.3236397393340331,1.044977310823656,0.037917992011546886,-1.271848774310139,0.17113386556649068,2.4938438942973162,1.5354072451530945
5871.1,0.3235680550682831,1.0449646034477231,0.03787099451511988,-1.271835582637502,0.16216997369935182,2.4938529256463235,1.5461423996956158
5871.134,0.32348467528274316,1.0449716163368539,0.037903790127090886,-1.271786210811106,0.15223411839545342,2.493851064889557,1.562943323370571
5871.17,0.32346925802329096,1.0449671307308455,0.037901587545465354,-1.2717736536256519,0.14286762633532923,2.4938505032175344,1.5814743369414206
5871.201,0.3234589097015359,1.0449617875206458,0.03790923738528651,-1.2717582929948925,0.13339783957119788,2.493846682212536,1.602493549572495
5871.234,0.3235067007676786,1.044941368121088,0.03786393964842372,-1.2717760816746324,0.12400367520338573,2.4938619864577225,1.6250257335234233
5871.267,0.3235053890706876,1.0449343558825994,0.037858195840803965,-1.2717695647960676,0.11410808003769368,2.4938668732514033,1.6506600566559078
5871.3,0.32344015227176826,1.044932582324738,0.037911567939182156,-1.2717366315831224,0.10375571257575444,2.4938397957671947,1.6783257066342578
5871.333,0.323506136714804,1.0449132700643506,0.03784504467506977,-1.271772183739107,0.0938299588289162,2.4938755988214387,1.7057684691414208
5871.367,0.3237357770727392,1.0450124100340494,0.03796591534021004,-1.2718766494331457,0.21289945817765946,2.493867141895824,1.5447606556879148
5871.4,0.3237357770727392,1.045019407911372,0.037968046158152885,-1.2718710259014951,0.2129036478854377,2.4938682608736884,1.5447672721911572
5871.434,0.3237357770727392,1.045021913211205,0.03795967268083535,-1.2718755213091373,0.21290368743075158,2.493869379851553,1.544759536710272
5871.467,0.32373828272652205,1.0450154619358607,0.03796566979614211,-1.2718734559589526,0.212898391968957,2.4938682608736884,1.544770523038819
5871.5,0.3241092604033602,1.0451907403961807,0.03824843839839076,-1.271931542976235,0.1611454242790069,2.493775342140238,1.5924930397286081
5871.534,0.32366484654057626,1.0450745237993617,0.03807754714678868,-1.2717870519937273,0.16035029094128017,2.4937687889456983,1.5915870309765303
5871.567,0.3233010835096861,1.0449515527374995,0.037885285045737405,-1.2717079002230314,0.15031291853190165,2.493793072734424,1.606019182876751
5871.6,0.32310964243202367,1.0448867954639898,0.037794051772808146,-1.271654650730186,0.14021570785883686,2.4938027761338164,1.624170300674204
5871.634,0.32300366274313586,1.0448494153848964,0.037748750422131216,-1.271617291441137,0.12978127649876736,2.493806744863856,1.6460786508177323
5871.667,0.3229434981949355,1.0448270802721966,0.037728759316606464,-1.2715886106458516,0.11917841758460312,2.493805189851746,1.6712020670225645
5871.699,0.3237304873591975,1.0450120893927406,0.037967116648882776,-1.2718710353378595,0.21290267015942246,2.493869379797718,1.5447672678298665
5871.734,0.32374048736253536,1.045014824479261,0.037962772424449134,-1.2718734644635177,0.2129026211698758,2.4938682608736964,1.544766106954845
5871.767,0.32373577707274465,1.0450223894306099,0.03796574998018058,-1.2718709522104843,0.21290265652622029,2.493869379851553,1.5447694040607993
5871.8,0.32374106678628084,1.0450193803316234,0.037967746778956944,-1.2718755553566157,0.21290231473972773,2.493869379851553,1.5447670898106138
5871.834,0.3237410667862809,1.0450179409655393,0.03796529508475735,-1.2718737190360263,0.21290160375402273,2.493869379851553,1.5447584177321856
5871.867,0.3237357770727392,1.045020113985373,0.03796528684902484,-1.271871640996003,0.21289947139552076,2.4938660229119773,1.5447573118369378
5871.9,0.3237357770727392,1.0450176077153432,0.037964959471586665,-1.2718787242304985,0.21290164853761473,2.493869379851553,1.5447584177321856
5871.936,0.32373072357019717,1.045019883776827,0.03796503937919555,-1.2718735315488936,0.21290159952937296,2.4938704992600993,1.5447627325788698
5871.967,0.32373790297173616,1.0450201202325096,0.037965278082410986,-1.2718755225682432,0.2129036874307415,2.493869379851553,1.5447627917528404
5872.0,0.32373327154296416,1.0450246976342885,0.03796495984834139,-1.271871646663425,0.21290255170271238,2.4938682608736884,1.5447650298741127
5872.034,0.3237357770727392,1.0450176165443144,0.03796269058494438,-1.271870977708481,0.2129045634488216,2.4938704988832527,1.5447616729405216
5872.067,0.32374106678628084,1.0450200966527001,0.03796774746455074,-1.2718687586934967,0.2129036874247335,2.493867141895824,1.5447650493158875
5872.102,0.3237357770727392,1.0450201231644227,0.0379652226495168,-1.271878027068555,0.21290368743075253,2.493869379851553,1.544760655687915
5872.134,0.3237357770727392,1.0450193814337474,0.03796777124548893,-1.2718743771619738,0.21290267017807385,2.493867141895824,1.5447650298741127
5872.167,0.3237358043024689,1.0450145062024891,0.03797027950286104,-1.271870949376347,0.2129033305478202,2.4938704988294176,1.5447661488519773
5872.199,0.32368568082844806,1.0450196557046825,0.03799011423819021,-1.2718628046562444,0.18020320714701832,2.4938402232184815,1.6475836633824859
5872.234,0.3237235265478571,1.0450287263117444,0.03793862932761716,-1.271865219691449,0.1790881862709881,2.4938418296454268,1.6499210384644156
5872.267,0.3235792537406441,1.044988029733834,0.03785204459247993,-1.2718378272828064,0.1692704680613346,2.4938559527340685,1.664114859259148
5872.299,0.3235315146002131,1.0449721738519715,0.03781095480313379,-1.2718178698808034,0.1601993090128495,2.4938720698565424,1.6811676268898283
5872.334,0.3235167451742811,1.0449581980015532,0.037783270480854725,-1.2718084241938037,0.150759117786885,2.493885568044509,1.701927275844028
5872.367,0.3234434732737048,1.0449353139421529,0.0378298226113829,-1.271780079743074,0.14019959864777665,2.493845830481072,1.7286241082156852
5872.4,0.3234372707538826,1.044927664088278,0.03782916431588834,-1.2717682988177774,0.1302648978534915,2.4938408844702282,1.7562422060809126
5872.433,0.32349657238375773,1.0449280603107267,0.03777010366836908,-1.2717840332015458,0.1204366326967019,2.4938930047126453,1.784820983663387
5872.467,0.3234174340829883,1.0449194356012095,0.037837012280711235,-1.2717450766337617,0.10918016393668584,2.493828132880929,1.8181374294822916
5872.5,0.3234869637968325,1.044915585995125,0.03776199429572635,-1.2717725242392248,0.09959587702718586,2.493898621178725,1.8465659564501493
5872.534,0.3234865321375331,1.0449096504549837,0.03775501532033143,-1.2717694871878162,0.08891314900898362,2.49390747171629,1.8795052548849505
5872.567,0.3234952055703708,1.044905076350382,0.03774010213769596,-1.271770738738537,0.07820373792427215,2.493924298357837,1.9127530958147965
5872.6,0.3235027565043058,1.0449007851521932,0.03772622003523107,-1.2717721654912424,0.0672930778564238,2.4939416260893923,1.9468548920240334
5872.634,0.32343437817324094,1.0448961159214276,0.03778403490310822,-1.2717291508483228,0.05515220845646063,2.493835486794711,1.9846819994274156
5872.667,0.32349368438628545,1.0448753435995535,0.03772335355735734,-1.2717789594982456,0.04397496134236434,2.493941151148248,2.020261858842826
5872.7,0.32349294394692674,1.0448657769622898,0.037713317029638205,-1.271783507433982,0.032297567329614196,2.4939564267767915,2.057442688597911
5872.734,0.32349341578392643,1.0448615628514863,0.03770158792179501,-1.2717909579418016,0.02040776932899746,2.4939836714888246,2.0953145041876606
5872.767,0.3234428177480728,1.0448575446265123,0.03774274377635223,-1.2717370716759913,0.007309636530784758,2.4938389080628527,2.1367914903290934
5872.8,0.32373828272652205,1.0450168227856487,0.03796522254303884,-1.2718707408839294,0.212902314701606,2.4938682608736884,1.5447616727756486
5872.835,0.323733272391018,1.0450200956600217,0.03796255947864521,-1.2718756011289767,0.21290460294003918,2.493869379849559,1.5447705361205413
5872.867,0.32373577707275564,1.045022387472205,0.03796482438215621,-1.271873463836238,0.21290267001563348,2.493869379851553,1.5447638974688533
5872.9,0.3237357770727392,1.0450225228698928,0.03796485078879231,-1.2718691335574548,0.21290267017814846,2.4938682608736884,1.5447682850763147
5872.934,0.32374106678642894,1.0450246976382376,0.03796316447250499,-1.2718735683951514,0.21290267017814846,2.4938704988300824,1.5447650298741127
5872.967,0.3237332714189563,1.045022390415736,0.03796527937750655,-1.2718782659992154,0.21290048864814967,2.4938682608736884,1.5447694040607216
5873.0,0.3237383614635219,1.0450246888080101,0.03796808649631329,-1.271875549967727,0.2129026682259622,2.493869379851553,1.544768285082446
5873.034,0.3237357770727392,1.0450201231442513,0.03796504131578671,-1.2718685287407627,0.2129026701781457,2.493869379851553,1.5447661488520512
5873.067,0.3237305660961974,1.0450204830669396,0.03796507640335069,-1.2718734559590168,0.21290265701443406,2.4938682608737133,1.5447672678378175
5873.1,0.32374106678628084,1.0450201231804241,0.03796776983811981,-1.2718736846491276,0.21290058227669448,2.493869379851553,1.5447694040607245
5873.134,0.3237385189375217,1.0450147451152696,0.03796800790014707,-1.2718762357347297,0.21290368596804338,2.4938682608730236,1.5447627919183835
5873.167,0.3237357770727392,1.0450175909142763,0.03796499455940204,-1.271870949469229,0.21290267017814846,2.4938682608736884,1.5447595367100502
5873.2,0.32373828272652205,1.0450226170601509,0.03796506470350722,-1.2718768790365265,0.2129026696845835,2.4938682608736884,1.5447595367639593
5873.234,0.3237358033184058,1.0450173791068658,0.03796522259382526,-1.2718711884010223,0.21290267017812356,2.493869379851553,1.5447682850884277
5873.267,0.3237332714189563,1.0450219103066025,0.037967800662660346,-1.271873762077067,0.2129036434975329,2.4938682608756824,1.5447694040607245
5873.3,0.32373577707274465,1.0450219044198716,0.03796774466185656,-1.271878716675815,0.21290140417549336,2.493869733225768,1.5447639108962397
5873.335,0.3237382827265221,1.0450253301462806,0.037967090341440406,-1.2718712132771155,0.2129011790318253,2.4938682608736884,1.544762791919048
5873.367,0.32373828272652205,1.0450179773649266,0.03796458565841925,-1.2718709503052203,0.21290265701443314,2.493869379851553,1.5447616773031632
5873.4,0.3237357770727392,1.0450225228705583,0.03796495947142164,-1.2718709522418765,0.21290265696023752,2.493869321965368,1.544768285082446
5873.434,0.32373828272652205,1.0450200937421101,0.03796248017274223,-1.271873463556301,0.21290033789456222,2.493871439788076,1.5447714639968313
5873.467,0.3237382827305223,1.045019087089526,0.0379671780314431,-1.2718692175429558,0.21290267010525077,2.49386938033607,1.5447616729405436
5873.5,0.3237332714189563,1.0450226170606105,0.037965067626405266,-1.2718759607742667,0.2129026569963768,2.493869379851553,1.5447682850824431
5873.534,0.3238056025693261,1.0450032938863165,0.03794998433266361,-1.271884922737609,0.1815930239423098,2.4938696084000442,1.5768210240445732
5873.567,0.3237514429267021,1.045004444052906,0.03793624953599206,-1.2718792722121286,0.18052612729786421,2.493851688099544,1.5908215911955788
5873.6,0.3235723079197488,1.044961942592031,0.03782477148834751,-1.2718604510529214,0.16979921706856071,2.493854565845168,1.615624098564429
5873.634,0.32350867891390944,1.0449402720247685,0.03777390891433896,-1.2718509126838287,0.16039662789552445,2.493862964858164,1.63937487350477
5873.667,0.3234177977766963,1.0449444026176797,0.03780052747971219,-1.2717978452755023,0.14970237994514157,2.493841536208021,1.6682994107039288
5873.701,0.32339037202374943,1.0449408080502725,0.03779541494736538,-1.271784534509477,0.13953633401483234,2.493833403419498,1.696159014548079
5873.734,0.32336592855709156,1.044915276165626,0.0377978594064885,-1.2717845203527718,0.1284575512108077,2.493820671386625,1.728164367190626
5873.767,0.3234062826378281,1.044910771059107,0.03775143083707899,-1.271795129503447,0.11859183125930084,2.4938564579236724,1.7573238206149675
5873.8,0.32334294845499656,1.0449037153633665,0.03779270825960257,-1.271760781010765,0.10689758325538179,2.4938093164882043,1.7927901325115876
5873.833,0.32338726551131547,1.0448955930551564,0.037741082369675105,-1.2717903868414595,0.09596416568076904,2.4938703071503285,1.8257678159901012
5873.867,0.32338703008578307,1.0448859907742625,0.037729893407009385,-1.2717919679271779,0.0846607612257042,2.4938844503587267,1.861113167558985
5873.9,0.3237332714189563,1.0450223903794498,0.037964994997768384,-1.2718734550491386,0.2129004489944887,2.4938682608736884,1.544763851556513
5873.934,0.32373577707274465,1.04501547174748,0.03796774742866051,-1.2718685467300876,0.21290058503945242,2.493869379851553,1.5447606556879148
5873.967,0.32373327433558835,1.0450218341042807,0.037965704885937944,-1.271874402183177,0.21290147179258895,2.493869379851553,1.5447694040667062
5873.999,0.32373828272652205,1.045017534127418,0.03796709049379748,-1.2718742212661196,0.21290266969052918,2.493869375490902,1.5447606512121412
5874.034,0.3237357771105194,1.0450201231805902,0.03796248405993411,-1.2718684437067722,0.21290267012397682,2.493870439489904,1.5447697572734342
5874.067,0.32374106678628084,1.0450226288339246,0.03796499487215798,-1.2718709578636334,0.2129016038992236,2.493868260871695,1.5447661488519773
5874.1,0.32374357244006374,1.0450173526050068,0.0379634018916668,-1.2718716475888252,0.21290165291952523,2.49386837865313,1.5447627919369933
5874.134,0.32373578002492676,1.0450204830671443,0.03797025026752428,-1.271875963541239,0.21290367409850414,2.493869379851553,1.5447631451310935
5874.166,0.32373828272652205,1.0450197689849394,0.037965748793344634,-1.2718730411646655,0.21290059569425188,2.4938682608756824,1.5447661488519773
5874.2,0.3237431926897225,1.0450201231684766,0.03797093582397019,-1.2718684466461732,0.21290158929093056,2.4938682608736884,1.5447627919183835
5874.235,0.3237332714189563,1.0450198582347192,0.03796774451082646,-1.2718759978321066,0.21290058177116963,2.493870498828753,1.5447682849169029
5874.266,0.32373828272785543,1.0450179774120323,0.03796253700076176,-1.27186874992924,0.21290266968435861,2.493869379851553,1.5447606556879148
5874.3,0.32373585581023295,1.0450219135745982,0.037965196286407966,-1.271878793201725,0.21290367229880108,2.4938682608736884,1.5447595367100502
5874.334,0.32373828272652205,1.0450223638879852,0.037967823570928906,-1.2718718791017896,0.2129046024705514,2.4938694391912883,1.5447682850884277
5874.367,0.3237438174000634,1.0450126876620855,0.03796806467217204,-1.271878106466687,0.21290153445003387,2.493869379851553,1.544761672940519
5874.4,0.32373048735919807,1.045020483067161,0.037965669798075107,-1.2718730157597091,0.21290266969060348,2.493868260873713,1.544763790215239
5874.434,0.3237357770727392,1.0450251734903522,0.03796774365544502,-1.2718734579941557,0.2129035294661796,2.493869379851553,1.544761672940519
5874.467,0.3237382827400044,1.045015445268044,0.03796566986838645,-1.2718716721861933,0.21290231473980192,2.4938682739555667,1.5447627920799656
5874.5,0.32373828272652205,1.045022310833918,0.03796567073488371,-1.2718684437067307,0.21290368726793915,2.4938682608736884,1.5447631451310933
5874.534,0.32374106678628084,1.0450201142412554,0.03796577596234183,-1.271873968965645,0.21290231036995444,2.4938726643636806,1.5447693447205837
5874.567,0.3237357770727392,1.0450198847252232,0.037962454158405566,-1.2718760458445428,0.2129026701781402,2.493869379851553,1.544759536710042
5874.6,0.323740408625519,1.045022549030427,0.03796482145188062,-1.2718711887246186,0.21290160245464587,2.4938704988294176,1.544768285082446
5874.634,0.3237357770727392,1.0450173702774619,0.037962770477718184,-1.2718684446634843,0.2129023101332042,2.493869379851553,1.544768285082446
5874.667,0.32373327141896174,1.0450179773770394,0.037968050428222294,-1.271873457848568,0.21290231459534426,2.4938682608736884,1.544757298754321
5874.7,0.3237332714189563,1.0450194069436567,0.03796520046840477,-1.271876465322991,0.21290227526470962,2.493867141895824,1.544770523038589
5874.734,0.3237357780448009,1.0450176175268056,0.03796503872915993,-1.2718755982582641,0.2129036742670382,2.4938682608736884,1.5447682851362816
5874.767,0.32373828272652205,1.0450191665628283,0.037968155323977355,-1.2718761902563565,0.21290165226946525,2.4938682608736884,1.5447616729405929
5874.8,0.32373828272652205,1.0450198847606629,0.037967744507262355,-1.2718734638368692,0.2129016039112617,2.493869379851553,1.5447650298741373
5874.834,0.32373828272652205,1.0450226283983026,0.037962693937861544,-1.2718744612347348,0.21290063567294013,2.493867141949659,1.5447616729585378
5874.867,0.32373577718074603,1.045017608369439,0.03796504272277937,-1.2718707408506706,0.21290368743071675,2.4938693800130585,1.5447595367120441
5874.9,0.3237357770727392,1.045015462928829,0.03796869090770145,-1.2718766523721137,0.21289947138952553,2.493869379851553,1.5447650298741127
5874.934,0.32373828272667016,1.0450201221626563,0.037964962719198,-1.2718734559641387,0.21290368239278692,2.493869379851553,1.5447650298741127
5874.967,0.32373828272652205,1.0450194069423544,0.037963165565834,-1.2718737130646391,0.21290164837490155,2.493867141895824,1.5447737019529773
5875.0,0.3237062677865312,1.0450153228413388,0.037997361588025136,-1.2718621949959479,0.18007490693821815,2.4938397365722933,1.6557918485831111
5875.035,0.3237389913595212,1.0450138708533483,0.03797319556804925,-1.2718741692888,0.21290165287137233,2.49386941909741,1.5447628316487816
5875.067,0.3236770546727499,1.0450103377356932,0.037986575241820475,-1.2718762370763264,0.1767507012817262,2.4938248256763513,1.6536184605590005
5875.099,0.323645840326523,1.0450132176419782,0.03792271354385601,-1.2718394961355113,0.17248029728692238,2.4938336030501995,1.6569155587596356
5875.134,0.32354012543605215,1.0449692574984093,0.03783618381079901,-1.2718198184288703,0.1623762466764722,2.4938567953233823,1.6727675319553894
5875.168,0.3234943472190652,1.0449445022017612,0.037790502942757875,-1.2718030678137247,0.15234822912669088,2.493871686273457,1.691993315178947
5875.2,0.32347662574923763,1.044926817516414,0.03775918569617165,-1.2717910920321627,0.14203094073688316,2.4938870125763897,1.7147725824240014
5875.234,0.3233927352675048,1.0449118489906546,0.03781261935434621,-1.2717510304901953,0.1304170320660889,2.4938516783118745,1.7435992850050681
5875.266,0.3237383089726496,1.0450094667887713,0.03796709045772982,-1.2718734550147273,0.21290255170404995,2.4938682608736884,1.54476828508444
5875.3,0.32373648570573815,1.0450226285071669,0.03796496824457607,-1.2718710300929763,0.21290058520204172,2.4938693798516267,1.5447584505809677
5875.334,0.3237382827265385,1.04501750174973,0.03796567008498185,-1.2718710514346308,0.2129026701781457,2.4938705002829673,1.5447606556879148
5875.367,0.32374106678628084,1.0450226278168873,0.037964959832682596,-1.2718712810267374,0.21290368743052662,2.4938681431361185,1.5447595367100502
5875.4,0.32373828272652205,1.0450202446443944,0.0379671721814361,-1.2718734891671932,0.21290267017804937,2.4938716308892346,1.5447682850884277
5875.434,0.3237435987937372,1.0450168989963948,0.03796732742658013,-1.2718757595067347,0.2128994275164727,2.4938682608736884,1.5447615522595106
5875.467,0.3237357780449491,1.0450226287213191,0.037965672683103975,-1.2718762894388709,0.21289809417223235,2.4938693796900475,1.5447702002474
5875.5,0.3237382827265387,1.0450253334212491,0.03796255904692862,-1.271868447487108,0.21290148543782922,2.4938704988294176,1.5447705622844456
5875.534,0.323740408625519,1.0450201143448827,0.03796277860770215,-1.2718762129116459,0.21290368741068905,2.4938704988294176,1.544759536544507
5875.566,0.3237304873591975,1.0450200168529402,0.037959672692858604,-1.2718742288466274,0.21290163927427663,2.493871617807282,1.544770523038589
5875.6,0.32373790297173616,1.0450222814560026,0.03796496239972247,-1.2718760458056446,0.2129035689566541,2.4938660359999116,1.5447606551912851
5875.634,0.32373329766867803,1.0450175380176034,0.03796846583838552,-1.2718734579652164,0.2129006351833879,2.4938682608736884,1.5447716420164537
5875.667,0.3237357770727392,1.0450251731498443,0.03796245491235866,-1.2718788222058584,0.21290265701411204,2.4938693929335054,1.5447672678298419
5875.7,0.32373828272652205,1.0450223814746482,0.037962453817738016,-1.2718734578991293,0.21290117903182257,2.493866200937165,1.544763910896248
5875.735,0.3237382830505426,1.0450244579074108,0.037963190886856665,-1.2718741476994353,0.21290266529667962,2.493869379851553,1.544770523038589
5875.767,0.3237410667982816,1.0450226287213191,0.03796999131713022,-1.2718691325077007,0.21290231475184018,2.4938671420573293,1.544763910896248
5875.8,0.3238044188990079,1.0449942843684301,0.03794877973273092,-1.271861305280594,0.18146060379592033,2.4938967940410377,1.5474122659000633
5875.833,0.32372049331109753,1.0450129203353926,0.038015830853997734,-1.271823782314434,0.18001442341968854,2.493855862966053,1.5665064563231796
5875.867,0.32361548617695135,1.0449791554334151,0.0378804609668002,-1.271851200191386,0.17190971211274864,2.493855286927656,1.5805232645562795
5875.9,0.32353987124590766,1.0449726250713542,0.0378365648325687,-1.2718351420952239,0.16306205630424842,2.4938680346121282,1.596305638985851
5875.934,0.32345870289991385,1.044975212276828,0.03786446262775556,-1.2717897178285344,0.153743415214195,2.493849405185043,1.6169031349427891
5875.967,0.32350697744880996,1.0449547506599695,0.037802973178281185,-1.2718237926293803,0.14498788641838267,2.4938799573575805,1.6381553337618735
5876.0,0.3235017335247239,1.0449481882821603,0.03779990889297036,-1.2718151662502226,0.13568443126918428,2.493884560680571,1.6625230795594153
5876.034,0.3235061187958852,1.0449404045336097,0.03778687323940666,-1.271816841949847,0.12625378250067065,2.493893522343492,1.6881712034254592
5876.067,0.32351061606907816,1.0449369536690245,0.03777874216466337,-1.2718199481462484,0.11667824899736079,2.493903206340362,1.7153409340519863
5876.1,0.32351722938873984,1.0449306836573102,0.03777014769025033,-1.271821474097818,0.10697015873876214,2.4939133718197626,1.7439423324487322
5876.134,0.3235218235541977,1.044923470213348,0.03776447891189871,-1.2718139504352886,0.09703747661215356,2.4939108805281966,1.773497468205404
5876.167,0.32347375026458547,1.0449165304263914,0.03780542051753066,-1.271787061310718,0.08667251308939683,2.4938580280479874,1.8050082623971946
5876.2,0.32352782272359715,1.0449057983898529,0.037747906158886124,-1.2718245888791078,0.07677791146413782,2.493921819608633,1.8355384125264038
5876.234,0.32352797735515093,1.0448984768330236,0.03774360325445869,-1.2718258042821011,0.06638851311714067,2.4939264830790036,1.868118587187496
5876.267,0.32353483495435054,1.044890095810521,0.037730709545822805,-1.2718322261659623,0.055911009982138715,2.493941301660038,1.9011328879696467
5876.299,0.3235407437243518,1.0448817197898093,0.037719589044320934,-1.271838355000888,0.045264645257722336,2.49395595409812,1.9349563030421493
5876.334,0.32354579254416205,1.0448727436527605,0.037707432252984674,-1.2718449601226043,0.03439460044448328,2.4939726510276765,1.9696238322551185
5876.367,0.32355215294016926,1.0448641036159962,0.037695788730076174,-1.2718526329033262,0.023401399958501656,2.4939909590763287,2.004815773282047
5876.399,0.3235579863813518,1.044856056943563,0.03768460643978333,-1.2718600166813125,0.012241674001504776,2.4940113160283195,2.0405812649907347
5876.433,0.32356450368457157,1.0448442024298004,0.03767107541538817,-1.2718689193928423,0.0008600007011247968,2.494032303075863,2.0770101287444085
5876.467,0.32356755350049404,1.0448416557351896,0.0376625448089829,-1.2718769153917924,-0.01064968246096143,2.494059014097682,2.113948384826344
5876.499,0.3235806040177609,1.0448434998612104,0.037641764016623114,-1.2718720977798608,-0.022370166692215143,2.4940885505466825,2.151468669869036
5876.534,0.32358781190618835,1.0448363302492956,0.037626232519022196,-1.2718772331132824,-0.03430856020283812,2.4941199536355425,2.1895553174818883
5876.566,0.3235964681606118,1.0448307498138183,0.03761151021658993,-1.2718828755284362,-0.04637593915222826,2.4941527147522704,2.2280130729457017
5876.6,0.32360457149578004,1.0448252309477066,0.03759676002171819,-1.2718887624269382,-0.058644402590182665,2.494187629195136,2.267046802151045
5876.634,0.32361240662260915,1.0448192955873488,0.037581418285993706,-1.2718939538975995,-0.07114496525035463,2.4942258073338595,2.3066913812834944
5876.666,0.32354928623710943,1.044812609948229,0.03763450432571602,-1.271838134625531,-0.08412080193048865,2.494008011351359,2.3473086555372458
5876.7,0.3236130258533114,1.0448137753848243,0.03757484825784285,-1.2718885584664523,-0.09671735333016862,2.494237163275007,2.387408505795742
5876.734,0.32360570257300836,1.0447946580616474,0.0375700871699145,-1.2719041161170086,-0.10990451203537965,2.494277394840947,2.4287083511636443
5876.767,0.32361216433168316,1.0447862225104405,0.03755739209544107,-1.2719155395763737,-0.12314530939112256,2.4943284792914726,2.4702207390130617
5876.8,0.3237357780448009,1.0450204564670422,0.037962145537750416,-1.271871204563411,0.2129026701781237,2.4938708520421273,1.544768285082446
5876.834,0.32373828272652205,1.0450200131831249,0.03795967369169482,-1.2718658977383508,0.21290058666400694,2.4938704944687666,1.544768241637283
5876.867,0.3237357770727392,1.0450198052890018,0.03796246258675611,-1.2718759638230956,0.21290368737655618,2.4938682608736884,1.5447704467444763
5876.9,0.3237357770727392,1.0450194079246518,0.037965042666573454,-1.2718709534663373,0.2129036874307526,2.493869379851553,1.5447694040607245
5876.934,0.3237357780448009,1.0450225990710875,0.037967778719978744,-1.2718766495732827,0.21290368743074986,2.4938682608736884,1.5447650298741136
5876.967,0.32374357244006374,1.0450198023401294,0.0379652050166283,-1.271873489032421,0.21290266969030625,2.493869379851553,1.5447606556881364
5877.0,0.32373577998892433,1.0450198847481034,0.037970963521282874,-1.271875750896823,0.2129026653026987,2.4938704988294176,1.544770523038589
5877.034,0.3237357770727392,1.045022548271301,0.03796499459702275,-1.2718759865976572,0.21290267012397676,2.493869379851553,1.544762909656175
5877.067,0.3237357771087421,1.0450126078980813,0.037962569119046476,-1.2718739340196161,0.212903568794139,2.4938704988832527,1.544763910730705
5877.1,0.3237332714189563,1.0450173701648382,0.037962772802686284,-1.271870959228791,0.21290266967254626,2.493869379851553,1.5447650298741127
5877.134,0.32374106678628084,1.0450201231763974,0.037967827907576135,-1.271876190362464,0.2129026570144313,2.4938682652343394,1.544770523038589
5877.167,0.32373828272652205,1.045017378987097,0.03795970920029373,-1.2718734816205446,0.21290165292532123,2.493869379851553,1.5447638346022272
5877.2,0.3237382827265714,1.0450179770499908,0.03796781037010095,-1.2718730156586027,0.21290151912153357,2.4938693929335054,1.544770523038589
5877.234,0.32374106678628084,1.0450169019072166,0.03796316414255969,-1.2718788212609955,0.21290231475785087,2.4938682608736884,1.5447661488335835
5877.266,0.32373790298373695,1.0450201231442515,0.03796519724663308,-1.271878129036502,0.21290032475090312,2.493869381305103,1.5447650298741127
5877.299,0.32373577836882333,1.0450198749491826,0.037962542823145234,-1.2718709606985077,0.21290255170471045,2.4938682608736884,1.5447694040607245
5877.334,0.32373577998897374,1.0450200937407643,0.03797238102536343,-1.2718737195952987,0.21289833566948563,2.493867141895824,1.5447672678298419
5877.367,0.3237357770848881,1.0450167963071069,0.03796570516096622,-1.2718741438178118,0.2129026306870052,2.4938682608756824,1.5447584177321856
5877.4,0.3237357858212953,1.045022617060614,0.03796709175019376,-1.2718780307458333,0.21290165292554428,2.4938682608736884,1.5447650298741127
5877.434,0.32374106678628084,1.0450173673343217,0.037967848772620695,-1.2718735400624028,0.2129025517044215,2.493870459583561,1.5447672661923548
5877.466,0.32373577718074603,1.0450154717192135,0.037965748721562276,-1.2718684550457116,0.21290266871483648,2.493869379851553,1.5447714639968342
5877.5,0.3237357770740726,1.0450226287937974,0.03796530811378867,-1.2718768801057745,0.21290129750525508,2.493867141895824,1.5447682850824487
5877.534,0.3237417754192798,1.0450219135772734,0.037967093374496254,-1.2718717146662792,0.21290262116988404,2.493869384212204,1.5447672678357982
5877.567,0.32381249163914205,1.0449900162533625,0.03795096690695576,-1.271875099182263,0.1815778738462983,2.4938784256974023,1.564524147177421
5877.6,0.3236795460596493,1.0450080895240088,0.037998554500431325,-1.271818290846249,0.17947501876037997,2.4938493671579574,1.583165521367973
5877.634,0.3235581651052488,1.044962263203999,0.03784949554546824,-1.2718403007977228,0.17038209369597102,2.4938608268389677,1.6008763875471121
5877.667,0.3234857820980457,1.044948552297332,0.037805902180623185,-1.2718232927866095,0.16122477522505996,2.493872556269678,1.6208297217898364
5877.699,0.32346150597972123,1.0449348561546676,0.03777588816045174,-1.2718188981796876,0.15186502061323992,2.493883517505677,1.644403197342199
5877.734,0.3234515300408498,1.0449273996603283,0.03775993409668654,-1.271819037791607,0.1422998200343102,2.4938920847081762,1.6700349928780627
5877.767,0.3233915756232344,1.0449352801364427,0.03780122912929684,-1.271771570738287,0.1322489142636396,2.4938536480465645,1.6976082318595518
5877.799,0.3234436610062179,1.0449146289684288,0.03775198461854057,-1.2718003841152452,0.12262283769224602,2.493887568449124,1.7252732330034668
5877.833,0.3233867252455811,1.0449076451284798,0.03779746775184201,-1.2717702311654815,0.11219106423569514,2.493844449421725,1.7559309254845417
5877.867,0.3233688050616248,1.0449116215975458,0.037808531784309096,-1.2717559125768032,0.10193101940363736,2.493833201792431,1.7866000781433513
5877.9,0.3234277577861828,1.0448918205030795,0.03774941525686959,-1.2717950684766128,0.09181852266721258,2.493885158004251,1.8178592057803762
5877.934,0.32342602797103215,1.0448844048290535,0.03774196222891035,-1.2717949722133053,0.08123897906166366,2.4938931360062915,1.8505724868890336
5877.967,0.3234316263620949,1.0448749521224308,0.037728954723169394,-1.2718010856838378,0.07054960625522799,2.4939063651148237,1.8843020813705724
5878.0,0.3233766353627683,1.0448909837417437,0.037771688969282735,-1.2717406779150107,0.05868625438667063,2.493817870894765,1.9214746650008419
5878.034,0.3233649921699202,1.0448872076763678,0.037774133247662434,-1.2717251713859818,0.04729366937038204,2.493794037747553,1.9574133003879162
5878.067,0.32335214648674704,1.044886236104185,0.037780778624516564,-1.2717073500300797,0.03575344716142048,2.493763548123245,1.9941535088936035
5878.1,0.32333796925756,1.044882659263087,0.03778407676267559,-1.2716880624062217,0.023906457890290334,2.4937309138217527,2.0316301331811957
5878.134,0.32332208238709015,1.0448865228042443,0.03779201186539094,-1.2716708971481419,0.0119178183958768,2.493695338937461,2.069917362051079
5878.167,0.32331263477294225,1.0448657157882133,0.03779852567015762,-1.2716680724772482,-0.0002156575935083893,2.4936592140825438,2.1085737535965556
5878.2,0.32418433439203387,1.0452518105757864,0.03826681035329859,-1.2722121418947245,0.21291650481025376,2.4937784773684326,1.5448060177818215
5878.233,0.3241908016249241,1.0453404183801354,0.03829586035231757,-1.2722651357659103,0.2129185393154621,2.493764879935072,1.5448142394688391
5878.267,0.324197956676253,1.0453372059663844,0.0385629741351885,-1.2723046206418385,0.2129361399710137,2.4937902933792575,1.5456497275313232
5878.3,0.32423081076276644,1.0449179922413185,0.03905197748488168,-1.2719000996126695,0.21294283930657898,2.4940095282361536,1.5477498009728843
5878.333,0.32426252312742143,1.043662963558306,0.03927296247530415,-1.2698382773408883,0.21293522606882676,2.4959555085179916,1.550816212973211
5878.366,0.32413272216226174,1.0405775326747588,0.03900439777631952,-1.2655638232294733,0.21294158534275262,2.497542799611054,1.5526843837321351
5878.4,0.3238676967049514,1.0353799032035826,0.0388396991812283,-1.2620733879183395,0.21293064662053843,2.497685652768501,1.552689311100598
5878.433,0.323604499217328,1.0289052208174032,0.03841957598113225,-1.2578489159197441,0.21292349013234335,2.497982694422015,1.552692062200042
5878.465,0.3230876494214854,1.021655524922255,0.037836582654797904,-1.2534596452932032,0.21292562834608444,2.4982987671570758,1.5526966691737114
5878.5,0.3224972272232097,1.0141957922276388,0.03736988391194109,-1.2486826156050856,0.21292337524506966,2.4985862142763082,1.5527326360054832
5878.534,0.3220655250451673,1.0063762916877794,0.036974364611741785,-1.2445090289527638,0.21291142073605163,2.498844492187653,1.552724671048121
5878.566,0.3216727578037235,1.0002229467814652,0.03667522723455559,-1.2411173620572904,0.2129223448267444,2.499265287673979,1.5527560924905144
5878.6,0.3212797762484938,0.9966500416309241,0.036504357452635666,-1.23913859585451,0.21291243798865211,2.4996225812162227,1.5527660606752975
5878.634,0.3209638527280405,0.9971687864243782,0.03642104557094351,-1.23893143774704,0.21287983471155167,2.4997328478033682,1.5527719842438343
5878.667,0.32073593360997094,0.99854350573401,0.036414323219081814,-1.2394894012924202,0.2128904558835963,2.499642164008221,1.5527632531023015
5878.7,0.3210213607492372,0.9996738422046492,0.036578976129076006,-1.2397780589048866,0.21289956218012893,2.4995393455978974,1.5527621914979262
5878.733,0.32144889477698346,0.9999386293459394,0.036749240498949565,-1.2403044615794425,0.21291114761980118,2.499464400236735,1.5527722587101431
5878.767,0.3217317587530207,1.0003116239577734,0.037013089998871394,-1.24070576565511,0.2129172243045436,2.4994293493573356,1.5527743576155444
5878.799,0.32195119860297416,1.0009815709087282,0.037237276816561554,-1.2412132746390006,0.2129214893473454,2.499385884406145,1.5527696820247483
5878.834,0.3220496204534089,1.001503839060175,0.037296806412309064,-1.2416486867593313,0.21292148934801416,2.4993568351200124,1.5527721456201709
5878.867,0.32197823388574265,1.0017110378104106,0.03727593051916674,-1.2418867336579016,0.2129223881271886,2.4993546792666117,1.5527620924956747
5878.899,0.3218791397275877,1.001913130658274,0.03721802207618429,-1.2419620981387534,0.2129185393154621,2.4993622926488333,1.5527465674242307
5878.934,0.32182778547541757,1.0023109925808966,0.03719435756823473,-1.2421368688129684,0.2129234221279621,2.499350928149951,1.552741021931662
5878.967,0.3218250010010544,1.0026814669498973,0.03719435756823473,-1.2423678784511645,0.21292047209541,2.499339561424833,1.5527323128051227
5878.999,0.3218034377343744,1.003002030079323,0.03716794934449722,-1.2424443165568737,0.21291548755764866,2.4993429045677185,1.552725401939069
5879.033,0.32176237923744255,1.003275277049616,0.03714383239788326,-1.2425774314834124,0.212917520582141,2.49933413129709,1.5527132011718219
5879.067,0.3220725449173436,1.0033210290343098,0.03722295835653622,-1.2426117045352534,0.18027677491027205,2.499343697591349,1.649712687206911
5879.099,0.32194816949815586,1.0036609252949358,0.037193594467609614,-1.2427406381244301,0.1765119024936075,2.4992641042538297,1.6572212043737125
5879.134,0.32171578654695576,1.003792863233385,0.037162347526587425,-1.2427777968159823,0.16508670152426763,2.4992308996985146,1.6780310674216352
5879.166,0.321645033889272,1.0038555967640344,0.03713291035809263,-1.2427929095358996,0.15496331110944972,2.4992119453292547,1.7011872661127132
5879.199,0.32160748068726797,1.003869090323037,0.0371133461196651,-1.2427992280277742,0.1444162794938224,2.4991903350073263,1.7293786523966723
5879.234,0.3215795447118204,1.0038777823819416,0.037115369104839147,-1.2427954974065862,0.13373030550588716,2.499168889107863,1.7601712304448665
5879.268,0.3215584184070517,1.0038807585622376,0.037120719238058264,-1.2427893653722908,0.12294313607681229,2.4991461386841776,1.791732166668769
5879.3,0.321538902394658,1.0038792466511026,0.03712785026955512,-1.2427809215273156,0.11191659329750436,2.499121605475147,1.8248587334792035
5879.334,0.32159947640705866,1.0038837521994841,0.03705860462618471,-1.2428030557573173,0.10103374460576386,2.499184411442074,1.858221734004342
5879.367,0.3215228046162695,1.0038710480112973,0.037118497733072076,-1.2427688025295591,0.089425359139927,2.499097930938208,1.8938062170748715
5879.4,0.3215898104093444,1.003874929679963,0.037047648635938124,-1.2427956430618359,0.0782289029961225,2.49918287223925,1.9286662822543459
5879.434,0.3215911950469126,1.0038689026274197,0.037033399159611236,-1.2427954379085904,0.06655739500869462,2.4991952122642074,1.9650614674393587
5879.466,0.3215203416948693,1.003857496629501,0.037090906054282335,-1.2427561940181562,0.0544169751582535,2.499080689665127,2.002918671876479
5879.5,0.3215090741469506,1.003854501768318,0.037098539752619786,-1.2427449483628115,0.042286874387647444,2.4990483720142196,2.0410298205940656
5879.533,0.32157375112937814,1.0038537359599946,0.03703100134627224,-1.2427831946268864,0.030274448608941462,2.499168994144223,2.079234501726585
5879.566,0.3216851837760524,1.0075579521831695,0.03709564909454238,-1.2443083467483296,0.21290714855986376,2.499290408698694,1.5526624383271386
5879.6,0.3216848610185245,1.0077640284831237,0.03709764925100995,-1.2442951801868904,0.21290856569282907,2.4992879761857636,1.5526641709129254
5879.633,0.3216847789873157,1.0080650847343529,0.03709921289114776,-1.2442927511675068,0.21290561874805736,2.499290214061737,1.5526630665219403
5879.667,0.3216865716458608,1.0083626690559904,0.03710422299726911,-1.2443059615794396,0.2129075034947657,2.49927850714045,1.5526608302127114
5879.7,0.3216840659902807,1.0087001271643548,0.03710701978178024,-1.2443007849633596,0.21290749041325108,2.4992869255927825,1.552659811304678
5879.733,0.321678776276739,1.0090341552272937,0.03710151077278633,-1.2443110863033093,0.21290517189608163,2.4992822712611473,1.552661006576485
5879.767,0.32168657164406356,1.0093613882304753,0.0371088282533538,-1.2442957739629719,0.2129064794244964,2.4992789257367454,1.5526630665130083
5879.799,0.32168657164406356,1.0097536857214857,0.03710035433246799,-1.244298279628419,0.21290663746307342,2.499273097727034,1.5526664997405473
5879.834,0.32168657164406356,1.0100131359191689,0.03710111765559853,-1.2443522903877393,0.2129042468333526,2.4992521407778128,1.5526619475351437
5879.867,0.32169393678436503,1.0100138400185903,0.03710076918350942,-1.2443445744932744,0.2129071764159279,2.499231989196616,1.5526615550227338
5879.899,0.321694645417364,1.0098913105770293,0.037112245324931285,-1.2442801832399888,0.21290729474319225,2.4992213003136237,1.5526684613852813
5879.934,0.3217024407857178,1.0099014558434694,0.03712013153130479,-1.244295809295907,0.21290856580110176,2.499202517671671,1.552670679330043
5879.967,0.32173175001035215,1.0100120505578642,0.03713281797031729,-1.2443523699696817,0.2129034381687585,2.4991685301872826,1.5526659720828908
5879.999,0.32173433525206746,1.010016621424728,0.037127554594424725,-1.244342104597278,0.2129076145719972,2.499140312537915,1.5526637956670262
5880.034,0.32173433525206746,1.0099593230116737,0.03713813402150806,-1.2443168091502483,0.21290296462436864,2.4991249566730014,1.5526639105025908
5880.066,0.321773419816334,1.0100890385089762,0.03709142380210029,-1.2444059766721125,0.18055124214684604,2.4991653898671986,1.538361191701469
5880.099,0.3218220490599908,1.010060105884004,0.0371331568133213,-1.2443769908910376,0.18030022261628353,2.499130412542269,1.5532537484938693
5880.133,0.3217428138130589,1.0100506796585884,0.03714063967529102,-1.244376461808612,0.21290663697486525,2.4990376287910636,1.5526605404578064
5880.167,0.32172228650593215,1.0100055983662326,0.037087775312580895,-1.2443857608719284,0.16882712708698655,2.4991680397431955,1.5775903882814406
5880.2,0.3219161904188983,1.0100443165521238,0.03714965332540476,-1.244393859353603,0.17346523024324334,2.4991090744996045,1.5845966249687908
5880.234,0.32176688202965925,1.010167610168457,0.0371455522257231,-1.2444459929880036,0.21290843664923245,2.4989093072589426,1.5526659115236225
5880.267,0.32175802511738794,1.0101781895955402,0.03714342373504973,-1.2444410610447294,0.2129082146543963,2.498843436663478,1.5526589461663445
5880.3,0.321965030236365,1.010137822365004,0.03727793076371899,-1.2444178613109216,0.17425380701178295,2.4989747105805504,1.592634456144487
5880.334,0.3217244390198872,1.010131138985617,0.03712477053481978,-1.2444229647653142,0.212907482116961,2.4987668542841637,1.5526638086425666
5880.366,0.32170001435384415,1.0101548034935666,0.03711160644085241,-1.2444332657823842,0.2129104467816549,2.498725760024424,1.5526625389714235
5880.399,0.32186409397478943,1.0101612897034116,0.03724762638489931,-1.244426135148844,0.17916132724078437,2.4988549031898506,1.5865526771594176
5880.434,0.32173401321590944,1.010155038140229,0.03724248749037162,-1.2443859221447058,0.17849061499682328,2.498811205293813,1.5942433357884385
5880.467,0.32152583498210596,1.0101037950800444,0.037145773024387374,-1.2443456829553723,0.16887768099561118,2.4988266466565188,1.6148786815158402
5880.501,0.32142580949973265,1.0100784588879899,0.03711588647341024,-1.2443220367599022,0.1598715422365018,2.4988227484286503,1.6366469282219338
5880.534,0.32144486185182597,1.010048463524786,0.03701811269667754,-1.2443425957543175,0.15069417795326157,2.4988450564197118,1.6601640525460528
5880.567,0.3214206562523403,1.0100353312769004,0.037000454209437095,-1.2443381830330598,0.14104971000770927,2.498849590633861,1.685611405738003
5880.6,0.3214133032505151,1.0100224066141035,0.03697688724383941,-1.2443375482533572,0.1310417031463409,2.498859167030445,1.713299584985398
5880.634,0.3214127160622562,1.0100107211728995,0.0369589848577343,-1.2443390488755455,0.12083150873636139,2.4988679352447347,1.7426148428413946
5880.667,0.3214180355323544,1.009998387017066,0.036942557504463736,-1.2443438070257349,0.11049106564350097,2.4988754022977853,1.7730889581413898
5880.7,0.32142286524816743,1.0099886116437942,0.036927562642374845,-1.2443476678613496,0.09992244220640334,2.498885329711036,1.80468358083953
5880.734,0.3217379074104522,1.0097280866054066,0.037112975435679096,-1.244203499375728,0.2129046029580964,2.498535541796452,1.5526605360911712
5880.767,0.3219648413734362,1.0101540193936271,0.037189228385541284,-1.2445730133691457,0.10861754181839522,2.498694966678232,1.7853352497111654
5880.8,0.3218566825718874,1.0101322070294207,0.03715277883713508,-1.24438376978802,0.10575622662633055,2.498726274083107,1.7966900808905493
5880.834,0.32170520604051855,1.0100194705907333,0.03704831931432562,-1.2443647434996885,0.0952088951804555,2.498737134252667,1.821921970008633
5880.867,0.32162684156914256,1.0099696002502716,0.03698043094629799,-1.2443343088698091,0.08404079636250206,2.4987654339965006,1.8480333642238627
5880.9,0.3215922615307978,1.0099379018663477,0.03693795052721871,-1.244317579653412,0.07260469486221854,2.4987900297523984,1.8784938882539794
5880.934,0.32149528337729993,1.009917350212719,0.036996498133689215,-1.2442670670963958,0.05999405849883299,2.4987051016528907,1.9146183951793887
5880.968,0.32173471855791885,1.009853011416314,0.037096003842980625,-1.2442627998481415,0.2129040874441739,2.498452888025178,1.5526605360971555
5881.001,0.3217216334813519,1.0098452160483913,0.037090992535415444,-1.2442652260281672,0.21290475038225123,2.4984522998085006,1.5526582966340412
5881.034,0.32247245584737794,1.0102660355604867,0.03742746262011387,-1.2446238541846952,0.09279383142329056,2.498542937800086,1.8387590909404565
5881.067,0.3226294884034093,1.0103702459377022,0.03759205593413384,-1.2445245286895155,0.12148769940608695,2.498469253104349,1.7667230302971362
5881.101,0.3219516913586089,1.0100330195039984,0.03716361093835285,-1.2443593636537802,0.10368315361535618,2.4985701806465466,1.817638084083434
5881.134,0.3218369459963162,1.0099926411517899,0.03713577199189899,-1.2443426621827038,0.10186453585253297,2.4985235095517284,1.8115700715649545
5881.167,0.3217150158985529,1.0099527095643248,0.03702437548796933,-1.2443169225076822,0.09126308843796149,2.4985705610704345,1.8183677087414232
5881.2,0.32161761047720194,1.0099405118258362,0.03709537558541243,-1.244270406141462,0.08200026710632446,2.498495587818323,1.8298057562131333
5881.234,0.32168939875535774,1.009914272869647,0.03699741246911081,-1.244312828452954,0.07308388689310963,2.498585513834448,1.8432980774665815
5881.267,0.3216127790130576,1.009929011411482,0.03707207633011844,-1.2442360541849498,0.06262218044428014,2.4984970770258004,1.865138091436096
5881.3,0.32161600422851677,1.0099174165516924,0.03706262234476476,-1.2442317585639682,0.05296445075908007,2.4984979891740613,1.8880108696036864
5881.334,0.32160225663049324,1.009914020187657,0.03707322706584648,-1.2442113583234065,0.04291661605704267,2.498477028870858,1.9127584084166074
5881.367,0.3215933348333939,1.0099115327753632,0.037079139022515584,-1.2441948240100515,0.03275946146463138,2.498459567342734,1.9392738943399497
5881.4,0.32158282131588223,1.0099102741224417,0.03708793883459549,-1.2441790228739293,0.022498925738801745,2.4984359728275694,1.9666945392649104
5881.434,0.3215737373502776,1.0099068915480247,0.03709214961964946,-1.2441620946463443,0.012006165585704665,2.4984134051238938,1.9958981890989058
5881.467,0.3215632906441126,1.0099057613485538,0.03709924228950445,-1.2441458289365421,0.0013838182664756005,2.4983872136360583,2.026117805677547
5881.5,0.3215524927152007,1.0099051672123833,0.03710691124833776,-1.2441286020379367,-0.00937285502496188,2.4983582763274557,2.057181081217154
5881.534,0.321538455229879,1.0099093288049508,0.037116412625580075,-1.2441127298128158,-0.02032558130435813,2.4983271589935336,2.0892885441869105
5881.567,0.32152981720127727,1.0098882730773795,0.037125130366335135,-1.2441110015401842,-0.03144800705624462,2.498295087789878,2.1220297896614575
5881.6,0.32150398530822333,1.0098957231046626,0.03714482834637334,-1.2440877629717537,-0.04270271220930244,2.4982595580538893,2.155596817480543
5881.634,0.32149017531624935,1.0098924133287346,0.03715562852207377,-1.2440735984276579,-0.05414798572659052,2.498221293751544,2.189894929288254
5881.667,0.32147525728506565,1.0098898954361237,0.03716826797077921,-1.244057079331073,-0.06575922016086899,2.4981809716271934,2.224925853987326
5881.7,0.32145942006042905,1.0098882348244569,0.037181231359682876,-1.2440393008879447,-0.07753671583871569,2.4981383244927953,2.260436421135978
5881.734,0.32144445681074174,1.0098828538608808,0.0371924469690903,-1.24402479418002,-0.08951931593097484,2.498091537004661,2.2964938947489895
5881.767,0.3214239350355683,1.0098879780486554,0.03721130506949777,-1.2440023454315652,-0.10162600652474474,2.498044099032861,2.3331900580993654
5881.8,0.3214143353674128,1.0098721754699174,0.03721081144712457,-1.2439927034498117,-0.11395438295361693,2.497991211300376,2.3704933623114357
5881.834,0.3213988852852516,1.0098686542089803,0.03722110263680456,-1.2439745807242613,-0.12649606993501283,2.497940147844031,2.4083013809944216
5881.867,0.3213844434284292,1.009864036261324,0.037231988530434634,-1.2439580844382494,-0.13916963190434295,2.4978840722768476,2.446593493297593
5881.9,0.32136865284249794,1.0098596506575834,0.03724457951511617,-1.2439399637275095,-0.15202302286502878,2.4978238592118336,2.485348475338899
5881.934,0.3213529804362585,1.009853560746138,0.03725574852439539,-1.243919871898302,-0.16512268678060327,2.497762657862766,2.5247270590512088
5881.967,0.32141128335844105,1.0098405081178932,0.037190387040984874,-1.244000613323406,-0.17724192697283137,2.498049134544922,2.561459380082457
5882.0,0.321340444346105,1.0098436198924645,0.03726120322218396,-1.243902792631351,-0.19150555118819668,2.4977313401242904,2.604098991585996
5882.034,0.3213320778197577,1.0098506934486462,0.037265513501417935,-1.2438736821507987,-0.2051548960267766,2.4976745146743555,2.6447959181051104
5882.067,0.3213180619188485,1.0098483306113701,0.03727974072917917,-1.2438477661683391,-0.21896962601006553,2.497601488345121,2.6860691329286563
5882.1,0.3213031405842681,1.009846835015404,0.037294648709971234,-1.2438193880281307,-0.23299645749865583,2.4975230208481536,2.7278145171881008
5882.134,0.32128822354075837,1.009845517648846,0.037309038089583524,-1.2437913604529909,-0.24725909182708605,2.4974464220711825,2.770213053321479
5882.167,0.32127523715157125,1.009842885274952,0.03732493322539998,-1.243762952560174,-0.26164200485783606,2.497362426980339,2.812895048445508
5882.2,0.321258900371415,1.0098467498217403,0.037343277836822786,-1.2437356919289693,-0.27624200023324086,2.4972806435288577,2.8562421586413613
5882.234,0.32124620570586515,1.0098245022637284,0.03736282938111479,-1.2437205846654358,-0.29109194783530246,2.4971896032621634,2.900241673623981
5882.267,0.3214252321414506,1.0099377748697096,0.0374151258504849,-1.243854526095503,-0.2947221446647088,2.4973762766116527,2.897301695159653
5882.3,0.3215320486029549,1.0100017318338201,0.037450797617409215,-1.243899141208499,-0.29776010053029367,2.4973677884997576,2.897300180829726
5882.334,0.32158784121857664,1.010048166317799,0.03748275033080173,-1.2439250533752872,-0.3002308440731749,2.497361872502956,2.8973001738811064
5882.367,0.3216263397268273,1.0100846275419544,0.037510560949341354,-1.2439373713203175,-0.3019410116267096,2.497365091678687,2.8973002067249567
5882.4,0.32171884843984855,1.009780069050036,0.037085015901870896,-1.2442190901103773,0.21290007883638282,2.498417719749164,1.5526615533517536
5882.434,0.3217216334813353,1.009785359090627,0.03708853569896871,-1.2442241010908777,0.2129007850392184,2.498414817699756,1.5526605346436053
5882.467,0.3217268967039401,1.009787864417377,0.03708572633597603,-1.244226607071726,0.21290117683409776,2.4984197810873705,1.5526582976569094
5882.5,0.32171419799656065,1.0097878644294733,0.037085725362860505,-1.2442138003968355,0.21289972160371398,2.4984154831931242,1.552662318935464
5882.534,0.3217188490945441,1.0097825747038194,0.03708185457218805,-1.2442194499969483,0.21289905720949995,2.498415481739574,1.5526571660816095
5882.567,0.321724139135133,1.0097903700711435,0.03708501688708299,-1.2442215957641602,0.2128981711859121,2.4984144644870434,1.5526603791137208
5882.6,0.3217209182256146,1.0097854411798766,0.037085016010003934,-1.2442241014179258,0.21290063567294015,2.498416601201955,1.552662633063601
5882.634,0.32171876688369977,1.009785359744724,0.03708779999767401,-1.2442160558582822,0.21289976005413155,2.4984166007353834,1.5526557069729874
5882.667,0.3217216334450132,1.0097825747038243,0.0370825105724871,-1.2442215957628089,0.21289878844441737,2.498415834952284,1.5526539239552284
5882.7,0.32172163021085837,1.0097900101845725,0.03708277430895896,-1.2442241014179432,0.2128997201455965,2.4984166007174387,1.5526550427649413
5882.734,0.3217216334813021,1.009785358763727,0.037085015901887376,-1.2442215928207203,0.21289987762226392,2.4984166007174387,1.5526626723276242
5882.767,0.3217216334450132,1.009782574703819,0.03709030561541256,-1.244216297220284,0.21289972079364577,2.4984155210033756,1.552663436639229
5882.8,0.3217163437678047,1.0097853685750915,0.03708502498504582,-1.2442241014178934,0.21290063569318843,2.498415481739574,1.5526626723276242
5882.834,0.32172163336022275,1.0097878644187064,0.03708251316768177,-1.2442241014058302,0.21290064881446874,2.4984166007174387,1.5526594171192907
5882.867,0.32172160697649127,1.0097825747078564,0.0370857253627122,-1.2442190901103773,0.21290082246359585,2.4984177196953032,1.5526605360971555
5882.9,0.32172413913378894,1.0097853587999164,0.03708787882710747,-1.2442215162913006,0.2129016529255443,2.4984154816857385,1.552662672327402
5882.934,0.32172412899661634,1.0097853587637768,0.03709030853678446,-1.2442213563639861,0.2128987028932913,2.4984144644869692,1.5526605360971528
5882.967,0.3217188490944945,1.009782574703819,0.03708780093482881,-1.2442155907948258,0.21289871601582552,2.4984154817395736,1.5526550385723685
5883.0,0.32193724761110953,1.0098397392829774,0.03725307868779204,-1.2442156313667354,0.17969850908215967,2.4984259105056603,1.5398810100951108
5883.034,0.32190038525999665,1.0098414667459732,0.037269569482300646,-1.2441797815433802,0.17806630192547246,2.4984056531909618,1.5345487010444687
5883.067,0.3217381806002466,1.0097929425791108,0.037192707034261474,-1.2441396115467152,0.16793451724325603,2.498424809402951,1.5419920563156673
5883.1,0.3216748601005559,1.0097697334730684,0.03717378054109499,-1.2441104513917427,0.15869634495493212,2.498432613768622,1.5537170278184949
5883.134,0.3216438772443224,1.0097536195157577,0.03716877319228473,-1.2440870628650469,0.14910223735356443,2.4984399113105544,1.5706346034684984
5883.167,0.3216259656760645,1.0097442251018869,0.03717400775934632,-1.244069167938271,0.13941959938256776,2.498439864880555,1.590030798807251
5883.2,0.3216137205095544,1.0097381061366475,0.03718119856036761,-1.2440519875171345,0.12958828650579335,2.498438625069473,1.6118744544091275
5883.234,0.3216044849313411,1.0097316507617604,0.037187794287846465,-1.2440365818606862,0.11958796982471576,2.4984339588039477,1.635757363840666
5883.267,0.3215952230346595,1.009728220383007,0.03719613454187343,-1.244021496355356,0.10945957090347935,2.4984274934539554,1.6613759126364762
5883.3,0.3215829766748266,1.0097305347293002,0.0372074242250493,-1.2440069716038922,0.09918470813529279,2.4984194113695457,1.6885508669204325
5883.334,0.3215720669043787,1.0097280765550556,0.03721676096334914,-1.2439914503481537,0.08872938126558338,2.498407608373058,1.7173649659204706
5883.367,0.32156422411861296,1.0097062577225726,0.03722678570634308,-1.2439921536521261,0.0781164223088755,2.4983967898000925,1.7473835141571978
5883.4,0.3215529206781831,1.009702829605076,0.03723605753988757,-1.2439809214373456,0.06737017074256269,2.4983809415182394,1.7787942485945223
5883.434,0.3215265767900828,1.0097058628080688,0.03725571851522602,-1.2439623686783179,0.056407273121738655,2.4983627828386146,1.811348044676791
5883.467,0.3215131470952466,1.0097014277286327,0.037268006471916415,-1.2439497726648465,0.04531723823532818,2.4983421993744974,1.8448376787274015
5883.5,0.3214971712291659,1.0096978603830067,0.037280822445940665,-1.2439354583766358,0.03403762699385293,2.498319508764033,1.8792053635863688
5883.534,0.32147994661082624,1.0096939948076047,0.037293169593640485,-1.2439209924269923,0.022539057594777923,2.498294014173184,1.9144900685349135
5883.567,0.3215496582796096,1.009688966946154,0.03721601576785716,-1.2439567414570138,0.011970176256753895,2.4983919480031007,1.9475259523713149
5883.6,0.3214676758881616,1.0096865521776115,0.03729400507318381,-1.2439053214441742,-0.0006120071118553838,2.498269990926482,1.9863253960630907
5883.634,0.32153927720436215,1.0096804818906007,0.03721313421657513,-1.2439451499470806,-0.011547190971325172,2.498391171747195,2.02074991198743
5883.667,0.321458584814569,1.00967953006914,0.03728944054614214,-1.2438903578793479,-0.024516276448731666,2.4982491211529885,2.0607069584572493
5883.7,0.32153302566510344,1.009670700028983,0.037206510183002806,-1.2439400386350732,-0.03577394825747682,2.4983918634365763,2.0959234198900933
5883.734,0.32144865556150926,1.0096756612069528,0.0372859118664568,-1.2438762433966923,-0.0491675828403082,2.4982306081937606,2.1373045968241033
5883.767,0.3215102402916674,1.009655695983148,0.03721542191881877,-1.2439358142283492,-0.06089724307230515,2.4983985145946184,2.1737963866628327
5883.799,0.32144346607874574,1.0096533424477432,0.03727207584443981,-1.2438727309424111,-0.07469867196532398,2.4982064593133666,2.2161701593204555
5883.833,0.32149586943935127,1.0096420673563546,0.03721358007823916,-1.2439288455573392,-0.08692989349256308,2.498394118402076,2.254030259982688
5883.867,0.32170890828601095,1.0097878644173606,0.03707722086043423,-1.2442190105285014,0.21290007446209863,2.4984134048428586,1.5526626723276242
5883.9,0.32172413913513465,1.0097878644173606,0.03708779997765487,-1.2442215957641602,0.21290064879577345,2.4984154802142187,1.5526551177734607
5883.934,0.32172942884841504,1.009782574703819,0.037082513179695326,-1.244214160282958,0.21290067504366245,2.4984150088272257,1.552663786926893
5883.967,0.32170888179371004,1.009782574703819,0.03708185457100141,-1.2442215957641602,0.2129048874769348,2.4984154812550488,1.5526594171172972
5884.0,0.3217268966671511,1.0097879438902202,0.037085015901870896,-1.24421837485464,0.21289983825117306,2.498413417442326,1.5526560469422395
5884.034,0.3217241391351348,1.0097878644173623,0.03708779996162967,-1.2442241014179432,0.2128987028949951,2.4984154969875183,1.5526550036865692
5884.067,0.32171860707796296,1.0097903700711452,0.03708501594993002,-1.2442266070717205,0.2129006487957826,2.498414185945173,1.552659417119291
5884.099,0.32172413607056577,1.0097853587635777,0.03708779996162967,-1.2442190901103773,0.21290064006588577,2.4984140698305275,1.5526605360970818
5884.134,0.32171884647411625,1.0097853587635777,0.03708251026010278,-1.2442190901103773,0.21290075377843998,2.498410875378803,1.5526605317365048
5884.167,0.3217138348303622,1.0097861534921753,0.037092811305239795,-1.2442190901103773,0.2128997201455964,2.4984119452311386,1.552661553343778
5884.2,0.3217234238793975,1.009785358763594,0.037090314375523355,-1.2442215957601226,0.2129039763178764,2.498417234960554,1.5526539224837332
5884.234,0.3217163437678102,1.0097879438942596,0.03708251024808806,-1.2442241014179432,0.2128997201456787,2.4984162018882916,1.5526560558250464
5884.267,0.32172389155874054,1.0097878644173606,0.03708780093482698,-1.2442240925876253,0.2129002056905034,2.498415008683707,1.5526604936518136
5884.3,0.32172413880808604,1.0097878644173606,0.03708779997366154,-1.2442240219450835,0.21290290899409461,2.498410167299938,1.552651864018705
5884.334,0.3217188199858548,1.0097800700311879,0.037082510357556005,-1.2442215957641602,0.21290063567294287,2.498415067967396,1.5526528599504668
5884.368,0.32173406195911536,1.009769473030743,0.03714121668341708,-1.2441624018859363,0.1803438887160782,2.4984465080836875,1.5256722724048366
5884.4,0.32178358596322276,1.0097960595641329,0.037201160030618574,-1.2441622950937017,0.17913259454776576,2.498420524476253,1.534591876857208
5884.434,0.32171242818477097,1.0097653515458243,0.037084214511987845,-1.2441834867856407,0.17010180726544455,2.4984182865139557,1.5439113790610532
5884.467,0.3215940073165431,1.0097552055677363,0.037125057856221666,-1.244142701679178,0.16028334541978584,2.4984168915933394,1.5587003353725288
5884.5,0.32157647334597694,1.0097441221806935,0.0371127232177173,-1.2441386013675269,0.15104543306766782,2.4984178355497617,1.575865224376959
5884.534,0.321640241445313,1.0097437156598366,0.03703652384161504,-1.244145086741451,0.14188294704067683,2.4984384580553742,1.5948334081572693
5884.567,0.3215541952534,1.0097291001729891,0.037115639674153655,-1.2441112129491572,0.13185059442919034,2.4984204647927735,1.6181011088618238
5884.6,0.3215528492860509,1.009723479588371,0.03711402494582128,-1.24410355006066,0.12209430745110872,2.498416532387332,1.6416330936532928
5884.634,0.32154578978639314,1.0097302024441408,0.03711951827963933,-1.2440800780273555,0.112044017647011,2.498407573567648,1.6678540744148993
5884.667,0.3216006953089652,1.0097114509947236,0.03706595831659687,-1.2441157287375555,0.10227535233479923,2.498448817281644,1.6945625636777555
5884.7,0.32160134850489985,1.0097056467962284,0.03706002543588571,-1.2441120020625558,0.09208244053809622,2.4984565193220627,1.7232563277699757
5884.734,0.3216070366224413,1.0096987893819742,0.0370476195267635,-1.2441140633838952,0.08173944230227104,2.498468847315759,1.7527601454205524
5884.767,0.32161403240000297,1.0096920531496822,0.037036689052978744,-1.24411676429005,0.07124976872427258,2.498481459775518,1.7838581106084206
5884.8,0.321620465411109,1.0096862046718877,0.03702615463552039,-1.244119718811917,0.06059097671551594,2.4984955397721267,1.8158108440804455
5884.834,0.32162642882336456,1.0096797959910973,0.03701493902814956,-1.2441232396010502,0.04973567953112745,2.498510747575959,1.8487886853130533
5884.867,0.32163584222921493,1.0096725416400076,0.03700246657457029,-1.2441283757129256,0.03879070405639862,2.4985278449244452,1.882454596325955
5884.9,0.3215792387258638,1.009682779054267,0.03705140124784467,-1.244069369046132,0.027267985651476145,2.49842780373847,1.917955813949364
5884.934,0.3216334578332125,1.0096669039047734,0.03699842562993805,-1.2441261939627735,0.016164174158634026,2.4985340071132063,1.9528080972545112
5884.967,0.32163475174785106,1.0096616823266817,0.03699163246620163,-1.2441281939638795,0.0046566104761165406,2.4985475370554697,1.988795591061118
5885.0,0.3216398530926474,1.0096547080643834,0.0369782842475459,-1.2441349022514903,-0.0070493153392652275,2.4985727201044456,2.0254615210892517
5885.034,0.3215778316023288,1.0096518111258375,0.037028690632871175,-1.2440770178252256,-0.02002499479244424,2.4984419180265656,2.065805150099692
5885.067,0.3215705810783307,1.0096616441229367,0.03703133709117523,-1.244053239623482,-0.03231713235953215,2.498404047542814,2.1040534410979177
5885.1,0.3215541195767617,1.0096592067160461,0.03703898299007147,-1.2440319911198454,-0.04498387421012051,2.4983624205063313,2.1434663218335395
5885.133,0.32153651087901025,1.00965692617996,0.03704724606474308,-1.2440097796539336,-0.05791828999527571,2.498315369977603,2.1835205165533864
5885.166,0.3217216334812024,1.0097878684509625,0.0370903056514569,-1.2442190901103773,0.21290064004722076,2.4984129487262807,1.5526571733493608
5885.199,0.3217188493852544,1.0097878644294733,0.03708779996162967,-1.2442213573455811,0.21290063567294015,2.4984107135294975,1.5526626287211087
5885.233,0.3217216334813519,1.009786076962754,0.03708779996162967,-1.2442215866067936,0.21289976388837412,2.4984129514852267,1.552653923793723
5885.267,0.3217241391346862,1.0097853597447406,0.037082510249423585,-1.2442241014179432,0.2128987029112156,2.498410713367992,1.5526568259506304
5885.299,0.3217188218391258,1.0097878644173606,0.03707975246465668,-1.2442266070717094,0.21289871747399253,2.498411066598647,1.5526605360971555
5885.333,0.3217241391351348,1.0097825747401632,0.03709030561541256,-1.244226607071726,0.21289874242352716,2.4984118323458566,1.552653557660345
5885.366,0.3217241390987961,1.009785359744724,0.037087799961631494,-1.2442215957641602,0.212899759568322,2.4984107133859372,1.5526528033058145
5885.4,0.3217188490810357,1.009785359744724,0.037082510248088,-1.2442233860518437,0.21290165341357528,2.498410831105562,1.5526605360971475
5885.434,0.3217215540084922,1.0097825747039852,0.03709030561541256,-1.244219090001361,0.21289882099849214,2.4984119500834265,1.5526604399302713
5885.466,0.32171169234576974,1.009780069050036,0.03708501590192584,-1.2442215957641602,0.21290299405948623,2.498410713367992,1.552655042933093
5885.5,0.3208552594992007,1.0094234987207278,0.03659313265857822,-1.2440015772954078,0.17782404369110072,2.498476623996072,1.5574074860476763
5885.534,0.3210250378595525,1.009483827886731,0.03668808724792516,-1.2440338961685358,0.17869556350249471,2.498470857291591,1.5457295804348163
5885.567,0.32097810122263315,1.009487458761292,0.03665607088718481,-1.2440265589728536,0.1699651499728434,2.498478787551492,1.547889288748915
5885.6,0.32097025691561054,1.009473786133599,0.036637826967419684,-1.244018532840097,0.16170615306177094,2.498487814615138,1.554767056821106
5885.635,0.32097244003228376,1.0094610707300813,0.036628264024760604,-1.2440018184501431,0.15305080637308155,2.498488191059139,1.5669687662755933
5885.667,0.32098214478708353,1.009450247091845,0.0366200807166166,-1.2439988716035284,0.1443451209098603,2.4984954269957695,1.5830402633220366
5885.7,0.32092637938981206,1.0094547364779531,0.03667204170917859,-1.243958068501497,0.1345872878956218,2.498489338226901,1.6036857693962876
5885.733,0.3217163348280221,1.0097853587676318,0.037082510248236326,-1.2442190901103718,0.21289972451987418,2.498410713365998,1.5526582981414183
5885.767,0.3212629493715058,1.0094815735442335,0.03671670454173892,-1.2441148613561452,0.12926515144131034,2.498548140239568,1.6296451310627402
5885.8,0.32141317219890375,1.0096416540684672,0.0370181157125522,-1.24401327443442,0.13824346274278287,2.498416582171097,1.6282333941866671
5885.834,0.3213051311853192,1.0095497070550552,0.036806559877529565,-1.2440900828883805,0.12721994182599428,2.4984678500669633,1.6488525308818769
5885.867,0.3212333844863453,1.0095556902097265,0.03678952336571406,-1.2440551727116826,0.11837943097144787,2.49847144818657,1.663859946719068
5885.9,0.32121473237132214,1.0095379997675007,0.03675323326535285,-1.2440555194965093,0.10886026155033068,2.498487198860631,1.6840886790885614
5885.933,0.3212130113423113,1.0095265621836802,0.036737031795712305,-1.244050700462875,0.09923506891204692,2.498501116645838,1.7087539320953438
5885.967,0.3217194877101024,1.0097826015343825,0.037087800071097674,-1.244223147707288,0.21289768709848067,2.4984118323458566,1.5526540002491738
5886.0,0.32172692315850304,1.0097853620340655,0.03708502758023865,-1.2442241013089268,0.21289905720971394,2.4984107133679894,1.5526550429310992
5886.034,0.32171948771413983,1.009785438237783,0.03708779996162967,-1.24422159576416,0.212899721604652,2.4984107002858185,1.5526637913048242
5886.067,0.3217241391346862,1.0097825747056133,0.03707972618832923,-1.2442194499969317,0.21290007448009796,2.498410713367992,1.552655042933093
5886.1,0.3219943391366842,1.0098872234921235,0.03730877959794476,-1.2442367142587596,0.16123072942721173,2.4983552383249767,1.6329207983346974
5886.134,0.32167344715358137,1.0098109053932598,0.037208651285435046,-1.2441565788034312,0.1638598041787871,2.4983323690784465,1.630173246597458
5886.167,0.3213092433579625,1.0097110420390267,0.03703886129512046,-1.2440835869187898,0.15449607955585876,2.4983458423084164,1.64331163664942
5886.2,0.3211979971332557,1.0096395009855614,0.03686997900243494,-1.24407887325774,0.14515920077454236,2.498380562581759,1.6604515572880363
5886.234,0.321115520238032,1.0096019271615901,0.03681347202584817,-1.2440584641583232,0.1351936023847058,2.4983974988059634,1.6837681114747953
5886.267,0.32108130740661966,1.0095733764322032,0.036773808361937554,-1.2440537613606768,0.1250537355010879,2.498407922564753,1.7096807363670345
5886.3,0.32106397352073746,1.0095547820625734,0.03674583257074815,-1.2440507130321752,0.11458206147918126,2.498420107026752,1.7370160211867471
5886.334,0.3210562954583782,1.0095450253092082,0.036726094310321145,-1.2440503561318614,0.10386468077461775,2.498435438177842,1.7665461177827773
5886.367,0.32097856699443206,1.0095482829529034,0.03679301118383105,-1.2440001059859576,0.09262694284976813,2.4983827063838957,1.7984731790526407
5886.4,0.3209702310793041,1.009529751871046,0.036787181755973286,-1.2439949502742413,0.08137699038271418,2.498363308391016,1.8309220136842406
5886.434,0.32095305725243417,1.0095240190675216,0.03679690786727807,-1.2439819520658855,0.06992624445972151,2.498341274848406,1.8644736176410461
5886.467,0.32093747724830823,1.0095172596390052,0.036805271181300725,-1.2439700455907259,0.05831232666796282,2.4983171620774245,1.8992451139456428
5886.5,0.32092036902755794,1.0095102868835495,0.03681348059269318,-1.2439568047741423,0.04644966207525325,2.4982900909506247,1.9350611555417778
5886.534,0.32098027978017196,1.0095090535608708,0.036746382635979735,-1.243984809605287,0.03468661719024091,2.4983873825401277,1.9713207051213217
5886.568,0.32171312187609774,1.0097853587635777,0.03707722053454633,-1.244221569273207,0.21290007448009704,2.498407517499369,1.5526626723276231
5886.602,0.3217240533415601,1.009788668303324,0.03708779996162987,-1.2442141602833565,0.21290064880177476,2.4984105954689158,1.5526550429324275
5886.634,0.32172692319085594,1.0097853587635777,0.03708779996162987,-1.2442190901103773,0.21290063719170324,2.498405398223135,1.552661553349757
5886.666,0.3217138381008688,1.0097825748491738,0.037085015901870896,-1.244224092571475,0.21290063572694357,2.498410711914442,1.552658296196713
5886.7,0.3217217549089507,1.009782574703819,0.03708779996162967,-1.2442194499969483,0.2129006358369591,2.498407534291212,1.5526571399177052
5886.734,0.3217216069903987,1.0097847204710308,0.03708501593791526,-1.2442190901103767,0.2128991753150766,2.4984065040592305,1.5526518640107296
5886.767,0.32172405966227513,1.0097878676878485,0.037085015901920336,-1.244215589809697,0.2128987028930672,2.498411474772495,1.5526539239552284
5886.8,0.32172413913513476,1.009782574703819,0.03708251024813744,-1.2442241014179432,0.21289972016359784,2.4984053981692997,1.5526551192263738
5886.834,0.3217188492762381,1.0097878644173606,0.03708501622641833,-1.2442213573455811,0.21289870436909458,2.498407592321844,1.552661553347766
5886.867,0.32116759339483814,1.0096037691614317,0.03685740768788914,-1.2440574125351818,0.17619932004166028,2.4984194940275932,1.5442080443191122
5886.899,0.32171634376645886,1.0097853675938953,0.03708779996162967,-1.244226607071726,0.21289870289575782,2.498408653424822,1.5526623177149776
5886.934,0.3217241361795771,1.009782574703819,0.03708501590187096,-1.2442190901103773,0.2128987029469957,2.4984117145524567,1.5526560558243818
5886.967,0.3217163434407596,1.0097800778803536,0.03708463863061185,-1.2442190897712153,0.2129006361590451,2.4984082813255952,1.5526516855149826
5886.999,0.32171884942024725,1.0097853587636292,0.03708779996162967,-1.2442241014179432,0.21290224751607992,2.498406123288883,1.552651685945664
5887.034,0.3217187699487279,1.0097878644173606,0.037085015902315895,-1.2442215957641602,0.2129049268401777,2.498411474712597,1.552656825950852
5887.067,0.3217163055030502,1.0097879438902202,0.0370825102480882,-1.2442188516916488,0.2129016986224415,2.4984102424157184,1.552659403821112
5887.1,0.3217163436586389,1.0097900101845725,0.03708779996162967,-1.2442215957641547,0.21289972030760668,2.49840851850009,1.552661548989109
5887.134,0.3217212781121854,1.0097855971862164,0.03708525238881799,-1.2442241014179432,0.21290063584117397,2.498405064888741,1.5526615489868927
5887.167,0.3217216325001495,1.009790370071144,0.03709030561541256,-1.2442215957626648,0.21290063572694448,2.498406121602687,1.5526571660816013
5887.2,0.3217213950614269,1.0097878644178109,0.037082510248088,-1.2442190901103773,0.2128997201455964,2.4984096770331017,1.5526605359356491
5887.236,0.3217187611184157,1.0097903710932643,0.03708509473218823,-1.2442266069626933,0.21289905726949554,2.4984101898684825,1.552657943313661
5887.269,0.3217234150369669,1.0097878909083193,0.037082510248088,-1.2442208775649835,0.21290063713103546,2.498405417662991,1.552659417119291
5887.299,0.3217163437678102,1.0097903700711932,0.03708501590201922,-1.2442240885540234,0.21289983825176298,2.4984096142686285,1.5526517404940672
5887.337,0.3217161053487819,1.0097931570756873,0.03708779996162967,-1.2442241014179432,0.21290519673858052,2.49840947876548,1.552659417119291
5887.367,0.3217294288470691,1.0097855971835026,0.037085015901870896,-1.2442215957641602,0.21290200772807832,2.498405993914853,1.5526571791635617
5887.4,0.3217188494215931,1.0097860743463636,0.037085015901920336,-1.2442241014179425,0.2129007830950953,2.4984085355296566,1.5526539239552284
5887.433,0.3217141715091946,1.009785358763727,0.037085015901870896,-1.2442293911314848,0.21289972452054087,2.498405086189722,1.5526582980935728
5887.468,0.3217188493811429,1.0097925158383554,0.03708504217821483,-1.244219087166938,0.2128997332684297,2.498406064242361,1.5526571791628971
5887.5,0.32172162463892123,1.0097800691590522,0.03708779996164617,-1.2442163060506184,0.21290169862510547,2.498408464399143,1.552658373950855
5887.534,0.3217491020798917,1.0097918608690097,0.037057282435459804,-1.24424259596959,0.18024585324187914,2.4984055777493888,1.657459395441153
5887.567,0.321656028146057,1.0097737763180064,0.037045546940847274,-1.244200339685971,0.1763268541672316,2.498371208572931,1.6635347733376085
5887.6,0.32152292725901965,1.009728865144024,0.03694769423623345,-1.2441779333884817,0.1657375757311419,2.4983943518024008,1.6800091164872324
5887.634,0.3213943980419147,1.0097080153372255,0.0369759750876657,-1.244131942201994,0.15523925014420215,2.4983796450919487,1.7018623186783008
5887.667,0.3213602051486264,1.0096908210830824,0.036967258301331185,-1.2441124508630823,0.14479629349325585,2.4983790654062075,1.7272326405837823
5887.7,0.32133481032802713,1.0096775344306845,0.036974069896635875,-1.244094121660206,0.13415148329963333,2.498371325445542,1.756799015078201
5887.733,0.32131247287136677,1.009668181521282,0.03698262957902276,-1.2440782581363408,0.12326588966046881,2.498359476812305,1.7876203537970277
5887.767,0.3212937587820921,1.0096612759381882,0.03699357876011167,-1.2440640105684526,0.11226409950085525,2.4983435965205762,1.8199541982342673
5887.8,0.3213521004817528,1.0096403041802082,0.03692494237711319,-1.2441014080855446,0.10140352295034827,2.498401455340878,1.8524561159575867
5887.834,0.32135144349171707,1.009629908692089,0.03691158232943703,-1.2441035930175897,0.09008668716101553,2.4984138865158387,1.8870180431649466
5887.867,0.3213572288910944,1.0096177563244506,0.036895586661482405,-1.2441106718456725,0.07865035451666547,2.4984274241305053,1.9222968808328673
5887.9,0.32129833159978194,1.009632658933163,0.036942598661456216,-1.244049118843689,0.06598125771981778,2.4983351793062782,1.9613119134665062
5887.934,0.3212838356036771,1.0096286218917703,0.03694687136331254,-1.2440307380819728,0.05376776291163221,2.4983065308165058,1.9990337303432284
5887.967,0.3217187333192617,1.0097878644294733,0.037082510248088,-1.2442194499969483,0.21289871617805806,2.498405282412281,1.5526570614259918
5888.0,0.32172413880806944,1.0097853675952413,0.037088509422470974,-1.2442215957641103,0.21289803995691314,2.498406080182787,1.552655042933093
5888.034,0.32268151178138993,1.0101874907416866,0.037534913044754425,-1.24448492210818,0.123438388075364,2.4982824205476577,1.8252278601259597
5888.067,0.32171634376646246,1.0097853587756904,0.03708504217819835,-1.2442241014177937,0.21289870337924532,2.4984070640281177,1.5526569908881056
5888.1,0.3217216334772975,1.0097856858123848,0.037082510284280674,-1.2442190901103276,0.21289870289328855,2.4984060627348743,1.5526605360971555
5888.134,0.32171884942024725,1.009782574703819,0.03708779996162967,-1.2442169443310525,0.21289988394422013,2.498404966989687,1.5526594171192882
5888.167,0.3217188405908267,1.0097825747038243,0.03708251024853299,-1.2442215162913006,0.21290417883815735,2.4984091631566545,1.5526605360971528
5888.201,0.32172163315430313,1.0097853587635777,0.03708779999767401,-1.2442215954371114,0.21289870435108754,2.498405958078362,1.5526528047979133
5888.233,0.32171876696888896,1.0097853587640269,0.037085015901870896,-1.2442190812800595,0.2128997201455964,2.4984059582937026,1.552652804977142
5888.267,0.32171884942109463,1.009785358765372,0.037085015901870896,-1.2442190106375157,0.2128997217657075,2.4984049277677323,1.5526614312508007
5888.3,0.3217188229306399,1.0097853852545806,0.037085015901870896,-1.2442215868975037,0.2129006494438147,2.4984062982091197,1.5526611986815058
5888.333,0.32171884647680804,1.0097878732476782,0.03709033189175649,-1.2442215957641602,0.21290063569094952,2.4984059450023914,1.5526594934129407
5888.367,0.3217234238780018,1.0097853587635777,0.037085015901870896,-1.2442163060506184,0.2128987072672712,2.4984062987115814,1.5526571747962645
5888.4,0.321716700710942,1.0097853591996426,0.03708502466064732,-1.2442293911314848,0.21289975956812476,2.498407064458791,1.5526582966878761
5888.433,0.3217234235523486,1.0097853588725958,0.037085015901870896,-1.2442190901103773,0.2128997245218993,2.49840594499641,1.5526594764583534
5888.467,0.32169792418331866,1.009713631791211,0.03699675265616875,-1.2441668456988122,0.18021926844820246,2.498446623369433,1.5414176621759363
5888.5,0.321738445381035,1.009731699702023,0.037032002583590184,-1.2441676586265604,0.17976457214984798,2.4984334151329923,1.5512378190586142
5888.533,0.3216084979650402,1.0097078395487884,0.03695800731001153,-1.244158142938545,0.17095417199256957,2.498418977658811,1.5644620661616928
5888.566,0.3215631501972016,1.009699994253749,0.03690612481795963,-1.2441450681873878,0.16225025742735966,2.4984369996761098,1.5776341547093153
5888.6,0.32146561693434883,1.0096879512760228,0.03697468896924594,-1.2441118488120377,0.15239950630300125,2.4984294211551434,1.598235872259047
5888.634,0.3214585283839444,1.009681984621487,0.03697246779088914,-1.2441047477363343,0.14329825293367993,2.498423533060463,1.6182942172136423
5888.666,0.3214421628579709,1.0096755569200937,0.03698337274440533,-1.2440939618110107,0.13376403238478396,2.4984205636279144,1.6408226953301535
5888.699,0.3215084989020225,1.0096563407772496,0.03690994721805296,-1.2441235647352773,0.12454136958099404,2.4984439900127553,1.664423598893082
5888.733,0.32143351659629005,1.0096761986307046,0.036980720318209315,-1.2440681825903415,0.1138761770565555,2.498408780827508,1.6926983232424453
5888.767,0.3214316687868273,1.0096701413354836,0.03697597399120234,-1.244059612988944,0.10389457852003137,2.4984041530833965,1.720495800362409
5888.8,0.3214211307554491,1.009647742145951,0.03698812283440045,-1.2440596431781703,0.09362076799262109,2.4983917637704147,1.750038663126194
5888.834,0.32140900288920893,1.009644818281033,0.03699537414441956,-1.2440476605382909,0.08318563184277217,2.4983778835546024,1.780525337780361
5888.867,0.3214618941576397,1.0096326502115103,0.036932299231175136,-1.2440831447548577,0.07300693329543861,2.4984321636764664,1.8110690828575784
5888.9,0.3214622021524054,1.0096246212347673,0.03692449573539225,-1.2440843828235444,0.06238987328921386,2.4984391482757387,1.8432347414731662
5888.934,0.3213899495265764,1.009632221322394,0.03699177909047968,-1.2440333239115962,0.051244959047065386,2.498360577888259,1.8770135204578402
5888.967,0.3214602586637243,1.0096105375486344,0.03691639641765576,-1.244083899767248,0.04057530405434129,2.4984458386706505,1.9101847422523335
5889.0,0.3213938871318014,1.0096284163184066,0.03697466338711575,-1.2440155454971036,0.028415074607474722,2.4983406515859476,1.9476610293224184
5889.034,0.321382319914866,1.0096244552692726,0.03697711213842858,-1.244000661327302,0.016816401951248672,2.498316788449503,1.9837350413082646
5889.067,0.3214300760333364,1.009605312558988,0.036926493688997475,-1.244052098643781,0.005377653735163079,2.498432252479316,2.0198128464951743
5889.1,0.3214286961152757,1.0095980376358638,0.036915295964407235,-1.2440546346616355,-0.0065280938886074225,2.498452374515094,2.0570724388610664
5889.135,0.3213643798431276,1.0095920103012332,0.03696428119712891,-1.24400091586772,-0.01967474337191888,2.4983043583034066,2.097836205593973
5889.167,0.32141736292951606,1.0095819923862281,0.036905564023753,-1.2440502985794675,-0.031291735768220974,2.4984587749135736,2.1343289437079402
5889.2,0.32135218399681964,1.0095782649621956,0.03695885629162454,-1.2439915960322327,-0.04487184335591188,2.4982842556002867,2.1763725853137306
5889.233,0.3213381841337002,1.0095725495599854,0.036964366711703,-1.2439800180071892,-0.05795715716476213,2.4982408998486187,2.217014553803999
5889.267,0.3213381841337002,1.0095725495599854,0.036964366711703,-1.2439800180071892,-0.05795715716476213,2.4982408998486187,2.217014553803999
5889.3,0.32132130468755804,1.009569476223695,0.03697592433879926,-1.2439567792686699,-0.07120565902915832,2.4982007053043658,2.2581543693103114
5889.334,0.32138350809132454,1.009622622017015,0.03701828393693951,-1.2439793459522521,-0.07952140381488437,2.498150852796612,2.2744998542945094
