yuan18844-afk/dissertation/catkin_ws/src/franka_digital_twin/analysis/data/gazebo_slow3_20250728_065324.csv
time,panda_joint1,panda_joint2,panda_joint3,panda_joint4,panda_joint5,panda_joint6,panda_joint7
5513.1,0.42855519041546764,1.0709271994250642,-0.08647668275877152,-1.2053510162074428,0.19780076096460775,2.557103753714056,1.7714253077240532
5513.134,0.42840292640852873,1.0708999257704974,-0.08652266224893879,-1.2052994557488717,0.19110832486638163,2.557077667912983,1.7780888865299609
5513.167,0.42826650330354354,1.0708366516129209,-0.0866133539045757,-1.2052843014099226,0.1798655367987525,2.5571103768712913,1.7943010995012045
5513.2,0.4284647481451955,1.070905506635967,-0.08645960370804133,-1.2053122140315542,0.2359585148432349,2.5570973810566198,1.6623612700536599
5513.234,0.4284544471230423,1.070905506635967,-0.08645709805425843,-1.2053097083777713,0.23595529817939542,2.5570934334606936,1.6623601699413453
5513.267,0.42846224249141257,1.0709080122897499,-0.08645709805425843,-1.2053072027239884,0.235953250895869,2.5570954519220392,1.6623688878182092
5513.299,0.42846224249141257,1.0709080122897499,-0.08645709805425843,-1.2053122140315706,0.23595647600570627,2.5570952721543043,1.6623666338459584
5513.334,0.42846224249141257,1.070905506635967,-0.08645459240047554,-1.2053122140315542,0.2359565072727211,2.557095316747183,1.6623597992627979
5513.367,0.428459736836584,1.070905506635967,-0.08645459240047554,-1.2053097083777713,0.23595659591658796,2.5570941977634107,1.6623678836495484
5513.401,0.428459736836584,1.0709080122897499,-0.08646489342158299,-1.205304697070654,0.23595340978198012,2.557094198247953,1.662362275677862
5513.434,0.428459736836584,1.070905506635967,-0.08645709805425843,-1.2053072027239884,0.2359532423536278,2.5570941515082133,1.6623667644563458
5513.467,0.42846224249141257,1.0709080122897499,-0.08645709805425843,-1.2053097172080889,0.23595620904090606,2.5570962708077416,1.6623591093608103
5513.5,0.42846224249141257,1.070905506635967,-0.08645709805430793,-1.2053072027253342,0.23595288740171075,2.5570943552492262,1.6623710995940828
5513.534,0.42846224249141257,1.070905506635967,-0.08645960370804134,-1.205314998091313,0.23595461707764603,2.557096270782034,1.6623667234877628
5513.568,0.4284647481451955,1.0709080122897001,-0.08645459240047555,-1.2053097083777713,0.23595757807306178,2.557094197769327,1.6623656456937945
5513.6,0.42846224249141257,1.0709055066359503,-0.08645709805425844,-1.2053122140315542,0.23595443196429022,2.5570942384647624,1.6623645468098112
5513.634,0.4284569527768252,1.070905506635967,-0.08645960370804134,-1.205309946799042,0.23595443196332436,2.5570984513566986,1.6623645468037558
5513.667,0.4284544471230423,1.070905506635967,-0.08645936749704167,-1.205312214031556,0.23595749910966737,2.5570956700099874,1.6623590204156935
5513.7,0.428459736836584,1.070903000982184,-0.08645960370804133,-1.2053072027239884,0.23595556616661761,2.557094212355336,1.6623619350605936
5513.734,0.42846224249141257,1.0709079857987966,-0.08645960370804133,-1.2053150775641726,0.23595554235195373,2.5570984892916795,1.662360152026219
5513.767,0.42846224249141257,1.070905506635967,-0.08645960370804133,-1.2053097083777713,0.23595554723140524,2.5570945645425165,1.6623667632001147
5513.8,0.42846224249141257,1.0709107963495088,-0.08645459240047554,-1.2053097083777713,0.23595553853349646,2.557095722772228,1.6623619355471044
5513.834,0.42846224249141257,1.070905506635967,-0.08645459240047554,-1.2053122140315542,0.23595519129942305,2.5570990077900886,1.6623622887418363
5513.867,0.4284569527768252,1.0709077738711708,-0.08645709805425843,-1.2053122140315542,0.23595859528976465,2.5570969589971555,1.6623645267139304
5513.9,0.428495335499643,1.0709186189174815,-0.08647600678000433,-1.2053303217165734,0.20137490681288117,2.557106033059327,1.7726831220828387
5513.934,0.4284218914529321,1.0708885554352605,-0.08648790982248489,-1.2053154076914536,0.19871002966048934,2.557071923084763,1.7773046555532765
5513.967,0.4282649351950596,1.0708410436379232,-0.08661205663297,-1.2052788690108676,0.18769402714805583,2.557108455714621,1.7939108848969987
5514.0,0.42814696316140477,1.0708121599519531,-0.0865924557914024,-1.2052276633289658,0.17748314476615512,2.5570683488167862,1.8156403572923203
5514.034,0.42818350024230867,1.0707765657632322,-0.08666809786210372,-1.205262235535792,0.16753322491642475,2.5571270922282068,1.8405073669668077
5514.066,0.4281790482372969,1.070778067343734,-0.08668176142993111,-1.2052381724786958,0.15718063728330023,2.5571391013064613,1.8704854140689555
5514.1,0.42817210197015854,1.0707603081404793,-0.08668606772892762,-1.2052463156281021,0.14668409833904317,2.557157322550557,1.9005188050040367
5514.134,0.4281093352815626,1.070753697994431,-0.0866393234903331,-1.2052004482863836,0.13566295779587279,2.557086058658893,1.9335474489317548
5514.167,0.42817976716920203,1.0707544419186616,-0.08670725232521015,-1.205231597423139,0.12519391647196443,2.557169631048634,1.965311785933764
5514.201,0.42810792211387394,1.070734625860423,-0.08665077008761024,-1.2051951474220512,0.11322181712487023,2.5570685843617404,2.0021401774955514
5514.234,0.42810343068035284,1.0707445275963607,-0.08665743192688868,-1.2051691737082457,0.1018404677862117,2.557054633710475,2.037082542016865
5514.267,0.4280812108860337,1.0707314588100223,-0.08663829956759894,-1.2051627215090779,0.09028619660693948,2.557029147830301,2.0735436496829163
5514.3,0.42807214636502877,1.070718473991744,-0.08664125941703738,-1.2051550786897796,0.07857210179442298,2.556998310930739,2.110457512280149
5514.334,0.42806085233813285,1.0707277042730512,-0.0866385678910202,-1.2051259557932736,0.06664384889884367,2.5569662616891122,2.1483845817398937
5514.367,0.4280389508885367,1.0707156796743282,-0.08662096204679415,-1.2051171616316214,0.05460054159280503,2.5569340748980345,2.186864747058724
5514.4,0.42802774281500167,1.070702659224807,-0.086620701141646,-1.2051088991774979,0.04239635197289715,2.5568930152475104,2.2258261110677804
5514.434,0.428078681008758,1.0706899554726723,-0.08667026674413503,-1.2051612370435052,0.031008162436959807,2.5570437507706902,2.262666168962838
5514.467,0.428011191472784,1.0706959865358936,-0.08661516961260851,-1.2050915754908367,0.01769459348505631,2.55686678119819,2.305042848958479
5514.5,0.4280036274308925,1.0706807814667618,-0.08661957231989703,-1.205085394717491,0.004991826801881594,2.5568299630771048,2.345492756209252
5514.534,0.42799083453707354,1.070688962813363,-0.08661549649625488,-1.2050522348591537,-0.007990681612862538,2.556780286400924,2.3869061359192703
5514.567,0.4279684396855057,1.07067674444128,-0.08659697731964844,-1.2050390716448414,-0.02108234143340937,2.5567315986108117,2.4286971963719015
5514.6,0.4280210730155112,1.0706641975481972,-0.08664839320104178,-1.2051013702039528,-0.03326689428500362,2.5569464119241943,2.4678657462128655
5514.634,0.42796409639522626,1.070670679695131,-0.0866090970270319,-1.2050170799435547,-0.04755552152580478,2.5567070224325494,2.513085033002227
5514.668,0.4280204893836812,1.070657973668042,-0.08666448196124144,-1.205083235474027,-0.06005292022138242,2.5569440655492617,2.55296918618647
5514.7,0.428459736836584,1.070905506635967,-0.08645960370804134,-1.2053046970702055,0.2359565694266363,2.5570953559873053,1.662368898802509
5514.734,0.428459736836584,1.0709080122897499,-0.08645709805425844,-1.2053072027239884,0.23595747276225754,2.5570941977636323,1.6623634076782676
5514.766,0.42845718898782487,1.0709107963495088,-0.08645459532347424,-1.2053072027239717,0.23595710417825416,2.5570954519215956,1.6623609181327732
5514.8,0.428459736836584,1.070903000982184,-0.08645960370804134,-1.205312214031554,0.2359564904161669,2.5570996146959306,1.6623579145736163
5514.834,0.42846224249141257,1.070905506635967,-0.08645709805425844,-1.2053072027240381,0.2359562046768583,2.557094202788053,1.6623667598205374
5514.867,0.4284516630632835,1.0709030009821785,-0.08645960370804134,-1.2053072027239884,0.23595230890282837,2.557094197817175,1.66235791451977
5514.9,0.4284569527768252,1.0709055066359652,-0.08645960370804134,-1.2053072027239884,0.2359574984576836,2.557094204062058,1.662357915353716
5514.934,0.428459736836584,1.070903000982184,-0.08645709805425844,-1.2053122140315542,0.2359555340616827,2.5570953756853885,1.6623678660454422
5514.967,0.42846224249141257,1.070903000982184,-0.08645709805425844,-1.2053072027239884,0.23595506016963988,2.557095322771706,1.6623678705669342
5515.0,0.4284569527768252,1.0709107963495088,-0.08645960370809083,-1.2053097083737336,0.23595519181045824,2.5570973766964116,1.6623700198797984
5515.034,0.4284544471230423,1.070905506635967,-0.08645709805425844,-1.2053142828355754,0.23595852496932415,2.557093091892016,1.6623711388569984
5515.067,0.4284569527768252,1.070905506635967,-0.08645709805425844,-1.2053097083773225,0.23595554570850708,2.557095729859833,1.6623591054825602
5515.1,0.428459736836584,1.070905506635967,-0.08645709805425844,-1.2053097083777713,0.23595438279083755,2.5570921836333134,1.6623666468623362
5515.134,0.42846224249141257,1.0709002169224253,-0.08645459240047555,-1.2053122140315542,0.23595336417960733,2.5570954359503406,1.6623600347916772
5515.167,0.428459736836584,1.0709080122897499,-0.08645709805426027,-1.2053097083777713,0.23595288604773973,2.5570953732049193,1.6623678443319143
5515.2,0.42846224249141257,1.0709133020032917,-0.08645960403281897,-1.2053122140315542,0.23595661186705832,2.5570953809532453,1.6623641735032475
5515.235,0.428459736836584,1.070905506635967,-0.08645709805425844,-1.205312214031554,0.23595554510200045,2.5570975011713966,1.6623678836488864
5515.268,0.4284569527768252,1.0709055065996282,-0.08645960370804318,-1.2053046980513518,0.23595860360816037,2.5570975467431314,1.6623567955957517
5515.299,0.42846224249141257,1.070903000982184,-0.08645709805425844,-1.2053097080507225,0.2359534000843716,2.557098497612341,1.6623667646716045
5515.334,0.428459736836584,1.0709080122897499,-0.08645709805425844,-1.2053129292886373,0.2359554287579865,2.557094297507561,1.6623652517218634
5515.367,0.42846224249141257,1.0709107953683623,-0.08645709805559497,-1.2053072027239884,0.23595758686759585,2.55709537513911,1.6623687815495267
5515.4,0.428459736836584,1.0709080122893013,-0.08645709805425844,-1.2053122935084515,0.2359543792907041,2.5570956282790234,1.6623612291207985
5515.434,0.42846224249141257,1.0709080122897499,-0.08645960370804134,-1.205307211554306,0.2359556930908276,2.557096449287627,1.6623590870750131
5515.467,0.428459736836584,1.0709080122891517,-0.08645709805425844,-1.2053097083777713,0.23595763073995793,2.557096729664486,1.6623644089783842
5515.5,0.42846224249141257,1.0709080122897499,-0.08646238776780012,-1.205314998091313,0.2359572341559063,2.5570946687136504,1.6623689009021552
5515.534,0.42846224249141257,1.0709080122897499,-0.08645709805425844,-1.2053097084867874,0.2359545920523955,2.5570942386422035,1.662366725264324
5515.567,0.428459736836584,1.070905506635967,-0.08645709805426394,-1.2053097083782198,0.23595341013711685,2.557096275848376,1.6623612710219549
5515.6,0.428459736836584,1.070903000982184,-0.08645960370804114,-1.2053072027239884,0.235954429796731,2.55709421085196,1.6623668409576555
5515.634,0.42846224249141257,1.070903360868755,-0.08645709805425843,-1.2053072027239882,0.23595443190135115,2.557095434557199,1.6623568558773876
5515.667,0.4284569527768252,1.0709055056548205,-0.08645459240047554,-1.2053097083777713,0.23595441829493904,2.5570941992197764,1.6623678686286416
5515.7,0.42846224249141257,1.0709080122897499,-0.0864623877678001,-1.2053097083777713,0.23595721821153942,2.557095388869007,1.6623634077301173
5515.734,0.428459736836584,1.0709054801450137,-0.08645709805425843,-1.2053097083777713,0.23595341420601076,2.557093201602383,1.6623667499686965
5515.767,0.428459736836584,1.0709030009821343,-0.08645960370804133,-1.2053122140678936,0.23595656247965963,2.557096734114205,1.6623612291216083
5515.8,0.42846224249141257,1.070903000982184,-0.08645709805425843,-1.2053097083777713,0.23595324720501684,2.557094204278356,1.662363403377431
5515.834,0.4284569527768252,1.0709080122857122,-0.08645709805425844,-1.2053072027240048,0.23595727315104426,2.557099673031322,1.6623587508185154
5515.867,0.4284569527768252,1.0709107963495088,-0.08645960370804134,-1.205314998091313,0.2359576307265253,2.557095479559657,1.6623611535523055
5515.899,0.4284569527768252,1.070905506635967,-0.08645960370804134,-1.2053122140315542,0.23595102468512044,2.5570945945886097,1.6623635813966229
5515.934,0.42846224249141257,1.0709080122897499,-0.08645709806628744,-1.2053072027235396,0.2359562137074049,2.5570941977654082,1.6623586803387684
5515.967,0.4284597397527692,1.0709107963495088,-0.08645709805425844,-1.205309708377771,0.23595569794881358,2.557096748655707,1.6623667602910959
5516.001,0.428459736836584,1.070903000982184,-0.08645960370804134,-1.205309708377771,0.23595656035098667,2.557096272727858,1.662367841210188
5516.033,0.428459736836584,1.0709080122897499,-0.08645709805425844,-1.205309708377771,0.23595656286019887,2.557096481283604,1.6623711388319637
5516.067,0.4284647481451955,1.0709107963495088,-0.08645960370759687,-1.2053149980913127,0.23595659592439083,2.557094321315354,1.6623612715012202
5516.101,0.428459736836584,1.0709080122897499,-0.08645960370804133,-1.2053149980926587,0.23595604664072442,2.5570942110070245,1.6623590335508163
5516.134,0.42849512507414644,1.0709104877413926,-0.08648175043524642,-1.2053263396598215,0.20125707435281015,2.557111749342255,1.78351408830844
5516.167,0.4283243427041876,1.0708531299432797,-0.0865441380746228,-1.2052963915087025,0.19377228055233786,2.55708386167284,1.7927382898128101
5516.2,0.42820210126906044,1.070812630372182,-0.08664919126417558,-1.205263943936199,0.1824227892292516,2.5571166288712917,1.810837052864775
5516.234,0.4281339684472085,1.0707718568565818,-0.08669155872572798,-1.2052538996718658,0.170978618656914,2.5571420371789095,1.8340498829386718
5516.267,0.4281141214323583,1.0707381134075558,-0.08672998161703926,-1.2052508369955284,0.15944031785552415,2.5571569098504874,1.862252672770083
5516.3,0.4281122413803491,1.0707330052034099,-0.0867578841179899,-1.2052319872548534,0.14773782765905175,2.557180262437722,1.894937848484009
5516.334,0.4281023272904383,1.0707114316863455,-0.08676518412544976,-1.2052349170235566,0.13577656648034697,2.557202459620587,1.9290931017903397
5516.367,0.428459736836584,1.0709055063089181,-0.08645709805425843,-1.2053097083777713,0.23595649437079197,2.5570946819753155,1.662368895069785
5516.4,0.4284569527768252,1.0709080122897499,-0.08645709805425843,-1.2053122228618718,0.23595423094388246,2.557098613470996,1.662364369678693
5516.434,0.42846474781799715,1.0709080122893013,-0.08645709805425843,-1.2053124524501333,0.23595557803085426,2.5570954187457735,1.662358053346962
5516.467,0.42846224249141257,1.0709055063089175,-0.08645960370804133,-1.2053097083777713,0.23595554528098853,2.5570942123068163,1.6623611363270363
5516.5,0.4284516630632835,1.0709080122897499,-0.08645960370804133,-1.2053122140315546,0.23595660033055105,2.557095370738813,1.6623688877942824
5516.534,0.42846224249141257,1.070905506635967,-0.08645459240047554,-1.2053122405225074,0.23595625741788886,2.5570953356440285,1.662366764671662
5516.567,0.4284647481451955,1.0709080122897499,-0.08645180834489954,-1.2053046970702055,0.2359566076176348,2.55709855255939,1.6623688834575574
5516.6,0.4284516630632835,1.0709107963495088,-0.08645960370804318,-1.2053122140315542,0.23595456072408122,2.55709956159934,1.662368900902146
5516.634,0.4284516630632835,1.0709080122897499,-0.08645960370804133,-1.2053072027239884,0.23595656009745042,2.557099632137868,1.6623591098454178
5516.666,0.42846224215225087,1.0709080122897499,-0.08645960370804133,-1.2053122140315542,0.23595608473976135,2.557095670444634,1.6623577393561857
5516.7,0.42820568226356404,1.0707676966564659,-0.08655427436347907,-1.2052217102656968,0.19934090037600427,2.5571220643866486,1.6330862951347775
5516.734,0.4282265397481728,1.0707848190865832,-0.08653131443730899,-1.205201302255822,0.199647722734567,2.5571151918752886,1.6337864085014724
5516.767,0.42802177441745304,1.0707203902220757,-0.0865905580617472,-1.2051795001648022,0.18948382616489656,2.5571117041976965,1.6451391154521886
5516.8,0.4279667954796462,1.070690618204809,-0.08663073587776626,-1.2051637957694838,0.18062373165758228,2.5571176950961103,1.656916560733002
5516.833,0.4279371542023531,1.0706908734628255,-0.08663501924661254,-1.2051342322095984,0.17123203359933292,2.5571177786524224,1.6734646027727882
5516.866,0.42791472157248744,1.0706727276224477,-0.08661961433120169,-1.2051316848330549,0.16182795822331109,2.5571189382408352,1.6922526450166835
5516.9,0.42791057299100377,1.0706581988921773,-0.08662363444456656,-1.2051238726069595,0.15230399467864597,2.5571130628144942,1.7134388573205923
5516.934,0.4279031815243437,1.070666623166919,-0.08661694003531828,-1.2050976777014846,0.14262346205179455,2.5571062799578232,1.7365648271568404
5516.967,0.4279586154096702,1.0706430074152857,-0.08666953663991528,-1.2051418146998625,0.1332162639061112,2.5571434598343608,1.7601941308390714
5517.0,0.4279627402102042,1.070654355305539,-0.08667758940212966,-1.2051178639150848,0.12339759959658281,2.5571539217972923,1.786713703179048
5517.034,0.4279615234876717,1.0706388030102572,-0.0866796019152698,-1.20512923923574,0.11344220608155187,2.5571689723323434,1.8142772558297295
5517.067,0.4279736884009564,1.0706248400635356,-0.086696943071785,-1.2051358464222952,0.103385661094066,2.5571742675888096,1.8431787534114399
5517.1,0.42790906139718743,1.070629005655328,-0.08663606783466449,-1.2050865575188485,0.09223966952643892,2.557112361410285,1.875645356207336
5517.134,0.4279107613194917,1.0706140744263646,-0.08664463149507995,-1.2050882398952565,0.08174854490702632,2.5570992274343833,1.9073046229090007
5517.167,0.42790196753850473,1.0706242835026218,-0.08663880804838175,-1.2050592496353971,0.07097331640198234,2.5570785491665227,1.9401677765585106
5517.2,0.4278826212044686,1.0706116484917985,-0.08662057160952319,-1.2050542384009333,0.06009896868744313,2.557060134272021,1.9738950983281498
5517.234,0.4278740912858767,1.0705992398009334,-0.08662198636834528,-1.2050475291070146,0.049051331668471754,2.55703270718325,2.0081174723669566
5517.267,0.4278655767676254,1.0706098091400076,-0.08661788718174446,-1.2050195098619572,0.03786495831005521,2.557006803276911,2.043294681772622
5517.301,0.42791618965784295,1.0705846923178148,-0.08666765955059041,-1.2050799186791208,0.02688943088600393,2.557117997973627,2.078218174381732
5517.333,0.4279181413115678,1.0705939021749886,-0.08668053326665515,-1.205063911064789,0.015462447247628575,2.557131207564753,2.11456422288709
5517.366,0.42791631844141875,1.0705792955928173,-0.0866839525110441,-1.2050783285840092,0.003921502680457323,2.55716300500287,2.15130605506055
5517.4,0.42786120549825934,1.0705853096605535,-0.08664537832445252,-1.2050071605346382,-0.008849064946056195,2.557004533961443,2.191396509903603
5517.434,0.4278447943807331,1.070573840781993,-0.08663075130137532,-1.205001461385283,-0.02094556658270985,2.556981987952854,2.229705938682372
5517.466,0.4278351254627557,1.070560528316654,-0.0866306720079395,-1.20499207503536,-0.03329233471788928,2.5569389086814613,2.268808251276674
5517.5,0.42788818169787834,1.0705468610365108,-0.08668379214629507,-1.2050517456687526,-0.044789746480947024,2.5571121207470817,2.3055166029152243
5517.534,0.4278160503146413,1.0705530274179988,-0.08662209172860624,-1.204973309777393,-0.058372111452710485,2.5569079795877983,2.3481044154112762
5517.566,0.42781025895963154,1.0705377261029652,-0.08662559527423408,-1.2049668968350913,-0.07122608564703548,2.5568703334615606,2.388414253292968
5517.6,0.4278597138055966,1.0705308090188579,-0.08667363431460195,-1.205024279341564,-0.084035840964515,2.5570828458559234,2.428970742888348
5517.634,0.42778725752259383,1.070527482619016,-0.08661628790977893,-1.204942850389025,-0.09762925738471129,2.5568397475180316,2.471218158286856
5517.667,0.42778106254576986,1.0705129000467108,-0.08661554626701573,-1.2049343541278716,-0.1110956251298898,2.5567920977361815,2.513393367119342
5517.7,0.42776958671109,1.0705218884150502,-0.08660684381375283,-1.2048977211146807,-0.12481849920783095,2.556727771748264,2.556050027461529
5517.734,0.4278239062308593,1.0704890188044383,-0.08666656584589472,-1.2049839920724557,-0.138465815025687,2.5569845201798227,2.5988989314177893
5517.767,0.42846224249141257,1.0709072970340126,-0.08645960370804134,-1.2053072027239884,0.2359565624734158,2.557099673535991,1.6623674906885229
5517.8,0.428459736836584,1.0709107963495088,-0.08645459240047555,-1.2053046175959998,0.23595301979221842,2.5570986308418293,1.662358088231947
5517.834,0.4284647481451955,1.0709107963495088,-0.08645709805425844,-1.2053122140315542,0.23595439198485063,2.5570942021307195,1.6623700729210347
5517.866,0.42846224249141257,1.0709107963495088,-0.08645709805425844,-1.2053097083777717,0.2359565639439881,2.557098790177356,1.662370019874038
5517.9,0.428459736836584,1.070905506635967,-0.08645709805425844,-1.2053072027239884,0.23595624491028647,2.557097788053085,1.6623635857333692
5517.934,0.42846224249141257,1.0709080122897499,-0.08645960370804073,-1.2053072028370921,0.23595725755629202,2.557097415924346,1.6623678792829186
5517.967,0.4284569527768252,1.070903000982184,-0.08645459240047554,-1.2053068428374338,0.23595661347422656,2.557095271996887,1.6623674911909847
5517.999,0.42846224249141257,1.0709107963495088,-0.08645709805425843,-1.2053097083777713,0.23595443180147882,2.557096394390081,1.6623689008994968
5518.034,0.42846224249141257,1.0709030009458453,-0.08645960370804133,-1.2053097083777713,0.2359576174185723,2.557093078973786,1.662363407736096
5518.067,0.428459736836584,1.070905506635967,-0.08645459240047554,-1.2053072027239884,0.23595141975173328,2.5570943344698285,1.6623601525293454
5518.1,0.4284544471230423,1.0709080122897332,-0.08645717697522327,-1.2053122140315542,0.23595620760108799,2.557098535069601,1.662357914519781
5518.134,0.42846224249141257,1.070905506635967,-0.08645960663104003,-1.2053122140315542,0.2359545621657112,2.557096390125573,1.6623668409055934
5518.166,0.4284597368370285,1.0709080122897499,-0.08645709805425844,-1.2053097083777713,0.23595644918866016,2.557094556850311,1.6623657798679679
5518.2,0.4284569527768252,1.0709080122897499,-0.08645709805425843,-1.2053072027239888,0.23595249755851525,2.557096891160345,1.662358667238863
5518.235,0.4284622336610948,1.070905506635967,-0.08645180834489954,-1.2053097083777713,0.23595621858253576,2.5570976749678724,1.6623652881204531
5518.267,0.42846224249141257,1.0709080122897499,-0.08645709805425843,-1.2053097083777713,0.2359565603512187,2.5570930934828033,1.6623689008842093
5518.3,0.42846224249141257,1.07091079602246,-0.08645459240047554,-1.2053074411425675,0.2359562579053895,2.557098510193385,1.6623645247776686
5518.335,0.42846224249141257,1.0709080122897499,-0.08645960370804154,-1.2053097083779207,0.23595549451829703,2.5570941781548626,1.6623678444036945
5518.367,0.42846753220495426,1.0709107963495088,-0.08645960370804134,-1.2053097083777213,0.235956524968798,2.557097495411261,1.6623689004176303
5518.4,0.42846224249141257,1.0709080122897499,-0.08645709805425844,-1.2053046970702053,0.23595661300607648,2.557100026735261,1.6623698052791538
5518.434,0.42846224249141257,1.0709080122897499,-0.08645459240047555,-1.205309708377771,0.2359566090996728,2.5570999492317577,1.6623612299842427
5518.467,0.42846224249141257,1.0709132931729242,-0.08645709805425844,-1.2053046970702053,0.2359575912554539,2.557099085931365,1.6623689007399851
5518.5,0.4284647481451955,1.0709107953683623,-0.08645709805425844,-1.2053072027239884,0.2359576131891567,2.5570985480441135,1.6623633932025894
5518.534,0.42846224249141257,1.0709107963495088,-0.08645709805425844,-1.2053097083777713,0.23595234796253156,2.5570964509065974,1.6623678836426832
5518.567,0.42846224249141257,1.070905506635967,-0.08645459240047555,-1.205309787850631,0.23595616941118758,2.557097729944936,1.662367751376257
5518.599,0.428459736836584,1.0709080122897499,-0.08645709837903606,-1.2053122140315542,0.23595553539777883,2.557094552485749,1.662367883649551
5518.634,0.4284647481451955,1.070905506635967,-0.08645709805425844,-1.2053071232511285,0.2359576306924998,2.5570953213438887,1.6623675299523246
5518.667,0.4284569527768252,1.0709080113086034,-0.08645709805425844,-1.205312214043667,0.2359554095384671,2.557098481456344,1.6623612713456797
5518.701,0.4284569527768252,1.0709080122897499,-0.08645459240047555,-1.2053099467963504,0.23595763073883302,2.5570931374308548,1.6623611537513998
5518.735,0.42849035813445724,1.0709149912837068,-0.08649761882943974,-1.2053157312803826,0.20132877151053208,2.557107541716107,1.7786955187677496
5518.767,0.428322942237374,1.0708648294452052,-0.08653569236508307,-1.2052836048493383,0.19434935035327694,2.5570904887751773,1.7886196510368286
5518.801,0.42812787429732424,1.0708091275429918,-0.08657165601271188,-1.2052278421251188,0.18264951235299787,2.5570696866045353,1.8089404964297202
5518.835,0.4281246957600455,1.0707826497452198,-0.08667699119864558,-1.2052307022335285,0.17152347124989564,2.5571234022161438,1.8320002175449979
5518.867,0.428029545094363,1.0707433234619383,-0.08664861331054485,-1.2051921670585717,0.15905647664558487,2.5570788604526715,1.8638619388901105
5518.9,0.42846224249141257,1.0709080122897499,-0.08645709805425844,-1.2053072027239864,0.2359566130000543,2.557095309801132,1.66236122912161
5518.933,0.42846224249141257,1.0709080122897499,-0.08645960370804134,-1.205307203051037,0.23595723581731817,2.557093083164151,1.6623601525293454
5518.966,0.42846224249141257,1.070907985794759,-0.08645709805425844,-1.2053072027239884,0.2359565735147094,2.557096613019019,1.6623657050315552
5519.0,0.4284647481451955,1.070903000982184,-0.08645459240047555,-1.2053072027239884,0.23595621852660423,2.5570986576643975,1.6623678835957159
5519.034,0.4284569527768252,1.070905866522538,-0.08645709805425844,-1.2053122110881167,0.23595507284948072,2.5570964882808376,1.6623679598876346
5519.067,0.42846224281543316,1.070905506635967,-0.08645459240047555,-1.205312214031554,0.2359564548787322,2.5570942115102273,1.662363368492236
5519.1,0.4284569527768252,1.0709079328168902,-0.08645709805425844,-1.2053072027239882,0.235957269311519,2.557095610830193,1.6623678704958187
5519.134,0.428459736836584,1.0709055066358175,-0.08645960370804134,-1.2053097083777713,0.23595343876807137,2.557097499736554,1.662366747226425
5519.166,0.428459736836584,1.0709107963495088,-0.0864596037080414,-1.2053097083777713,0.23595660893785045,2.557097734736349,1.6623699762735125
5519.2,0.4284569527768252,1.0709080122897499,-0.08645709805425844,-1.2053046970702055,0.23595569794197846,2.5570974160854156,1.662368534553658
5519.234,0.4284569527768252,1.070908012288404,-0.08645459240047555,-1.205314998091313,0.2359524421335552,2.5570957925373903,1.6623634057998042
5519.267,0.42846224249141257,1.070903000982184,-0.08645459240047555,-1.2053072027239884,0.23595661151993463,2.557096552320944,1.6623613463460252
5519.3,0.42846224249141257,1.070908003459432,-0.08645960370804134,-1.2053122140317036,0.23595337373380498,2.557095683272065,1.6623598749649715
5519.333,0.4284569527768252,1.0709107963495088,-0.08645960370804134,-1.2053072027239884,0.2359555412194731,2.5571017933042692,1.6623578753097787
5519.367,0.428459736836584,1.0709133020032917,-0.08645960370804134,-1.205312214043667,0.23595091464510576,2.557097850083592,1.6623577968181014
5519.399,0.4284977971529633,1.0708647703934249,-0.08649057570632479,-1.2053072891536578,0.20172086230966357,2.557117145156127,1.7012737947654824
5519.434,0.42846224249141257,1.070905506635967,-0.08645709805425844,-1.2053097123388454,0.2359523280015758,2.5570956704586627,1.6623689004175646
5519.467,0.42846224249141257,1.0709080122897499,-0.08645709805425844,-1.2053072027239884,0.23595441828863337,2.557096272722764,1.6623590924028233
5519.5,0.42846224249141257,1.070905506635967,-0.08645960370804133,-1.2053097093589176,0.23595751210827418,2.5570989470510157,1.6623635857570689
5519.536,0.42846224249141257,1.0709080122897499,-0.08645709805381396,-1.2053072027239884,0.23595620493152378,2.557094727555569,1.662366764665702
5519.568,0.428459736836584,1.070905506635967,-0.08646026186880312,-1.2053122140315542,0.2359542601136158,2.5570980057410644,1.6623688616363597
5519.6,0.428459736836584,1.070905506635967,-0.0864623877678001,-1.2053071938936706,0.23595522260791651,2.5570996209349053,1.662365582450746
5519.634,0.42846224249141257,1.070905506635967,-0.0864596037080414,-1.205309708268755,0.23595657383860083,2.557098539754893,1.6623733768133675
5519.667,0.4284647481451955,1.0709080122897492,-0.08645709805425844,-1.205304697074243,0.23595659586439002,2.557094596541324,1.6623668239874951
5519.7,0.42846224249141257,1.0709080122897499,-0.08645709805425844,-1.205312214043667,0.23595334764015843,2.557098863475903,1.662366602782611
5519.734,0.42846224249141257,1.0709002169224253,-0.08645960370804134,-1.2053046980513518,0.23595625785722812,2.557093202397823,1.6623667630566306
5519.767,0.4284569527768252,1.070903000982184,-0.08645459240047555,-1.2053097083777766,0.235956494515258,2.5570943547534193,1.6623678836435447
5519.8,0.428459736836584,1.0709080122776369,-0.08645960370804134,-1.2053072027239884,0.23595763074465376,2.5570997273031466,1.6623641604193011
5519.834,0.428459736836584,1.0709107963495088,-0.08645709805425844,-1.2053072027239884,0.235957512247382,2.557097382978692,1.6623668233653992
5519.867,0.42846224540759775,1.070905506635967,-0.08645960370804134,-1.2053072027239884,0.2359564459885197,2.5570956170944394,1.6623688829212002
5519.9,0.428459736836584,1.0709133020032917,-0.08645709805425844,-1.2053097083777713,0.2359565608394078,2.557094210846028,1.6623569153054596
5519.933,0.428459736836584,1.070905506635967,-0.08645963001903922,-1.20530970870482,0.23595625806597528,2.557096824837662,1.6623624493367208
5519.967,0.428459736836584,1.0709030009821834,-0.08645709805425844,-1.2053122140315542,0.23595655919411956,2.5570952637242175,1.6623668409656318
5520.001,0.42846224249141257,1.0709008552149721,-0.08645709805425844,-1.2053046970702053,0.23595349093506937,2.5570957681419455,1.6623678817114842
5520.034,0.428459736836584,1.070905506635967,-0.08645709805425844,-1.2053075626105594,0.23595249913014701,2.5570974295080284,1.6623677659119802
5520.067,0.42846224249141257,1.0709080122897499,-0.08645960370799195,-1.2053122150086628,0.23595415634942643,2.5570954361496847,1.6623688994483834
5520.099,0.42842874763899363,1.0709084610572077,-0.08641696170954294,-1.205290426924197,0.20062139948680002,2.557067865549291,1.7828665139526425
5520.134,0.4282423456335058,1.0708520308641374,-0.08646357160144635,-1.205248827362281,0.19296524395659276,2.557029350933007,1.7930890744198642
5520.167,0.42816506432434487,1.0707961025395338,-0.0866004805913203,-1.2052561828607855,0.182366397460755,2.557085211276025,1.809782896419886
5520.199,0.42802902687580424,1.0707664420347252,-0.08658641782235055,-1.2051962747779426,0.1699803023010764,2.5570547657713654,1.8361868886227484
5520.234,0.42802902687580424,1.0707664420347252,-0.08658641782235055,-1.2051962747779426,0.1699803023010764,2.5570547657713654,1.8361868886227484
5520.267,0.428459736836584,1.0709080122897499,-0.08645960370804134,-1.2053122140315542,0.23595506015792003,2.55709778845598,1.6623619353792973
5520.3,0.42846224249141257,1.0709080122897499,-0.08645459240047555,-1.2053072037055834,0.23595292619151992,2.557099568384336,1.6623601394234637
5520.334,0.42846224249141257,1.0709080122897499,-0.08645960370804134,-1.2053122140315542,0.2359564423097493,2.557097742974605,1.662367879288676
5520.367,0.42845973683643446,1.0709080122897499,-0.08645960370804134,-1.205314998091313,0.23595757370205092,2.5570945352973555,1.6623601525273435
5520.4,0.4284647481451955,1.0709080122897499,-0.08645459240047555,-1.2053072027239884,0.23595613352710273,2.5570934891800228,1.6623667249393188
5520.434,0.42846224249141257,1.0709100810937715,-0.08645960370804134,-1.2053122228619217,0.23595620540107512,2.5570946730752273,1.6623579145137994
5520.466,0.42846224249141257,1.070905506623854,-0.08645709805425844,-1.2053097083777713,0.23595722265294627,2.5570931604706937,1.6623553234051773
5520.5,0.42841300564223506,1.0708994466264574,-0.08643674368656384,-1.2052576109447468,0.1969354351484407,2.557065011034558,1.7639382999842983
5520.534,0.42839201866237175,1.070860835441648,-0.08652944742996649,-1.2052732964611366,0.19857415752276975,2.557097590794781,1.763903019830181
5520.567,0.4280492586231004,1.0707594520989323,-0.08658947508140802,-1.2051963310978788,0.1873920729030525,2.5570624337676264,1.782382716443756
5520.6,0.42798582133935437,1.0707359189827628,-0.08665340145634204,-1.2051626459385911,0.17858249461741593,2.557075464513403,1.8024939633730312
5520.634,0.42793216866530237,1.0707071608961733,-0.08664914240929544,-1.2051502419107845,0.16885383226004702,2.5570751561853697,1.8284165929931273
5520.667,0.42791929195721856,1.070687808310864,-0.08665946395792368,-1.2051429876731001,0.1592041496040837,2.5570617221103653,1.8562701143306466
5520.7,0.42790593602053306,1.070696323893447,-0.08665659316000429,-1.205115367728843,0.14936075616576083,2.5570501926833167,1.8850976395677925
5520.734,0.4279604511913657,1.0706887627865571,-0.08671209994077067,-1.2051496594598117,0.14036325264354055,2.557117426920879,1.912257150077803
5520.767,0.4279458770278639,1.0706780612791658,-0.08670182960644457,-1.2051486067269934,0.13031168666301163,2.557123488858876,1.9429588285612027
5520.8,0.42789723327236917,1.0706833487072798,-0.08666982903453224,-1.2050962717837992,0.11942049941070554,2.557037575186552,1.976486503998455
5520.834,0.4279606692777387,1.070677730636703,-0.0867291790850988,-1.2051402070086583,0.11015173982403859,2.557141400776759,2.0058569079447928
5520.867,0.42788704503555497,1.0706610582072482,-0.08667101260034915,-1.2050979538573552,0.09872691491049856,2.557021287439051,2.0416275040513856
5520.9,0.427952397113299,1.0706554531940604,-0.0867299327157447,-1.2051471810838752,0.08926009870456575,2.5571413912610623,2.071777683071291
5520.934,0.427877215309322,1.070660426549824,-0.08666665364892978,-1.2050840361399118,0.07756499804927319,2.557007197269538,2.1088987895079114
5520.967,0.42795039458779005,1.070658773509292,-0.08673879907097959,-1.2051301243966153,0.06716355249202355,2.5571484168610787,2.1427537758707906
5521.0,0.4279348762648443,1.0706465546563866,-0.08672775888550532,-1.205132445173592,0.05610706339382787,2.55715471351537,2.1781954542965067
5521.034,0.4279442636851991,1.070631162616567,-0.08674886520325575,-1.205145665845576,0.044978009673902086,2.557177101082994,2.2140296066418355
5521.066,0.4279544765388561,1.0706407649932572,-0.08676409999894208,-1.2051388599882245,0.03373830641065734,2.5572080070105354,2.250409783582029
5521.1,0.42795228595273826,1.0706278259691064,-0.08676403212787775,-1.2051528679665404,0.02231698077307076,2.557241137408388,2.2870824476053375
5521.134,0.4278905008542475,1.0706278416890047,-0.08671661271439923,-1.205086389298021,0.01035147406979764,2.5570573725126557,2.325314050779056
5521.167,0.42789175414881253,1.0706156278608807,-0.08672186517986802,-1.2050878093411796,-0.0014263471277544681,2.557035766167468,2.363066154605832
5521.2,0.42794264987616515,1.0706140978942704,-0.08676125760686837,-1.205140631291414,-0.013037106510826568,2.5572314436195906,2.400805977398104
5521.235,0.42788127331391035,1.0706198652617047,-0.08672132414068745,-1.2050558724633849,-0.02620420688426428,2.5569965402249277,2.4425843346255753
5521.267,0.42786282465405456,1.0706074494602742,-0.08670671107754568,-1.2050495752336792,-0.03864507272395379,2.556967500057471,2.482270957060855
5521.3,0.4279242876319831,1.0706018562695458,-0.08677075241532783,-1.205105929648532,-0.05098038638447733,2.5571899600410894,2.522011122518016
5521.334,0.42785416147771294,1.070602693561657,-0.08671968507582495,-1.2050190446912943,-0.0641408973912938,2.5569256059482743,2.563539776142811
5521.367,0.42791265423583713,1.0705736765846376,-0.08677525610125603,-1.2051083564514693,-0.07680608589412774,2.5571894488873212,2.60410526924208
5521.4,0.42791977897502953,1.0705806734078687,-0.08679189648126417,-1.2051010322861577,-0.08988615654780041,2.5572290184004167,2.645661912587048
5521.434,0.4278515955098534,1.0705650239329705,-0.08673771805432651,-1.2050299524209098,-0.10431918508322457,2.556947825875014,2.6909344662720613
5521.467,0.4278445214229709,1.0705740447772687,-0.08673314284542055,-1.2049959635038157,-0.11804390802833797,2.5568926542715893,2.7340929972474957
5521.5,0.42782114090527834,1.0705610522987161,-0.08671092470164066,-1.204977170215587,-0.13203106053468439,2.556821218388194,2.7780311317694526
5521.535,0.4278089378002585,1.070545907855501,-0.08670581252496135,-1.204961175083337,-0.1462170758228165,2.5567474308528713,2.8225104401384584
5521.568,0.42779844778329856,1.0705550194493973,-0.08669473077032919,-1.2049227860715206,-0.16050792133559977,2.5566689301924157,2.867276912145682
5521.602,0.42846224249141257,1.0709107963495088,-0.08646238776780012,-1.2053072027239884,0.23595661284393213,2.5570968872297613,1.6623589099808787
5521.635,0.4297759194364881,1.0716626516785395,-0.08601560577951162,-1.2058365120230672,-0.08562330534580287,2.557146651829095,2.741281881922946
5521.667,0.4284569527768252,1.0709107963495088,-0.08645960370804134,-1.2053122140315542,0.2359565739399719,2.557098440897839,1.6623667632001913
5521.7,0.4284569527768252,1.0709080122893007,-0.08645459240047555,-1.2053099467963504,0.23595107603962606,2.5570986197464056,1.6623590924047056
5521.734,0.42846224249141257,1.0709107963495088,-0.08645459240047555,-1.2053122140315542,0.2359533732155154,2.557093253775877,1.6623688381435962
5521.767,0.4284569527768252,1.0709030009820346,-0.08645709805425844,-1.2053122140315542,0.235957577294449,2.5570957897937157,1.6623688871202713
5521.8,0.428459736836584,1.0709080122897499,-0.08645709805425844,-1.2053072116633223,0.23595715539031756,2.557096494819001,1.6623601524573437
5521.834,0.42846474815719626,1.070905506635967,-0.08645459240047555,-1.2053122141405703,0.23595331303047587,2.5570966545915335,1.6623612577792028
5521.867,0.4284569527768252,1.0709002169224253,-0.08645709805425844,-1.205309708377821,0.2359564408953311,2.5570967904771136,1.6623678836495508
5521.9,0.42846224249141257,1.070903000982184,-0.08645960370809083,-1.2053122140315542,0.235957510802795,2.557097865632922,1.6623677527515996
5521.934,0.42846753220495426,1.0709080122897499,-0.08646238776780012,-1.2053122140315542,0.23595727043302295,2.557095388706416,1.6623559139768036
5521.967,0.428459736836584,1.070905506635967,-0.08645922892030909,-1.2053072027239882,0.23595759075011316,2.5570945524555295,1.6623590335514071
5522.0,0.4284569527768252,1.070905506635967,-0.08645459229246868,-1.2053072027239884,0.23595659837950414,2.5571012585071324,1.6623667645099593
5522.034,0.4284647481451955,1.070905506635967,-0.08645960370804133,-1.2053122140315542,0.23595661197049855,2.5570963943345792,1.6623668196447616
5522.067,0.42846224249141257,1.070905506635967,-0.08645709805425843,-1.2053072027239884,0.2359575107499699,2.557095615461365,1.6623700153578609
5522.1,0.42846224249141257,1.0709054271631073,-0.08645709805425843,-1.2053072027239884,0.23595557884345666,2.5570968885873175,1.6623687439127435
5522.134,0.4284647481451955,1.070905506635967,-0.08645709805425844,-1.2053104236335086,0.23595517848615993,2.5570989641403226,1.6623629367160246
5522.167,0.42846224249141257,1.070905506635967,-0.08645459240047555,-1.2053078010291385,0.23595715050830365,2.557094687627716,1.6623590335514058
5522.2,0.4285987178771551,1.070936292386163,-0.08634129089693587,-1.2052794353003344,0.20114266659315483,2.5571104115102905,1.656667768339318
5522.234,0.4284622424914125,1.0709080122897499,-0.08645709837903606,-1.2053122140315542,0.23595657383859253,2.5570966632485885,1.6623655932045076
5522.267,0.42846224249141257,1.0709080122897499,-0.08646238776780012,-1.2053072027239884,0.2359586348351114,2.557096533596068,1.662363545864754
5522.3,0.42846224249141257,1.0709080122897499,-0.08645459240047555,-1.2053097348687245,0.23595757744194343,2.5570968886837813,1.6623566974668544
5522.334,0.428459736836584,1.070905506635967,-0.08645960370804134,-1.205312214043667,0.23595625595840772,2.5571006743523266,1.662362217112943
5522.368,0.42846224249141257,1.070905506635967,-0.08645459240047555,-1.2053072027239877,0.23595403537086215,2.557095393121985,1.662370018426247
5522.4,0.4286476782410169,1.0709115049905709,-0.08643297671641914,-1.2052875503086486,0.2015755234450003,2.5571358933023216,1.6686113876010733
5522.434,0.42851103261713686,1.0708732966156198,-0.08645006535824162,-1.2052800552929286,0.1995407802836615,2.5571052648286,1.6878319788120146
5522.471,0.4283015398008301,1.0708081766080593,-0.08658779934035188,-1.205274821750649,0.18897521794084238,2.5571078529719014,1.7044101911585097
5522.5,0.42815362117719324,1.0707984447639767,-0.08659191460268367,-1.205213927368776,0.1776729150082179,2.5570942549694404,1.7272000888565469
5522.534,0.42809848631635283,1.0707721728809858,-0.08660115304492155,-1.2052045415603692,0.16715548331344454,2.557095779683639,1.751792018046988
5522.567,0.4280708618812037,1.0707501504067034,-0.08661155975455159,-1.2051953663317603,0.1563919035952317,2.5570832263040124,1.7791144512019734
5522.6,0.428051742904203,1.0707549753890442,-0.08661437495503588,-1.2051664436526162,0.14541640323117733,2.5570740137060888,1.8074688979125995
5522.633,0.42802536318793827,1.070738482631377,-0.08659919416850403,-1.2051587820948182,0.13424052852028634,2.5570644460183836,1.838070566623209
5522.667,0.42807870652373303,1.0707313995153456,-0.0866549886506851,-1.2051870684355457,0.12396784920101567,2.557126588505689,1.8670295237527839
5522.7,0.42808312697465833,1.0707132287309298,-0.08666765041966684,-1.2051949201637902,0.11275002922261468,2.557129651815435,1.9000291316261766
5522.734,0.42801729642512054,1.0707151488140196,-0.08661391048701894,-1.2051441090406927,0.10036381662201688,2.557059058115131,1.9363619096657416
5522.767,0.4280104969869898,1.0706990294587246,-0.08661544011720235,-1.205139704189838,0.08860457040719716,2.5570346268447324,1.9721275247055594
5522.8,0.4280011210596557,1.0707068376879434,-0.08661369531867535,-1.205110397195436,0.07658639416556401,2.557011147804131,2.009030465727033
5522.834,0.4280537099229642,1.0706979089721873,-0.08666773137512518,-1.2051480336544156,0.06542072960410827,2.557110498887784,2.0438724973326607
5522.867,0.42798943209054485,1.07067963492001,-0.08661842629211325,-1.2051078648248943,0.05233368785451731,2.556990584888741,2.0845462470752647
5522.9,0.4279797768106759,1.070689082364865,-0.08661730350653407,-1.205077809292887,0.03979094850577258,2.55695889049883,2.1234162948287043
5522.934,0.4279558629252511,1.0706755645959092,-0.08659928235217684,-1.2050670275745539,0.02699868015840945,2.556925454824519,2.1637278287890425
5522.967,0.42794569723722464,1.070661105901153,-0.08659986514054285,-1.2050578341807547,0.014089737815781156,2.5568853579355384,2.2044795318359363
5523.0,0.4279962294367312,1.070647383779673,-0.0866503280711921,-1.2051099936972314,0.0020208220315351966,2.5570323089721203,2.2430498034005097
5523.034,0.4280060698879744,1.070652857317854,-0.08666945338156928,-1.2051052038054628,-0.010972169291447287,2.5570673081758137,2.2843119338721234
5523.067,0.4284569527768252,1.070903000982184,-0.08645459240047555,-1.205312213983551,0.23595424936777787,2.557096886655297,1.6623612671458947
5523.1,0.428459736836584,1.0709107963495088,-0.08645638942125944,-1.205309708377771,0.2359575912548584,2.5570977363573153,1.6623623480999379
5523.134,0.4284647481451955,1.0709107953683623,-0.08645709805425843,-1.2053072027239882,0.23595554233691804,2.5570934322198284,1.6623622887538216
5523.167,0.42846224249141257,1.0709080122897499,-0.08645710097725713,-1.205312214031554,0.23595762580855362,2.5570953753611225,1.6623612712918665
5523.2,0.42846224249141257,1.070903000982184,-0.08645960370937787,-1.2053072027239882,0.23595652353021465,2.5570978497295718,1.6623645209017561
5523.234,0.42846224249141257,1.0709080122897499,-0.08645709805425844,-1.2053072027239882,0.23595234823323027,2.5570975357614247,1.6623667646536673
5523.267,0.42846224249141257,1.0709080122897492,-0.08645459240047555,-1.2053072027239882,0.23595763066661252,2.5570943612070716,1.6623677528280352
5523.3,0.42846753220495426,1.070905506635967,-0.08645709805425844,-1.2053072027239882,0.23595324282393265,2.557098023488759,1.6623644874700898
5523.334,0.42846224249141257,1.0709107953683623,-0.086457808342942,-1.205309708377771,0.2359542957767024,2.5570942430589,1.662365604832614
5523.367,0.42846224249141257,1.070903000982184,-0.08645709805425844,-1.2053072027239884,0.23595507187706036,2.5570999497445115,1.6623689009021443
5523.4,0.4284647481451955,1.070905506623854,-0.08645709805425844,-1.2053118541449832,0.23595565679046163,2.5570965522616786,1.6623689009014169
5523.434,0.428459736836584,1.0709080122897499,-0.08645960370804127,-1.2053046970702055,0.2359575121089402,2.5570956701354417,1.6623589153293914
5523.467,0.428459736836584,1.070905506635967,-0.08645459240047738,-1.2053047235611587,0.23595461831739606,2.557093477704339,1.6623569736149548
5523.5,0.42846753220495426,1.0709107962404925,-0.08645459240047555,-1.2053072027239884,0.23595643959959725,2.5570974989919875,1.6623631138631234
5523.534,0.4284569527768252,1.070905506635967,-0.08645709805425844,-1.2053072027239884,0.23595762879448515,2.5570942433618478,1.6623689602418905
5523.567,0.4284597368365674,1.0709030009821834,-0.08645709805425844,-1.2053122140315542,0.23595330738446713,2.557098611462452,1.6623689587796755
5523.6,0.4284647481451955,1.070905506635967,-0.08645459240047555,-1.2053099467963504,0.23595325603678927,2.5570957882537626,1.6623580862938747
5523.634,0.4284569527768252,1.0709080122857122,-0.08646238776780012,-1.2053097083777713,0.2359555778683555,2.5570978883568745,1.6623612715069147
5523.666,0.42846224249141257,1.070905506635967,-0.08645459240047555,-1.2053046970702055,0.23595542875976677,2.5570989222921434,1.66237000631355
5523.699,0.42845695277815865,1.0709080122897499,-0.08645709805425844,-1.2053097083777713,0.23595612204864647,2.5570957936739327,1.6623667646690279
5523.734,0.42846224249141257,1.0709080122897496,-0.08645709805425844,-1.2053046970702055,0.2359542562250959,2.557094712867144,1.6623645860534764
5523.767,0.4284647481451955,1.070905506635967,-0.08645459240047555,-1.2053072027239884,0.2359571430391772,2.557098853899638,1.6623608003415893
5523.8,0.4284569527768252,1.0709080122897499,-0.08645960370804134,-1.2053122935044138,0.23595336554016283,2.5570975530620075,1.6623678444036945
5523.834,0.428459736836584,1.070905506635967,-0.08645459240047555,-1.2053097083777713,0.23595827486504758,2.5570964333010884,1.6623678313217385
5523.867,0.42846224249141257,1.07091079631317,-0.08645960370804134,-1.2053046970702053,0.23595608858795256,2.5570953312953413,1.6623622887589278
5523.9,0.4284647481451955,1.0709080122897499,-0.08645960370804134,-1.205312214031554,0.23595550189166128,2.557094725961033,1.6623590291728816
5523.934,0.42846753220495426,1.070905506635967,-0.08645180834489956,-1.205312214031554,0.2359566113812953,2.5570952726570884,1.6623656456935265
5523.967,0.4284569527768252,1.070903000982184,-0.08645709805826804,-1.2053097083414324,0.23595222558278622,2.5570989640352386,1.662357914573296
5524.0,0.42846224249141257,1.0709080122897499,-0.08645709806628724,-1.2053097113212103,0.235957422292697,2.5570934746076976,1.6623667602902024
5524.034,0.4284185118002588,1.0709095875546168,-0.0864199655853719,-1.205292259998057,0.20072934857466773,2.5570660970015826,1.7731660953644184
5524.067,0.42828157857635585,1.070866542813146,-0.08644137453536604,-1.20525779747061,0.19537201676019134,2.5570236073482544,1.7819176542363202
5524.1,0.4281786896788411,1.0708139902376894,-0.08658339917737656,-1.2052544193676855,0.18421822861124681,2.557088124193518,1.8004209723929083
5524.136,0.42804962277215175,1.0707827166486226,-0.08658769643542463,-1.2051906227660698,0.1719759870632238,2.557048482704811,1.8276597943696231
5524.168,0.42807891427269773,1.0707605979620114,-0.08666486837328424,-1.205206704219079,0.16154813600111417,2.5571099784592306,1.854695920997754
5524.2,0.4280571638583206,1.0707347306156256,-0.08667479116960308,-1.2052048825196922,0.14997019842215575,2.557129276019465,1.8880139612028959
5524.234,0.42799448727761114,1.070727909876795,-0.08664685183986709,-1.2051506221321766,0.13716154439127237,2.5570604418091225,1.9255121235142916
5524.267,0.4280438051485298,1.070718180569921,-0.08670341568002904,-1.2051792409567215,0.12600805118824887,2.5571364188945545,1.9586962450461805
5524.299,0.4284647481451955,1.0709107963373958,-0.08645709805425843,-1.2053072027239884,0.23595656301514067,2.5570967296188596,1.662365632611648
5524.334,0.42846753220495426,1.070903000982184,-0.08645459240047554,-1.2053097083782198,0.23595411761475568,2.557095334372145,1.6623624667255987
5524.367,0.42846224249141257,1.0709107963495088,-0.08645709805425843,-1.2053122140315542,0.23595186138532506,2.5570957348686885,1.6623667254258296
5524.4,0.42845973683523814,1.070905506635967,-0.08645709805426027,-1.2053097083777713,0.23595751013602193,2.5570965541644703,1.6623586796369116
5524.434,0.4284647481451955,1.0709080122897499,-0.08645709805425844,-1.2053019130104468,0.23595533613425163,2.5570954868332483,1.662360287678923
5524.467,0.428459736836584,1.0709080122897499,-0.08645960370804134,-1.2053122140315542,0.23595864651076875,2.5570957285193354,1.6623601479992127
5524.5,0.42846753220495426,1.0709107963495088,-0.08645709805425844,-1.2053072027239884,0.2359513239671416,2.5570977948282527,1.6623653518205521
5524.534,0.428459736836584,1.0709133020032917,-0.08645960370804133,-1.2053122228618718,0.23595407605578844,2.557097551160579,1.6623634670716165
5524.567,0.428459736836584,1.070905506635967,-0.08645960370804133,-1.205314998091313,0.23595426960368915,2.5570988433128035,1.6623688878135559
5524.6,0.4284647481451955,1.070908650582297,-0.08645180834489954,-1.2053097083777713,0.2359543923106222,2.5570978652527936,1.662361271506444
5524.634,0.428459736836584,1.0709080122897499,-0.08645459240047554,-1.2053097083777713,0.23595726891004942,2.557097853498799,1.662368883405717
5524.667,0.428459736836584,1.0709080122897001,-0.08645709805425843,-1.2053072027253342,0.23595542870574596,2.5570973711991325,1.6623675302751142
5524.7,0.42846224249141257,1.070905506635967,-0.08645960370804133,-1.20530970841411,0.23595391223910697,2.5570935557177386,1.6623678821959762
5524.734,0.428459736836584,1.070905506635967,-0.08645960370804318,-1.205309708389884,0.23595966083810702,2.55709655412891,1.6623710080303535
5524.767,0.42846474814474683,1.0709080122897332,-0.08645960370804134,-1.2053072027199507,0.2359562517289933,2.5570974340309025,1.6623558488029493
5524.798,0.42846224249141257,1.0709080113086034,-0.0864570970821967,-1.2053149980913127,0.23595649453241554,2.5570967470368955,1.6623580489834346
5524.833,0.428459736836584,1.0709080122897499,-0.08645709805425843,-1.205309708377771,0.23595391850118128,2.557097672225901,1.662362275514264
5524.868,0.42846224249141257,1.0709029744912308,-0.08645709805425843,-1.205312214031554,0.23595610003709994,2.5570986717685535,1.6623577556460645
5524.899,0.42851911916700836,1.070924885604903,-0.08646602053893382,-1.2053324899666942,0.20162479304081593,2.5571081428031253,1.7364007720720913
5524.934,0.4284546582831492,1.07090856893588,-0.08647705706108422,-1.2053252939399126,0.19953489222810372,2.5570752587309986,1.7465354791371048
5524.967,0.42828553913629275,1.0708624648300473,-0.08660452593413304,-1.2052901093209174,0.18844496005031353,2.5571085761228254,1.7695841388908793
5524.999,0.4282276986214306,1.070829737599686,-0.0866320709689079,-1.20528512031537,0.17887948547175814,2.5571243577347182,1.7961367861768025
5525.033,0.42821104333718196,1.07080344912678,-0.08666512613722155,-1.2052881782182405,0.1688279177149843,2.5571281400000103,1.8247810080333124
5525.066,0.4284647481451955,1.070903000982184,-0.08645709805425844,-1.2053072027239884,0.23595462713549636,2.5570965465046287,1.6623678661528913
5525.099,0.42845594713028134,1.0708849367033189,-0.08651551833650561,-1.2053832434529586,0.16160785674315914,2.557075622367652,1.8508184461353991
5525.133,0.4284569527768252,1.0709072970340126,-0.08645960370804134,-1.2053072292149416,0.23595402166089705,2.5570964298710233,1.6623688381356194
5525.167,0.42866990679312966,1.0709670456709635,-0.08644407646968144,-1.2054643481381513,0.16495161430569283,2.5570836755021453,1.8384365871633292
5525.2,0.4285657963799938,1.0710060892014166,-0.08634158995876984,-1.2053225430705847,0.16644608809458994,2.5570181724834296,1.8316129067883224
5525.233,0.4283570892938302,1.0708846330974024,-0.08647569811499434,-1.205303961126356,0.15509490141371085,2.5570236018065042,1.856948476037207
5525.267,0.42832157589317266,1.0708373618277331,-0.08657289141855262,-1.2053087026706795,0.14553503779754084,2.557087169355288,1.8803289203419133
5525.3,0.42820709738034246,1.0708128667381445,-0.08654059573444339,-1.2052481262630614,0.13385521348451324,2.557026551863716,1.913046110857854
5525.335,0.4282449358519047,1.0707939390098211,-0.08660935501257505,-1.2052790601153296,0.12386047783647491,2.5571099858733444,1.9413498466115904
5525.367,0.42823725515524824,1.070770838771172,-0.0866264657347875,-1.2052825923852506,0.11280737375401895,2.5571145286505317,1.9739591055158279
5525.4,0.4281665705023414,1.0707700220981549,-0.08657734777457282,-1.2052282225983042,0.10060390962453258,2.5570292531984684,2.010291209691463
5525.434,0.42815626516033056,1.0707524430832747,-0.08658412875503352,-1.20522335832581,0.08892724003165497,2.5570065809214775,2.045472109384658
5525.467,0.428459736836584,1.0709080122897499,-0.08645709805426394,-1.2053072027239882,0.23595740615013458,2.5570999658968385,1.662356854935487
5525.501,0.42915450394423615,1.0711315777861339,-0.0862234056760034,-1.2055865823112937,0.11184152163691508,2.5570874448786576,2.0103659729354266
5525.535,0.42846224249141257,1.0709080122897499,-0.08645459240047555,-1.2053097083777713,0.23595437710458542,2.5570985676817872,1.6623645252435746
5525.568,0.4292437553110968,1.0712582042342902,-0.08606681716048303,-1.2055681557235536,0.13758057432472715,2.556960478163205,1.935024727632788
5525.6,0.4287990798577619,1.0710681839304925,-0.08630456577105683,-1.2053939372965923,0.1307554756694671,2.5570334634766265,1.9545822338006413
5525.634,0.4285151204722579,1.0709205200684195,-0.08648757292119313,-1.2053287636877972,0.11934657271778004,2.5570733801604657,1.988444220993772
5525.667,0.4284597369445909,1.0709107963495088,-0.08645960370804134,-1.2053122140315542,0.23595609425821829,2.5570956257127313,1.6623652924790409
5525.7,0.428459736836584,1.070903000982184,-0.08645709805425844,-1.2053046970702055,0.23595746636990134,2.557097396061056,1.6623678412101908
5525.739,0.42846224249141257,1.0709080122897499,-0.08646238776780031,-1.2053097083777877,0.23595645550563973,2.5570977364313743,1.6623601525283846
5525.768,0.42925543211390327,1.071278476009284,-0.08610824220038449,-1.205536771988668,0.16187857478090706,2.5570168880157507,1.8640131390059658
5525.801,0.428462242491396,1.0709080122897499,-0.08645459240052504,-1.2053122140315542,0.2359582906203242,2.557093551909428,1.6623667646716862
5525.834,0.428516837988818,1.0709175454096709,-0.08655598612536686,-1.205343482027156,0.16404734709854019,2.5571263013471466,1.836916609144204
5525.867,0.4284569527768252,1.0709080122897496,-0.08645709805425844,-1.2053097083777713,0.235955560316076,2.5570964200639046,1.6623685470433986
5525.901,0.4284647481451955,1.0709055056548205,-0.08645709805425905,-1.2053104246160007,0.23595550172900157,2.557097769316482,1.6623678834880455
5525.934,0.4284536706459985,1.0709033960298342,-0.08645940128447638,-1.205307646013388,0.17956385299347666,2.5570498819943612,1.7769702792801176
5525.968,0.4284597368366334,1.070905506635967,-0.08645960370804134,-1.2053097083777713,0.2359571036924595,2.557094215280414,1.6623667646657048
5526.009,0.428459736836584,1.0709055066346211,-0.08645709805425844,-1.205307282196848,0.23595625222145095,2.5570945660200994,1.662364691437862
5526.034,0.4284461942247013,1.0708853872698967,-0.08643825621581769,-1.2052977433482495,0.18743952834029365,2.557075833836093,1.7535381644103687
5526.067,0.4284883114296383,1.0709072563770983,-0.08647521385784884,-1.2052845500309832,0.19130220857961788,2.557083665509147,1.7414754062681936
5526.1,0.42823121775196515,1.0708043718487268,-0.08659641688295494,-1.2052520638690458,0.1809274767917719,2.557104910214882,1.7560348726281916
5526.135,0.4280904989845604,1.070770194725866,-0.08661097873494228,-1.2051840304117452,0.17093097216814268,2.5570782333929998,1.7769970197004952
5526.167,0.42804141737509926,1.070736985716617,-0.08662168884118593,-1.2051757199645126,0.16120675800423,2.557085155361019,1.8006119177652131
5526.202,0.42801849698810024,1.0707148028119056,-0.0866324002789538,-1.205164513803588,0.151198269192939,2.55707381167821,1.8266866324547575
5526.235,0.42800100784535644,1.0707200050140235,-0.08663207922302618,-1.2051366696543564,0.1409851321868727,2.557062263767186,1.8537778898391934
5526.268,0.42797922752807516,1.0707045366581571,-0.08661729549332176,-1.2051315037980599,0.13066374966306604,2.5570544395640837,1.882797449706091
5526.301,0.4279704970315077,1.070690830890272,-0.08662086298826832,-1.2051248996141233,0.12020487504905564,2.55703597459415,1.9126020980357303
5526.337,0.4279587554524982,1.0706993866195704,-0.08661834767532817,-1.2050968414281122,0.1094723692381514,2.5570180999635284,1.9439910209394249
5526.368,0.42800840050112043,1.0706744376617632,-0.08666707418981634,-1.2051488845391685,0.09900218140820094,2.5570981505270716,1.9754221741137776
5526.401,0.4279341870694999,1.0706783708907128,-0.08660805174303565,-1.205087347645195,0.08707298563899535,2.5569980710058893,2.011538555016795
5526.436,0.42799923974142207,1.0706740883643286,-0.08667800955695171,-1.2051232133185472,0.07421179118547538,2.5571049191290687,2.051420055209128
5526.468,0.4279799385408145,1.0706550213879122,-0.08668493466914473,-1.2051258900394552,0.06217386676000469,2.557129406045501,2.088264836366829
5526.501,0.4279797192139858,1.0706327498609127,-0.08670714929611467,-1.205136052090757,0.04985915476953107,2.557147830851953,2.1268935248815346
5526.534,0.4279842801952336,1.070636814153172,-0.086726472935311,-1.2051278419797633,0.03735798395626322,2.557176290982115,2.1662826731606977
5526.566,0.4279815555696249,1.0706213661655237,-0.08673084561581668,-1.205138735771043,0.024694648542905817,2.5572105774967113,2.206293318188761
5526.6,0.4284569527768252,1.07091079602246,-0.08645459240047554,-1.2053122140315542,0.23595864599491306,2.557097771291801,1.662359797701331
5526.634,0.42846753220495426,1.070905506635967,-0.08645960370804133,-1.2053072027239884,0.2359519857925701,2.5570985729705042,1.662368840566177
5526.666,0.42846224249141257,1.070905506635967,-0.08645960370804133,-1.2053097083777713,0.2359565204261753,2.557095655890571,1.662359033060761
5526.7,0.42846224249141257,1.070905506635967,-0.08645960370804133,-1.2053122140315542,0.23595324283574542,2.5570943169626803,1.6623710211196252
5526.733,0.428459736836584,1.0709107963495088,-0.08645459240047554,-1.205304696971956,0.23595763056632188,2.5570954540768045,1.662359167677304
5526.767,0.4284647481451955,1.0709107963495088,-0.08645709805425843,-1.205309708377771,0.23595394344154522,2.5570953157230263,1.6623678836495401
5526.8,0.42846224249141257,1.0709107963495088,-0.08645459240047552,-1.205312214031554,0.2359522957779016,2.5570976855736323,1.6623656456698952
5526.834,0.4284647481451955,1.0709080122897499,-0.08645922891986468,-1.205309708377771,0.23595407441321709,2.557093490380136,1.6623664114589685
5526.867,0.4284569527768252,1.0709080122897499,-0.08645709805425844,-1.2053049325453453,0.2359572732051086,2.557095714261269,1.6623656456938218
5526.9,0.4284647481451955,1.0709080122897499,-0.08644930269111667,-1.2053097083777766,0.23595554559954537,2.5570978033889404,1.6623688994483832
5526.934,0.428459736836584,1.070905506635967,-0.08645709805425844,-1.2053097083777713,0.23595103801137454,2.5570942501712217,1.6623678443957188
5526.967,0.4284569527768252,1.070905506635967,-0.08645709805425844,-1.205307211554306,0.23595722072060035,2.5570963160639337,1.6623602288237047
5527.0,0.42846224249141257,1.0709055066359663,-0.08645709805425844,-1.2053072027239884,0.23595183440987566,2.557094564704129,1.6623678834880182
5527.034,0.4284569527768252,1.070905506635967,-0.08645963001502961,-1.2053046970715513,0.2359574711324264,2.557097429226933,1.66236788219599
5527.067,0.4284311025431071,1.0708313450496192,-0.08652807989872713,-1.205262782238881,0.20143876052283094,2.557148649108955,1.6556846830490688
5527.1,0.4284885631739179,1.0708513222508715,-0.08648391658225663,-1.205276803599471,0.20046412287065074,2.557117466048629,1.66932086067966
5527.134,0.4282425272806103,1.070814188612787,-0.08651935495263707,-1.2052357903265225,0.18805107638277718,2.557107911492551,1.6866730588350203
5527.167,0.4282021766100961,1.0707994018550826,-0.08654629206549469,-1.2052326618536338,0.17895484112206983,2.557099038099963,1.6996784346439293
5527.2,0.42817474241035036,1.0708029100365088,-0.08655500565938024,-1.205200881551292,0.1689069321871628,2.557100893569176,1.7186963326022422
5527.234,0.42822927463085225,1.070792139016187,-0.08661593346497654,-1.2052239167270553,0.15984382344870074,2.5571349124824216,1.7389809011575021
5527.267,0.4281561814123407,1.0707680003766127,-0.08655512092213513,-1.205192049735559,0.14880459532979273,2.5570940842734426,1.7664886181922288
5527.3,0.4281596636190681,1.070778021334899,-0.08656199371475548,-1.2051686129906924,0.138625261046589,2.557089878403639,1.7924800323433026
5527.334,0.42813912712695146,1.070763076325342,-0.08654240409508951,-1.205162685582378,0.12807683815868298,2.5570817545684505,1.8212891221834475
5527.367,0.42813379065481527,1.0707495219832923,-0.0865446140283046,-1.2051565193484581,0.11745277234238838,2.5570652245726215,1.8510875247912129
5527.4,0.42812547180784843,1.0707585443129428,-0.08653925962257691,-1.2051289167966814,0.10666329693896337,2.5570481013346793,1.8825809013259338
5527.434,0.4281052712714768,1.070745118257058,-0.08652132852209249,-1.2051240227421633,0.09570587726712088,2.5570336442849033,1.9150618169082776
5527.467,0.42816126871554694,1.0707393923881847,-0.08657537615628286,-1.2051583781329942,0.08563397866625788,2.5571157994122604,1.9457025868301887
5527.5,0.4281621333494945,1.070733036379278,-0.08657912936970646,-1.2051592025982494,0.07399694259521183,2.5571273901075617,1.9816548603278754
5527.534,0.4281678642855802,1.0707165644010512,-0.08659800472650758,-1.205168765175852,0.06270821265889559,2.557140278286191,2.016212847426665
5527.567,0.42810609717502235,1.0707116694058412,-0.08655059756216232,-1.2051199336750233,0.05093540227172788,2.5570295624535326,2.05287545273557
5527.6,0.4281627100424057,1.070710431280233,-0.08659969070779816,-1.2051625035314508,0.03958033321243537,2.5571571948457414,2.0885892094885428
5527.634,0.42816562126118907,1.0706920158803666,-0.08661283188387259,-1.2051722685096786,0.027745845240042755,2.5571653297649206,2.1260121531330434
5527.667,0.4281767223655404,1.0706997677074659,-0.08663144851213023,-1.2051647645216077,0.015836580796144695,2.557195726493445,2.1637733331899263
5527.7,0.428174643830312,1.0706854138477757,-0.08663351630527227,-1.2051770585475428,0.0037000420964057312,2.5572281376780808,2.202254204882088
5527.734,0.428183507900016,1.070668044873301,-0.08665112837475597,-1.2051908618643452,-0.008639468056014898,2.5572516054878314,2.241499652244144
5527.767,0.42819505307530736,1.070675922847224,-0.08666788504483325,-1.2051855084917626,-0.021075609908749016,2.5572862258979434,2.2810146281538977
5527.8,0.42818850407675324,1.0706580628302733,-0.0866739008791928,-1.20519615011189,-0.034068075761110705,2.5573264055555054,2.3222110223779033
5527.834,0.4282002810187686,1.0706406514964133,-0.08669146731541488,-1.2052128226265095,-0.04700703102608639,2.557358293347269,2.3633643146283756
5527.867,0.4281413181637763,1.070640278066227,-0.08664173694260668,-1.205144801470147,-0.060338541025982906,2.5571507728945946,2.4051357543319405
5527.9,0.42819840105570783,1.0706350156060491,-0.0866891194365671,-1.2052066512720891,-0.07334959215817971,2.5573725587382974,2.44640884320148
5527.934,0.4282046740833829,1.0706142807957466,-0.08670705333393425,-1.2052211592524174,-0.08685011038399892,2.55740672384397,2.488916696886184
5527.967,0.42821782775029416,1.0706192832593144,-0.08672720357606956,-1.205219500848596,-0.10041717239863335,2.5574583006774283,2.531555812559244
5528.0,0.4284647481451955,1.0709107963495088,-0.08645709805425843,-1.2053097083777713,0.23595336423406432,2.5570968533778697,1.6623580502072965
5528.033,0.43006245461311643,1.0716320994366209,-0.08592113441932181,-1.2059338704374998,-0.0284421734501894,2.5574384886575707,2.4117175125141213
5528.066,0.42846224249141257,1.0709080122897499,-0.08645960370804133,-1.2053072027239884,0.2359523477766586,2.5570978539474356,1.6623590928732712
5528.1,0.42846224249141257,1.0709080122897499,-0.08645709805425843,-1.2053122140315542,0.23595620418804925,2.557093484870645,1.6623678831649356
5528.134,0.4284569527768252,1.0709107963495088,-0.08645459240047554,-1.205312214031554,0.23595660905154375,2.557100045194973,1.6623622887395717
5528.167,0.4284516630632835,1.070905506635967,-0.08646238808059348,-1.205309708268755,0.23595329618408586,2.5570954203675687,1.6623641340958855
5528.2,0.428459736836584,1.0709107963495088,-0.08645960370804134,-1.205312214031554,0.23595645536716792,2.5570989121732204,1.662364155899139
5528.234,0.4284647481451955,1.0709030009821823,-0.08645709805425844,-1.205309708377771,0.23595300393612045,2.5571000283675813,1.6623700198620748
5528.267,0.42846224249141257,1.070905506635967,-0.08645709902859133,-1.205312214031554,0.23595660861876308,2.557094624089806,1.6623666469341165
5528.299,0.42846224249141257,1.070903000982184,-0.08645459240047555,-1.2053121345586943,0.2359576291216691,2.5570954758980733,1.6623623461618964
5528.334,0.428459736836584,1.070908012288404,-0.08645459240047555,-1.2053044586516262,0.23595625791074262,2.557099024773809,1.6623687831645853
5528.366,0.42846224249141257,1.0709080093463106,-0.08645709805425844,-1.2053072027239937,0.2359555471789277,2.557096420002391,1.6623597862326893
5528.399,0.4284647481451955,1.0709080122897499,-0.08645960370804134,-1.2053175037451456,0.2359571171986215,2.5570953814566098,1.6623590405009208
5528.433,0.428459736836584,1.0709080122897499,-0.08645459240047555,-1.2053122140315542,0.23595039811858373,2.5570996560569683,1.662364690193679
5528.466,0.428459736836584,1.070905506635967,-0.08645960370804134,-1.2053046980513518,0.23595554576474342,2.5570977349210713,1.662365487094664
5528.499,0.42846753220495426,1.070905506635967,-0.08645180834489956,-1.2053097083777713,0.23595624425799455,2.557095827173319,1.6623634033236063
5528.533,0.428459736836584,1.0709080122897499,-0.08645459240047555,-1.2053124524501333,0.23595553211951634,2.5570952770243123,1.6623632918123223
5528.566,0.428459736836584,1.070905506635967,-0.08645960370804134,-1.2053149980913127,0.23595565782499925,2.557094140098806,1.6623656657877006
5528.599,0.4284544471230423,1.0709080122897499,-0.08645709805425844,-1.2053046970702053,0.23595442609569417,2.5570985586021755,1.6623633946022316
5528.634,0.42846224249141257,1.0709029744912308,-0.08645709805425844,-1.20530970841411,0.23595656446789523,2.557093551915303,1.662364526660127
5528.666,0.4284647481451955,1.0709080122897499,-0.08645709806628724,-1.2053072027239884,0.23595828671058672,2.557098803263514,1.6623678831649604
5528.699,0.42845718898782487,1.0709107963495088,-0.08645960370804134,-1.205309708490825,0.23595747256555216,2.557094237574134,1.6623597469868319
5528.733,0.428583636587458,1.0709227145188427,-0.08643596146996835,-1.205323697720715,0.20174932611034446,2.5571142291536617,1.7292488003176683
5528.767,0.42836785515980313,1.07089995792819,-0.08642027909358951,-1.2052535833536027,0.19691231434779954,2.557042996582936,1.7446549034099466
5528.8,0.428459736836584,1.0709055066319293,-0.08645709805425844,-1.2053072027253342,0.23595340978117016,2.5570942561453647,1.662367408320454
5528.834,0.4283891582800674,1.0708883945837977,-0.08646791703469248,-1.2053051523417544,0.18774470190804937,2.557076079581595,1.7714643777329186
5528.867,0.42846224249141257,1.0709055066359614,-0.08645960370804134,-1.2053149980913627,0.23595763073885978,2.557100142924423,1.6623689469798222
5528.9,0.42856052365057984,1.0709800503187399,-0.08633729462653861,-1.2053589220471386,0.19326199195355542,2.557028365523397,1.7538380119393047
5528.933,0.42840452134418605,1.0709462560998375,-0.0863759667928381,-1.2052817599047163,0.1890222961974386,2.557021280339722,1.7575788405214663
5528.966,0.4282455448122304,1.0708789371207565,-0.08647189837352443,-1.2052342466125685,0.17842871446908326,2.557033336105908,1.7827064427957744
5529.0,0.42815173417272057,1.07083157655297,-0.08648935831303373,-1.2052124900682584,0.16811377847171904,2.557029707453511,1.8097488649967985
5529.034,0.42817454762644314,1.0708149617395692,-0.08657678986956618,-1.2052211802575927,0.15779129929699565,2.557079703337326,1.8372651455401154
5529.067,0.42845973680024524,1.070905506635967,-0.08645960403281897,-1.2053097083777713,0.23595237900528662,2.5570978072412487,1.662358915813911
5529.1,0.42846224249141257,1.0709080122897499,-0.08645960370804134,-1.2053072027239884,0.2359575897908536,2.5570990109388534,1.6623612700476673
5529.134,0.4284569527768252,1.070905506635967,-0.08645960370804134,-1.2053122140315542,0.23595723583320696,2.5570968480503917,1.6623678836495428
5529.167,0.4288363615643753,1.0711104199352413,-0.08618901523683942,-1.2053851821095911,0.1837795548150245,2.5570035941109275,1.7658530554266463
5529.2,0.42846232122841243,1.0709079857987966,-0.08645459240047555,-1.205309708379117,0.23595507333970359,2.5571007312013294,1.6623579680984586
5529.234,0.42868637844210244,1.0709926453593628,-0.0863704430053609,-1.2053582425491074,0.1871860591008332,2.557083894214232,1.76407900528657
5529.267,0.42846853811893215,1.0709130013020545,-0.08642956059531048,-1.2052970789623885,0.18417772533821353,2.5570419521058856,1.769315383860171
5529.301,0.42826035283168906,1.070832906065374,-0.08658692665587431,-1.2052504417684489,0.17338952224663196,2.5570849467139887,1.7882005201162414
5529.335,0.4281410436040085,1.070769490483344,-0.08665679223188771,-1.2052303345828772,0.16237099417367684,2.5571134017731723,1.8123231826266029
5529.367,0.4284647481451929,1.0709055066359652,-0.08645960370804134,-1.2053072821981938,0.2359565581298764,2.557100100143856,1.6623612715072091
5529.399,0.42809140509270627,1.0707228464322505,-0.0867094215697568,-1.2052242286616508,0.15120702344083803,2.557127531598791,1.8409887637732112
5529.433,0.42857527300398246,1.0709329399478502,-0.08643317183582244,-1.205325604168742,0.16722047929298878,2.5570856344254853,1.8135765106776205
5529.467,0.42823250915747924,1.0708305128066673,-0.08649316525012907,-1.2052085118950409,0.15499797412560046,2.5570237476718702,1.84002181548977
5529.5,0.428217831788567,1.0708246626521518,-0.08655004393452526,-1.2052327985069677,0.15017245809212287,2.557038670778198,1.8424157760576563
5529.534,0.4281880271156471,1.0707845557180757,-0.08663397161717779,-1.205253901160341,0.1406799684766673,2.5570939330588143,1.8527398038454468
5529.567,0.42810591775697215,1.070784073288909,-0.0865701661357301,-1.2051912116034718,0.13106549076249863,2.5570292612201158,1.8709679714006349
5529.601,0.4281137693739945,1.0707611859654094,-0.08659457032456874,-1.2051951967346142,0.12186238908407088,2.5570343374434596,1.8924674001584219
5529.635,0.42810095135680903,1.0707677462763279,-0.08658358342171812,-1.2051620708887327,0.1122555475361926,2.5570158697419707,1.917195254291702
5529.667,0.42808409549000537,1.0707526407991903,-0.08656560409197933,-1.2051619400940536,0.10267698215716337,2.5570024918886194,1.942581051734198
5529.7,0.42807922900760964,1.0707405379149968,-0.08657159979212192,-1.2051534676375537,0.09286113981056499,2.556984942422474,1.969588323180485
5529.735,0.42806978515551286,1.0707508117815383,-0.08656640012328154,-1.2051259946353499,0.0828709157253753,2.5569657370095804,1.9979335487858663
5529.767,0.4280503612505804,1.0707374063962458,-0.08654872876859354,-1.2051240008955375,0.07275246188237539,2.556947002505172,2.0272647119900533
5529.801,0.4281160376975155,1.0707393690280966,-0.0866149719361875,-1.2051547536800093,0.06292165533924532,2.5570540624486213,2.0568407652428604
5529.835,0.42810019480030626,1.0707269537561128,-0.08660013665068078,-1.20515742384569,0.05258063773933852,2.5570566086939692,2.0881884275322555
5529.868,0.4281105346665086,1.0707126825297477,-0.08662074770844974,-1.2051694316484287,0.04221839686610007,2.557073651494168,2.1196056379683395
5529.9,0.42812025050307767,1.0707234657818985,-0.08663410080435341,-1.2051603461860028,0.03172820231513729,2.5571000580709224,2.152148977193985
5529.934,0.42811826133485464,1.070710172043417,-0.0866342427402067,-1.2051739834199955,0.021042873271433393,2.557128304753048,2.1850417525475017
5529.967,0.4281251888745947,1.070705004604683,-0.08664605221662303,-1.2051778344994526,0.009555029243341728,2.5571573253662407,2.2210507639070975
5530.0,0.42806040830918946,1.0707040376251271,-0.0865942153890149,-1.2051139975054497,-0.0019020976362629227,2.5569867520336516,2.256267343887899
5530.034,0.4280610456689322,1.070689373805311,-0.08660433513209131,-1.205116160062988,-0.013316903375061528,2.5569744145571445,2.292217408591675
5530.067,0.42805177336136957,1.0707019409622864,-0.08659610206072799,-1.2050835350330056,-0.024905960805146954,2.556928492460706,2.3284854164031614
5530.099,0.4281042568560469,1.0706738446005817,-0.08664599157071251,-1.2051598949379718,-0.036271831243631425,2.5571172112460037,2.364685977061402
5530.134,0.42810626914416705,1.0706832845527794,-0.08665823886304214,-1.205144513016653,-0.04809240616331145,2.5571336834417266,2.4018546126163844
5530.168,0.42810422535200043,1.070667663516499,-0.08666115873678315,-1.2051616682471558,-0.06004412965479933,2.5571796686196606,2.4395146728079276
5530.201,0.42805114701351954,1.0706774418635892,-0.08661934763907997,-1.2050760916084817,-0.07311671192475266,2.5569432078802308,2.4803588679173494
5530.234,0.4280353951355469,1.0706657283867926,-0.08660393398917865,-1.205070233754558,-0.08554635085630036,2.5569158597109727,2.519204876951214
5530.266,0.42802437571003793,1.0706527339873952,-0.086600611940292,-1.205056945083765,-0.09825589360939979,2.556855251567825,2.559031034659313
5530.3,0.4280140139997801,1.0706621572335315,-0.08659541307302199,-1.2050219160428925,-0.11119109269254501,2.556798536228083,2.5993432699252157
5530.334,0.4279904961085945,1.0706493094472176,-0.08657393074124542,-1.2050077463928606,-0.12431975279802465,2.5567397274083348,2.640291574922946
5530.367,0.4279803310466965,1.0706364866587679,-0.08656962444161564,-1.2049937836095062,-0.13755519578188657,2.556674270346223,2.681491005757435
5530.398,0.42796969397871987,1.0706460256369246,-0.08656131175394233,-1.2049568180515724,-0.1510035384629207,2.556606725684139,2.7232674784388244
5530.434,0.42794693229383807,1.07063334956021,-0.08653918701083985,-1.2049402725618155,-0.16464956517806595,2.556541127213995,2.7655398846449213
5530.467,0.42801751058647053,1.0706244338758664,-0.08661639921201214,-1.2050166226380181,-0.17805206787890082,2.5568554194800637,2.8074666041826895
5530.5,0.4280131939250582,1.0706078520703315,-0.0866203050722083,-1.2050288669581608,-0.19192416933567635,2.5569085311487463,2.8504634531743456
5530.534,0.4280252619225964,1.0705870855086115,-0.08664261227167813,-1.2050500679157254,-0.20596979082978706,2.5569721013696487,2.893900596762766
5530.566,0.4281613266277349,1.0707209136897289,-0.08652443662551246,-1.205084978842799,-0.21069738305949137,2.55685579197581,2.8973023743079462
5530.6,0.42826466366601057,1.0707998610198821,-0.08646011286097988,-1.2051287847847787,-0.213695942766984,2.5568621016168827,2.89730020183009
5530.634,0.4283374999193734,1.0708430299926848,-0.0864309900029987,-1.2051601572329265,-0.2159928584160875,2.556856286800821,2.897300166062509
5530.667,0.4283862693784082,1.0708920368600685,-0.08641010448980335,-1.2051607418159733,-0.21773858995662376,2.5568511379872625,2.8973002086596757
5530.7,0.4284619775818636,1.0709080122897499,-0.08645709805425844,-1.2053097083777713,0.23595130803972883,2.5570947255818477,1.662356855392871
5530.734,0.4300659503855231,1.0719284278939654,-0.08582889539402672,-1.2059633667774117,-0.13038627340805053,2.5571412187806235,2.738515820250937
5530.767,0.4284569527768252,1.070905506635967,-0.08646238776780012,-1.2053122140315542,0.2359566134678824,2.557095277022178,1.6623591078873383
5530.8,0.42845973389314473,1.0709055066359503,-0.08645960468237424,-1.2053097083777713,0.23595620299650466,2.5570957479179466,1.6623642323557337
5530.834,0.42846224249141257,1.0709055066317799,-0.08645180834489956,-1.2053097083777713,0.23595612150693718,2.5570969132096573,1.6623577574266875
5530.867,0.428459736836584,1.0709107963495088,-0.08645709805425844,-1.2053122140315542,0.23595656007998211,2.557098606621276,1.6623645267159481
5530.899,0.428459736836584,1.070903000982184,-0.08645960370804134,-1.2053097083777713,0.23595519181112418,2.5570941971288534,1.6623641734491907
5530.934,0.42846224249141257,1.0709080122897496,-0.08645960370804134,-1.2053072027239884,0.23595222802495197,2.5570942968808485,1.6623664707986792
5530.967,0.42846224249141257,1.0709055066359667,-0.08646031399672491,-1.2053097083777713,0.2359524945737329,2.5570989646566944,1.6623678836434628
5531.0,0.428459736836584,1.0709002169224253,-0.08645960370804134,-1.2053054123259428,0.2359530573331917,2.557100041336718,1.6623612584252578
5531.034,0.4284569527768252,1.070905866522538,-0.08645960370804134,-1.2053097083777713,0.23595398365660816,2.5570943569029323,1.6623580366405044
5531.066,0.4284647481451955,1.070903000982184,-0.08645709805425844,-1.2053121875406008,0.23595613797541032,2.5571011436980227,1.6623668195969112
5531.1,0.428459736836584,1.0709107963495088,-0.08645709805425844,-1.2053072027239882,0.23595762878980367,2.557096664929976,1.6623643364841925
5531.134,0.42846224249141257,1.070903000982184,-0.08645709805425844,-1.20530970870482,0.23595656237332083,2.55709559318273,1.6623700138863682
5531.167,0.42846224249141257,1.0709080122897499,-0.08645459240047555,-1.2053097093589176,0.23595615195073474,2.5570947275823244,1.6623667632152552
5531.2,0.42846224249141257,1.0709080122897499,-0.08645709805425844,-1.2053097083777713,0.23595609862847902,2.5570989656437475,1.6623700067980594
5531.233,0.42846224249141257,1.0709080122897499,-0.08645960370804134,-1.2053072056674274,0.2359565637817939,2.557095772193632,1.6623645223550847
5531.267,0.42846224249141257,1.0709002168860866,-0.08645960370804134,-1.2053072027239884,0.23595463024141244,2.5570986129221267,1.6623612714531535
5531.3,0.4284569527768252,1.0709107963495088,-0.08645960370804134,-1.2053072027239884,0.23595229574087292,2.557096744620268,1.6623666469338212
5531.333,0.428459736836584,1.070903000982184,-0.08645701931725855,-1.2053122140315542,0.2359561394353784,2.5570997892299587,1.6623668273989047
5531.367,0.42846224249141257,1.070903000982184,-0.08645459240047554,-1.205307282196848,0.23595660011184977,2.5570946680784274,1.6623645092533907
5531.4,0.42846224249141257,1.0709107963495088,-0.08645709805425843,-1.2053072027239884,0.2359560940702875,2.5570989027303117,1.6623652532173105
5531.434,0.428459736836584,1.0709080122897499,-0.08644859405811767,-1.2053049354887846,0.23595827454004228,2.557098612895624,1.6623654281147924
5531.467,0.4284647481451955,1.070903000982184,-0.08645709805425843,-1.2053129292872915,0.23595642697797367,2.5570973364675393,1.6623634075765845
5531.5,0.42856587366483456,1.0708871779736162,-0.08645584223802594,-1.2052939320721467,0.20185200274295312,2.557137099233124,1.6803473328440726
5531.534,0.4283483746470962,1.0708574497219345,-0.08643161274189204,-1.2052360035253544,0.19689544135092696,2.557061809497366,1.7024018299128905
5531.567,0.428156420444715,1.070803101503734,-0.08652908476843191,-1.2052233710356992,0.18586599901840373,2.5570804786447674,1.7224299420675777
5531.6,0.42814088331319144,1.0707867900933676,-0.08663863755399781,-1.2052254014844719,0.175658826940416,2.5571138762542773,1.745607218564123
5531.634,0.4280311610533545,1.0707516716206218,-0.08660488213037354,-1.205195823977327,0.16389428744270695,2.557077128966043,1.7750568520391283
5531.667,0.42800780189452237,1.0707545408565995,-0.08661829876269955,-1.2051667953883989,0.15275381586379488,2.557070499990825,1.804139112927226
5531.7,0.42804737795333025,1.0707271570497499,-0.08667366483418348,-1.2052057263653815,0.14171003346737,2.55711666635945,1.8344702802956796
5531.734,0.427977648080061,1.0707173579740905,-0.0866287840161295,-1.205163282440476,0.1299736117758945,2.557058195001357,1.867596918520169
5531.767,0.4280365014272718,1.07072177618518,-0.08668934136223072,-1.2051817388490988,0.11796000938742957,2.5571247864895597,1.9026327220175965
5531.8,0.42846224249141257,1.0709080122897499,-0.08645960370804134,-1.2053097083777766,0.23595519131753814,2.557100044359508,1.662366763163636
5531.834,0.42846224249141257,1.0709080122897499,-0.08645960370804134,-1.205304697070654,0.2359585163536602,2.5570975532280045,1.6623598194098497
5531.867,0.42846224249141257,1.0709080122897499,-0.08645459240047555,-1.2053097083777713,0.23595848840877354,2.5570978628901977,1.6623645267159564
5531.9,0.428459736836584,1.0709030009817355,-0.08645960370804134,-1.205314359798766,0.23595565830451962,2.5571000662077568,1.662363368330721
5531.934,0.428459736836584,1.0709080122897499,-0.08645960370804134,-1.2053072027239884,0.23595625661134,2.557096513733084,1.6623678831650097
5531.967,0.4284569527768252,1.070905506635967,-0.08645709805425844,-1.2053149980913127,0.2359520194200185,2.557095786664004,1.6623569690927273
5532.0,0.4284647481451955,1.0709055066355184,-0.08645459240047555,-1.2053072027239884,0.23595661136153134,2.5570978609340393,1.6623622882752966
5532.034,0.4284544471230423,1.0709080122897499,-0.08645459240047555,-1.2053097083777713,0.23595647972609662,2.5570976660773472,1.6623696618221395
5532.067,0.428459736836584,1.0709080122896004,-0.08645960403281897,-1.2053097436990423,0.23595751209088486,2.5570943612876382,1.6623598585998003
5532.1,0.4284569527768252,1.0709080122897332,-0.08645960370804134,-1.2053097083777713,0.23595718042867408,2.5570967878982485,1.6623677223032338
5532.134,0.42846224249141257,1.0709080122897499,-0.08645960370804134,-1.205312214031554,0.23595661298868764,2.557099954291169,1.66236329000052
5532.167,0.42846224249141257,1.0709080122897499,-0.08645960370804134,-1.2053097083777713,0.23595443194600302,2.557101150249223,1.662359154649408
5532.2,0.42846753220495426,1.0709080122897499,-0.08645960370804684,-1.2053072027239884,0.23595146729937067,2.557098894484978,1.6623645795954693
5532.233,0.42846224249141257,1.070905506635967,-0.08645459240047555,-1.2053072027239884,0.2359576305114065,2.5570958319986214,1.6623624666179202
5532.268,0.42846224249141257,1.07091079602246,-0.08645960370848685,-1.2053118541449832,0.23595532726147814,2.5570946113726856,1.6623590333892284
5532.3,0.42846224249141257,1.070903000982184,-0.08645960370804134,-1.2053096289049114,0.23595557504940634,2.557100039547974,1.6623700198797728
5532.334,0.428459736836584,1.070903000982184,-0.08645960370804134,-1.205314998091313,0.23595454403715227,2.557096788281129,1.662364522334629
5532.367,0.428459736836584,1.0709079857987966,-0.08645960370804134,-1.2053072027239884,0.2359556578197158,2.5570999699486507,1.662371138857578
5532.4,0.4284569527768252,1.0709080122897499,-0.08645960370804134,-1.205314998091313,0.23595530256192518,2.557095488286826,1.662368896356072
5532.434,0.428459736836584,1.070905506635967,-0.08645459240047554,-1.2053122140315542,0.23595443044681286,2.5570978890539613,1.6623700155014158
5532.467,0.428459736836584,1.070905506635967,-0.08645709805425843,-1.2053097083414324,0.23595222991629605,2.5571008377779583,1.6623667630566303
5532.5,0.42846224249141257,1.0709107963494588,-0.08645459240052504,-1.205309708377771,0.23595661347415223,2.557095664958072,1.6623655897140304
5532.534,0.42846224249141257,1.0709054271631073,-0.08645709805425844,-1.205309708377771,0.23595300882047457,2.5570986330158414,1.6623667239722768
5532.567,0.428459736836584,1.0709080122897499,-0.08645709804225767,-1.205314359798766,0.23595329567840817,2.5570986199101093,1.662366760232289
5532.6,0.4284544471230423,1.0709080122897499,-0.08645638942125944,-1.2053097083777713,0.2359534127595007,2.5570979015626785,1.6623667645998816
5532.635,0.428459736836584,1.070905506635967,-0.08645709805425844,-1.2053097083777713,0.23595609959773214,2.557096381745013,1.662370019826152
5532.664,0.42846224249141257,1.0709080122897499,-0.08645459240047555,-1.2053122140315542,0.23595557314941293,2.5570985525776306,1.6623666338521614
5532.7,0.428459736836584,1.070905506635967,-0.08645709805425844,-1.2053072027239884,0.2359571562022234,2.5570978943367004,1.662360152511302
5532.733,0.42846753220495426,1.070903000982184,-0.08645709805425844,-1.2053046970702055,0.2359586343421206,2.5570957740767435,1.6623674125348502
5532.767,0.42846224249141257,1.070905506635967,-0.08645530268915912,-1.2053122140315546,0.23595238022336515,2.557096731263914,1.6623621666615596
5532.8,0.428459736836584,1.070905506635967,-0.086464893421583,-1.2053122140315542,0.23595762911972984,2.5570956287775712,1.6623612242765162
5532.834,0.42846224249141257,1.0709080122897499,-0.08645960370804134,-1.2053072027239884,0.23595649061458926,2.557097513545728,1.662361271489191
5532.867,0.4284647481451955,1.070905506635967,-0.08645459240047555,-1.2053072027239884,0.23595624442271676,2.557095486830765,1.6623699806315018
5532.9,0.42846224249141257,1.0709080122897499,-0.08645960370804134,-1.2053072027239884,0.23595557503308265,2.557099922147594,1.6623656326058796
5532.934,0.428459736836584,1.0709055066355184,-0.08645709805425844,-1.2053122140315542,0.23595532938092822,2.5570999540756767,1.6623590926756429
5532.966,0.42846224249141257,1.0709080122897499,-0.08645459240047555,-1.2053072027239884,0.23595325604265943,2.557094655136123,1.662370018408499
5533.0,0.42846224249141257,1.0709080122897499,-0.08645459240047555,-1.2053072027239884,0.23595325604265943,2.557094655136123,1.662370018408499
5533.034,0.4284647481451955,1.0709107963495088,-0.08645960370804134,-1.205309708268755,0.2359576261961769,2.55709898470258,1.6623678836495261
5533.066,0.4284323296485031,1.0709003565977318,-0.08642479740259557,-1.2052959835343673,0.20058245365173644,2.5570632633011243,1.7851846669954075
5533.1,0.42846224249141257,1.070905506635967,-0.08645709805425843,-1.20530970841411,0.235952330892947,2.557098632941427,1.6623608005569195
5533.133,0.42846224249141257,1.070905506635967,-0.08645709805425843,-1.205307202724437,0.2359523792299161,2.557095615217074,1.6623622751933422
5533.166,0.428459736836584,1.0709077738711708,-0.08645709805425864,-1.2053097084867874,0.2359550674830696,2.5571000849332344,1.6623656016027977
5533.2,0.42848053619193216,1.070939592962735,-0.08640302838157599,-1.2052909752415841,0.1975317473500251,2.557058709503398,1.7802445052688665
5533.233,0.428489658669144,1.0709359175706767,-0.08637343211556114,-1.2052969848621533,0.19866321436346723,2.5570593592393767,1.7778344601879077
5533.266,0.428459736836584,1.0709055056548205,-0.08645960370804134,-1.2053097083777713,0.23595530238737203,2.557094550289525,1.6623591687010342
5533.299,0.42829628829158395,1.070861468909813,-0.08653810911432913,-1.2052680878535895,0.182754482751597,2.5570918611865245,1.797813635067012
5533.333,0.42848574644990656,1.0709499218254352,-0.08636659869259944,-1.2052754666103391,0.1888805634822921,2.5570660547919957,1.7785244574686843
5533.366,0.428459736836584,1.0709080122897499,-0.08645709805425844,-1.2053122140315542,0.23595313909711804,2.5570953695797445,1.6623580500375943
5533.399,0.428459736836584,1.070903000982184,-0.08645459240047555,-1.2053072027239884,0.23595139196300974,2.557099679554246,1.662371121409275
5533.433,0.42846224249141257,1.070903000982184,-0.08645709805425844,-1.2053072027239884,0.23595513915827288,2.557094628781146,1.6623608759087536
5533.466,0.42846224249141257,1.070905506635967,-0.08645960370804134,-1.2053097083777713,0.23595457466100084,2.5570967360791728,1.6623722529360814
5533.5,0.42871922571606547,1.0710059613873169,-0.08635222571375767,-1.2053491598801491,0.19533920634525792,2.557090845867698,1.7493759926575514
5533.534,0.42846224249141257,1.070905506635967,-0.08645709805425844,-1.2053097083779207,0.23595554706421654,2.557096311483324,1.6623590691459948
5533.566,0.4283999669355394,1.0708904852619847,-0.08648322690150057,-1.2052837445791482,0.19040462545992476,2.5570923588553445,1.7576804633616359
5533.599,0.4285193699842553,1.070894860646443,-0.08647113933507367,-1.2053155123059556,0.1945836955696958,2.5570958915222253,1.753513176702615
5533.633,0.42823624267046423,1.070824530722195,-0.0865137018403681,-1.205242921598046,0.18461874428333136,2.557063459664695,1.7687522931751047
5533.666,0.4282134008677261,1.070793577687608,-0.08662598803274602,-1.2052515576049743,0.1759959572742682,2.557125910141842,1.7859672339944783
5533.699,0.42810527369419127,1.0707690568883272,-0.08658134101612802,-1.2051983557301629,0.16612284828429935,2.5570809842322078,1.8110116948783634
5533.733,0.42809378152357525,1.070745057201826,-0.086603432209019,-1.2051983517529195,0.15646966747047664,2.5570772211880275,1.836731028716116
5533.766,0.42813646231238245,1.0707436921767446,-0.08664827824732146,-1.2052168383896262,0.14691448224810166,2.557139275994036,1.8637001702528089
5533.799,0.4280615913411676,1.070734912263914,-0.08659275273404532,-1.205170153862598,0.13648874691286483,2.557066689025323,1.8935961120459233
5533.833,0.4280611295902448,1.0707195315003846,-0.08660628715390573,-1.2051722165952574,0.12624491621044154,2.557059969856155,1.9234994678771962
5533.866,0.42810878903466243,1.0707213511409064,-0.08664621565349329,-1.2051984928259643,0.11616700799343604,2.5571399432297532,1.9538896003763853
5533.899,0.4281086312442497,1.0707039276304968,-0.08665735459467694,-1.2052049153080429,0.10563137986006144,2.557138599566148,1.9860851357771114
5533.933,0.4280416096081474,1.070706832492152,-0.08660546679978776,-1.2051507590889328,0.09394540331670509,2.5570495797190205,2.0220802979718115
5533.966,0.428101746445237,1.0706980835150333,-0.08666347580138822,-1.2051973045476574,0.08395281982262404,2.5571644390883534,2.053467000084858
5533.999,0.42810207270283396,1.0706823194233097,-0.08667171753307734,-1.2052027910530851,0.07285953496082787,2.5571642882953505,2.08846147579521
5534.033,0.42811248673626245,1.0706919820801843,-0.08668829271267775,-1.2051949292577788,0.06175650181733516,2.5571912168507005,2.123471117809064
5534.066,0.42811195818360215,1.0706785540088735,-0.0866893675781073,-1.2052082656213674,0.05047793684791113,2.557220489473007,2.159441356127532
5534.099,0.42812136587501204,1.0706637015295772,-0.08670572257267395,-1.2052203236072732,0.039039768616081716,2.5572381175370875,2.195773092018886
5534.133,0.42813160249987003,1.0706724918579065,-0.0867221592094527,-1.2052129263241964,0.02742823009027351,2.5572693062728806,2.232934947053648
5534.166,0.42812988863268586,1.0706588763829679,-0.08672180306308341,-1.205226833287254,0.015657273518398185,2.557301910789544,2.2705468884137012
5534.199,0.4280786320009957,1.070665945034846,-0.08668708970507844,-1.2051536987624125,0.0026972450238789136,2.557122275936633,2.3117146488764746
5534.233,0.428059172633235,1.0706538494862947,-0.08667172166198167,-1.2051452786931964,-0.009722148269082354,2.557091053901436,2.351314761311974
5534.266,0.42805017551004454,1.070640907616779,-0.08667173144835516,-1.2051354657875581,-0.02229881725485061,2.557042409562005,2.3914657173207523
5534.299,0.42803887414536756,1.0706508407288,-0.08666647034733987,-1.2051023478705218,-0.03507578195851302,2.556990811005921,2.432085936137563
5534.333,0.42808817313605463,1.07062092276795,-0.08671668246235509,-1.2051795784875274,-0.04774191422466778,2.5572010723561185,2.4726703214797023
5534.367,0.4280936161231583,1.070627295343507,-0.08673296822275223,-1.205172191079237,-0.06072981019433499,2.5572379487258434,2.5139993240682585
5534.4,0.4280922299905079,1.070611137718279,-0.08673871689947621,-1.205187808547855,-0.07394138968390163,2.5572926856978384,2.5558993587496612
5534.433,0.4281009080908147,1.0705915494578893,-0.08675795798372121,-1.2052044431284257,-0.08739657540303458,2.5573358934600297,2.598502503172755
5534.466,0.42811487882516897,1.0705973284907673,-0.08677742977636616,-1.205203781432859,-0.10091028764624355,2.557392054055107,2.6412049899398404
5534.499,0.4281151709348796,1.0705814356378456,-0.0867811843826729,-1.2052200759590903,-0.11468763717177755,2.5574524491269663,2.684502239728925
5534.533,0.42812679701444534,1.0705612175184545,-0.08680035645959361,-1.2052396548164444,-0.12867797728545405,2.557505953003826,2.728526958113923
5534.566,0.42847576575343277,1.070905506635967,-0.08645709805425844,-1.2053097083777713,0.23595458717427079,2.5570997313969475,1.6623600347857912
5534.6,0.4284672166599489,1.0709107963454711,-0.08645709805425844,-1.2053122140314045,0.2359566003117504,2.5571012040883505,1.6623647047351622
5534.633,0.428459736836584,1.0709055066359614,-0.08646238776780012,-1.205312214031554,0.23595341024553454,2.5570986129155355,1.662357900020169
5534.666,0.42845695175934007,1.070903000982184,-0.08646238776780561,-1.2053149980926587,0.23595301931179305,2.5570989661282724,1.6623577217201722
5534.699,0.4284569527768252,1.070905506635967,-0.08645459240047555,-1.2053050569567765,0.23595341406092266,2.557095805783097,1.6623602113838885
5534.734,0.42846224249141257,1.070905506635967,-0.08645960370804134,-1.205309708377771,0.23595217732156623,2.5570984559387826,1.662358626555391
5534.767,0.428459736836584,1.0709107963495088,-0.08645960370804134,-1.2053097083818087,0.23595430910093954,2.5571008113987923,1.6623647003737712
5534.799,0.42846753220495426,1.0709080122897499,-0.08645459240047555,-1.2053072037419228,0.23595341252651306,2.557101204018868,1.6623601525053449
5534.833,0.4284706156381386,1.070903000982184,-0.08645180834489956,-1.2053122229708881,0.23595569648557713,2.5571000807521,1.6623591691795938
5534.866,0.42846298076822753,1.0709080122897499,-0.08645709805292502,-1.2053097113212103,0.23595661294988743,2.557100040806419,1.662358050205303
5534.899,0.4284569527768252,1.070905506635967,-0.08645459240047554,-1.205304697397254,0.23595550579119576,2.557099143650998,1.6623678792350625
5534.933,0.4284544206320891,1.0709107168766492,-0.08645709805425843,-1.2053072027239884,0.23595727514592532,2.5570989660810746,1.6623575172697758
5534.966,0.4284509478075462,1.0709107963495088,-0.08645960370804133,-1.2053097083737392,0.23595660032958135,2.5570978325656983,1.662363406283878
5534.999,0.42846221600045936,1.0709054271631073,-0.08646238776780012,-1.2053072027239882,0.23595762614222007,2.5571000836053734,1.6623633902895079
5535.034,0.42846474813308255,1.0709080122897496,-0.08645709805425844,-1.205312214031554,0.23595569650341972,2.5571023229049388,1.6623666469321199
5535.066,0.42846753224095835,1.070905506635967,-0.08645960370804134,-1.205312214031554,0.23595654931795676,2.557101204090637,1.6623622887538316
5535.099,0.4284647481811978,1.070905506635967,-0.08645459240047555,-1.2053047235613081,0.23595727466962338,2.557099962988642,1.6623678444036945
5535.133,0.4284544471230423,1.070905506635967,-0.08645709805425844,-1.2053122140315542,0.23595304607127981,2.5571001429451323,1.6623675299463427
5535.166,0.4286437145352,1.0709546208578988,-0.08633246425168029,-1.2052759718128092,0.2010569096765602,2.5571141562306536,1.6428238563045863
5535.199,0.42856096899694496,1.0709290171199184,-0.08631529279269845,-1.2052615927177097,0.19932978252830136,2.557090879400697,1.652488396138284
5535.233,0.42835766948932275,1.0708617191966212,-0.08642114013137103,-1.2052436653289336,0.1887168932389729,2.557087906449965,1.6657635261120562
5535.266,0.4282782950861641,1.0708535282070555,-0.086455713702831,-1.2052050789472073,0.17904996316036748,2.557093799645699,1.6816364147358085
5535.299,0.4283011119879623,1.0708187646688785,-0.08652726006860068,-1.20523827753113,0.16942218183944746,2.55711839021715,1.7002703534604606
5535.333,0.4282152434622377,1.0708138751921839,-0.08646942497978127,-1.205186130440853,0.15836181391303583,2.5570984180861505,1.7252459366704471
5535.367,0.4282093011652348,1.0707942469296583,-0.08648144428553461,-1.2051876185963142,0.1480181419963431,2.557089408491713,1.7489434961584998
5535.4,0.42819933673362254,1.0708008755100318,-0.0864777681756479,-1.2051563327248864,0.13739053990606998,2.5570822381554414,1.776199086694053
5535.433,0.4281785659475963,1.0707853126400462,-0.08646023235488265,-1.205149891292196,0.12659446223815607,2.5570753786847487,1.8047978174391357
5535.466,0.4281731171535421,1.0707700910905835,-0.08646190612895843,-1.2051437340349773,0.11570334609727162,2.5570600662610232,1.8352663713171715
5535.499,0.4281640015006376,1.0707786862774533,-0.0864566280238499,-1.2051154862416444,0.10464087670689004,2.5570430498042676,1.866908364988717
5535.533,0.4281432112979626,1.0707648439450477,-0.08643860885999732,-1.2051093799882162,0.09339295605946152,2.5570287783016425,1.8997829707947957
5535.567,0.4281355810304932,1.0707511902106877,-0.08643918794992356,-1.2051024731347404,0.08203839137902857,2.5570054529487116,1.9336482324820778
5535.599,0.4281262203676688,1.0707603890672956,-0.08643542324268338,-1.205073916034272,0.07049759794494381,2.5569825599019396,1.9685208543211736
5535.633,0.42811186550949376,1.0707495567670868,-0.08641458815657543,-1.2050708167836373,0.059132240702698624,2.5569616901044903,2.0036074863508126
5535.666,0.42810011266081993,1.070736122661712,-0.08641506229089302,-1.2050612223228816,0.04738486196037339,2.5569308823339956,2.039760101828371
5535.699,0.4280871684465044,1.070743376961059,-0.08641237506995658,-1.2050313068872303,0.03532928695976256,2.5568996782550215,2.0774646123268514
5535.734,0.4280630671940111,1.0707299913809427,-0.08639603842221,-1.2050207242384516,0.0230649014344122,2.556870767101266,2.1157744388966186
5535.766,0.42805322785691224,1.0707158315485241,-0.08639699781579235,-1.205012725149789,0.010694302991413274,2.556834656383163,2.1547380907812865
5535.799,0.42804157791288144,1.0707247985655828,-0.08639327776129768,-1.2049815528283743,-0.0018892737175884022,2.5567963533869413,2.194321843017157
5535.833,0.42801684714715105,1.0707116158105556,-0.08637476734227434,-1.2049697591718056,-0.014711265917846994,2.55675711266357,2.234674125646233
5535.866,0.42800545415269386,1.0706977524564598,-0.08637292170493183,-1.2049595191280913,-0.02763864822719775,2.5567103188155667,2.2754904101070856
5535.899,0.42799327876612914,1.0707061125522976,-0.08636858231969491,-1.2049263537245691,-0.04081393697911473,2.556662357531062,2.3169821750560864
5535.933,0.42796880969067974,1.0706928280586823,-0.08635048045880733,-1.2049115849234182,-0.054221812286000315,2.556615453553068,2.3592449860498945
5535.966,0.42795784303776596,1.0706783304896028,-0.0863492404666415,-1.2049004883952827,-0.06774917011342652,2.5565634316111385,2.4017185163538652
