yuan18844-afk/dissertation/catkin_ws/src/franka_digital_twin/analysis/data/gazebo_slow1_20250728_064855.csv
time,panda_joint1,panda_joint2,panda_joint3,panda_joint4,panda_joint5,panda_joint6,panda_joint7
5247.634,0.25568690400046035,1.1093413476330494,0.13853130978394923,-1.1590574321077578,-0.11627100708267049,2.328136996123525,2.6583656387481995
5247.668,0.2556483291263314,1.109351878625163,0.13859285347935124,-1.159003385676213,-0.15933009277913257,2.32789686081221,2.7803251603779273
5247.701,0.2556841198207919,1.1093445420516161,0.13853130001772473,-1.1590652274750823,-0.11626679165147975,2.328134758167799,2.658361149754789
5247.734,0.2556859716099884,1.109347047705399,0.13853380567193774,-1.1590574321077578,-0.11627099442613509,2.3281381151013902,2.658354537613276
5247.767,0.25568313912635265,1.1093420363978332,0.13853130001770822,-1.1590627218212997,-0.1162710075854238,2.3281380758555335,2.6583590135243202
5247.8,0.2556887933106559,1.109341806809572,0.13853658973124988,-1.1590574321077578,-0.116266783351961,2.3281369961235256,2.658360132502185
5247.834,0.25568623385108546,1.1093420363978332,0.13853343585498046,-1.1590574321077578,-0.11627088491670884,2.32813811510738,2.658360132502185
5247.867,0.25568365268450716,1.1093445420516108,0.13853130001770822,-1.159054926453975,-0.11626892572972235,2.328135890227613,2.6583578945463815
5247.9,0.25568373682125756,1.109344542039952,0.13853380567149112,-1.1590574321077578,-0.11626703575900214,2.328141294015852,2.6583611497547888
5247.934,0.2556862454073565,1.1093445420516161,0.13853380567149173,-1.1590574320700733,-0.1162686166967626,2.328139235532805,2.658366642918851
5247.967,0.2556855284542362,1.109342036386169,0.13853451761585928,-1.159054926453975,-0.1162679026356622,2.328135877145661,2.658366642918851
5248.0,0.255683737149276,1.1093420363978332,0.13853137912278685,-1.1590602161675168,-0.11626963400414403,2.3281369975771495,2.6583666429188515
5248.034,0.25568902989960546,1.1093445420516161,0.13853130001770822,-1.1590602161675168,-0.1162689716219392,2.3281392471614284,2.658366642918851
5248.067,0.25568690400046035,1.1093420363978332,0.13853130001770825,-1.1590627218212997,-0.1162679079723001,2.3281391752240364,2.6583633877105184
5248.1,0.25568126110004624,1.1093420363978332,0.1385365897352688,-1.1590602161675168,-0.11627190654842313,2.3281381194620407,2.658368805065152
5248.134,0.2556887926792075,1.109339251393267,0.13853343585081268,-1.1590602161549552,-0.11627198346225258,2.3281392384399053,2.6583656256662476
5248.167,0.25568687472674767,1.1093420363978332,0.13853201197413503,-1.1590574321077578,-0.11626891904884384,2.3281369961235256,2.658362268732654
5248.2,0.25568364833963264,1.1093420363978332,0.1385320120707533,-1.15906021900194,-0.11626998446938944,2.3281381151013902,2.6583578945464557
5248.234,0.25568902698193685,1.109347047705399,0.13853380567149112,-1.1590602161675168,-0.11626897307629426,2.3281369961235336,2.6583656256662476
5248.267,0.2556526974545834,1.1093666920306484,0.13859223900916007,-1.158987466070009,-0.1592778600669993,2.3278958035591177,2.7712346416504836
5248.3,0.2555761833317076,1.1093550430610302,0.13865885386076915,-1.1589511620332695,-0.1614780320336502,2.3278203046718104,2.7747753017048424
5248.334,0.2554275994583506,1.1092707104778903,0.138604921109593,-1.158879539473923,-0.1750239489614156,2.3277583269787243,2.7888595716297733
5248.367,0.2554554060817056,1.1092038906355457,0.13847666191052355,-1.1589676147219228,-0.18650939194883964,2.328153336254333,2.8007842004243884
5248.4,0.2554322820070194,1.1091825649097,0.13846165254612863,-1.1589595329971463,-0.19887747937968747,2.3281664205808603,2.8154219220602847
5248.434,0.25543540859310454,1.109160181025099,0.13843147521187404,-1.1589767141195466,-0.21135487942146458,2.328245590752246,2.8311201858584294
5248.467,0.2554394455562914,1.1091519271284973,0.13841255698962662,-1.1589897349769425,-0.22400017199224997,2.3283201487621312,2.848022660335431
5248.5,0.2553543000905467,1.1091726574587106,0.13853380306754115,-1.1588702507639637,-0.23798797955071294,2.3278863427174628,2.8686698002862094
5248.535,0.2554398624242529,1.109132243672975,0.13840575696667923,-1.1589872543509196,-0.25171699699713646,2.3283382226066323,2.8886513946054215
5248.566,0.2555137240941603,1.1091856724905806,0.13844262937790308,-1.1590000371191085,-0.2587640587083264,2.3281572967023667,2.8973194172989416
5248.599,0.255591775378905,1.1092606006532826,0.13848877725300657,-1.1590163412501102,-0.2617063355539351,2.3281291000425206,2.897300189603895
5248.634,0.25564245734773205,1.1092940648722562,0.1385017905061554,-1.1590349913183218,-0.2641422246492704,2.3281276971972957,2.8973001840368777
5248.667,0.2556687630242118,1.1093232550824697,0.13852276859321666,-1.1590367649125213,-0.2659549615181147,2.328111341627732,2.8973001660821165
5248.7,0.25568782565465664,1.1093277086990803,0.13853131447349742,-1.15905886594215,-0.2672995295325551,2.32812579073234,2.8973001496486095
5248.734,0.25571063370581104,1.1093483053827606,0.1385308887277068,-1.1590505248766991,-0.2683043582208402,2.3281110853081053,2.897300182562393
5248.766,0.2557144258548085,1.109348622605804,0.13854187908425075,-1.1590652232592076,-0.2691063659413251,2.328121932248454,2.8973001500777436
5248.8,0.2556181448893531,1.1093583443952584,0.1386584296611275,-1.1589770583109127,-0.2727478110958632,2.327742548037362,2.895189775071252
5248.834,0.25550908572373743,1.109276977332966,0.13864631487479162,-1.1589050411505433,-0.2841933241354271,2.327459841592887,2.891121263086065
5248.867,0.25543533517865047,1.109228801181593,0.13864751099984574,-1.1588529816582955,-0.2966073466610686,2.3271534196829275,2.890119807660353
5248.9,0.2553818304428166,1.1091941411572392,0.13865847295920375,-1.1588088877135228,-0.3099056976645116,2.3267817895354987,2.892197948807656
5248.933,0.255689029467578,1.1093420363978332,0.1385313293198493,-1.1590574321077578,-0.11626642785856595,2.328137349354205,2.6583658008597517
5248.967,0.2556880837475175,1.1093445420516161,0.13853682704603926,-1.1590627218212997,-0.11626998887447021,2.32813799736382,2.6583656271197977
5248.999,0.2556883115455448,1.1093392523380745,0.13853384082938652,-1.1590574321077578,-0.11626663759429812,2.3281358732874797,2.6583622687326534
5249.033,0.25568799755743543,1.1093392523030818,0.1385387255683733,-1.159054926453975,-0.11626687466030965,2.3281381151013902,2.6583622687326547
5249.067,0.2556862455153792,1.1093392523380745,0.13853380968641896,-1.1590627218212997,-0.11627100750870985,2.3281381151013902,2.658362268732654
5249.1,0.2559295490687301,1.1096087604051794,0.13881078113623602,-1.159071453039199,-0.1853940016598825,2.327346353675498,2.726132724927256
5249.134,0.25568543826187096,1.1093356022269054,0.13859072519880034,-1.1590539824098585,-0.17531113622027839,2.327888963449098,2.717792796640154
5249.167,0.255218521069394,1.1091279052255532,0.13860660722718432,-1.1587377788005986,-0.18472328358413748,2.3273232091119436,2.7297804379326056
5249.2,0.2551249928627035,1.1089636809682402,0.13838783828734869,-1.158801167158133,-0.19516176543997865,2.3278217006394915,2.741361305060611
5249.234,0.2549722790816755,1.1089630212861854,0.13849213678422778,-1.1586275939341633,-0.2072191858187198,2.3273016279282324,2.7576835588491715
5249.267,0.25495483887213233,1.1089389506187484,0.13847120809589164,-1.1586244860333421,-0.21856928475052317,2.327328201091058,2.773172972255809
5249.3,0.25501625341478906,1.1088863568888376,0.1383614473929864,-1.1587312876294753,-0.22929602930512072,2.327709184202705,2.787875301494818
5249.334,0.2556861667783818,1.1093420363978332,0.13853380567150764,-1.159054926453975,-0.11626770057507413,2.3281381166087756,2.6583578945464557
5249.367,0.2556914557359103,1.1093420363978332,0.13853201207058796,-1.1590574321077578,-0.11626789531581694,2.328136996141473,2.658361149754789
5249.4,0.25565545358754704,1.1093537451387254,0.13860954075122578,-1.1589632097502696,-0.20921177767623966,2.3275478306114827,2.77274950740345
5249.433,0.25564409468201355,1.1093833590822788,0.13868595484988067,-1.1589827934648866,-0.20069691944179002,2.327925236322116,2.768013896454187
5249.466,0.25536971759138627,1.109232850900021,0.13864348875531274,-1.1588147999794582,-0.21544954149792872,2.327451860496227,2.7921093085700406
5249.5,0.25535851869732884,1.1091564422136662,0.1385145152129379,-1.1588951407240575,-0.22641227615291992,2.327954232829084,2.797747342157056
5249.533,0.2552413976153458,1.1091457928104749,0.13861975650151948,-1.1587533936605974,-0.23919699100349412,2.3274380069289275,2.8088266066598493
5249.566,0.25531109150062736,1.1090960376882544,0.13847181408251608,-1.1588762897396645,-0.25124421531949537,2.3279521196722044,2.818373808370035
5249.601,0.2552145053606596,1.1091360573985316,0.13861102251470658,-1.1587205848531514,-0.26497986124471584,2.3274240667758637,2.833402012608669
5249.633,0.2552119419434451,1.1091266595287355,0.13860978424727133,-1.15871483627308,-0.27782990482111725,2.3274114896966847,2.848155662696053
5249.667,0.25519601197517794,1.1091210798731748,0.13863379575166235,-1.1586800251870857,-0.29122022469976905,2.3272375626236226,2.8651608248481093
5249.699,0.2551861479679216,1.1090995818004439,0.13865615083654603,-1.1586678929973084,-0.3047436699232682,2.3269817799027663,2.8841795833826644
5249.733,0.2552988079783569,1.109108014760145,0.13852908287658838,-1.1587643213363936,-0.3149229369484088,2.32707432227609,2.897371554037324
5249.767,0.25536707506573997,1.109187226884215,0.13862553611934558,-1.1587960284174539,-0.3176071981359412,2.3269575521186887,2.897300165598356
5249.799,0.25542826842920263,1.109245841756497,0.13863382632620969,-1.1588089868596567,-0.3202805245905971,2.3269303377528114,2.8973002011633646
5249.834,0.255463019309067,1.1092702213227525,0.13864127297519513,-1.1588235370531335,-0.3222274245790544,2.326908623534619,2.897300201801947
5249.866,0.25547519645799,1.109280979269644,0.13865554078447762,-1.1588412396692362,-0.323769819968029,2.3268999338611422,2.8973001643635445
5249.899,0.2554907948852687,1.1092939121179128,0.13866214740754046,-1.1588470147804877,-0.3249190806932951,2.326885484516879,2.897300163829115
5249.933,0.2555091435406238,1.1092952374836837,0.13865633795069066,-1.158861856189243,-0.3257811300899158,2.326875870293268,2.8973001447948032
5249.966,0.25551044728587513,1.109307903765166,0.1386695103963298,-1.1588585569059608,-0.3264574465434409,2.3268688961579613,2.8973001641704172
5250.0,0.2554948663242289,1.1092775055868724,0.13865985027785666,-1.1588733866018721,-0.3293291600482915,2.326928985319789,2.8954493072677625
5250.033,0.2553285864895791,1.1092221723142845,0.13873769573270156,-1.1586983482503426,-0.3416035319366566,2.326113719355549,2.899104892966074
5250.067,0.2553754276918845,1.1091573611683856,0.13861864404243107,-1.1587959999454869,-0.35016783169355037,2.3261141801260887,2.8935163204323793
5250.1,0.25534496195296974,1.109095786823607,0.13856917442512184,-1.1587844368716285,-0.3632202517213532,2.3256820761722246,2.896482870869324
5250.133,0.2556835039750641,1.1093392523380745,0.13853130001785705,-1.159054926453975,-0.11627096815761644,2.3281369961175438,2.6583601325021844
5250.166,0.2556862357592066,1.1093392523380745,0.13853380567149112,-1.1590574321077578,-0.11627100172201837,2.328136996123525,2.658364506688383
5250.199,0.25641655156581766,1.1097056628122024,0.13838742866574005,-1.1594978111125105,-0.30816803342333365,2.3259774848064367,2.8227881028087634
5250.233,0.255685300982492,1.109342036386169,0.1385365897312517,-1.1590574321077578,-0.11626999028082029,2.3281358771456606,2.6583666433495328
5250.267,0.2556837401860639,1.1093392523380745,0.1385340430264718,-1.159054926453975,-0.11627088881102605,2.328136997577076,2.658357894546455
5250.299,0.255685298043655,1.1093392523380692,0.13853130001771372,-1.1590574321077578,-0.11626987009829169,2.328140175037914,2.6583657390491484
5250.333,0.25568624147023594,1.1093420363978332,0.13853380567149112,-1.1590602161675168,-0.11627100741923996,2.3281370092054776,2.6583688808745807
5250.368,0.25568895073057796,1.1093443124633549,0.13853380567193765,-1.1590602161675168,-0.11626999017242169,2.3281369961235256,2.658367761896716
5250.4,0.2556831750968456,1.1093420363628406,0.13853380567149112,-1.1590574320951963,-0.11627166802256447,2.3281371138611036,2.6583601325081663
5250.434,0.25568373143701206,1.1093445420516161,0.13853909538503278,-1.159054926453975,-0.11626679635702208,2.328135877145882,2.6583601712635243
5250.467,0.2552774572188472,1.1090834227744777,0.1384957649508669,-1.1588136225520271,-0.1644569181594644,2.3276167359460107,2.677617840452326
5250.5,0.25568411658019174,1.1093392523380745,0.13853380567149112,-1.1590602161675168,-0.1162689723791329,2.3281380950254564,2.65835913126189
5250.535,0.25568621947411574,1.1093392523380745,0.13853380567149173,-1.1590574330525616,-0.11626679505899504,2.3281393561774752,2.6583633877105184
5250.567,0.25568376692643296,1.1093420363978332,0.13853380567149112,-1.1590574229503914,-0.11627065206999321,2.3281369961235256,2.6583666429188515
5250.6,0.25568832018648247,1.1093445420516161,0.13853130880714484,-1.1590527012139034,-0.1162689730642745,2.3281381194620407,2.658367761896716
5250.634,0.25568623417510034,1.1093392523380745,0.13852601030416656,-1.1590501955601205,-0.11626963546559875,2.328138055761655,2.6583656256662476
5250.667,0.2556831459332047,1.1093445420516161,0.13853380567149112,-1.1590602161675168,-0.11626679633905582,2.328138245920912,2.658360136862909
5250.7,0.2556112257506715,1.1093404679859962,0.13859810859623156,-1.1589812661658758,-0.15884387636506858,2.3278601869982065,2.663958818254713
5250.734,0.25564856908246725,1.1093317881693983,0.13853885244055242,-1.1590405843673883,-0.16139806959547975,2.3281967306229507,2.6656990856674234
5250.767,0.2554478560873683,1.1092694330029778,0.13858902992040267,-1.158903899605539,-0.17522435637199063,2.327783470771548,2.68043281765671
5250.8,0.2554977742457982,1.1092279084515138,0.13844684870719348,-1.15898256287403,-0.18673055644849867,2.328208818590836,2.691735372165324
5250.834,0.2554785204498957,1.1092082173665387,0.13843110012566928,-1.1589737662124548,-0.19922251847025496,2.328216801011651,2.705926407527759
5250.867,0.2554843379031455,1.1091924485985336,0.13840063766099853,-1.1589822949821036,-0.2117851312402257,2.328291949773373,2.721203480504105
5250.9,0.2554933690356176,1.1091851496975016,0.1383777575878593,-1.1589884908187447,-0.22454669588438403,2.3283614879925274,2.737761911384858
5250.934,0.2554927787491881,1.1091629368146982,0.13836600401152044,-1.1590120913511717,-0.23764783031845482,2.3284351259230807,2.7558281727869645
5250.967,0.25550649637060996,1.1091526820653996,0.13834471871447018,-1.159025664785469,-0.2508367785290453,2.328509380796353,2.7752840200091455
5251.0,0.2554307378659324,1.109165327068359,0.1384574992133727,-1.158918498994705,-0.265359041863519,2.3280827024766033,2.798782007177511
5251.034,0.2554235502967339,1.1091598443861725,0.13847206301370818,-1.1589041592046296,-0.2792452260120797,2.328034639141835,2.821817151473562
5251.067,0.2554114577962707,1.1091555393741084,0.1384961360178414,-1.1588825493590011,-0.29337703295159834,2.327917450280051,2.8466982605211015
5251.1,0.2553999016548696,1.1091495987540076,0.13852092727695187,-1.1588501731694425,-0.30763879959973295,2.3277003410597015,2.873440769447509
5251.134,0.2554523243783571,1.1091482103925037,0.1384657092402346,-1.1588889992714604,-0.32092355431458586,2.327600322836485,2.8975586450149766
5251.167,0.25557745088944106,1.1092217352298777,0.13850040735172353,-1.1589738297741778,-0.3239148126278355,2.327601385168842,2.8973002800133933
5251.2,0.2556353804331781,1.1092771127802115,0.13852227237195702,-1.1590054042580888,-0.32691095263781556,2.327564732252755,2.8973001418974125
5251.234,0.2556746455202932,1.109308675771179,0.13853829840985288,-1.1590258569593148,-0.32914345946415047,2.3275351050465005,2.897300140132268
5251.266,0.2557010860758435,1.109327557903237,0.1385453119477127,-1.1590406277643996,-0.3307796313774656,2.3275161387442793,2.897300142089845
5251.3,0.25572705126589046,1.1093576171096924,0.13854883748830904,-1.1590351500190756,-0.33207211936115577,2.3275012495600187,2.8973002085737374
5251.334,0.25574026426189,1.1093690077132345,0.13855623491810753,-1.1590371075134538,-0.33304337380189697,2.3274765275259632,2.897300202795252
5251.367,0.2557438914302299,1.1093696890586404,0.13856486480517916,-1.1590490702569891,-0.3337758675797451,2.327484473155078,2.897300166193899
5251.399,0.2557429787646974,1.1093495133084135,0.13854331506248663,-1.1590545336740776,-0.33655774978312714,2.327521250583583,2.8947037288073982
5251.433,0.2555577795655175,1.109274454484983,0.13863980583436675,-1.1588982843157396,-0.34957723598944934,2.326679631201431,2.896659883983631
5251.467,0.25568597317660396,1.1093445420516161,0.13853380567551005,-1.159054926453975,-0.11626994292801913,2.3281381151013902,2.6583601848299936
5251.5,0.2556915355010741,1.1093419598684129,0.13853380567551005,-1.1590574321077578,-0.11626781377173745,2.3281369961235336,2.6583688807130748
5251.534,0.2556862458219197,1.109349831765158,0.13853380567149112,-1.1590574321077578,-0.1162679371540669,2.328139273325188,2.6583578945464557
5251.567,0.2556885920002821,1.1093445420503203,0.13853380567149112,-1.1590602161675168,-0.11626667772238104,2.3281369961236074,2.658361149754789
5251.6,0.25568552745007395,1.1093392523380745,0.13853380567149112,-1.159054926455271,-0.1162698719853342,2.328136230358371,2.6583656256662476
5251.634,0.2556837698371299,1.109347047705399,0.13853346221912322,-1.1590549264539751,-0.1162699429760939,2.3281393518168247,2.658360132502185
5251.667,0.2556887664302585,1.1093445420516161,0.13852851595795496,-1.159060216167517,-0.11626992983905499,2.328134758167796,2.6583656256662476
5251.7,0.25537233275704807,1.1090726391531591,0.1384170068394166,-1.1589201188952254,-0.1673699125429957,2.3279578520965405,2.6894750469197977
5251.734,0.2551228247104822,1.1089792183229896,0.13845840563208967,-1.1587366816623978,-0.16433424960622123,2.3276133386605444,2.6900683829301144
5251.767,0.2556862079156107,1.1093392523380745,0.13853380568354795,-1.159054926453975,-0.11627065123248947,2.328140175037914,2.6583645066884567
5251.8,0.25568362645350834,1.1093445420516161,0.13853658973124988,-1.15905996891862,-0.11626963108541429,2.3281381157474397,2.658362268732654
5251.834,0.25568518293849973,1.1093392523380745,0.13853130001770822,-1.159054926453975,-0.11626997280445787,2.3281381151013902,2.658360132502185
5251.867,0.25568902946352834,1.1093445420516002,0.13853130880714487,-1.1590602161675168,-0.11626677882671868,2.3281358378998043,2.658360132502185
5251.9,0.2556853005278165,1.109347047705399,0.13853130001770822,-1.1590574321077578,-0.11626998529806014,2.328136996123525,2.6583666429188515
5251.934,0.2556879932319902,1.1093470477053937,0.13853130001770883,-1.1590574321077578,-0.11626994151595485,2.3281358771456606,2.6583688808745807
5251.967,0.25568544871138205,1.1093413476330494,0.13853658973124988,-1.1590574321077578,-0.11626895549784146,2.3281381152628953,2.658361149754789
5252.0,0.2556826804767772,1.1093392523380745,0.13853343585081268,-1.1590602161675168,-0.11627100758750955,2.3281401755225044,2.6583590135781554
5252.034,0.25568624569045456,1.1093420363978332,0.13853658973124988,-1.1590602161675168,-0.11626997701134237,2.3281381194620407,2.658361149754789
5252.067,0.255674942079005,1.1093917879191677,0.13862619121617126,-1.1590139047227241,-0.1591728185828174,2.327883519750163,2.66691988143409
5252.1,0.25568055144755314,1.1093445420516161,0.13853130001770822,-1.159060216167517,-0.11626998887454348,2.3281381543472466,2.658364506688383
5252.134,0.25561878900915325,1.109325630586568,0.13856280018252143,-1.1590002055291686,-0.16644260065920324,2.3278422923055064,2.6773661373035242
5252.167,0.2557140996124323,1.1093584795580282,0.13853344810150592,-1.1590737325010192,-0.16461207722525195,2.32820544112357,2.678055302336258
5252.2,0.2555762896612057,1.1092703582340846,0.1384669556657654,-1.159021217657969,-0.17737638422674884,2.328213803242903,2.6935053935687208
5252.234,0.2554303588185549,1.109248727498671,0.13856069705540985,-1.1589012079960828,-0.19023438983575147,2.327844333543837,2.711129754702519
5252.267,0.25539821055270817,1.1092283154732074,0.13855720904617908,-1.1588789985366503,-0.20267651138473486,2.3278137035942947,2.727973479928231
5252.3,0.2553696710320441,1.1092172482057627,0.1385762347685935,-1.158851053312481,-0.21551522635222486,2.3277292550568127,2.7461341902458685
5252.334,0.255437844691599,1.1091779468261782,0.13845828262234416,-1.1589516672738815,-0.2282904307642788,2.32812563914802,2.7644069306123775
5252.367,0.25535504787933405,1.1091902715416309,0.13857624526382128,-1.1588321327276816,-0.24270555239245528,2.3276777670177538,2.787705670324712
5252.4,0.25532935167998794,1.109190925015965,0.13859981643429542,-1.1588080211260925,-0.2564592878928167,2.327625041167831,2.8102781440876026
5252.434,0.2553112888076514,1.1091863653550975,0.13862624368567822,-1.1587801849244208,-0.2705784948580252,2.3275332453100788,2.8345716602200675
5252.467,0.2552954354558823,1.109182583878443,0.13865388162440428,-1.1587518348690455,-0.2848275049772804,2.327407593600963,2.8604942404000493
5252.5,0.2553829193231234,1.1091315148697092,0.13852177617795025,-1.158863119441281,-0.29891549751943725,2.327686843874014,2.887235471504628
5252.534,0.2554558910785101,1.1092116221596324,0.13856714582887442,-1.1588695286249058,-0.3063632305448891,2.3274386136197407,2.897301621140395
5252.567,0.25552715316736574,1.1092815472651818,0.13862532203625655,-1.1589150474104404,-0.3096200995035865,2.3274105541835564,2.897300158255259
5252.6,0.2555787847966773,1.1093179736750285,0.13863857557358195,-1.1589388267991376,-0.3121485482314208,2.327400339926662,2.897300161299592
5252.634,0.2556165204098102,1.1093390833142536,0.1386486886775602,-1.1589593545507197,-0.31411572159670964,2.3273736934661553,2.8973001367170035
5252.668,0.255644695236831,1.1093585046245211,0.13865214771193113,-1.158970721364848,-0.31553591428131167,2.327380582258897,2.8973001354888126
5252.7,0.2556861939635203,1.109342036397828,0.13853380567149112,-1.1590574321077578,-0.11627198492350424,2.3281369961235256,2.6583645066883856
5252.734,0.25568939686887104,1.1093445420516161,0.13853130001771372,-1.1590574321077578,-0.11626999011855797,2.328139234079255,2.6583633877105184
5252.767,0.25568831996869146,1.1093445420516161,0.1385340429862805,-1.1590574321077578,-0.11626537509660187,2.3281381165549404,2.6583601455841395
5252.8,0.25568879368860586,1.1093420363978332,0.13853380567149112,-1.1590627218212997,-0.11626679644701964,2.3281347581677965,2.6583590133628143
5252.834,0.25568541913927817,1.1093392523376426,0.1385338320398011,-1.1590549264535097,-0.11626678189737061,2.3281369961235256,2.658366642918851
5252.867,0.2556890294515103,1.1093392523380745,0.13853380567149118,-1.1590602161661212,-0.11626893364644789,2.3281369367837903,2.6583645066883825
5252.9,0.2556908267999494,1.1093445420516161,0.13853659852073616,-1.1590574321077578,-0.11626663808071507,2.3281381151073717,2.6583688808745802
5252.934,0.25568900316812476,1.1093445420511843,0.13853451859246332,-1.1590541847072673,-0.11627065271689214,2.3281369961235283,2.6583645066883825
5252.967,0.2552960733797187,1.1090077874933115,0.1383408848350154,-1.1589073395578557,-0.16186247458316316,2.328273506423894,2.728680698483279
5253.0,0.25526510614860065,1.108999454392677,0.13833997204203374,-1.1589012476637262,-0.16064315410194663,2.3282960780399993,2.7335421383424467
5253.034,0.2550276212582627,1.10895380247233,0.13839399567216049,-1.1587186097707107,-0.17357317070250122,2.327892807143691,2.7529024361573153
5253.066,0.2550505566734351,1.1088738764500006,0.13824569488202343,-1.1588318570494227,-0.18382018367334574,2.3283593540507166,2.767822995281101
5253.099,0.25494014123682884,1.1088775464699951,0.13835635478438846,-1.1586920061722257,-0.1968087515570316,2.3278761423783525,2.788701154826727
5253.133,0.2550161289600794,1.108847365356647,0.13821425200384674,-1.1587963708758275,-0.2077818807726608,2.328358583356337,2.8058473834182056
5253.166,0.25490315483732306,1.1088628524449797,0.13836465394637543,-1.1586659729217725,-0.22125345228496496,2.327841377115959,2.8290189836953417
5253.201,0.25499994627719325,1.1088145796693292,0.13821428254567625,-1.158797448912619,-0.23327475327369473,2.3283566335919694,2.8497506455617287
5253.234,0.2549077548391967,1.1088532337520993,0.13834796998762489,-1.1586462421778831,-0.24724079212146588,2.327839000241813,2.8757589706644833
5253.268,0.2549862445604356,1.1088167105990596,0.13823953246913767,-1.1587516741591113,-0.2596983011736418,2.328163840168205,2.897878618534371
5253.3,0.2550812661103823,1.1088968122950504,0.13830991946587368,-1.1587883582510896,-0.26218463703896777,2.3280339631939473,2.8973004168091023
5253.334,0.25514596896365216,1.1089532130885509,0.13832198766063453,-1.1588010644099906,-0.2649841478079811,2.3280414750039427,2.8973001845842496
5253.367,0.255183248782191,1.108980658535729,0.13833764053539266,-1.1588137037033075,-0.2669549366904569,2.3280296159702534,2.8973001832081575
5253.4,0.25521181773909163,1.108997487303423,0.13834167477402737,-1.1588210650261477,-0.2684797119424136,2.3280292469286934,2.897300183167637
5253.434,0.25521918230448826,1.1090035619382475,0.13835679849541993,-1.1588355417281795,-0.26964504811248524,2.3280352946770417,2.897300150046597
5253.467,0.2552322082594287,1.1090127597633188,0.13836238319283733,-1.158839455486623,-0.2705336594348866,2.328033839170214,2.8973001494951127
5253.501,0.2552411100843912,1.1090235234986157,0.13836714003540784,-1.1588429185327822,-0.2711829588042258,2.328047528941223,2.897300148045053
5253.534,0.255153294741838,1.109042974407659,0.1384990458453439,-1.158728670852911,-0.273549322312169,2.3276180559994,2.893500634300029
5253.567,0.2550434108743804,1.1089716287272662,0.13846731786314326,-1.1586630089876824,-0.2851585359184332,2.3273964909112124,2.8920575032101574
5253.6,0.2549644497352963,1.108916582977617,0.13848360949939842,-1.1586149668448806,-0.2969295299335961,2.3270781053637943,2.8929506909218237
5253.634,0.25491324528629633,1.1088863675205571,0.13849667215302564,-1.1585698059345217,-0.3097407802162264,2.3267128005104727,2.897034081582305
5253.667,0.2550034649648305,1.108854612401613,0.13839133616829624,-1.1586819605429461,-0.3193223532313363,2.3267544878892465,2.891579956231128
5253.7,0.2549886006924824,1.1088153031950592,0.1383494230624427,-1.1586861663668717,-0.33294039700662914,2.326433383742817,2.889633218385871
5253.734,0.2549814108676731,1.1087901032906844,0.13832133171722294,-1.1586889297159226,-0.3469576788220152,2.326049557086492,2.890767939171436
5253.767,0.254998862007608,1.1087702470475085,0.1382773450467072,-1.1586843536650937,-0.36134329530156695,2.3255840976941897,2.8950641561855157
5253.8,0.2550323427670511,1.1087782710836205,0.13827926354638542,-1.1586994556371764,-0.37311119265990556,2.32503699097105,2.8925876316072525
5253.836,0.2556880586979331,1.1093420363978332,0.13853661610000634,-1.1590627218212997,-0.11626642412451925,2.328136996608707,2.658364506688383
5253.867,0.25568519503513687,1.1093445420516161,0.13853658973124988,-1.1590627218212997,-0.11626992967476475,2.3281392340792557,2.65835789454648
5253.901,0.255689029899589,1.109344542039952,0.13853381446092836,-1.1590574321077578,-0.11627100693846174,2.328135877145661,2.6583633877105184
5253.934,0.2556862457318399,1.1093445420516161,0.13853658973124988,-1.1590574310902728,-0.11626891258645122,2.328136996285031,2.658364506688383
5253.967,0.25568599943999526,1.109349831765158,0.13852851595796598,-1.1590574321077578,-0.11627088735089586,2.328138055761656,2.6583666429188515
5254.0,0.2556862458398468,1.1093470477053993,0.13853658973124988,-1.1590627218212997,-0.11626896851421012,2.3281384702541605,2.658362268732654
5254.034,0.25568016875615807,1.1093420363978335,0.13853130001775782,-1.1590574321077578,-0.11626995090434371,2.3281369961235256,2.658360132502185
5254.067,0.255685843967297,1.1093445420516164,0.13853130001770822,-1.1590574321077578,-0.1162706527130331,2.3281381151552334,2.6583648599010927
5254.101,0.255685528456366,1.1093445420516161,0.13853130001770822,-1.1590602161675168,-0.11626998838171367,2.328139234079255,2.6583590135243202
5254.134,0.25568584402123073,1.1093420363978332,0.13853404396288457,-1.1590602161675168,-0.11627088880524714,2.3281381151013902,2.6583578945464557
5254.167,0.2556883212545561,1.1093470477041032,0.13853130034368943,-1.159054926453975,-0.11627083672487759,2.3281358771476546,2.658366647279502
5254.2,0.25568600962884713,1.1093445420516161,0.1385365897313987,-1.1590602161675168,-0.11627099292976242,2.3281385075599563,2.658361149754797
5254.234,0.2556840282054716,1.1093392523380745,0.13853130305603198,-1.1590574321077578,-0.11627100704366879,2.328136996075672,2.6583666429188515
5254.267,0.25568620690802474,1.1093392523380745,0.13853130001770822,-1.1590602161675168,-0.11626805755429118,2.328137000484176,2.658364506688383
5254.299,0.2556889510545321,1.109344542036064,0.13853380567149112,-1.1590602161675168,-0.11626993775379972,2.3281423928997644,2.658367761896716
5254.334,0.2556915089834398,1.1093392523380745,0.13853380567149112,-1.1590602161675168,-0.11626781231159926,2.328139234079919,2.658361149754789
5254.367,0.2556837401860645,1.1093392523380745,0.13853380567149112,-1.1590549264656393,-0.11626769385385395,2.328138115119335,2.6583568148148613
5254.4,0.2556890289275438,1.1093445420516161,0.13853130001815483,-1.1590602161675174,-0.11626879110192322,2.3281369961235994,2.6583633877105184
5254.433,0.255691535553127,1.1093420363978332,0.1385313000297816,-1.1590549264539751,-0.11627100612704964,2.3281369961237552,2.6583699998524453
5254.467,0.25568299655869453,1.1093392523380745,0.13852851595794946,-1.1590552068676865,-0.11626897308230387,2.3281381165549404,2.6583622688941593
5254.499,0.25568063007461767,1.1093444655221958,0.13853380567149112,-1.159057183841376,-0.11626632173798304,2.328139626537821,2.658365566326512
5254.534,0.2556940412064469,1.1093392523380745,0.13853594150459558,-1.1590602131150614,-0.11626963528622199,2.3281369961236242,2.6583633877105184
5254.566,0.2556862458398468,1.1093420363978332,0.13853380567149132,-1.159054926453975,-0.11626573175183813,2.3281347581677965,2.658365630511416
5254.599,0.255691535553127,1.1093420363978332,0.13853380567149112,-1.1590574321077578,-0.11627200729171244,2.3281381151013902,2.6583645066884567
5254.634,0.2556862458398468,1.1093445420516161,0.13853658976742042,-1.1590594744208262,-0.11626998544889992,2.3281392471632034,2.6583633877165
5254.667,0.2556841199408498,1.1093420363978332,0.13853130012621978,-1.1590574321077578,-0.11626994298010344,2.3281392733789463,2.658364506688383
5254.699,0.25568161126109146,1.1093420363978332,0.13853380567149112,-1.1590574321077407,-0.11626530464821005,2.328138115103384,2.6583633877105184
5254.733,0.2556890298996055,1.1093420363978332,0.13853730167561804,-1.1590602161172707,-0.1162686182139096,2.328136996125519,2.6583656256662476
5254.766,0.25568625467016454,1.1093420363978332,0.13853451772437084,-1.1590549264539731,-0.11627100702859944,2.3281381151013902,2.658360132502185
5254.799,0.2556862078214326,1.1093420363978332,0.13853130001773026,-1.1590602161675168,-0.11627100737115939,2.32813923413309,2.6583688808745807
5254.833,0.25569404120646544,1.1093445420516161,0.13853658973124988,-1.1590574321076028,-0.11626897308230398,2.32813811510139,2.6583688808745807
5254.867,0.2556890298996055,1.1093385632233619,0.13853380568354856,-1.1590574321077578,-0.11627100756948285,2.328136997577076,2.6583578945464557
5254.899,0.25568065774186427,1.109347047705399,0.13853659266106208,-1.159054926453975,-0.11626892572348455,2.328135877145661,2.658356775569005
5254.934,0.2556915355526329,1.1093445420516157,0.13853451859246885,-1.1590602161675168,-0.11626992394143536,2.328136996610036,2.658364506688383
5254.966,0.25569153555312707,1.1093420363978332,0.13853130001770822,-1.1590574321035707,-0.11626997719096656,2.3281380558148252,2.658361149754789
5254.999,0.2556862458398468,1.1093420363978332,0.13853130001770822,-1.1590574321076021,-0.11626471416877406,2.3281369367837903,2.6583656256662476
5255.033,0.2556862458398468,1.1093420363978332,0.13853380567149112,-1.1590602161675168,-0.11626895793775696,2.328136997577076,2.6583633877105184
5255.066,0.2556837401860639,1.1093367466842916,0.13853130001772496,-1.1590574321077578,-0.11626994280203469,2.3281392345637713,2.6583590135243202
5255.1,0.2556890298996055,1.1093420363978332,0.13853661609957635,-1.159054926453975,-0.11626994298232926,2.328136996141474,2.6583633877105184
5255.133,0.2556890298996055,1.1093392523380745,0.13853380567149112,-1.1590602161675168,-0.1162689257230356,2.328139234079255,2.6583656257200827
5255.166,0.2556890298996055,1.1093445420516161,0.13853130002976505,-1.159057432107758,-0.1162699888745444,2.3281358776302024,2.6583622818146058
5255.2,0.25572950628855917,1.1093263125204125,0.13848104425836638,-1.1591180251737558,-0.15860542344553608,2.3283630454972375,2.778849228390751
5255.233,0.255691535553127,1.1093420363978332,0.1385313029836928,-1.1590549264539751,-0.11626994248950565,2.3281392340812483,2.6583633877105184
5255.266,0.25574586843425706,1.1093061771783743,0.13840675021076,-1.1591325350520147,-0.1656950845233931,2.328443771980224,2.778999956417273
5255.299,0.25574586843425706,1.1093061771783743,0.13840675021076,-1.1591325350520147,-0.1656950845233931,2.328443771980224,2.778999956417273
5255.333,0.2556890298996055,1.1093420363978332,0.13853343617634797,-1.1590602161670516,-0.11627100595820843,2.3281390560600492,2.6583604857148946
5255.366,0.25559506910938623,1.1092084724560625,0.13835682288414208,-1.1590906113576365,-0.18495329122269855,2.3285506223068158,2.8012465099608193
5255.399,0.25579104378802775,1.1093825221372162,0.1385376386973265,-1.1591067981076133,-0.17450061306228104,2.3280664698675935,2.769725978595897
5255.433,0.2556051057811066,1.1092724991704284,0.13846929618007664,-1.159017220881342,-0.1893873568759572,2.3282123787665583,2.8034624146157068
5255.466,0.2555565394220025,1.1092688814502827,0.13852541023158516,-1.1589869824284476,-0.1965324731908149,2.3280093350299733,2.795949180054315
5255.499,0.25551501357616946,1.1092602370566507,0.13851106621369347,-1.158941340627905,-0.20840163205077822,2.3279804934378046,2.793939371258677
5255.533,0.2554945215115243,1.1092574582746195,0.13853436276747022,-1.1589194289188844,-0.21927529792653466,2.3278930071593944,2.792449668622126
5255.566,0.25548038551469077,1.1092566667217438,0.1385464307371862,-1.1588926467652918,-0.23078669502653604,2.327831280210436,2.7930265003615897
5255.599,0.2554687799982647,1.1092562761949916,0.13856483369735972,-1.1588693255308309,-0.2423154095046689,2.327757912757649,2.79520069346923
5255.634,0.25545367479615244,1.1092641777731194,0.13858563067869234,-1.1588444944154723,-0.254117906155348,2.327688368289424,2.799280825631408
5255.666,0.25544636409043875,1.1092420536482708,0.13860133659711416,-1.158838350338458,-0.266136225721028,2.327619540718935,2.8053073939256734
5255.699,0.255420384508545,1.1092527496341305,0.1386335733744346,-1.1588059113885683,-0.2782752862748614,2.327545502145874,2.8132601361902196
5255.733,0.25540897669271434,1.109250467423327,0.13865390838102432,-1.1587872844187173,-0.29062278213815684,2.3274676911559293,2.823324497468242
5255.766,0.2553959565494548,1.1092490345679922,0.13867909133571388,-1.1587624001542283,-0.3031142210453517,2.3273484577333328,2.835519999068019
5255.799,0.2554878330837367,1.1092013386816646,0.13854010283142504,-1.1588793199491505,-0.3153037468587696,2.3276769749876944,2.848533794221712
5255.833,0.255489921026788,1.1092099165998004,0.1385400272060604,-1.15884978342116,-0.3280290088203879,2.3274466952038537,2.865300551642097
5255.866,0.25550905664858803,1.1091907169375999,0.1385074893825955,-1.1588678789230311,-0.34076280455081154,2.327242298137353,2.884378483034748
5255.899,0.255565719308807,1.1092221427610864,0.13850769768403914,-1.1588937038920433,-0.34975312511437107,2.3268935762987226,2.8973479105676727
5255.933,0.25563035341494533,1.1093093875728819,0.13858020981243513,-1.1589328591725971,-0.3518390118473196,2.3268610916793033,2.897300195215637
5255.967,0.2556706960293358,1.109340789686974,0.13858567270391742,-1.1589551728729957,-0.35467512575734705,2.3267883424897864,2.8973001667861915
5255.999,0.2556975429158239,1.1093693541309975,0.13859683656514932,-1.1589681422142535,-0.3562902598652151,2.3267743013527564,2.897300166443621
5256.033,0.25571835096764506,1.1093705303960233,0.13859241305900039,-1.1589832768202886,-0.35763420065097584,2.3267329467980655,2.897300151627272
5256.066,0.25575876960607236,1.1093736417316622,0.1385503626918938,-1.159006218284528,-0.3589607190527957,2.3267667063524744,2.8969968051551334
5256.099,0.2555736409180067,1.1093191106098974,0.13870341584134938,-1.1588500447067673,-0.3686451208732695,2.3258261978201045,2.8943965323049614
5256.133,0.25552356043936886,1.1092561792025784,0.13867616276797978,-1.158812482306974,-0.38021902927907014,2.3253193667123355,2.8941807144304708
5256.166,0.2555910184919812,1.1092042391237467,0.1385237722516539,-1.1588865599826512,-0.3919291671960696,2.325159429605179,2.895919847433767
5256.199,0.2555857075747001,1.1092062522004147,0.13856202484824287,-1.1588897482832294,-0.401141463024814,2.3244993579609634,2.891773790001519
5256.233,0.25558241006777926,1.1091634227870744,0.13850810059058993,-1.158896923567231,-0.41437732739966826,2.3238981001020598,2.8914271455274143
5256.266,0.2555860207087335,1.1091366737933868,0.13848218093571685,-1.1589004930964926,-0.4275672885454762,2.323195285484317,2.894548925099512
5256.3,0.2556123274520923,1.109138120153328,0.13848376799943374,-1.158917373474294,-0.4386000735094502,2.3224230886405124,2.8939121477650485
5256.333,0.25561909043413955,1.109113149892356,0.13844299302236518,-1.1589302542153366,-0.452636912183368,2.3216136438179333,2.8955915860363604
5256.367,0.2556546568291429,1.1091111618763154,0.1384408982097991,-1.158955711062263,-0.46338987169047474,2.320691119103767,2.891969970000206
5256.4,0.25555584910926044,1.1091313364449107,0.13858488405121516,-1.1588152780972738,-0.478998600370395,2.3191708705544443,2.892177439201042
5256.434,0.2556462999667115,1.1090711518037937,0.13842465432507645,-1.1589274624658366,-0.49339744488099946,2.3185174121251944,2.8933783235261146
5256.467,0.25568935387447755,1.1090720526414666,0.1384008020834031,-1.1589702156011015,-0.5054850855971642,2.3174171749412054,2.8931737041259584
5256.499,0.2556893733534986,1.1090552113393128,0.13838948724974554,-1.1589616257418607,-0.5205290058832475,2.3162156366210613,2.8909831944220716
5256.533,0.25571004674731324,1.1090159513184306,0.13834823825403664,-1.1589734386192054,-0.535886858307868,2.3149396837961067,2.8935625861091623
5256.566,0.2556465985199772,1.1090696447461363,0.13852168185637836,-1.158880099564941,-0.5496468929809382,2.3130780698643765,2.8946157006931674
5256.599,0.25562483175433215,1.1090618423909913,0.1385683700774729,-1.158828750629593,-0.5656204533505527,2.3114730145974587,2.8926522521291123
5256.634,0.2556110427359748,1.1090446081714234,0.13860483499053444,-1.1587913577617588,-0.5819634588264648,2.309787974643104,2.895839497347879
5256.666,0.2556073818759783,1.1090650139227103,0.1386719190452661,-1.1587698650947722,-0.5957706196886168,2.30806820973225,2.89511884254685
5256.699,0.2556890298996055,1.1093420363978315,0.13853130001770822,-1.1590527012139034,-0.11627202043898169,2.328136996608042,2.6583590135243202
5256.733,0.255691535553127,1.1093420363976894,0.13853380567149112,-1.1590602161675168,-0.11626576174236489,2.328136996122861,2.6583645066883825
5256.767,0.2556890298996055,1.1093445392171932,0.13853380567149112,-1.1590602161633297,-0.11626675691926135,2.328135877145661,2.658366642918851
5256.799,0.2556890298996055,1.1093367466842916,0.13853658973124988,-1.159054926453975,-0.11626679651935865,2.3281369961235256,2.6583633877105184
5256.833,0.2556862458398468,1.1093367466842898,0.13853658973124988,-1.1590602161675168,-0.11627258549884208,2.3281392340812483,2.6583656256662476
5256.867,0.2556890298996055,1.1093420363978332,0.13853130001770822,-1.1590602161675168,-0.11626998595379215,2.3281381151013902,2.658360132502185
5256.899,0.2556837401860639,1.1093445420516161,0.13853594150459558,-1.159057431764409,-0.11626897161993413,2.3281369961235256,2.658360132502185
5256.933,0.2556890298996055,1.1093420363978332,0.13853380567149112,-1.1590602161675168,-0.11626963546562338,2.32813699612419,2.6583578945464557
5256.967,0.2556862458394023,1.1093392523380745,0.13853380567150764,-1.159054926453975,-0.11627190654997573,2.3281381151013902,2.658360132502185
5256.999,0.2556890299009514,1.1093420363978332,0.13853380570766163,-1.1590627218212997,-0.11627100612647806,2.3281358771476546,2.658359013524394
5257.033,0.2556862458398468,1.1093445420516161,0.13853130001770822,-1.1590627208038147,-0.11626897308163348,2.3281373493362354,2.6583622643720033
5257.066,0.2556862458398468,1.1093420363978332,0.13853404591614232,-1.159054926453975,-0.11626733427985128,2.328136996177361,2.6583645066883825
5257.1,0.2556837401860639,1.1093445420516161,0.13853380567149173,-1.1590574321077578,-0.1162699857735241,2.3281369961235256,2.6583677618967156
5257.133,0.2556855372068478,1.1093420363978332,0.13853130294752042,-1.1590574321077578,-0.1162720243472938,2.328134758173778,2.658365625666247
5257.166,0.2556890298996055,1.1093420363978332,0.13853380860130332,-1.1590549265589536,-0.11626962232323171,2.328139234079255,2.6583666429195896
5257.2,0.2556862458398468,1.1093420363978332,0.13853130001770828,-1.159060216167517,-0.11626845257161864,2.3281401750379875,2.6583666443724017
5257.234,0.2556890298996055,1.1093470392021303,0.13853130001770822,-1.1590549264539751,-0.11626849922061121,2.3281382333234766,2.658362268732654
5257.266,0.2556890298996055,1.109347047705399,0.1385365897312519,-1.1590627218212999,-0.11626674916674433,2.3281391747395226,2.6583666429188515
5257.299,0.2556862458398468,1.1093392523380745,0.13853130001770822,-1.1590574321077578,-0.11627198540959927,2.3281381136538215,2.6583656256662476
5257.333,0.255691535553127,1.1093367466842916,0.13852851595794946,-1.159057431994704,-0.11626951701411772,2.3281381151013902,2.6583676441598105
5257.366,0.2556898545511496,1.1093420363978332,0.13854123121813725,-1.1590602161675168,-0.11626687466031148,2.3281381151013902,2.658364506688383
5257.4,0.2556922412533771,1.1094193216011243,0.1386362736741651,-1.1590228251357768,-0.1595686275196,2.327852157422379,2.7736429353555163
5257.433,0.2556862458398468,1.1093420362928548,0.13853130001770822,-1.1590574321077578,-0.11627099428197583,2.3281369961235256,2.658364506688383
5257.466,0.2556890563905587,1.1093419598684129,0.13853380567149132,-1.1590602161675168,-0.11627100737116185,2.3281381151013902,2.6583666429188515
5257.499,0.2556820500409511,1.109370958532323,0.13860996709609807,-1.1590127077525239,-0.1645678394742589,2.3278396380754174,2.7721555078930358
5257.535,0.2556942924167312,1.1093420363978173,0.13853658973124988,-1.1590602161675168,-0.11627088906356924,2.328138115157219,2.6583688794210327
5257.566,0.25564877349501725,1.1093318446051272,0.1385685438210036,-1.1590011855874174,-0.17032154811326272,2.327816099369869,2.771962640011793
5257.599,0.25562620177861106,1.109389113213041,0.1386777981994527,-1.1589372762169496,-0.16973772548523502,2.3277088867580886,2.770711028570272
5257.633,0.2554772131522238,1.1093003597999251,0.13862497401905127,-1.1588650187928593,-0.1830214373593808,2.327643276596735,2.7862012052633247
5257.666,0.2554063255881749,1.1092644450615934,0.13862224196150574,-1.1588139917001437,-0.1952344746394914,2.3275622891701993,2.8015181140796876
5257.699,0.2553610944006106,1.1092529394318422,0.13863076240582917,-1.1587756358976886,-0.20799366859894786,2.3274841800310977,2.818198260362781
5257.733,0.2553358059342239,1.1092215130000573,0.13864308091483757,-1.158759550071328,-0.2210969117650734,2.327404843046498,2.836181972695547
5257.767,0.2553086348776059,1.1092338292402424,0.13866137240560672,-1.1587112306962508,-0.23520309560143193,2.3273099712567458,2.8566319359169157
5257.799,0.2553775490394967,1.1091780968877138,0.13854438080688336,-1.1588303968164686,-0.24779252787843387,2.327737247978485,2.8751233573788575
5257.834,0.2553822575861835,1.1091628607884205,0.13852602821934923,-1.158836050911229,-0.2615747061367202,2.3277214621143045,2.8974270908619157
5257.866,0.2554872700745454,1.1092672883974162,0.1385913611484666,-1.1588502818131312,-0.264882371855534,2.3275636516481075,2.897300218459085
5257.901,0.2555566128318043,1.1093153805426104,0.13861318057618188,-1.1588784112728483,-0.26781943352983006,2.3275681072342564,2.8973001846428996
5257.934,0.2555915258769339,1.1093388584300925,0.13863791214855947,-1.1589043532489107,-0.2699086201296952,2.327569707654371,2.897300149546398
5257.967,0.2556206644351242,1.1093588787597461,0.13864808422913288,-1.1589159756479015,-0.271568266452312,2.3275700119577944,2.8973001512252115
5257.999,0.255642610975352,1.1093710080752288,0.13865443494880303,-1.1589271961902163,-0.27276820214311837,2.3275718351147905,2.897300151078472
5258.034,0.25566074611669265,1.109390971393065,0.13865431642133075,-1.1589179219717138,-0.27374951464483743,2.327557813143885,2.8973001874340465
5258.066,0.2556734597734316,1.1093992586454808,0.13865653601747496,-1.1589186844195325,-0.2744803929153603,2.327556253708506,2.8973001876988977
5258.1,0.2556402481804394,1.1093552942552387,0.13862605123149496,-1.1589200292107336,-0.2794175237391503,2.3276074487101486,2.897358579897711
5258.133,0.255584979178094,1.1092925684534523,0.1385761670807817,-1.15890651171427,-0.2886128259223728,2.3274750260062955,2.890440884887992
5258.166,0.2556862458396986,1.1093445420511843,0.13853138205646937,-1.159054926453975,-0.11626780013589158,2.3281381151552245,2.6583611497547888
5258.2,0.255691535553127,1.1093420363978332,0.13853383203980288,-1.1590602161675168,-0.1162699902807931,2.328139234079255,2.6583677618967188
5258.233,0.2556862429236616,1.1093399701034812,0.13853380567149112,-1.1590602161675168,-0.1162710075855091,2.3281381152628957,2.658358954184585
5258.266,0.25568902990005415,1.1093470477041032,0.13853130001770822,-1.1590627218212997,-0.11626790829682085,2.3281382720874753,2.6583590135243202
5258.299,0.2556862458398468,1.1093392523030818,0.13853130001785705,-1.1590602161675168,-0.11626679646460363,2.3281347581677965,2.658366641465301
5258.334,0.25568625467016454,1.1093445420516161,0.13853451761585928,-1.159057431994704,-0.11626947628085302,2.3281381152628957,2.658362192420763
5258.366,0.2556890298996055,1.1093445420516161,0.1385359415046121,-1.1590574321077578,-0.11626994152129774,2.328135877161612,2.6583590135243202
5258.399,0.25568374312950315,1.1093445392158972,0.13853130005387873,-1.159054926453975,-0.1162708498682,2.3281381151014884,2.6583601325019632
5258.433,0.2556837401860639,1.1093392523380745,0.13853138205259907,-1.1590574321077578,-0.11626999028082062,2.3281381151013902,2.65835901352432
5258.466,0.25568902989960574,1.1093420363978332,0.13853130001770822,-1.159054926453975,-0.1162667964412325,2.328139273325111,2.658363387728463
5258.499,0.2556809561263051,1.1093420363978332,0.13853130001785705,-1.159054926453975,-0.11627096797732461,2.3281388810280506,2.6583590135243282
5258.534,0.2556890298996055,1.1093420363978332,0.1385334622191226,-1.1590627218212997,-0.1162710075872811,2.328138173983963,2.658364506688383
5258.566,0.2556890298996055,1.1093419598684129,0.1385313004517563,-1.1590602161675168,-0.11626891063662581,2.3281381151013902,2.658361149754789
5258.599,0.2556890298996055,1.1093445420516161,0.13853380567150764,-1.1590574321077578,-0.11626885473852812,2.3281381151013902,2.658364506688383
5258.634,0.2556837670040659,1.1093420363978332,0.13853380567149112,-1.1590574321077578,-0.11626995019571615,2.32813699612419,2.6583645066883825
5258.666,0.2556785940162901,1.1093420354530257,0.13853380860130332,-1.1590627218212997,-0.11626887315654624,2.328138055761655,2.658363387710518
5258.699,0.2556915354451037,1.109341806809572,0.13853380567149112,-1.159052420800192,-0.11626639428032343,2.328138128183564,2.6583611497547888
5258.733,0.2556837401860639,1.1093445420516161,0.13853130001785766,-1.1590574321077578,-0.11626998595349537,2.3281381151013902,2.658359013542265
5258.766,0.2556837361896431,1.1093445420516161,0.13853380567149112,-1.1590627218212997,-0.11627100753335028,2.328139234079255,2.658362268731989
5258.799,0.2556946707519916,1.1093371860424264,0.13853659884622122,-1.1590627208038147,-0.11626565654188582,2.328135877145882,2.658357894546455
5258.834,0.2556807199153118,1.1093392523380745,0.13853380567149112,-1.1590574229503914,-0.11626888629987842,2.3281391747395195,2.658366566624906
5258.866,0.255691535115765,1.1093420363978332,0.13853130099431227,-1.1590571848588611,-0.11627048185644649,2.3281370092054776,2.658361149754789
5258.899,0.25569215725110134,1.1093392523380745,0.13853130002976505,-1.1590552068676863,-0.11626993770547459,2.3281392340792793,2.658364506688383
5258.934,0.2556869030285468,1.1093445420511843,0.13853130001770822,-1.1590574321077578,-0.11626893359831973,2.3281369961235256,2.658364506688383
5258.966,0.25569260500316915,1.1093420363965374,0.13852851595794946,-1.159054926453975,-0.11626801811912893,2.3281369961235283,2.6583590135243202
5258.999,0.2556837402244132,1.1093445420516161,0.13853380567149118,-1.1590619800746091,-0.11626999033268132,2.3281358769841556,2.658362268732654
5259.033,0.2556862455038252,1.1093420363978332,0.13853201293868042,-1.159054926453975,-0.11626857877806716,2.32813811510139,2.6583578945464565
5259.066,0.255691535553127,1.1093420363978332,0.1385338059970258,-1.159054926340921,-0.11626958794966046,2.328136996123525,2.658364519285818
5259.099,0.255691535553127,1.1093420335634103,0.13853658973124988,-1.1590549264540058,-0.11626998449276063,2.328135877145661,2.658364506688383
5259.133,0.2556890298996055,1.1093420354528818,0.13853658973263913,-1.1590581208725421,-0.1162709924903974,2.3281373493364814,2.658355656591143
5259.166,0.25568912148538453,1.1093445420516161,0.13853380567149112,-1.1590574321077574,-0.1162696333009345,2.3281391747395195,2.6583590135243202
5259.199,0.2556862458398468,1.1093420363978332,0.13853130001771033,-1.1590574321077578,-0.11627099444423837,2.328136996608042,2.6583666429188515
5259.233,0.2556892683181846,1.1093420363978332,0.1385365985206865,-1.1590627218225957,-0.11626481992849814,2.3281369961235256,2.6583688808745807
5259.266,0.25568627233124863,1.1093367463693558,0.13853380567283075,-1.159057432107758,-0.11626678288327635,2.3281395872919646,2.6583656256662476
5259.299,0.2556862458398468,1.1093445420516157,0.13853380567163995,-1.1590549264539751,-0.1162699844333558,2.3281381151013902,2.6583666429188515
5259.333,0.2557429487608882,1.1093429473849197,0.13847164880215335,-1.159106652051853,-0.15848823264062517,2.328356863688004,2.7565723378751734
5259.366,0.25558414347181113,1.1092777856620044,0.13849570862408367,-1.1590506294616425,-0.16715181582014527,2.3283742492717607,2.767921828728719
5259.4,0.25541425894936953,1.1092356705037352,0.13852530405527208,-1.1588983978194012,-0.18133085508871627,2.327987314439934,2.785808713503924
5259.434,0.25534492181649693,1.1092010667401953,0.1385199233194001,-1.1588498160647998,-0.19541805473779306,2.3279130716361855,2.8032714402957186
5259.467,0.2553827720317683,1.1091400316563194,0.13840662710280593,-1.1589469009936089,-0.2093777943319841,2.328319284787151,2.820501372880596
5259.5,0.2556862458398468,1.1093420363965374,0.13853380860130332,-1.1590627218212997,-0.11626951717504481,2.3281369961055813,2.6583656256662476
5259.534,0.25568698758700265,1.109336745739484,0.13853682704603926,-1.1590602161673618,-0.11626560859456792,2.328140353063101,2.6583578945464557
5259.567,0.2556915355533338,1.1093420363978332,0.13853130001770822,-1.1590602161675168,-0.11626963058060542,2.328135877145882,2.658360132502185
5259.6,0.2556890298996055,1.1093392523380745,0.13853666883617965,-1.1590627218212997,-0.11626998984812024,2.3281381151013902,2.658362268732654
5259.634,0.255691535880342,1.1093420363978332,0.13853130001770822,-1.1590574321077578,-0.11627202482208691,2.3281370092593128,2.658361149754789
5259.667,0.2556890298996055,1.1093420363978332,0.13853682705809608,-1.1590574321077578,-0.11627065250269356,2.3281424131551485,2.6583590135243202
5259.7,0.2556890298996055,1.1093445420516161,0.1385313003432429,-1.1590574321077578,-0.1162710017279539,2.328139234079255,2.658360132502185
5259.734,0.25568903022670414,1.109342036397828,0.1385313003432429,-1.1590602161633297,-0.11626781371777299,2.3281392340793285,2.658361149754789
5259.767,0.2556890298996055,1.1093392523380745,0.13853130001770822,-1.1590574321077578,-0.11627065271909325,2.328138115101464,2.6583677618967156
5259.8,0.255691573854176,1.109342036386169,0.13853130001770822,-1.1590574229503914,-0.11627100271955892,2.328135877199496,2.6583601325021844
5259.834,0.2556862458398486,1.1093392523380745,0.13853130001770822,-1.1590602161675168,-0.1162694244991049,2.3281359364853964,2.6583611541154397
5259.867,0.2556890298996055,1.1093445420516161,0.13853380567149112,-1.1590627218212997,-0.11626883102449218,2.3281381151073717,2.658360132502406
5259.9,0.2556893717727825,1.1093445420516108,0.1385345176520298,-1.159052420800192,-0.11626999032889844,2.3281414117533483,2.658362268732654
5259.934,0.2555878297168208,1.1093025681993849,0.13856255367004877,-1.1589826864053494,-0.15943870561751883,2.327934283171384,2.5832744307737716
5259.967,0.2555768178797786,1.1093219600911555,0.13861394393800008,-1.1589590470171487,-0.16013486886451211,2.3278862653175025,2.578071315465376
5260.0,0.25542498405114866,1.1092640261715978,0.13858120029249843,-1.1588811904644851,-0.1731648213693271,2.3278150044691213,2.580749338117778
5260.034,0.2553720809141131,1.1092383721094032,0.13858001044188306,-1.1588424596953155,-0.1843831985083053,2.3277563539259063,2.5805098358247758
5260.068,0.255340351155497,1.1092281891679896,0.13858668256602424,-1.1588127587737729,-0.19637996820309755,2.3276964009175387,2.582161269615616
5260.1,0.25532255024928485,1.1092239410380138,0.13860113301570998,-1.1587868557865022,-0.20838435945229516,2.327632176672232,2.585096232271928
5260.134,0.25530508335910884,1.10922953729081,0.13862047372362074,-1.158762048981595,-0.22064588415558628,2.3275704904010883,2.5896014255082935
5260.167,0.2552829944176134,1.1092157130838984,0.1386481471315406,-1.1587480710773228,-0.23307468538204468,2.32750864813492,2.5956660256199413
5260.2,0.2552701337037435,1.109216961186485,0.13867025268962418,-1.1587243058861834,-0.24562694157618115,2.327442770377518,2.6033268868890147
5260.234,0.25525549469420117,1.1092155897153857,0.1386942183665525,-1.1587032740803522,-0.2584108441006361,2.327375325067319,2.612744197433358
5260.267,0.25524192263212164,1.1092145705112033,0.13871832778714666,-1.158680554642828,-0.27133914809996096,2.327306883883022,2.62391303619383
5260.3,0.25522470835892186,1.1092189094448557,0.13874809606708283,-1.1586551733014918,-0.28441909344822136,2.3272361364752943,2.636909151009121
5260.334,0.25521860131793517,1.1092039373017677,0.13875774688458353,-1.1586416907831802,-0.2977045579769122,2.32716405322717,2.6518799208850936
5260.368,0.25520472023505825,1.1092024601557027,0.13878351883670792,-1.15861869100409,-0.3111324028285223,2.3270892186163294,2.6688189858257783
5260.4,0.2551916912243426,1.1091981858396522,0.13880669507805266,-1.1585970408533788,-0.3248003179084238,2.3270115843809833,2.6879106961575623
5260.434,0.25528432196366335,1.1091761112711964,0.13867002708466192,-1.1586849026052608,-0.3383296989520739,2.3274233658076344,2.708071538328804
5260.467,0.25529132256633513,1.1091644721412939,0.13865573985838697,-1.158689326466062,-0.3523187935922296,2.327453053544902,2.731685641292998
5260.5,0.2552941947566607,1.1091443880470608,0.13864036950085978,-1.1587075048424982,-0.3665363770087877,2.327525265624299,2.757732345728396
5260.534,0.2553119645342239,1.109128120834046,0.13861626520929882,-1.1587181311852977,-0.38091050256285985,2.3274753757958955,2.7862738713135062
5260.567,0.2552355695824131,1.1091536375531268,0.13875603497697586,-1.1585859679598967,-0.3956933675645864,2.326760653658731,2.816850622905058
5260.6,0.2553323899792659,1.1091023527521067,0.13861240273814524,-1.1587086199074212,-0.4100197939166046,2.3268332771562807,2.847289946950017
5260.634,0.25534544100116285,1.1090874215702096,0.1386025825884003,-1.1587120500067343,-0.42476101956092194,2.3262973901545116,2.879903207664917
5260.667,0.2554193989160627,1.1091237683130606,0.1385975371434549,-1.1587689663779148,-0.4340520322650834,2.3258062931604417,2.8973016372059828
5260.7,0.25548424356887356,1.1092322320085533,0.13865873391206307,-1.158808310249527,-0.43725898366666716,2.325669835294061,2.89730017540594
5260.734,0.2555396162548842,1.1092990625264951,0.13866321330979758,-1.1588281342920776,-0.4400450581089075,2.325572828074126,2.8973002503995424
5260.767,0.25557087674590484,1.1093343857225433,0.13867417665752235,-1.1588437445131978,-0.44214624320706974,2.325488639654635,2.897300246938604
5260.8,0.2555945998039757,1.1093631116014553,0.13867810615393417,-1.1588544219649393,-0.44371832065924366,2.3254349297435137,2.897300250871078
5260.834,0.25560106980210495,1.1093692370643993,0.13869202660001267,-1.1588693443191076,-0.44490897308892485,2.3253898832776656,2.897300192899138
5260.867,0.25561121735038395,1.1093823596051324,0.13869902259872635,-1.158874357726484,-0.445834820580969,2.3253493007567556,2.897300190243717
5260.9,0.25562137696870124,1.1093954773058607,0.13869904567694746,-1.1588807864404052,-0.4464847305556807,2.325344601501241,2.897300190381822
5260.934,0.2555824862491045,1.1093199226405632,0.1386762255515821,-1.158852121827465,-0.4531735765175853,2.325058817037366,2.8973984801898283
5260.967,0.2555507881921768,1.1092283645017291,0.13862459929306237,-1.1588429418471078,-0.4626611934825302,2.324322304124429,2.892110859995139
5261.0,0.2555230213393962,1.1091424794866027,0.1385685016886562,-1.1588239534391889,-0.47584334517116655,2.3234899876413735,2.8942336572232925
5261.035,0.25569142389686067,1.1093392523380745,0.13853130001770822,-1.1590574321077578,-0.1162689336524082,2.3281381151013902,2.6583601325021844
5261.067,0.25568632531270646,1.1093392495036516,0.13853659266106208,-1.1590574321077578,-0.11626790409602138,2.3281369961235256,2.6583656256662476
5261.101,0.2556890298996055,1.1093392523380745,0.13853130001370856,-1.1590627218171126,-0.116269977137299,2.3281369961242646,2.658364506688383
5261.134,0.2556942825823871,1.1093445420516161,0.13853380567193765,-1.159054926453975,-0.11626963544648108,2.328135877145661,2.658360132502185
5261.167,0.2556890298996055,1.1093420363978332,0.13853130001770822,-1.1590574321077578,-0.11626987204522049,2.328141294015852,2.6583656256662485
5261.201,0.2556890300086218,1.1093392523380745,0.13852851595794946,-1.1590574321077578,-0.11627088929804749,2.3281347581677965,2.6583656256662476
5261.234,0.2556837401860639,1.109344542046432,0.13853130099431227,-1.1590548989818754,-0.1162710075153214,2.3281392345631806,2.6583578945464557
5261.267,0.2556837401860639,1.1093445420516161,0.13853380567149112,-1.1590574321077578,-0.11626781374792379,2.3281369961235256,2.6583633877105184
5261.3,0.25568902989960574,1.1093420363978332,0.13853130001772473,-1.159062721819904,-0.11627088880501904,2.3281381151013902,2.6583677618967156
5261.334,0.2557000439174856,1.1093445420516161,0.13853380578000268,-1.15905492543649,-0.11626741931148361,2.328138055763649,2.6583659788789573
5261.368,0.2556862498053322,1.1093445420166075,0.13853660145049893,-1.1590594744208262,-0.11627100612514502,2.328139234079255,2.6583604857328504
5261.401,0.2556890298996055,1.109347047705399,0.13853380567149112,-1.1590602161675168,-0.11627290093763863,2.3281373493368998,2.658367821238445
5261.434,0.25568926963241384,1.1093392523380745,0.13853153733250495,-1.1590574290553024,-0.1162710075874134,2.3281370092593128,2.6583601325021844
5261.467,0.2556784504725222,1.1093445420516161,0.13853130001770822,-1.1590627218212997,-0.11626897308163532,2.328139234079476,2.658366642918843
5261.5,0.25569400804209547,1.1093420335634103,0.13853380567149112,-1.1590574321077578,-0.11626959587413278,2.3281381151013902,2.658363387872024
5261.534,0.25568696024103676,1.1093420363978332,0.1385313003432429,-1.1590602161675168,-0.11626790847712092,2.3281381151013902,2.6583666429188515
5261.567,0.2556893761874706,1.1093445420516002,0.13853732804392796,-1.1590574321077578,-0.11627100320642071,2.32813699666188,2.6583578945464557
5261.6,0.2556922485504234,1.1093367466842916,0.13852851595794946,-1.159054926453975,-0.11627065255685522,2.3281381152628957,2.6583622051937734
5261.634,0.2556858991987524,1.1093420363978332,0.13852851595794946,-1.159057431994704,-0.11626999033423949,2.32813699612355,2.6583578945464557
5261.667,0.25568922165698277,1.109347047705399,0.13853380570767818,-1.159054926453975,-0.11626769532022654,2.328139234079255,2.658360132502185
5261.7,0.25569725985772224,1.1093445419466377,0.13853130001770822,-1.1590602161675168,-0.11626459631532335,2.328137113860874,2.6583677618973804
5261.734,0.25568946449067015,1.1093392523380745,0.13853380567149112,-1.1590574321077578,-0.11626998984804504,2.328135877145661,2.6583688808746544
5261.767,0.2556947542039283,1.1093392268282678,0.13853380567149134,-1.1590602161675168,-0.11626998887387381,2.328135877145661,2.658356672366937
5261.8,0.2556922485504234,1.1093392523380745,0.13853383203980654,-1.1590574321077578,-0.1162699372209372,2.328139234079255,2.658369999852445
5261.834,0.2556894644906591,1.1093392523380745,0.13853380567283075,-1.1590627218212481,-0.11626679585227921,2.328135877145661,2.658364506688383
5261.867,0.25569475420393933,1.1093420354530257,0.1385338060095292,-1.1590602161675168,-0.11626674895042162,2.3281369961235336,2.658361149754789
5261.9,0.2556922485504252,1.1093445420515682,0.13853130001770822,-1.1590602161675168,-0.11626994248860556,2.3281381151073717,2.658367761896716
5261.934,0.25568946447855173,1.1093420363978332,0.13853380567149112,-1.159054926453975,-0.11626998887362108,2.328138481396052,2.6583590178849708
5261.967,0.2556947542039449,1.1093420363978332,0.13853130001770822,-1.1590552068676863,-0.1162689714596034,2.3281370353696036,2.658361149754789
5262.0,0.2556868783828756,1.1093445420516161,0.13853130294752042,-1.1590627218212997,-0.11626995089840907,2.3281381151013902,2.6583666429188515
5262.034,0.2556440847461241,1.1093558733839712,0.1386026707722987,-1.1589946428192794,-0.1593095503773414,2.327898929523135,2.779637431945071
5262.067,0.25569688010294184,1.1093445420516161,0.13853380567149112,-1.1590574321077578,-0.11626998595359399,2.3281381151013902,2.6583666429188515
5262.1,0.25568695883693116,1.1093445420503203,0.13853380567154072,-1.1590602161675168,-0.1162699494447228,2.328136996608042,2.6583590135303017
5262.134,0.2556894644919981,1.109347047705399,0.1385315373324976,-1.1590627218212997,-0.1162667789949938,2.328139356177549,2.658361149754789
5262.167,0.25579328592227757,1.1093715444192283,0.13849115323416505,-1.1591259669703566,-0.16076089582082176,2.3283317906927152,2.7662626723312975
5262.2,0.2555416883599584,1.109340507173319,0.13864684964509877,-1.1589410092063606,-0.1694294816680788,2.3278837047224723,2.771553260612391
5262.234,0.25550764068728604,1.1092208071591063,0.13846235629662207,-1.1590107360493436,-0.18303983555580672,2.3282866553430175,2.779729178551861
5262.267,0.25568417477712296,1.1093420363978332,0.13853380567149112,-1.1590627227661074,-0.11626888628187432,2.328138115119335,2.6583699998524453
5262.3,0.2556894644906591,1.1093420363978332,0.1385338144729846,-1.1590627218212997,-0.11626994630564184,2.3281369961235256,2.658364506688383
5262.334,0.2556922485504234,1.1093392523380745,0.13853658973124988,-1.1590574321077578,-0.11626893349021976,2.3281392340971996,2.6583677623812325
5262.367,0.25568695883688175,1.1093420363976894,0.1385338070098004,-1.159052420800192,-0.11626982466880084,2.3281369961235256,2.6583590135243202
5262.4,0.2556947542039449,1.1093445420516161,0.13853130001770883,-1.1590574321077578,-0.11626897258883856,2.3281381151013902,2.6583590135243202
5262.435,0.25568946449066465,1.1093420363978332,0.1385338144610766,-1.159054926453975,-0.11626963546427851,2.3281369961235256,2.6583656256662476
5262.467,0.2556922485504234,1.1093385635732906,0.1385338059970754,-1.1590549264539234,-0.11626997697505329,2.3281369961235256,2.658367761896716
5262.5,0.25568695883688175,1.1093420363965374,0.13853130001770822,-1.1590574321077578,-0.11627088728877062,2.3281358770918255,2.658361149754789
5262.534,0.2556922485504234,1.1093420363978332,0.13852851595794946,-1.1590574321077578,-0.11627202045900047,2.3281381152628957,2.6583677618967156
5262.567,0.25566668719583596,1.1092824977242532,0.13845215536912114,-1.159087085523467,-0.15910008745337123,2.32833010774117,2.6314081080651324
5262.601,0.25565609025384095,1.1092853607984203,0.13845023542984336,-1.1590649700133984,-0.15910885455852153,2.3283262061946832,2.6215447336863775
5262.634,0.25569224855027384,1.1093392523380745,0.13853658973124988,-1.1590574321063623,-0.11626892134863076,2.3281381151013902,2.6583688808748103
5262.667,0.2555942032921372,1.1091771035707945,0.13823638371416536,-1.1590728705198439,-0.17808918253322314,2.3285140479444912,2.6253432214822254
5262.7,0.2556498244777847,1.1093075708282676,0.1385309644218351,-1.1589991300311357,-0.17233432916296998,2.3280318434881178,2.6390984739927834
5262.734,0.2555289566804353,1.1092688274330724,0.13854234364195506,-1.1589524326359033,-0.18141160121659805,2.328026442138732,2.651299962796351
5262.767,0.2556947542039449,1.1093420363978332,0.13853380567149112,-1.1590602161675168,-0.11626987057906989,2.328139247161207,2.6583709408091103
5262.8,0.2556313454392578,1.1092379873703822,0.13838367336728385,-1.159032357604561,-0.195454929279534,2.3280173599004232,2.665715974643401
5262.834,0.2556922485504234,1.1093392523380745,0.13853380567149112,-1.1590574321077578,-0.11626998589972108,2.3281381151013902,2.6583656256662476
5262.866,0.25575502351190593,1.109346874274486,0.13852222447356333,-1.159074727776777,-0.18824570074146685,2.3279225699380266,2.682527406228454
5262.9,0.2557746450277536,1.1094321391168283,0.1386771456636522,-1.159036344865494,-0.17983740694993156,2.327813783145963,2.674546186937519
5262.934,0.25566041785164817,1.1093014447462375,0.13848184211061465,-1.1590464452649156,-0.19089789430608928,2.328187453650127,2.6837432550563793
5262.967,0.25556113939471903,1.1092341465302926,0.13845486582435473,-1.1590237485330528,-0.20195682694716233,2.3282000545303845,2.6950809099865847
5263.0,0.25544847393665115,1.1092206079267788,0.13853228253191752,-1.1589072237941327,-0.21457305204827382,2.327820883202893,2.7101434530937176
5263.034,0.25542274845528556,1.109203224560524,0.13853381144288424,-1.158890300933992,-0.22672636299228976,2.3277928555935095,2.724731897770946
5263.067,0.2553975404389881,1.1091937426570517,0.1385516352886773,-1.1588633866860985,-0.23936440806749015,2.3277096786800637,2.740996474689508
5263.1,0.25537796930334267,1.1091862067036447,0.1385696184527907,-1.158842305620336,-0.25230196677097894,2.3276316785379247,2.7588748192790398
5263.134,0.25536060941792016,1.1091816764363305,0.13858901183218908,-1.1588116857401651,-0.26554711768569295,2.327563394389383,2.77845987729647
5263.167,0.2553452189767125,1.1091912403149786,0.13861077701016633,-1.1587722035549541,-0.2790394066652313,2.3274650594356068,2.799813684242082
5263.2,0.25532977383222644,1.1091889332522626,0.13863393090268605,-1.1587431348679837,-0.2927297544585681,2.3273776974148195,2.8229884512374728
5263.234,0.255315329320422,1.10918643379949,0.13865819280635616,-1.1587105230894226,-0.30667794365338086,2.3272219774222513,2.848149283890267
5263.267,0.2553044176862791,1.1091799574948888,0.13868195736608513,-1.1586791243693781,-0.320732279718122,2.3269473536571965,2.8752844039916994
5263.3,0.2553678178686587,1.109181069297497,0.1386217304765589,-1.1587474106902445,-0.3329338804017583,2.3268349691686616,2.8976263589059563
5263.334,0.2554698105504647,1.1092617540686653,0.13867245450707788,-1.1588102233371416,-0.3357667265424009,2.326827028334904,2.897300328188379
5263.367,0.25552927300016126,1.1093194710305,0.13869025260906742,-1.158841228022668,-0.3385720755002577,2.326801572550705,2.8973001621987464
5263.4,0.2555683733318963,1.1093411951687848,0.13869814004364311,-1.158865499805458,-0.34063089645149347,2.326755707555346,2.8973001440812176
5263.433,0.25558842410800153,1.1093693507235436,0.13871469428000083,-1.1588740305125453,-0.34214608657176093,2.326741938325881,2.897300166690931
5263.467,0.255608873169769,1.1093747138916514,0.13871166317261974,-1.1588882898613075,-0.3433309594052316,2.326720065911731,2.8973001468110393
5263.499,0.25562165754351795,1.1093835839245099,0.13871589452760613,-1.1588954428415121,-0.3442489474723738,2.3267061155406363,2.897300146507895
5263.534,0.25563873831496764,1.1094037029762855,0.1387135174582479,-1.1588859388162778,-0.3449496337144158,2.3266964091198687,2.897300211102994
5263.566,0.2556353248523129,1.1094021384452208,0.1387257771624526,-1.1588962650078711,-0.3454769344862658,2.326694464797818,2.8973001691301032
5263.599,0.2555985407041854,1.1093501349686665,0.13870669206371478,-1.1588907535976727,-0.35043586692823325,2.3266571006341863,2.896016335218965
5263.634,0.25555458756837446,1.109277773761245,0.1386617084489261,-1.1588754885734076,-0.35963852608407354,2.3262798658424373,2.8927050844055575
5263.666,0.25541421920762897,1.109232088981721,0.1387629038499636,-1.158735240787669,-0.37312767732077035,2.3253047868753693,2.89458560809463
5263.7,0.2556777672778096,1.1093626384400483,0.13852851595794918,-1.1590810733194643,-0.1162667963390667,2.3281292650037333,2.658367761896716
5263.734,0.25569224740575247,1.1093704338073729,0.13852851595794943,-1.1590914346126089,-0.11626999028080862,2.328130344735742,2.658367761896716
5263.766,0.25568417477712296,1.109354843072724,0.1385313000177082,-1.159063754968476,-0.11627185397733092,2.328134758167796,2.658361149754789
5263.8,0.25565650796570943,1.1093420363978335,0.13852137875138665,-1.1590446254328677,-0.11626679651928384,2.32813811510139,2.6583666429188515
5263.834,0.2556695306683879,1.1093445420516164,0.13852843722094954,-1.1590541835390609,-0.11626857086110806,2.3281358815083064,2.6583590135243202
5263.867,0.25566749591080323,1.1093445420516164,0.13852851595794763,-1.1590627218212997,-0.11626805706609397,2.3281381151013902,2.6583633877105184
5263.9,0.2556720727755312,1.1093420363978332,0.13852593048709624,-1.1590627218217318,-0.11626805755228833,2.3281370092054776,2.658364506688383
5263.934,0.2556957885508351,1.1093367466842916,0.1385313000177082,-1.159049912092558,-0.11626999017264461,2.3281369961235256,2.6583656256662476
5263.966,0.25569733859472765,1.109338333971925,0.1385338056714911,-1.159054926453975,-0.11626994928178418,2.328136996285031,2.6583677488149853
5264.0,0.2556922485504242,1.1093420363976414,0.1385338056714911,-1.1590652274750823,-0.11626998593578769,2.32813699612355,2.658363387710518
5264.034,0.2556894641636158,1.1093392438348058,0.13853383203980105,-1.159052420800192,-0.11627063957584408,2.3281381151013902,2.658362268732654
5264.067,0.2556732402327912,1.1093342410305087,0.13853130001770883,-1.1590448966887472,-0.11626572591045545,2.3281393518188183,2.6583633877105184
5264.1,0.25566758052958405,1.1093420363976894,0.13852350465038366,-1.159055206524337,-0.11626998595314879,2.3281369961235256,2.6583622687346473
5264.134,0.2556905605210077,1.1093420363965374,0.13853380565949033,-1.1590574321072926,-0.1162699859530502,2.3281369961235256,2.6583656256662445
5264.167,0.25575241568563695,1.1093371095026374,0.13853980765493562,-1.1590602161675168,-0.1162688547920945,2.328138128184007,2.6583622687326534
5264.2,0.2558065188871925,1.1093342378811446,0.13855037290620278,-1.1590602161675168,-0.11627190654864568,2.328136996285031,2.658356775569005
5264.234,0.2557864397462987,1.1093445419466377,0.13854933369633543,-1.1590679627171268,-0.11626892572972143,2.3281347581677965,2.6583590135243202
5264.267,0.25573328556369934,1.1093392523376426,0.13852989721254103,-1.1590574321077578,-0.11626994151372719,2.32813823283896,2.658364506688383
5264.3,0.2557328511868552,1.1093289513156712,0.13852921405535606,-1.1590463615285262,-0.11626856563881062,2.32813811510139,2.6583633877105184
5264.334,0.2557349858744102,1.1093413446936318,0.13853242844905672,-1.1590519560197141,-0.11626885462990881,2.3281381151558898,2.6583633877105184
5264.367,0.25575371614804643,1.10934704486968,0.1385317984450505,-1.1590652274736868,-0.11626995088104766,2.3281369961235256,2.658367685602771
5264.4,0.2557838374476587,1.1093321747361407,0.13854548797916005,-1.1590524177100519,-0.11626997524447424,2.3281369961235256,2.658364506688383
5264.434,0.2557792313233135,1.1093367466825637,0.13854631068349954,-1.1590602150369778,-0.11627100612714826,2.3281381151013902,2.658364506688383
5264.467,0.25576045136937986,1.1093445420516161,0.13854027711598352,-1.1590677331288626,-0.11626897308230123,2.3281358776282577,2.6583590135243202
5264.499,0.2557597681691772,1.1093391758086542,0.13854019826964328,-1.1590627218212997,-0.11626643726965072,2.3281369961235256,2.658365586420391
5264.534,0.25575197280229706,1.1093366673202563,0.13853769261986063,-1.1590473587584142,-0.11627100564028646,2.328135877145661,2.658367761896716
5264.567,0.2557487839534236,1.1093385634677357,0.13853490855610162,-1.159057431048383,-0.1162699771916343,2.328139247215042,2.65835901352432
5264.6,0.255770338485437,1.1093392523380745,0.13854548798318495,-1.159062721482138,-0.11626884143299215,2.3281358771459564,2.658365625827753
5264.633,0.255771407629239,1.1093392523380745,0.1385402245153099,-1.1590566903610673,-0.11626857035651354,2.3281369961235256,2.6583656256662476
5264.667,0.2557597683174033,1.1093333226774633,0.1385401973015818,-1.1590599411073585,-0.11626885477478525,2.3281347581677965,2.6583578945464557
5264.7,0.2558144038023267,1.1093301651914595,0.13847226642710897,-1.159108446048915,-0.15855536124034675,2.328354987789295,2.777869576836114
5264.733,0.2556778331981828,1.1092793853431235,0.1384889598664003,-1.1590431030738708,-0.1665599367517725,2.3283633547982863,2.7853522995119206
5264.767,0.25559044932864694,1.1092011447650112,0.13839414684665385,-1.1590214545311266,-0.18024517036411147,2.3284604869692114,2.7985181380057575
5264.8,0.2555374128270076,1.1091483509890319,0.13836198927661325,-1.1590256440987954,-0.1938803009399317,2.3285411095555784,2.812419449589317
5264.833,0.25552208720014224,1.1091193920146738,0.1383287989886668,-1.1590310473117809,-0.2077696746490183,2.328623249536898,2.8274651475028243
5264.866,0.2554351896115268,1.109122227052433,0.13842601940411026,-1.1589200805754292,-0.22296183754084264,2.328204285347095,2.8460016735715747
5264.899,0.25541741204324797,1.1091122243933267,0.13844359592061295,-1.1588954875328579,-0.23749847697951942,2.328127721042888,2.8638532818638947
5264.935,0.2553970525085987,1.1091049981131293,0.13846653170622414,-1.1588703485054035,-0.25246709091918174,2.328022897465086,2.8833824466455944
5264.966,0.2557597681691772,1.1093367466842916,0.13854019826964326,-1.1590574321077578,-0.1162706053605292,2.3281381151013902,2.6583578945465294
5265.0,0.25576508412812404,1.109338945870464,0.13853769261586035,-1.159057431994704,-0.11627100758149159,2.3281381151013902,2.6583590135243202
5265.034,0.25576255222893596,1.1093420363965356,0.13854300857506865,-1.1590574321076028,-0.11626985890216951,2.3281381152629037,2.6583611497567827
5265.067,0.25576255222893596,1.1093420363978315,0.13854298232940204,-1.1590627217836151,-0.11626997711949283,2.328135877145661,2.65835901352432
5265.1,0.2557597681691772,1.1093420326147145,0.13854298232940204,-1.1590602161675168,-0.11626994298232926,2.328138115101612,2.658362268732654
5265.134,0.2557572625153943,1.1093365170947287,0.13854298232940204,-1.1590574320575118,-0.11626999033490724,2.328139234079255,2.6583688808745807
5265.167,0.25576505788245746,1.1093392523380745,0.13854298232940204,-1.1590574321072902,-0.11627100564036065,2.3281395872919655,2.658366642918851
5265.2,0.2557625522289524,1.109336720858237,0.13854298232940204,-1.1590574321077578,-0.11627100758751222,2.328136996285031,2.6583601325021844
5265.235,0.2557597681691772,1.1093346802849555,0.13854298232940204,-1.1590601306987625,-0.11626999032889752,2.3281412940164428,2.658356953587796
5265.267,0.2557650578824574,1.109342033563405,0.13854298232940204,-1.159054463764349,-0.11627096767090277,2.3281381152628966,2.658363387710518
5265.3,0.25575976816917717,1.109336721174485,0.13853769261586038,-1.1590602161631747,-0.11626997281053382,2.328133639189932,2.658367761896716
5265.335,0.2557597681691771,1.1093392523380265,0.13853240290231872,-1.159057349691459,-0.1162699771916259,2.328135877145661,2.658365625827753
5265.367,0.2555793580179584,1.1092572259945133,0.13853761230201744,-1.1589223696025321,-0.15994284645200185,2.3279226025523414,2.5831728629777935
5265.4,0.255596417869814,1.109289834406943,0.13859006429931942,-1.1589195064660522,-0.16040904664418587,2.327872807102011,2.579124536725484
5265.434,0.2554534535745496,1.1092317472145838,0.13857145547945482,-1.158853194874153,-0.17327086974676842,2.3278016400981727,2.5818751318052335
5265.467,0.2557646781279335,1.1093359813900712,0.13854019826964328,-1.1590574229499262,-0.11626805750087169,2.328139234079255,2.658364506742218
5265.5,0.2557542422086336,1.1093385634560715,0.13853769261586038,-1.1590592268327677,-0.11626959598260467,2.328137009205478,2.6583656256662476
5265.535,0.2557650841241238,1.109336721174437,0.13854019826964328,-1.159060216167448,-0.1162698720267437,2.3281390558985433,2.6583656271197977
5265.567,0.2559527822495822,1.1093960476863822,0.13856250725268282,-1.1591348951146196,-0.16914778788371265,2.328281378601581,2.651522193777419
5265.6,0.2557597681691772,1.1093367123562747,0.13853769261586038,-1.1590602069724656,-0.11626985819101568,2.328139234079263,2.658360145584137
5265.634,0.2557597681691772,1.109338538063434,0.138540199241705,-1.159054926453802,-0.11627083672495209,2.3281369961235283,2.6583590135243202
5265.667,0.2557597681691772,1.1093342410266045,0.13854019826964328,-1.1590601886828558,-0.11626998587367803,2.3281369961235256,2.6583633877105184
5265.701,0.2557597681691772,1.1093342381960698,0.13854298232940204,-1.1590566900219055,-0.11627053419527379,2.3281369368017355,2.6583666429188515
5265.735,0.25576505788245746,1.1093367466375847,0.13853769261586038,-1.1590574218184546,-0.11627100758751233,2.328137055463261,2.6583677618967156
5265.767,0.2557597681691772,1.1093390199037259,0.13854019826964328,-1.1590545966752581,-0.11626679505098222,2.328136996285031,2.6583611497607462
5265.8,0.2557572625153943,1.1093367465793125,0.13854298232940204,-1.1590574321076008,-0.11626885284368396,2.3281371138610956,2.658363387692573
5265.834,0.2557572625153943,1.1093367463654518,0.13854019826964328,-1.1590573222193594,-0.11626893170466296,2.3281369961235256,2.658363387710518
5265.867,0.25575976816962165,1.109338920675017,0.13853769261586038,-1.1590574320700733,-0.11626675708323085,2.3281358771456855,2.658364506688383
5265.9,0.25567719994309535,1.1093423604266661,0.13858499564302829,-1.1589705326735231,-0.15878343585445354,2.327901896893538,2.7421879128188564
5265.934,0.2555107670639529,1.1092921818239017,0.13865151443373147,-1.158880693129122,-0.16733816754878372,2.327779049246777,2.7563762321094387
5265.967,0.2554859912441332,1.1091822653506886,0.13847499611535063,-1.1589520117522074,-0.18095359558613033,2.3281680444978825,2.774685477724507
5266.0,0.2553449536484713,1.1091767995806006,0.1385702571593388,-1.158815872056909,-0.1952338167945431,2.32776206496964,2.7961257615680246
5266.034,0.2553944638684946,1.1091154497364872,0.138441051875553,-1.1589116803939783,-0.2092840499467279,2.3281631455834244,2.816330131867872
5266.067,0.2552888991806199,1.1091373222617893,0.13856057892567897,-1.1587839705702114,-0.2240329560129215,2.3277409331094585,2.839859939763322
5266.1,0.2557598469061771,1.1093392438348058,0.13853490855610162,-1.159062474459194,-0.11626699941216244,2.3281381151021283,2.6583645110490335
5266.134,0.25575447856364236,1.1093360494158067,0.1385399620586436,-1.1590627218212997,-0.11626678331999431,2.3281381151007254,2.65836338771051
5266.166,0.25589856418319634,1.1094396233360788,0.1386045541154841,-1.1591034203052182,-0.20969503597141248,2.327824874832565,2.8079744147717314
5266.199,0.2560579889812997,1.109566381984453,0.1387101057535789,-1.1591755744362882,-0.19137864013086858,2.3281017537208424,2.765830644708128
5266.234,0.25578529340003175,1.1093682814515127,0.13851302720072756,-1.159073742290749,-0.20634201603538127,2.3282045338892505,2.7934699194631545
5266.267,0.255675781296695,1.1092948902767432,0.1385411136660153,-1.1590522464710116,-0.21441198664043082,2.328214141549248,2.78861682460132
5266.3,0.25564919523426255,1.109252355164977,0.13847088875145808,-1.1590460281520816,-0.22621989074668214,2.328300654268169,2.7885408165385464
5266.334,0.2555589456799474,1.1092796798958853,0.13858678440474215,-1.1589140800304705,-0.2377770766126739,2.327856122345924,2.791182077333593
5266.367,0.25564454074295373,1.1092255701086238,0.1384424895076508,-1.1590573792521113,-0.24906269094136313,2.3283879765504114,2.792430166117983
5266.4,0.2555478986911295,1.1092742247290275,0.13859284684515494,-1.1588942140977432,-0.26130843406651394,2.327825482692356,2.7989374758078167
5266.434,0.2555452249190706,1.1092494070274377,0.13858609773562236,-1.1589153211697978,-0.27336900376459017,2.3278791242803987,2.8057499745051686
5266.466,0.25562992516046723,1.109212597173153,0.13846193964880094,-1.1590175159417564,-0.28530975281195925,2.328279932856862,2.813160789149528
5266.5,0.25562676393192785,1.1092065497236492,0.13846562055014378,-1.1590128109033984,-0.29771961920978196,2.3282570005218055,2.8242073410123503
5266.533,0.2556418012652122,1.1091904566787862,0.13843671218325504,-1.1590306850804568,-0.3102508431006825,2.3282706069055443,2.8374449766909855
5266.566,0.2556536299646748,1.1091803719516076,0.13841896774635298,-1.1590422956326485,-0.3229234667462384,2.328186943458844,2.852965491391938
5266.6,0.255680188810393,1.1091733514882076,0.13838571411871659,-1.1590408496558133,-0.33569615326676416,2.328004737237567,2.870847404250279
5266.634,0.25569762023246145,1.1091574062282454,0.1383632861990236,-1.1590510485907757,-0.34862307418748717,2.327733741910807,2.891214677714757
5266.667,0.2556937695415087,1.1092142139657302,0.13848913482581615,-1.1590340162551271,-0.3559843951879129,2.3270748841701234,2.8975236694401545
5266.7,0.2558246748299142,1.1092848656059724,0.13844408206650716,-1.1591203769779241,-0.35821202235549343,2.3272549201569728,2.897300271078972
5266.734,0.25585600673693065,1.1093311095788003,0.1384720212605126,-1.159117658479314,-0.36056291254904593,2.327115612645489,2.8973002139439075
5266.767,0.2558748518244256,1.1093473611854918,0.13848463298616398,-1.1591455332020448,-0.362298916406953,2.3270919950237925,2.8973001725952603
5266.8,0.255892618270094,1.1093526398237143,0.13848298135959158,-1.1591533831681442,-0.3635647978333436,2.3270431675172745,2.8973001500520077
5266.834,0.25591817472583234,1.1093336854923095,0.1384500307475145,-1.1591863232789592,-0.36528359717623626,2.327037702522814,2.897405153771704
5266.867,0.2558422546239365,1.109252260395504,0.13842173540137725,-1.1591516092747103,-0.3749658507568814,2.3266045625203198,2.8934811851758653
5266.9,0.25581078088439213,1.1091849142968577,0.13836863760758433,-1.1591402742392019,-0.3864236855250063,2.3261641716922874,2.8944554436369376
5266.934,0.2558390177290919,1.1091567956923694,0.13831577201342604,-1.1591827926846667,-0.3961232665143877,2.325668315200325,2.894238904881851
5266.967,0.25581169001709636,1.1091314567982486,0.1383174176882047,-1.1591554885535666,-0.40862658358304405,2.3250274740262196,2.894090739457786
5267.0,0.2558218806153283,1.1091150566880126,0.13828220850720374,-1.1591395908570679,-0.4214475152427575,2.324303578066509,2.896836915085858
5267.034,0.25584415788320936,1.1091068591682198,0.1382646739463418,-1.1591596734637424,-0.43248815750379865,2.3236073629815124,2.8921275534648085
5267.067,0.25585411760218957,1.1090760546611929,0.1382211588424438,-1.1591620519971393,-0.4463013015993118,2.322823674744507,2.893571511071684
5267.1,0.25591168171906276,1.1090704893710557,0.13814475905223667,-1.1592143980756928,-0.4585591782619911,2.3221084493743334,2.8951172571513855
5267.134,0.25577650938596896,1.1090884479519136,0.13837282098574732,-1.1590677540233099,-0.4731011782248977,2.3205268844715103,2.8942137274314206
5267.167,0.2558840274379186,1.1090317750319931,0.1381858864771912,-1.1591803011560007,-0.4866152043134493,2.3199741329600414,2.8949498552063275
5267.2,0.2558011353230052,1.109069138288402,0.1383831718977362,-1.159067266572773,-0.4997565091623084,2.318297214019557,2.894691027172364
5267.234,0.2557869038020941,1.109048275763346,0.13839509985128373,-1.159047145467179,-0.5149807490079219,2.3170270711058976,2.894901916283146
5267.267,0.2557844238400335,1.1090311912675173,0.1384069720299106,-1.1590508123630867,-0.5298970307270805,2.3157451694537166,2.897512002652931
5267.299,0.25576783812379933,1.1090454957519453,0.13847707455857527,-1.1590020271769674,-0.5433658579595013,2.3142285310522333,2.894632762528552
5267.334,0.2557523103277184,1.1090374900560613,0.13850519523771876,-1.158956809424697,-0.5592337972180044,2.3126787124589256,2.8973853194395005
5267.367,0.2558601554785058,1.109009599294347,0.13836093261052085,-1.1590754946946165,-0.5713299960841018,2.3117004270862402,2.893488005845647
5267.4,0.25587507661537323,1.1089789958520155,0.13832453778117593,-1.1590831396221066,-0.5871048035232453,2.3101971143070337,2.8951058513832635
5267.434,0.25578830728386226,1.1090307287168413,0.13852974238581073,-1.1589581361880104,-0.6018205572167297,2.3080576072209897,2.8949407459127716
5267.467,0.2559023658159667,1.1089801241503956,0.13832956465649815,-1.159057332417155,-0.6168975109927066,2.3068625221899595,2.8936290149507435
5267.5,0.2559503985570011,1.108979828064788,0.13827019813790553,-1.1590987673201099,-0.6313099755609448,2.3052724813101726,2.8950003438098086
5267.534,0.25596527841020045,1.108958262282706,0.13826197078567137,-1.1590830222414938,-0.6473890566143474,2.3034389038071943,2.8965021195270726
5267.567,0.2558574459508032,1.1089900367705328,0.13848645698868545,-1.1589822050686198,-0.6632792954855891,2.301042548878037,2.896735970560062
5267.6,0.2557650578824574,1.109338526304565,0.13854019826964328,-1.159057432107756,-0.1162684477019831,2.3281381194640347,2.6583656256662476
5267.634,0.25673405847650965,1.110323018065639,0.1379601931397323,-1.1601331997852835,-0.5829589848054111,2.308050590234757,2.816247438662014
5267.667,0.2557625522409367,1.109336738181021,0.1385349085561016,-1.159057429042741,-0.11626999011848348,2.328136996123304,2.658362268732654
5267.7,0.2557572625153943,1.109334241030507,0.13854298232940201,-1.1590574321063623,-0.11626963108475477,2.3281358771456606,2.6583678025961266
5267.734,0.2557597681691772,1.1093367466842863,0.13854298232940201,-1.1590574316555413,-0.11626982823428318,2.328136996123501,2.6583699998524453
5267.767,0.25576255222893596,1.1093399442783005,0.13854298232940201,-1.1590574321063623,-0.11626990352579766,2.3281358771456606,2.658367761896716
5267.8,0.25576505788245746,1.1093392438347558,0.13853769261586035,-1.1590579908139262,-0.11626663808138002,2.3281401751994193,2.6583688808745807
5267.834,0.25575726251539427,1.1093367463693558,0.13854027700664315,-1.1590548439244652,-0.11627100612113885,2.3281381151013902,2.6583666429188515
5267.868,0.25576756353624036,1.1093399442320813,0.13854019826964328,-1.1590627217836094,-0.11626861772635504,2.328136996177361,2.6583578945464557
5267.9,0.2557625551451211,1.109336746649283,0.1385401981976385,-1.1590627218212826,-0.11626789477493965,2.328136995968666,2.658356775569005
5267.934,0.25576255222893596,1.1093341644660948,0.13854298232940201,-1.1590574046342625,-0.11627065271041252,2.3281381151013902,2.658361073460844
5267.967,0.2557597681691772,1.1093367466829904,0.13853769261586035,-1.1590619526025097,-0.11627084921650437,2.328139234079255,2.658362268732654
5268.0,0.2557572625153943,1.10933924379938,0.13853769261586035,-1.1590519318820593,-0.11626573540175435,2.328135877145661,2.658356775569005
5268.033,0.2557572625153943,1.1093392523380265,0.13854019826979141,-1.1590574280359538,-0.11626790847712087,2.3281369961235256,2.6583590135242954
5268.067,0.2557597681691772,1.1093392523380265,0.13854019826964328,-1.159055206527129,-0.11627100758728943,2.3281358771456855,2.658357894546455
5268.1,0.2557625512568742,1.1093346794449879,0.13854019826964328,-1.1590573954405898,-0.11626790845909143,2.328135837900026,2.6583645066883825
5268.134,0.2557625522289359,1.1093336855057456,0.13854019826964328,-1.159054926114658,-0.1162678137718889,2.3281373885820917,2.658365625666247
5268.167,0.25575976784515664,1.109339251918112,0.13853769261586038,-1.159057431994704,-0.11627065125852339,2.32813699612355,2.658360171748041
5268.2,0.2557625522289365,1.109344309593795,0.13854298232940204,-1.1590627218212997,-0.11626974654968521,2.3281381151014147,2.6583578945464557
5268.234,0.25576255222893596,1.1093392522291918,0.13854019826964334,-1.1590627116464307,-0.11626882956412658,2.3281369961235994,2.6583666429188515
5268.267,0.2557595319581775,1.1093366670042164,0.13854019826964328,-1.1590574290553024,-0.1162709549961651,2.3281369961235256,2.6583666429188515
5268.3,0.2557597681691278,1.1093341528432283,0.13854019826964328,-1.1590574321063623,-0.1162710075875123,2.3281359168760343,2.6583688808745807
5268.334,0.25576184359593696,1.1093420108879626,0.13854019827497693,-1.159062694349045,-0.11626663087731495,2.328136996141692,2.658364506688383
5268.367,0.2557675635362403,1.1093371510858177,0.13854019826964328,-1.1590549264497358,-0.11626997281043581,2.328139234079255,2.6583659789327925
5268.4,0.25576255222908406,1.1093360324097008,0.13854298229339973,-1.1590626851913166,-0.11626897308030075,2.3281369961235256,2.658364506688383
5268.434,0.2557572625153943,1.1093367457278198,0.13854308731206855,-1.1590571848211246,-0.11626990331789472,2.3281369961235256,2.658362268732875
5268.467,0.2557597681691772,1.1093392520114744,0.13854298232940204,-1.1590602161675168,-0.11626963546047629,2.3281369961235256,2.658362268732654
5268.5,0.2557597681691772,1.1093384785406009,0.13853769261586038,-1.1590602161675168,-0.11626675708946042,2.328135877145661,2.6583656256483024
5268.534,0.2557597681691772,1.1093392523379306,0.13854019826964328,-1.1590541846947229,-0.11626779013356583,2.328136996123747,2.6583626219991987
5268.567,0.25575976806116973,1.109336721065565,0.13853490855610162,-1.1590574321077578,-0.11627051977168065,2.328139234079255,2.6583611497548634
5268.6,0.25575976816917717,1.1093367466725792,0.13854020702219907,-1.1590523933280925,-0.1162709602349334,2.328135877145661,2.6583578945464557
5268.634,0.2557625522289359,1.1093366701548706,0.13854019826964328,-1.1590574321077578,-0.11626678191572042,2.328135877145661,2.658356775569005
5268.667,0.25575726251539427,1.1093320982063022,0.13853769261586038,-1.1590574321077578,-0.1162699385771661,2.3281369961235256,2.658356775569005
5268.7,0.2557626309659358,1.1093366701548713,0.13854298232940204,-1.159062638349831,-0.11626999015460715,2.3281369961235283,2.658364506688383
5268.734,0.25576505788245746,1.1093371857287706,0.13854019826964348,-1.1590574321072868,-0.11627061328928814,2.3281381281773603,2.6583656256662476
5268.767,0.25572491850500967,1.1093628478578417,0.13859842242664477,-1.1589853241357009,-0.1593447402550403,2.327893533356164,2.780093400660867
5268.799,0.2555503321028265,1.1093146684700974,0.13864622722234543,-1.1588777921390339,-0.16885830651153633,2.3277649593796514,2.7888769166553296
5268.834,0.25543361353377136,1.1092441477346133,0.1386029064595551,-1.1588145606719218,-0.18313430975077694,2.327690450729591,2.802547822402966
5268.867,0.2553642776355458,1.1092094664951322,0.13859882967284332,-1.1587635615209901,-0.19742418838094888,2.3276032040512504,2.8170194171220793
5268.901,0.2557625522289359,1.1093383327123236,0.13854019826964328,-1.1590574320575118,-0.11627190654997571,2.3281369917628747,2.6583666429188515
5268.934,0.25575726251539427,1.1093420335282096,0.1385429823294185,-1.1590549254363283,-0.11626673017937984,2.3281392340792544,2.658356775569005
5268.967,0.25587783796577135,1.1093663652762356,0.13846059560894286,-1.159111519636629,-0.19413807723141296,2.3282062218715556,2.801246181116582
5269.0,0.25593501881878744,1.1095094617110934,0.13871106995555493,-1.1590650516375254,-0.18197203858223787,2.32776024199101,2.77771523085619
5269.034,0.255678373139836,1.1093349811452882,0.13858498001414343,-1.1589477014532736,-0.19819422643635587,2.327903638763548,2.8164585626765586
5269.066,0.2556944271680033,1.109305137567003,0.13852443765452715,-1.1590193519089436,-0.2046662308399334,2.328154462284024,2.8066714185962613
5269.099,0.2555584672896236,1.1092897244429025,0.1386226053370967,-1.1588812062472122,-0.21740125142132616,2.327676120431091,2.8069100804446556
5269.134,0.25566046647842366,1.109260985491252,0.1384648318412891,-1.1590056161325721,-0.2278879460139258,2.3282199951357967,2.8036643886330914
5269.167,0.25554402678246646,1.1092754183123352,0.13862345974164914,-1.158869138243638,-0.24073320114609587,2.327656117838483,2.806467893403063
5269.2,0.25555499572911167,1.1092663532539433,0.13860234561832652,-1.1588796819190144,-0.2523321745206202,2.3277197391647384,2.8090168673945115
5269.234,0.25553578456921766,1.1092651350368072,0.13863317568678468,-1.158851059996512,-0.2645505893859079,2.3276092411634917,2.8138464405034096
5269.267,0.2557597681691772,1.1093392523337542,0.13854019826964328,-1.1590602161633297,-0.11627088782966256,2.3281369961414704,2.6583578945464557
5269.299,0.25575976816918267,1.1093371857274905,0.1385429824374089,-1.159052701100849,-0.11626963497965076,2.3281369966082637,2.658364506688383
5269.333,0.2557597681691772,1.109336028626582,0.13854019827364353,-1.1590579807521284,-0.11626987058507958,2.328135877145661,2.6583590135243202
5269.366,0.2557596894321773,1.1093420277882897,0.13853771884952623,-1.1590574321077578,-0.11627198097444832,2.3281392733253328,2.65835901352432
5269.4,0.2557625522289359,1.1093391499799754,0.13853769261986063,-1.1590574316555422,-0.11626892570901669,2.328135875698093,2.6583645066883825
5269.433,0.25587256001367464,1.1094958913047241,0.13875942657190077,-1.1590340911897599,-0.1766763079885303,2.3277841716660657,2.6632382551609
5269.467,0.2556042170875319,1.1093281265081671,0.13869842989133296,-1.1589113317844602,-0.17171399426742706,2.3277341296887677,2.648376130606671
5269.499,0.2553586912854744,1.109116711708297,0.13847362300603105,-1.1588562068419659,-0.18256901853857332,2.328090035471087,2.647235829231308
5269.533,0.2551251746135401,1.1090302888187953,0.13853121480086283,-1.1587012862976227,-0.194782212844391,2.3276787707236224,2.6512289556318986
5269.566,0.2550593832957615,1.1089806691862867,0.13850046318419462,-1.1586690307505503,-0.206870313475652,2.327677301417472,2.65491602823988
5269.6,0.25511030143473423,1.1089425729032607,0.13837336758773588,-1.1587395396444338,-0.21894649760952234,2.3280338397550633,2.6585956715119234
5269.633,0.2549995509621894,1.108941503116812,0.1384939899828277,-1.1586234554620658,-0.23207092879255597,2.3276267291521116,2.667181589179325
5269.666,0.2550769892077742,1.1089038898077535,0.1383621257414589,-1.1587330184165587,-0.2446206345798574,2.3280691790145855,2.674237384049558
5269.698,0.25507179625452636,1.1088926414653972,0.13835956440046715,-1.158728357668644,-0.25775691478634855,2.3280803337000133,2.6846241657656975
5269.734,0.25508036803503575,1.108876394375522,0.13833414131162503,-1.1587425675608385,-0.27118383361838205,2.328162413516605,2.6969240828928562
5269.767,0.25500309744536587,1.1088860144094213,0.1384467165990957,-1.158640086855062,-0.2859237428808372,2.3277545981743124,2.713360891858189
5269.799,0.25499582048977043,1.1088808017606109,0.13846066724234252,-1.1586177006937914,-0.3000500504528478,2.3277192154221122,2.729872701084197
5269.833,0.2550695532374556,1.1088476263139144,0.1383449644244168,-1.1587174762461654,-0.3142406921235139,2.3281241496927443,2.7474216505279703
5269.867,0.25507660544355115,1.1088335543956775,0.1383285969624506,-1.158724556687691,-0.3288017838169708,2.3281796804619574,2.768343257847935
5269.899,0.255090771044272,1.1088173393893275,0.13830420249590603,-1.1587377819811788,-0.34358219384768773,2.3282288167756455,2.79160229287163
5269.934,0.2551079466463744,1.1087964738375788,0.13827988334436192,-1.1587492181106551,-0.358575365777992,2.3281569644477695,2.8173077875608588
5269.966,0.2551278257429903,1.1087763505699488,0.13826086043081176,-1.1587551221865535,-0.3736655565572695,2.327925418674903,2.845481874403962
5269.998,0.2551513661999527,1.1087464901382997,0.1382263067390781,-1.158776317755402,-0.3888942423910482,2.327564580788092,2.876247376053861
5270.034,0.2552108070764225,1.1087619191868843,0.13821221374140702,-1.1588255010370165,-0.400923160620267,2.3270710053017307,2.897499664083494
5270.067,0.25527727591152694,1.1088830461592076,0.13830694893903228,-1.1588504135852755,-0.40486895510093834,2.326895632223879,2.897300253933542
5270.1,0.2553478677949865,1.108950576616473,0.1383139899813406,-1.1588762082166353,-0.40780927713896187,2.32681144680579,2.8973002298216812
5270.134,0.25538934727058304,1.1089923022467056,0.13832748926306238,-1.158896832320666,-0.41014173967539325,2.3267361521814625,2.897300227927417
5270.167,0.2557625259832693,1.1093392522914174,0.13853769261586038,-1.1590602161675112,-0.11626897161392695,2.3281381151014147,2.6583556696730923
5270.203,0.25575976816917717,1.1093420363978168,0.13854298232940204,-1.1590549264409482,-0.11627084194344067,2.328134758652313,2.6583590135223263
5270.234,0.2557625522289359,1.1093444655092335,0.13854548798318495,-1.1590601883562555,-0.11626769102929028,2.3281369961235256,2.658363387710518
5270.267,0.2557625522289359,1.1093371832088017,0.13853769261586038,-1.1590602160544454,-0.11626895555727106,2.3281372943571506,2.658366642918851
5270.3,0.25575726251539427,1.1093346803895074,0.13854019826964328,-1.1590574321077005,-0.11627049483754393,2.328136998223098,2.6583578945464557
5270.334,0.2557597681691772,1.1093392523030818,0.13853490855609613,-1.159059474408259,-0.11627099438948287,2.3281369961235256,2.6583656387501935
5270.367,0.25575976818117796,1.1093385607388515,0.13854298232940201,-1.1590574321077574,-0.11626861821390871,2.328137035369382,2.6583578945464557
5270.4,0.25576255222893596,1.10934430395879,0.13854019826964326,-1.1590572457877244,-0.11626769547641441,2.3281381151013902,2.658360132502185
5270.434,0.2557572625153943,1.1093389972037158,0.13853769261586035,-1.159052420674576,-0.11626997717352267,2.3281369961953056,2.6583666429188515
5270.467,0.25575763935399504,1.109336440566592,0.1385401982696451,-1.1590549253233842,-0.11627095479205411,2.3281369961235256,2.658360132502185
5270.5,0.2557650578824574,1.1093419598684129,0.13853490855610162,-1.159060133749822,-0.11626895939014169,2.3281358785992112,2.658359013524312
5270.534,0.2557571837783944,1.1093392523375778,0.13854019826964328,-1.1590574310902726,-0.11626995041829835,2.3281381151013902,2.658363387710297
5270.567,0.2557597420315174,1.1093413476173524,0.13854019826964328,-1.1590602151374683,-0.11626679213825943,2.3281358771456637,2.65835901352432
