yuan18844-afk/dissertation/catkin_ws/src/franka_digital_twin/analysis/data/gazebo_static2_20250728_063951.csv
time,panda_joint1,panda_joint2,panda_joint3,panda_joint4,panda_joint5,panda_joint6,panda_joint7
4710.233,0.5985187850678175,1.065857359969825,-0.3906379792996031,-1.1747469542117472,0.28441882339651686,2.2603328058064003,1.9308809146554102
4710.266,0.5985084840467101,1.065852348662259,-0.3906354503167668,-1.1747515426319688,0.28441562461190756,2.2603339247836005,1.9308797193831866
4710.3,0.5985063766243507,1.065857359969825,-0.3906326934743082,-1.174751784863889,0.2844165401392513,2.2603307088217885,1.930881783191968
4710.334,0.5985215691265305,1.065854854316042,-0.39063473293522866,-1.1747514777978014,0.2844165401393256,2.2603316868278713,1.9308773630438616
4710.367,0.598510989700493,1.065857359969825,-0.3906326930413912,-1.174754979249129,0.28441562461190756,2.2603328058058096,1.9308806973899342
4710.4,0.5985134953542759,1.065852348662259,-0.39063547752250527,-1.1747499679727313,0.28441562461190756,2.260332805805736,1.9308817247945225
4710.434,0.5985134953538356,1.065857359969825,-0.3906379831829607,-1.1747471744571043,0.28441460735930335,2.260332805805736,1.9308752434717174
4710.466,0.5985084840467101,1.0658546247277807,-0.39063547753451155,-1.174752472650154,0.28441655330296567,2.2603316868278713,1.9308797193831864
4710.499,0.5985709773327113,1.0658823482376176,-0.39068646658803097,-1.1747709703514833,0.25281900802459223,2.260358064999817,2.0244152388753847
4710.534,0.5985240747803134,1.065854854316042,-0.39063269217817487,-1.1747471750947684,0.2844165401392522,2.2603296683349727,1.9308763493676406
4710.567,0.5985134953542759,1.0658601440295836,-0.39063269347473617,-1.174746954323416,0.28441460735930335,2.2603316868278713,1.9308763624495928
4710.6,0.5985134953542759,1.065857359969825,-0.39063797443973886,-1.1747462570549076,0.2844165401392513,2.2603316868278713,1.9308797193838432
4710.634,0.5985107556970728,1.065857359969825,-0.39063797930004573,-1.1747491989031689,0.28441562461190756,2.260331686827874,1.9308797193831866
4710.667,0.5985134953542759,1.065857359969825,-0.3906354658697709,-1.1747499386862705,0.2844175573918554,2.260332805805736,1.9308818556120717
4710.7,0.5985162794140346,1.0658573590250173,-0.3906326933627237,-1.174747901362148,0.28441654013992007,2.2603306694144263,1.9308818556139955
4710.734,0.5985134953542759,1.0658601440295836,-0.39063245726375295,-1.174749737956284,0.2844165401392513,2.2603338484897293,1.9308760090753776
4710.767,0.598510989700493,1.065854854316042,-0.3906407672480514,-1.1747446697585135,0.2844165401392513,2.2603316868278713,1.9308720640728236
4710.8,0.5985134953542759,1.065852348662259,-0.39063269347474716,-1.174747174358478,0.28441562461190756,2.2603316868278713,1.9308807366298082
4710.834,0.5985134953542759,1.065857359969825,-0.390637983139847,-1.1747499640923629,0.2844175573918554,2.2603316868305297,1.9308797193831857
4710.867,0.5985056913185757,1.065854854315994,-0.3906319819255193,-1.1747444230598871,0.28441562461190756,2.2603316868278713,1.9308699283268707
4710.899,0.5985630017522441,1.0658570525600792,-0.3906984249619896,-1.174750114072694,0.253062891710897,2.260365854611308,1.9843862885100716
4710.934,0.5985084840467101,1.0658573590250173,-0.39062806094991115,-1.1747464940672483,0.28441562461190756,2.260329554958127,1.930879719377205
4710.967,0.5985081816594503,1.0658573599698196,-0.3906354775304949,-1.1747475955485958,0.28441562461190756,2.260332805805736,1.9308797188747433
4711.0,0.5985162794140346,1.065857359969825,-0.3906354775331781,-1.1747450155827053,0.28441562461190756,2.2603316868278713,1.930878600405322
4711.034,0.5985134953542759,1.065852348662259,-0.39063263425396005,-1.1747524732800405,0.28441562461190756,2.260330670059784,1.930873107079754
4711.067,0.598510988737516,1.065857359969393,-0.39063476890136445,-1.1747478648341434,0.2844175573918554,2.2603317292114027,1.9308785609979353
4711.1,0.5985162794140346,1.0658601440295836,-0.3906377466517927,-1.1747479016356106,0.28441460735930335,2.260333848492315,1.9308741244938636
4711.134,0.5985755387256084,1.065887597852659,-0.3906894234353615,-1.1747641351881164,0.2529483786948834,2.26035273867339,1.9551172310073213
4711.167,0.5984636380631905,1.0657826136877873,-0.39070625986289453,-1.1747326167867707,0.24476221233228657,2.2603377527398756,1.9611221029840742
4711.2,0.5983287397227075,1.0657044669910611,-0.390660714510517,-1.174664812046342,0.234013810681601,2.2602869003813435,1.9718401141566453
4711.234,0.5985162794140346,1.0658573599655048,-0.3906326581511763,-1.174747175378535,0.28441562461190756,2.26033078926885,1.930881855560234
4711.267,0.5985134953542759,1.0658547777866216,-0.3906354765584496,-1.174749967656452,0.28441562461190756,2.260332923543306,1.9308807366355694
4711.3,0.5985134953542759,1.0658573599581607,-0.3906354774980624,-1.1747499311291205,0.28441562461190756,2.2603316868458245,1.930870945577482
4711.334,0.5985888422517966,1.065958784932465,-0.3905325014812675,-1.1747401863915687,0.2407526739682817,2.260281098103583,1.9648281613249807
4711.368,0.5986846364452978,1.0659827908299855,-0.390628483965175,-1.1747935927208388,0.24558368038914669,2.2603488339861073,1.9603109411955337
4711.4,0.5984884614362249,1.0658296167064973,-0.39061157686728887,-1.1747283840502885,0.23647368245117306,2.260293823159234,1.9697914230092763
4711.434,0.5984064087848937,1.065785890372867,-0.3906139701236171,-1.174671258868937,0.2284358980935055,2.260264781261977,1.9812387710946773
4711.466,0.5983802475406819,1.0657597119218742,-0.3906048527258408,-1.1746688918941945,0.22015258601551135,2.2602634319041606,1.9930165589334052
4711.499,0.5983705318775332,1.0657449665904295,-0.39059936629870684,-1.174660749440931,0.21178449886515782,2.260242298648329,2.0062904451583545
4711.534,0.5983613661550855,1.0657544891689552,-0.3905883414881801,-1.174635714975385,0.20324096006865489,2.260226270539359,2.021123958635817
4711.567,0.5983438890728117,1.065742147717164,-0.39056169058151813,-1.1746311034635504,0.19455893124651968,2.260212291786111,2.0374753651689232
4711.6,0.5984279006360911,1.065758592627354,-0.39067059201945753,-1.1746692984539555,0.18619423334634,2.260299438318727,2.0541763595459166
4711.634,0.5984175488368102,1.065747414246136,-0.39065210759041147,-1.1746688744588623,0.17726518259050383,2.260303700640785,2.0736648333596186
4711.667,0.598513495352955,1.0658548533712344,-0.39063018782092057,-1.1747451172024028,0.2844165401393256,2.260331686827945,1.9308731071874243
4711.7,0.5985134683909189,1.065854854316042,-0.39063018684876005,-1.1747450410542057,0.28441562461190756,2.260332805805736,1.9308818556140692
4711.734,0.5989081595344956,1.0662230378881397,-0.39049963382347563,-1.1749118699975885,0.20235318414165615,2.260320218952579,2.046161536063943
4711.766,0.5987315334177268,1.0661596916361171,-0.3903586656584963,-1.174792212849801,0.21173741923491907,2.260236412714761,2.0314398137800254
4711.8,0.5985892740849712,1.0658949623802432,-0.39059211949330486,-1.1747929333021538,0.2006265666679763,2.2602752073722705,2.0498574956593796
4711.834,0.5985015979257842,1.0658407509230914,-0.3906392924999649,-1.1747399872149504,0.1923423553843362,2.260290403325797,2.050871570567331
4711.867,0.5984754237249144,1.0657949266298452,-0.3906797177759973,-1.1747463944378715,0.18317058197651015,2.260315047241958,2.054416678728181
4711.899,0.5984756809325287,1.0657704632984828,-0.3907086524496215,-1.1747528429863117,0.17401621368014109,2.2603229844859634,2.059712327829601
4711.934,0.5984844240513425,1.0657788034946334,-0.3907357506166793,-1.1747419704449458,0.16469016806543113,2.2603432637586387,2.0668827670218093
4711.967,0.5984924763082935,1.0657670739428902,-0.3907442971515298,-1.1747527374785696,0.15520274394242506,2.2603669897136687,2.075882677698697
4712.0,0.598422089916701,1.0657436302416077,-0.3906573039164982,-1.1747001757793312,0.14412094019089672,2.2602518958943243,2.0894042728046323
4712.034,0.5985068989324507,1.065746642780451,-0.390757925825568,-1.1747581538052811,0.13496102215267758,2.26037188647884,2.10033302944203
4712.067,0.5985156405596692,1.065757930880861,-0.390772565671627,-1.1747445461865018,0.12484619744763847,2.2603847719710455,2.1150440560460666
4712.1,0.5985277342006992,1.0657483049237344,-0.3907815540262156,-1.1747568417857535,0.11465531851434019,2.2604156616021243,2.1315363117043535
4712.134,0.598546892079745,1.0657355068154448,-0.3908028569802573,-1.1747711496671078,0.10428476588250835,2.2604338692571027,2.149934032937445
4712.167,0.5984683466668343,1.0657317993058832,-0.3907000199951023,-1.1746969005468717,0.09283348911472533,2.2602940613471336,2.1725559093423144
4712.2,0.5984686434054272,1.0657164111343151,-0.3906954507717355,-1.174694326066879,0.08195025973950187,2.260268568082534,2.1950652786504072
4712.234,0.5984594922600159,1.0657243063011803,-0.3906800033896545,-1.1746620065789433,0.07076850477518537,2.260227762471107,2.2197360427546506
4712.268,0.5985411153305442,1.0657294387615215,-0.390779603820965,-1.1747242754594076,0.060507047301847194,2.260396805181756,2.2436162367709667
4712.3,0.5984556782969985,1.0657020951215932,-0.3906713945635376,-1.1746580556062822,0.0482760253005905,2.2601988931777264,2.2730904896608024
4712.334,0.5985425933995288,1.065703143524206,-0.3907753874852844,-1.1747319666112022,0.037604809120814764,2.260394664607597,2.298971759037455
4712.367,0.5984533526028182,1.0656991697541018,-0.3906633236182806,-1.1746437065707793,0.025026121587524486,2.260178127468233,2.3306523270827952
4712.4,0.5984463312585317,1.0656830663487247,-0.39065343045855716,-1.1746354859130541,0.01300369080940822,2.2601323078851934,2.3610514353093137
4712.434,0.5984343779400882,1.065689804708076,-0.3906376522710504,-1.1746017774389363,0.000674398775300844,2.2600736988348586,2.392700806900816
4712.467,0.5985173777098147,1.0656922463765133,-0.3907427790041398,-1.1746784857291628,-0.010713872238806488,2.260308427220348,2.4222243086276123
4712.5,0.5984287789576221,1.065666466767973,-0.39063282599511506,-1.1745996825861642,-0.024170256723317074,2.2600410057286773,2.4572759393760624
4712.534,0.598417502370439,1.065673353517771,-0.39061745199886033,-1.1745652674243194,-0.03714827862164061,2.25997591533201,2.4912022766425252
4712.567,0.5983952917695756,1.0656617501606247,-0.39058406705950155,-1.1745450677524651,-0.05028163340067415,2.259908568496993,2.5257252878307863
4712.6,0.5985162794140346,1.065857359969825,-0.39064076721205077,-1.1747469533482982,0.2844175573918637,2.260331686827871,1.930881855596116
4712.636,0.5985134953542759,1.065857359969825,-0.39063798318829446,-1.174749650416267,0.2844175573918554,2.260328549357108,1.930870869278884
4712.667,0.5985162794140346,1.065857359969825,-0.39062947918663754,-1.1747498876679525,0.28441562509967544,2.2603306695814704,1.93088073227514
4712.7,0.5985134953542759,1.065852119073566,-0.3906353987975111,-1.174746469607277,0.28441562461190756,2.260332805805736,1.9308817378764256
4712.734,0.598510989700493,1.065854854316042,-0.3906326933307437,-1.174744567685582,0.2844165401392513,2.260331686827945,1.9308763624495928
4712.766,0.598510989700493,1.065852348662259,-0.39063547753451155,-1.1747523967859026,0.28441460735930335,2.2603342779963103,1.9308829745919338
4712.8,0.5985162794140346,1.065854854316042,-0.39063269347473634,-1.1747464696418224,0.2844175573918554,2.260332805805736,1.9308774814274574
4712.834,0.598510989700493,1.0658547777866216,-0.390637980271663,-1.174744669619678,0.2844165401392513,2.260333865443865,1.9308829745919338
4712.867,0.5985109897004441,1.065854854316042,-0.390635477210491,-1.1747521675009123,0.2844156289998124,2.2603307873135017,1.9308752303897758
4712.9,0.5985134953542759,1.0658601440295836,-0.3906326934747528,-1.1747499651305273,0.28441562461190756,2.260332805805736,1.9308785611594654
4712.934,0.5985134953186101,1.065852348662259,-0.39063727455529546,-1.1747470790431946,0.2844156246119079,2.2603316868278713,1.9308741244938636
4712.967,0.5985134953538355,1.065857359968529,-0.39063797443973897,-1.174745040108098,0.2844175573918554,2.260330669575292,1.9308774814272356
4713.0,0.5985215691265305,1.065854854315994,-0.3906326934747364,-1.1747478733024692,0.2844175573918554,2.2603339247836005,1.930880736472316
4713.034,0.598510989700493,1.065857359969825,-0.39063547753450967,-1.1747462655619438,0.2844165401392513,2.2603306695752674,1.9308764216278198
4713.067,0.5985134173531358,1.065857359969825,-0.3906326925026905,-1.1747471073407814,0.28441562461190756,2.2603339247836005,1.930873653543584
4713.1,0.598510989700493,1.065857359969825,-0.39063727412326804,-1.1747503703485591,0.2844175573918554,2.2603316868278713,1.9308752434710637
4713.134,0.5985134953542759,1.065857359969825,-0.3906352412153569,-1.1747494876143412,0.2844156246660792,2.260331691188522,1.9308741244938636
4713.167,0.5985134866874826,1.0658601440295836,-0.3906379569426108,-1.1747499641804913,0.28441496277959255,2.260330669575363,1.930874124488546
4713.202,0.5985162794140346,1.065857359969825,-0.39063269347475277,-1.174751707916282,0.28441562461190756,2.260332805805736,1.9308818425318957
4713.234,0.5985134953542759,1.065857359969825,-0.3906354775225108,-1.1747499648271156,0.2844165401392513,2.260330800556292,1.9308752433102228
4713.267,0.5985134953527913,1.0658573344600182,-0.39063798306828623,-1.1747549704607916,0.2844165401392514,2.2603331595030607,1.9308807235538386
4713.3,0.598516886955986,1.0658885706559564,-0.390560222700449,-1.1747205792079454,0.25305355523274553,2.260298089450851,1.8781997372579564
4713.334,0.5985161999458031,1.0658466490536478,-0.3906308001361394,-1.1747397457107667,0.2508415882145121,2.2602855006814337,1.8813212403920296
4713.367,0.598347284123081,1.0657370698063104,-0.39060169169409154,-1.174688229187426,0.24007515985750683,2.2602601720963698,1.886158268889183
4713.4,0.5984002925342145,1.0657247049184608,-0.39072597738502246,-1.174724849666715,0.23223712309219913,2.260298946812787,1.887101462496215
4713.434,0.5985134953542759,1.065854854316042,-0.3906326934745992,-1.1747517847254534,0.2844165401392513,2.2603318047269467,1.9308752434717282
4713.467,0.5985132019840691,1.0658394428745908,-0.3906905712629829,-1.1746963087169187,0.2244296384848532,2.2603917062689867,1.9061071142002568
4713.5,0.5985756230403299,1.065879417881006,-0.39056812593169976,-1.174763543406982,0.22842017059866127,2.2602774457696277,1.9162940661132364
4713.533,0.5985037526523636,1.0657921122366165,-0.39068550722951745,-1.174750700331133,0.2178126165013854,2.26031430512079,1.9220173651389096
4713.567,0.5983831417949563,1.06575514081503,-0.3905991496998018,-1.1746876674849078,0.20797747924813947,2.2602576290465546,1.9296334942755298
4713.6,0.5984527648741587,1.0657558870546335,-0.39072588790111773,-1.174721176844221,0.19877092727308376,2.26031542458532,1.9357813984018666
4713.634,0.5983620927157709,1.065715656724949,-0.3906271531159984,-1.1746785263713164,0.18809478726268924,2.2602475381826306,1.946833079184131
4713.667,0.5983538172927894,1.0657210287185155,-0.39062318234958493,-1.1746536614957837,0.17801762353597628,2.26023126763444,1.9574637973889075
4713.699,0.5984258097395729,1.0657100892231437,-0.39071346379301897,-1.1747081746341426,0.16803782643913934,2.260298906530327,1.9681917998580012
4713.734,0.5984368902812784,1.0657204772906868,-0.3907371754459703,-1.1746969515057692,0.15767029965370227,2.260313508315903,1.9815779402054474
4713.767,0.5984480495638085,1.065711128977422,-0.390748255921765,-1.1747063981610584,0.14716306566606363,2.2603363896232054,1.9963093421287965
4713.8,0.5983719417798863,1.065695219066206,-0.3906493849163457,-1.1746494865801225,0.13614853399851778,2.260242262874396,2.013642607572919
4713.834,0.5984591412170319,1.0657100483231794,-0.39075627336759045,-1.1746915035781775,0.12552927476859477,2.260334881030051,2.0300372767188737
4713.867,0.5984693194140194,1.0657019339260527,-0.39076464327717186,-1.1747001216546664,0.11452472674798564,2.2603608057106097,2.048981819644508
4713.9,0.5985084840467101,1.065857359969825,-0.3906331154231319,-1.1747499670313797,0.28441654013992007,2.2603306826572203,1.930874890258797
4713.934,0.598516279402146,1.0658601440294397,-0.3906379569426279,-1.174743955472258,0.2844165401392513,2.2603306695752674,1.9308742431733343
4713.967,0.5985162794140346,1.0658573590250173,-0.39063547749850747,-1.1747498571075072,0.2844165401392513,2.2603306695752674,1.9308719882630996
4714.0,0.59922618612151,1.0665333701436062,-0.39036178132141863,-1.1749976440001646,0.19290265595473866,2.260359916603562,2.009262099830112
4714.036,0.598778451309478,1.06615584213802,-0.3902816919183323,-1.1748281118643096,0.20824725801827793,2.2601680564303557,2.009492414919558
4714.066,0.5985277622019476,1.0658119003651016,-0.3906652896769671,-1.1747566982148268,0.1950205242454217,2.2602929676315355,2.028226485472123
4714.099,0.5983971777367403,1.0657010065075658,-0.3906950369982356,-1.1747164946983712,0.18714592821593357,2.260294301996627,2.034247145797341
4714.133,0.598280069143633,1.0656447507386844,-0.3906622847151153,-1.1746443713149333,0.17698195008999296,2.2602041238630584,2.045060143539409
4714.166,0.598513495354276,1.065854854316042,-0.3906323755985509,-1.174744811491419,0.2844175573918554,2.2603328101663864,1.9308807366357827
4714.2,0.5985109895934956,1.065852348662259,-0.3906372745432947,-1.174744669339895,0.2844175573918554,2.2603316911885223,1.93086988906307
4714.234,0.5988446381427419,1.0661561241288338,-0.39056113763910716,-1.174868770221825,0.20628347478447928,2.2603390663369787,2.01658105691374
4714.267,0.5985411253381159,1.065986612277385,-0.39036443734718773,-1.1747153696535948,0.20864180540759136,2.260142262563562,2.020756460875269
4714.3,0.5983899883594432,1.0657923423833866,-0.3905126621166266,-1.1746644597241396,0.1976305854389553,2.260178547617885,2.039476113777331
4714.333,0.5983025399744797,1.0657011687655817,-0.3905390743767976,-1.1746293512639383,0.18783831994562927,2.2601525903418924,2.0567039076806424
4714.367,0.5982578433208481,1.0656733558573626,-0.3905526062956488,-1.174590801851597,0.1776730523776342,2.2601313222822874,2.0757332792787473
4714.399,0.5982208139456988,1.0656440163247423,-0.39053565474466634,-1.1745744944370013,0.16736181614538292,2.26011091083263,2.096378262431962
4714.434,0.5982030490535806,1.0656203743099555,-0.39053193950076714,-1.1745638593211334,0.15685496649017772,2.2600817307526277,2.11873280822309
4714.467,0.5981886541085277,1.0656244142635574,-0.3905221763714559,-1.1745337854694702,0.1462008775674537,2.2600501439393597,2.1427980643688596
4714.5,0.5982609972184587,1.0656105835063494,-0.39061177321981155,-1.1745999599644747,0.13569832936238324,2.260175080692072,2.167723047286369
4714.534,0.5982690368896852,1.065619861098729,-0.39063428407221057,-1.1745904112609082,0.12477899630212441,2.2601972705908118,2.194670460871329
4714.567,0.598278572245504,1.0656091818597435,-0.39064641401970324,-1.1746042924528792,0.11370906582662954,2.260233133793136,2.2226035026644375
4714.6,0.5982949727660865,1.0655943521489561,-0.3906688054644185,-1.1746222234318857,0.1024256807861077,2.2602565802394494,2.2516258843795196
4714.634,0.598212947812871,1.0655893009455006,-0.3905696377093335,-1.174544218219939,0.08992213331507326,2.260083691542368,2.2844215047836958
4714.667,0.598204206337865,1.0655732520445458,-0.3905578901952502,-1.1745350665834158,0.07796348533273711,2.2600360636795465,2.3156562323595313
4714.7,0.5985084840465633,1.065854854316042,-0.39063547721049097,-1.1747492703806632,0.28441562461190756,2.2603316868278713,1.9308797193652416
4714.735,0.5985134953538356,1.065854854316042,-0.39063798318829446,-1.1747471064421957,0.2844156246119079,2.2603316868278713,1.9308752434717282
4714.767,0.5985187850678175,1.065852348662259,-0.3906347397396589,-1.1747469278584324,0.28441562461190756,2.2603339247836005,1.9308708692852816
4714.8,0.5985162794140346,1.065854854316042,-0.3906354774971758,-1.1747521670923744,0.28441562461190756,2.260335043761465,1.9308754025947807
4714.834,0.5985109897004876,1.065854854316042,-0.3906358572887024,-1.1747439806282303,0.2844175573918554,2.2603316868278713,1.9308829745739888
4714.867,0.5985134940703047,1.065854854316042,-0.3906326934747474,-1.1747470984590709,0.28441460735930335,2.2603339248015453,1.9308763624495928
4714.9,0.5985162794140346,1.0658601440295836,-0.39063547753446215,-1.1747503808814204,0.28441562461190756,2.260332805805736,1.9308797063012346
4714.934,0.5985134953186101,1.0658601440295836,-0.39063727162533163,-1.174746945684063,0.2844175573918554,2.260332805805711,1.9308829791120963
4714.967,0.5985187850678175,1.065857359969825,-0.3906353987975117,-1.1747499413816016,0.2844165401392513,2.2603316999098233,1.9308731072352687
4714.998,0.5985084840467101,1.065854854316042,-0.39063547645442653,-1.1747451166764054,0.2844175573918554,2.260332805805736,1.9308786597450491
4715.034,0.5985102529041711,1.0658601440295836,-0.3906324572637532,-1.1747524736265096,0.28441562461190756,2.2603327465198357,1.9308818512534185
4715.067,0.5985162794140346,1.0658548543160415,-0.39063010908397006,-1.1747470733393717,0.28441562461190756,2.26033504377941,1.9308731072419243
4715.1,0.5985134953542759,1.0658573599698196,-0.3906379802721091,-1.1747471725623193,0.2844165401392513,2.260333924765655,1.930875242018178
4715.135,0.5985109893795006,1.065852348662259,-0.39063798318814624,-1.1747492669291741,0.28441562461190756,2.260331686827871,1.930874072164061
4715.168,0.5985215691265305,1.0658548533712344,-0.3906326931502695,-1.1747497383844654,0.2844156289998124,2.2603316911887434,1.9308763232037363
4715.2,0.5984794031056113,1.065837085649628,-0.39057386168963326,-1.174720564468542,0.2527972800096725,2.260307944129732,1.868165633984196
4715.235,0.5985075181450746,1.065857359654889,-0.39063798221623275,-1.1747524736185948,0.28441562461190756,2.2603316868280925,1.9308763624495928
4715.267,0.5985134683788816,1.065854854316042,-0.39063798318829446,-1.1747471839166692,0.28441562461190756,2.2603306695755134,1.9308752434717285
4715.3,0.598510989700493,1.065854854316042,-0.3906379831522922,-1.1747492697268944,0.2844165401392513,2.260332805805736,1.9308741201272313
4715.335,0.5985870484965723,1.0659049047267102,-0.3905300811333525,-1.1747033714816917,0.2502305206635773,2.2603182337587775,1.917951600230424
4715.367,0.5985599551311775,1.065837838134974,-0.39058109844345434,-1.1747545170409666,0.24767403953633327,2.2602841710685464,1.932881990080098
4715.4,0.5985131833497156,1.065857359969825,-0.39063547753451155,-1.1747446772792245,0.28441654014527035,2.260333924801546,1.930878548077513
4715.434,0.5985993673092462,1.0658789272947446,-0.3907026025112881,-1.174778182286282,0.23993544610267392,2.260376407978031,1.945812279896625
4715.467,0.5985646228437496,1.0658745359818766,-0.3906020970056572,-1.1747734168572421,0.24008553725260562,2.260293704819148,1.9510876702358608
4715.5,0.5985134953542759,1.0658601440295836,-0.39063798318812987,-1.1747464951014626,0.2844165401392522,2.2603350816135883,1.9308763624436112
4715.534,0.5985162794140346,1.065857359969825,-0.39063261473774746,-1.1747469288182155,0.28441857464445963,2.2603316868278793,1.930880736635717
4715.567,0.5986194567924548,1.065992800009183,-0.39050816975557723,-1.174777180854254,0.24199082096620472,2.260280716035872,1.955618205277549
4715.6,0.598574682342889,1.0659288654686536,-0.39056865753998693,-1.1747683120784824,0.24009765844305164,2.2602701402424135,1.9557234514824913
4715.634,0.5984910116987106,1.0658260060000098,-0.3906612058485468,-1.1747488161495356,0.23018695674046974,2.260308246308618,1.9650467711464579
4715.667,0.5983745818084572,1.065771229639446,-0.3906084360626929,-1.1746788744554282,0.21979389757156031,2.260238203057513,1.9774786070620074
4715.7,0.5984301029617765,1.0657593463816548,-0.39072247364960244,-1.1747128914338898,0.21072550885829777,2.260309353151989,1.9876637209163128
4715.734,0.5984239867339438,1.06573957347703,-0.39073662923424735,-1.1747149028002255,0.20065887577693164,2.260328570680432,2.0013338844251702
4715.767,0.5984357289333255,1.0657211903463848,-0.3907629063787912,-1.1747269191718699,0.19049619852308908,2.2603375493480087,2.0164730526129304
4715.8,0.5984491689109994,1.065731159458089,-0.3907896934442654,-1.1747180218734377,0.1801683066185289,2.2603566909235315,2.033145266958387
4715.834,0.5984587578385243,1.065720324006615,-0.39080062892470746,-1.1747270134344223,0.16957761977501828,2.2603814291283264,2.05143085651825
4715.868,0.5983914721519898,1.0657109991345752,-0.39071925346919834,-1.1746632634735432,0.15791601679030087,2.260273401210707,2.0735543192539136
4715.9,0.5985215691265305,1.065857359969825,-0.39063547753451155,-1.1747499678556017,0.28441562461190756,2.260332805805736,1.930880736157182
4715.934,0.5985134953542759,1.065854854316042,-0.3906354745823241,-1.1747492782316011,0.2844165401392513,2.260331686829865,1.9308719882633585
4715.967,0.598510911699353,1.065854854316042,-0.3906326934742535,-1.174744198813258,0.2844156246660792,2.2603328494660784,1.9308741114099175
4715.999,0.5985102780232795,1.0658626496833665,-0.390637983188289,-1.1747524448645306,0.2844165401393256,2.2603339247836005,1.9308829745919094
4716.034,0.5985215691265305,1.065857359969825,-0.39063269347015994,-1.174749956516664,0.28441562461190756,2.2603306695752674,1.9308792484326855
4716.067,0.5985162794140346,1.065857359969825,-0.3906326934694192,-1.1747524449361966,0.2844165401392513,2.260332805805736,1.9308797193831866
4716.1,0.5985162794140328,1.065857359969825,-0.3906379828642739,-1.1747471839168133,0.28441562461191033,2.260328507931502,1.9308797193831866
4716.134,0.5985187850678175,1.0658601440295836,-0.39063538907674605,-1.1747468768491878,0.2844156246119076,2.260332805805736,1.9308728303224951
4716.167,0.5985100450200188,1.065854854316042,-0.3906354775303631,-1.1747471580919586,0.2844176064001189,2.260332805805736,1.9308797188984483
4716.2,0.598513494921883,1.0658523486622111,-0.3906379831882396,-1.1747524619425898,0.2844165401392513,2.260333865443865,1.9308774814274572
4716.234,0.5985134953542759,1.0658573505216045,-0.39063269249869087,-1.1747439808898976,0.28441562461190756,2.2603306695752754,1.930873771281154
4716.267,0.598510989700493,1.0658573590250173,-0.39063547742650473,-1.1747471810472938,0.2844165401392513,2.260333924784265,1.9308774813734009
4716.3,0.598510989700493,1.065857359969825,-0.3906379828636813,-1.1747469288149048,0.28441882339451047,2.2603316868278713,1.930874124009347
4716.334,0.5985109895934956,1.065854854316042,-0.39063798318829446,-1.1747451163264742,0.28441460735930335,2.2603316868278713,1.9308752432922696
4716.367,0.598510989700493,1.065854854316042,-0.39064052958451695,-1.1747418579377777,0.2844185746444844,2.260332845213097,1.9308708692855303
4716.4,0.598510989700493,1.0658601440295836,-0.39063516258651204,-1.1747496845218541,0.2844175573918554,2.2603316868278713,1.9308775572368861
4716.434,0.5985162794140346,1.065857359969825,-0.39063798318829446,-1.1747524726851095,0.28441562461190756,2.2603306695752674,1.9308829615099807
4716.467,0.598510989700493,1.065857359969825,-0.390632693366746,-1.1747497269456828,0.2844165401392513,2.260332805805736,1.9308829745917124
4716.5,0.598510989700493,1.065857359969825,-0.3906352403474334,-1.174749938671447,0.28441562461191033,2.2603339247838217,1.9308758914993132
4716.534,0.5985134953542759,1.0658470589487015,-0.3906326672250859,-1.1747471498903925,0.28441654019342294,2.2603340425211704,1.9308752433102474
4716.567,0.5985134953542759,1.0658626411800978,-0.3906407662759897,-1.1747464090294168,0.28441562461190756,2.2603316868278713,1.9308741244938636
4716.6,0.5985134953538356,1.065857359969825,-0.3906326934747522,-1.1747476720935728,0.2844165401392513,2.260335043761465,1.9308752434717282
4716.635,0.5984792617858927,1.0658508093838606,-0.3905781444076313,-1.174729049011198,0.25216345264676665,2.2602748560206916,2.0257331857422223
4716.668,0.598363253948107,1.065779516919072,-0.390562391951355,-1.1746726290645046,0.24508978099671985,2.260221020937678,2.033237028494728
4716.7,0.5985134953542759,1.065854854316042,-0.39063261473773103,-1.1747490411164176,0.28441562461190756,2.260332805805736,1.9308840935697984
4716.734,0.5984486833584572,1.065825406236101,-0.39060649735835984,-1.1747281422121523,0.23881432549633086,2.260262631997275,2.0320155272359663
4716.768,0.5985109896886044,1.065854854315994,-0.3906353725158428,-1.1747498818939464,0.2844165401392513,2.2603316868278713,1.9308727540285497
4716.8,0.5985227695985538,1.065915879206031,-0.39053547122103627,-1.1747542364596733,0.24020150004242957,2.260244308345481,2.0228699884653807
4716.834,0.5985134953542759,1.065854854316042,-0.3906372483096234,-1.1747464909490442,0.2844175573918554,2.2603316868278713,1.93087968013733
4716.867,0.5985134953542759,1.065854854316042,-0.390637904451294,-1.1747496278439422,0.28441562461190756,2.260331686827872,1.9308829744304283
4716.9,0.5985560374736032,1.0659672183854152,-0.39049963031782386,-1.174766921107059,0.24502200531637364,2.260240901625261,1.9936943603363488
4716.934,0.5985162794140346,1.065854851481619,-0.39063547623796835,-1.1747450920776454,0.28441654013927614,2.260333925268117,1.9308752434717282
4716.968,0.5985162794140346,1.0658548541760706,-0.3906326146297461,-1.1747476691196115,0.28441562461190756,2.260332807259286,1.9308763619650762
4717.0,0.598532115215197,1.065925128652136,-0.3905523424925823,-1.1747344812528828,0.2432104446989305,2.2602609773611952,1.9865306162749174
4717.034,0.5985360443804959,1.065930579379578,-0.39051935503710133,-1.174740829733504,0.24693980666633486,2.2602667047499203,1.9760790843793483
4717.067,0.5983662851307194,1.06578457685898,-0.39052272008873956,-1.1746803741329543,0.23782296311851425,2.2602021547980833,1.9787919274528303
4717.1,0.598434136676822,1.0657626585795485,-0.39068733693833213,-1.174721764016482,0.23133017757898422,2.260307947122083,1.9799188952763895
4717.134,0.5983098903082258,1.065736083559818,-0.390551921922885,-1.1746439093629801,0.2222412830965439,2.260214397860093,1.9869326834715828
4717.167,0.5984167805387282,1.0657471808472652,-0.39069439259339944,-1.17470767096742,0.21529363809336033,2.2603169753379664,1.9914567962607777
4717.201,0.5984024949303945,1.0657298569611813,-0.39067059890137834,-1.1747005353414623,0.20691082737249644,2.260292438444182,1.9997993856229037
4717.234,0.5983299723428699,1.065726575821052,-0.3905801900094481,-1.1746440450688134,0.19792387016838475,2.260228175774696,2.0114368451619242
4717.266,0.5983423081221257,1.06571345838523,-0.390594287130142,-1.174655337327522,0.18954199483871026,2.260224249207379,2.0228127273663183
4717.299,0.5983310871036362,1.0657242354964946,-0.3905745821840263,-1.1746237266246444,0.18085543348461286,2.2602011165365568,2.0359106887687677
4717.334,0.5983166227312964,1.0657122419887912,-0.39054901125701136,-1.1746207039040577,0.17208761904886316,2.260188076712936,2.0505416667889413
4717.367,0.5983121031122067,1.0657003674355119,-0.3905435429245916,-1.1746137378791932,0.16319231506288734,2.2601655504994014,2.066777654771453
4717.4,0.5983040150157892,1.0657113489593737,-0.39052978222426216,-1.1745870681601662,0.1542158010116479,2.260142357779948,2.084592070081758
4717.435,0.5983814800057665,1.0657011019542217,-0.39062015806906025,-1.174656256668639,0.14545324692642314,2.2602537282981032,2.102961642009287
4717.468,0.5982834100671424,1.0656976234193172,-0.3904970286163367,-1.1745687918410193,0.13532933293690164,2.2601083517759673,2.1264783060275523
4717.501,0.5983836293117655,1.0657042061801807,-0.3906208484876208,-1.1746468304918123,0.12707092986261515,2.260269099228932,2.1460583746008624
4717.534,0.5982915683961298,1.0656956900294787,-0.3905094234389246,-1.1745582494459867,0.11655428690355674,2.2600899782856914,2.1714144976162473
4717.567,0.5982901581448585,1.0656870396770275,-0.39050421069297503,-1.1745632569828333,0.1069370509319425,2.260093725425424,2.1957047510334533
4717.6,0.598280325444879,1.0656744145474546,-0.3904914911271149,-1.1745528425662908,0.09698156867527974,2.260051447968916,2.221288477571644
4717.633,0.5982703188612657,1.0656846210481268,-0.39047891379715693,-1.174524592595577,0.08687672974588079,2.2600136672758033,2.247698503371197
4717.667,0.598251053975213,1.0656735220002824,-0.39045078716222115,-1.1745158193425667,0.07663863624882872,2.2599782615735506,2.2746555115757765
4717.7,0.5982422803183862,1.0656612801525203,-0.3904421304389549,-1.174507395132749,0.06627926233433712,2.259935243326705,2.3021347664395577
4717.734,0.5982311264576712,1.065671721426539,-0.390428570224846,-1.1744776708617746,0.055750086477000416,2.2598892173289187,2.3304768136896996
4717.767,0.5982108358735578,1.0656609709643003,-0.39039972391729183,-1.1744668926347597,0.0450886134391455,2.2598468329077868,2.3590798110863975
4717.8,0.5982005261672514,1.0656476951994929,-0.39039001330368794,-1.1744568613427901,0.03422738032220174,2.2597961828300797,2.388532508683351
4717.834,0.5981881490422172,1.0656570716780331,-0.3903759106372222,-1.1744254549563342,0.02315546258958534,2.2597424463888736,2.418545432854966
4717.868,0.5981672780795773,1.0656460127127891,-0.3903465908296928,-1.1744125728961317,0.011945825392704279,2.259691855151452,2.449056546856607
4717.899,0.5981558932462052,1.065632990620931,-0.39033464920838856,-1.1744010159702825,0.0005867352838180295,2.2596328849980196,2.479889254510642
4717.934,0.5981431973196107,1.0656419838358717,-0.3903197181645863,-1.1743679902371449,-0.011017093784880139,2.259571135541581,2.511397272206043
4717.967,0.5981217125488634,1.0656309731771696,-0.3902891095156189,-1.1743532200261324,-0.022753709383183107,2.2595125192907446,2.5432976439256176
4718.0,0.5981096697191353,1.0656172736650085,-0.39027582476840283,-1.1743398147424609,-0.03467238829555175,2.259445692508182,2.5756476309544194
4718.034,0.598096740682057,1.0656261084397824,-0.39025983480711446,-1.1743050901056113,-0.046823576616843,2.2593764489945265,2.608624178095832
4718.067,0.5981836275114372,1.0656088948552007,-0.390365625121353,-1.1744151282490156,-0.05878380074027767,2.259688940465802,2.641101301982447
4718.1,0.5980816563734983,1.0655992176369429,-0.39024322305653936,-1.1743000445621954,-0.07151411024229315,2.259316396270883,2.675441075976318
4718.134,0.5980786288866025,1.0656070088727052,-0.3902376537491392,-1.1742744576084023,-0.08421792533547912,2.259269710821968,2.709710882691736
4718.167,0.5980560273560673,1.0655962380381645,-0.3902008226221483,-1.1742532442063585,-0.09708556130122847,2.2591882186435406,2.7443960826479596
4718.199,0.5980427472918937,1.0655819925223469,-0.39018206383143195,-1.174236042869527,-0.11013598565993821,2.2591036901793267,2.7795187936768393
4718.234,0.5980303452981302,1.0655912947415178,-0.39016206060672953,-1.1741981348429302,-0.12334318582240567,2.2590174077865584,2.8150477151289746
4718.27,0.5981257612209347,1.0655719463412296,-0.3902812838685463,-1.174323218357828,-0.13644024179359082,2.259409522813076,2.85034012846765
4718.299,0.5980191891630602,1.0655661823995795,-0.3901433689997198,-1.1741936976160954,-0.15001433347383397,2.2589543857458096,2.886672688909842
4718.334,0.5981309579603407,1.0656603148866557,-0.390192834671633,-1.17429817937143,-0.15674864797191201,2.259186009069401,2.8973104447331526
4718.368,0.5981708216275958,1.0657356295505451,-0.39015302953530284,-1.1743344999592091,-0.15969643859776195,2.259161037776032,2.8973001429529983
4718.4,0.5981988949288475,1.0657983810481175,-0.3901420804230149,-1.174339101463806,-0.1623643378820896,2.259157420632784,2.897300193723897
4718.434,0.5982139083734435,1.0658274739326554,-0.3901213074517953,-1.1743560547888894,-0.16416840092723906,2.2591643067813454,2.897300183311831
4718.467,0.5982320255792182,1.0658410969219902,-0.39012060125309045,-1.1743729915746197,-0.16565868195735334,2.2591618665506434,2.8973001449458717
4718.5,0.5985162794140346,1.065854854316042,-0.3906354775220444,-1.1747471839168595,0.28441654013954853,2.2603329235433067,1.9308784826670875
4718.534,0.5985113893234939,1.0658573589200386,-0.3906354775331782,-1.1747468522770845,0.2844165401392513,2.2603328058064007,1.9308840935159632
4718.567,0.5985134953542759,1.065857359969825,-0.3906354774265041,-1.1747471744682085,0.2844156246119085,2.2603316999098233,1.9308731072233145
4718.6,0.5985162794140346,1.065857359969825,-0.3906379744397225,-1.174752464810902,0.28441562461190756,2.2603316868278713,1.930876358088942
4718.634,0.5985134953542759,1.0658626496833612,-0.3906407672360507,-1.174743989358323,0.2844165401392513,2.260332805805736,1.9308807350206612
4718.667,0.598508883669711,1.0658548458127732,-0.39063269347475105,-1.1747524480855553,0.28441562461190756,2.2603318047269467,1.9308797955153758
4718.7,0.5985187841048405,1.0658601440295836,-0.39063547721004654,-1.1747439125487995,0.28441562461190756,2.260332805805736,1.9308752429333764
4718.734,0.5985134953542759,1.065854854316042,-0.3906324310060693,-1.1747498914470076,0.2844165401392513,2.260329550598067,1.9308770687135068
4718.767,0.5985162794140346,1.065857359969825,-0.3906358572874702,-1.1747497383829772,0.28441562461190756,2.2603339247836005,1.9308829745739888
4718.8,0.5985162794140346,1.065854854316042,-0.39063547752117184,-1.1747471810785448,0.2844165401392513,2.2603316868278713,1.930882974591934
4718.834,0.5985134953542759,1.065854854316042,-0.3906326905585183,-1.1747490496231374,0.2844165401392513,2.2603316999098233,1.9308775577393398
4718.867,0.5985134953542759,1.065857359969825,-0.39063257970752846,-1.1747524395784303,0.2844165401392513,2.260333924783675,1.930879588555689
4718.9,0.598510989700493,1.065854854316042,-0.3906354775345115,-1.1747469542231892,0.28441460735930335,2.260332805805711,1.930875243471728
4718.934,0.5985134953542759,1.0658573590250173,-0.39063798318828896,-1.17474646953729,0.28441562461190756,2.260332805805736,1.9308818556140683
4718.966,0.5985162765237826,1.065857359969393,-0.3906326555630121,-1.1747450835744389,0.2844165401392513,2.2603306695752674,1.9308829745919338
4718.999,0.5985134953542759,1.0658601440295836,-0.3906326931506829,-1.1747471580570779,0.28441562461190756,2.2603306695752674,1.9308730941406977
4719.033,0.5985084837257177,1.065857359969825,-0.3906326933302992,-1.174751776218341,0.28441562461190756,2.260332805805736,1.930878600405322
4719.066,0.5985134866755759,1.065857359969825,-0.39063798318829446,-1.1747471835889598,0.28441654160188623,2.2603306695752674,1.9308708676704742
4719.1,0.5985162794140346,1.065854854316042,-0.3906333428869371,-1.1747499679765698,0.2844165401392513,2.2603316867740357,1.9308785960446713
4719.134,0.5985084840467101,1.065857359969825,-0.39063774697729475,-1.1747472091382052,0.28441562461191583,2.2603340425211704,1.9308797193831866
4719.166,0.5985162794138861,1.065857359969825,-0.3906326934747528,-1.1747472091369573,0.2844156246121305,2.2603328058057603,1.9308840543246064
4719.2,0.5985187850678175,1.0658601440295676,-0.390635477210491,-1.1747469539082476,0.28441562461190756,2.26033168684589,1.930881855614069
4719.234,0.598510989700493,1.0658548542810493,-0.39063545128884497,-1.1747524736144186,0.2844175573918554,2.2603316868278793,1.9308731072412593
4719.267,0.5985134953542759,1.065857359969825,-0.39063269336274575,-1.1747471809731396,0.2844165401392513,2.2603316868278713,1.9308741244220835
4719.3,0.5985134953542759,1.065854854316042,-0.39063056757531117,-1.1747446514930429,0.28441460735930335,2.2603339247836005,1.9308793269246203
4719.334,0.5985134953542759,1.0658573598648464,-0.3906354775305113,-1.1747471838117156,0.2844175573918554,2.260331686827871,1.9308793661684822
4719.367,0.598510989700493,1.065852348662259,-0.3906353958813247,-1.1747499556902263,0.28441562461190756,2.260332805805737,1.9308774814274574
4719.399,0.5985162794140346,1.065854854316042,-0.39063547753434696,-1.1747499651365596,0.2844146088219383,2.260332805805736,1.9308716350327402
4719.434,0.5984699558683424,1.0658383809527976,-0.39057402849274325,-1.1747113483649816,0.25328241745893365,2.260315215749504,1.8720673423471084
4719.479,0.5985187850678175,1.0658599144413223,-0.3906323784907455,-1.1747498801043181,0.28441562461190756,2.2603339596688063,1.9308774814274574
4719.497,0.5985162794140346,1.065854854312154,-0.39063056465957047,-1.1747524726817073,0.28441857464445963,2.2603328058236807,1.9308807364742853
4719.533,0.5985903416525797,1.0658739969056992,-0.39071176453018097,-1.1747294130005272,0.24575088442628612,2.2604051139633334,1.903777320455621
4719.566,0.5984626579434567,1.0658257456652116,-0.39049795369939666,-1.174708937955609,0.24451664497358827,2.260245233068659,1.919191965683492
4719.6,0.5983859663076396,1.0657726220985584,-0.39058253720664826,-1.174674207223708,0.2342578019305508,2.2602618839811974,1.928627286621733
4719.633,0.5983246346987894,1.065732383462608,-0.3905710512492293,-1.1746576162449838,0.22474103199754492,2.2602488621424524,1.9386218860732463
4719.666,0.5983852699151946,1.0657336607419827,-0.390689713363531,-1.1746854584630366,0.21535464885271427,2.2603016787641863,1.9487781669347584
4719.699,0.5982973464989323,1.065709239069787,-0.39059997175487293,-1.1746300884812708,0.205108856010221,2.2602324494355877,1.9630316071437264
4719.733,0.5982777620539261,1.06569587395723,-0.39057867088031095,-1.1746206702832582,0.1949490907717717,2.2602210753122165,1.9774223605839794
4719.766,0.5983570930216295,1.0657096067038037,-0.3906840867212038,-1.1746552936307193,0.18501974704341873,2.260289144558481,1.9919687521997282
4719.799,0.5983616797416031,1.0656994492027767,-0.39069133686586,-1.1746617596356783,0.1746156438320554,2.260308891894729,2.0091638977733464
4719.833,0.5982924727615275,1.0656889281262307,-0.390609804056397,-1.174600674904017,0.16307012009346078,2.2602127639354066,2.0300913485912258
4719.866,0.5985134953542759,1.0658573599348322,-0.3906354775340665,-1.1747499421514396,0.2844165401392513,2.2603316868278713,1.9308797193831866
4719.899,0.5985134953542759,1.065854854316042,-0.3906379831882939,-1.1747471829331675,0.2844175573918554,2.260331686829939,1.9308752434717282
4719.933,0.5985134953542759,1.065854854316042,-0.3906326905221209,-1.1747464948371362,0.2844166908727752,2.2603306564933163,1.9308785960440067
4719.967,0.5985056133187565,1.065857359969825,-0.39063798318829446,-1.1747468777991772,0.2844165401392513,2.2603339247836,1.930877128214526
4720.0,0.5985187850637059,1.0658548540006743,-0.3906326671930839,-1.1747464950458022,0.2844156641030508,2.2603339247836,1.9308741196486963
4720.034,0.5985187850719469,1.065857359969825,-0.39063311218430896,-1.174747158394073,0.2844165401392513,2.260332805805736,1.930871870525817
4720.067,0.5985031942972412,1.065854854316042,-0.39063268374168464,-1.174746186198674,0.2844175588544904,2.260329550597403,1.930880383423081
4720.1,0.5985162793025661,1.065856671205041,-0.3906326934747528,-1.1747469202105294,0.28441562461190756,2.26033168682787,1.9308688093489743
4720.134,0.5985084840467101,1.0658546247277807,-0.3906354774931756,-1.1747499424313883,0.28441562461190756,2.2603306695752674,1.9308792058858764
4720.167,0.5985084840453891,1.065854854316042,-0.3906379831882772,-1.1747499679610018,0.2844135901066992,2.2603316868278713,1.930882972653867
4720.199,0.5985240747802972,1.065857359969825,-0.39063547753451155,-1.1747451135269986,0.2844165401392513,2.260331686827871,1.9308829745919338
4720.233,0.5985134953542759,1.065857359969825,-0.39063243091003025,-1.174742356753817,0.28441562461190756,2.260332818887688,1.930879719383184
4720.266,0.5985084840467101,1.065857359969825,-0.39063453268917403,-1.1747523715911596,0.28441562461190756,2.2603295505974272,1.930880696905417
4720.299,0.5985162794140346,1.0658601440295836,-0.3906352403474481,-1.1747451077388051,0.2844175573918554,2.2603306695752674,1.9308785410655869
4720.333,0.5985084840467101,1.065854854316042,-0.39063547753451155,-1.1747462654584047,0.2844165401392513,2.2603348657480193,1.9308774814274574
4720.366,0.5985134866821801,1.065854854316042,-0.39063547753406713,-1.1747418425453617,0.2844175573918554,2.260332040040581,1.9308818553987204
4720.399,0.5985162794140346,1.0658601440295836,-0.3906352413221291,-1.1747472014733567,0.2844175573918554,2.2603316868278713,1.9308797150225359
4720.433,0.5985063780159281,1.065852348662259,-0.39063798318429177,-1.1747451176220771,0.2844186141356029,2.2603316868278713,1.9308807366357907
4720.466,0.5985109896648084,1.0658548542810493,-0.3906352413230668,-1.174749933543052,0.28441562461190756,2.260332805805736,1.9308797193652416
4720.499,0.5985162794140346,1.065854854316042,-0.39063797439040243,-1.1747471753980392,0.28441562509945256,2.2603316868278713,1.930878600405322
4720.533,0.5985084840467101,1.0658600675001633,-0.3906326059890322,-1.1747498829439302,0.2844175573918554,2.260332805805736,1.9308754214889403
4720.566,0.5985134953542759,1.0658547777866216,-0.3906353986775041,-1.1747464951519118,0.28441562461190756,2.260330671029039,1.9308730648012347
4720.599,0.5985162794140346,1.065854854316042,-0.39063269055841954,-1.174747790193668,0.28441562461190756,2.2603326880681656,1.9308818554525637
4720.633,0.5985109897000527,1.065860118519777,-0.3906326934734192,-1.1747471836019234,0.2844165401392513,2.260331686827871,1.9308763231857913
4720.666,0.5985162794140346,1.065857359969825,-0.390630097090764,-1.1747524622577015,0.2844156289998124,2.2603371095121894,1.9308731072412595
4720.699,0.598510989700493,1.065854854316042,-0.39063524131150495,-1.1747469542234277,0.2844165401392513,2.2603329235433085,1.930878953618032
4720.733,0.5985134953423873,1.0658601440295836,-0.3906354764544412,-1.1747499585246548,0.28441562461190756,2.2603339247902468,1.9308752434717282
4720.766,0.5985162794140346,1.065854854316042,-0.39063583104358146,-1.174746951447312,0.2844136032704136,2.260332805805736,1.9308731072410381
4720.799,0.598510989700493,1.065854854199399,-0.39063547753303,-1.1747419174761846,0.28441460735930335,2.260331686845816,1.930871988263395
4720.833,0.5985134953542758,1.065854854316042,-0.3906326934747528,-1.1747499651420052,0.2844175573918554,2.260332805805071,1.930875243417893
4720.866,0.5985134953542759,1.065854854316042,-0.3906354775225108,-1.174744601624642,0.28441562461190756,2.2603339247836,1.9308806057963297
4720.9,0.5985056999866899,1.0658601440295836,-0.390634768901068,-1.174746954327158,0.2844175573918554,2.2603359847201236,1.9308740808873563
4720.932,0.5985162794140346,1.065852348662259,-0.3906345325825042,-1.1747470808964895,0.28441654013925954,2.260331686827871,1.930878541522306
4720.967,0.5985162794140346,1.065857359969825,-0.3906326934707526,-1.1747446414155738,0.2844165401392513,2.2603328058775167,1.930870945094885
4721.0,0.598510989700493,1.065854854316042,-0.39063197608904987,-1.1747524467441404,0.28441562461190756,2.260335043761465,1.9308829745919338
4721.034,0.5985134953542759,1.065854854316042,-0.3906326643128843,-1.1747445978125783,0.28441562461190756,2.260330669575292,1.9308719882633696
4721.068,0.598510989700493,1.065854854316042,-0.39063547753451155,-1.174747078922248,0.28441562461190756,2.2603306695752674,1.9308731072412595
4721.099,0.598510989700493,1.065857359969825,-0.3906301839313382,-1.1747471499020414,0.2844165401392513,2.260332805805736,1.930872123878466
4721.135,0.598510989700493,1.0658601440256903,-0.39063335163413115,-1.1747524736291064,0.28441460735930335,2.2603306695752674,1.9308797193293514
4721.167,0.598474360907157,1.0658433124846693,-0.39057839322665444,-1.1747258486392491,0.25208573844245574,2.260276018322749,2.031418521369453
4721.199,0.5985215691265305,1.0658626496833665,-0.3906379828642739,-1.174742501110839,0.284416658612681,2.2603339247836005,1.930876421735419
4721.234,0.5985241557248928,1.065841769235174,-0.3906379539184285,-1.1747365802636878,0.2844135901066992,2.2603384399406936,1.9308731072412595
4721.267,0.5985216994592475,1.0658311309398187,-0.3906379831882451,-1.1747330593681706,0.2844165401392513,2.2603350437614895,1.930878600835995
4721.3,0.598503090331387,1.065849938304355,-0.39063727358278927,-1.1747518798426022,0.2844175573918554,2.2603361039399403,1.9308763629341097
4721.334,0.5985006299866464,1.0658820324135698,-0.3905573341654822,-1.1747374523211258,0.2504944403469427,2.26026757830747,1.9990430009972648
4721.367,0.5985726454485691,1.0658897841679487,-0.39064789803272504,-1.1747690052230126,0.2516802697887499,2.2603468676078933,1.9897785285288485
4721.4,0.5984607319564805,1.0657673640611218,-0.39069773443291034,-1.1747334436291412,0.2416218294918906,2.2603326298969257,1.996107929768593
4721.434,0.5983564001111201,1.065730525731012,-0.3906198867806614,-1.1746659474438683,0.23296233696195312,2.2602740546240057,2.0041181322841304
4721.467,0.5984410840166996,1.0657289729349229,-0.3907467850902089,-1.174719548422667,0.2252672938967084,2.260365623205878,2.010528520028288
4721.499,0.59843264099983,1.0657115934439476,-0.39073592662045176,-1.1747158568935978,0.21660041281301723,2.2603505766391336,2.020470352570829
4721.534,0.5984507327401039,1.0657267551164198,-0.39076570632264307,-1.1747083010371258,0.20806323117855907,2.260373226173769,2.0318670598944397
4721.566,0.5983749110155578,1.065694684430209,-0.3906661871719912,-1.1746705742011159,0.19841003615572905,2.2602824267273434,2.0470701222802568
4721.6,0.5983843671303868,1.0657092166825608,-0.39067613746531293,-1.1746511198205907,0.18952144199218246,2.260278633226081,2.061866357788986
4721.634,0.5983652540249818,1.0656966645169579,-0.3906429522605652,-1.1746433472409095,0.18027928724496167,2.2602589337643497,2.0784701000960695
4721.667,0.5983616541810042,1.0656847680326198,-0.3906379768948094,-1.174636903833747,0.1709822817321074,2.2602354704799907,2.096691812306661
4721.699,0.5983533020993663,1.0656952702254072,-0.3906243100618232,-1.1746095931189444,0.16156588278672235,2.2602096461063734,2.1166009889481447
4721.734,0.5983363301591327,1.0656837189129957,-0.3905970127200815,-1.1746020780274034,0.15199682035626516,2.260188138635204,2.1382482705370975
4721.767,0.598330364188687,1.0656711426318735,-0.39059005123081736,-1.1745952221622966,0.14231456340580717,2.260157684216601,2.1613473596698363
4721.799,0.5984042991502783,1.0656860799861878,-0.3906760090573229,-1.1746445870401567,0.1328754031251984,2.2602985830998534,2.1844337339349416
4721.833,0.5984080968709549,1.0656698749360167,-0.3906831208922279,-1.1746542245750877,0.12294326352997853,2.2602963634015865,2.2095958712094976
4721.867,0.5983263183146414,1.0656668320755989,-0.39058601361470924,-1.1745793330483085,0.1119973243318837,2.2601441372510074,2.238014799636174
4721.9,0.5983270516557884,1.0656521822570415,-0.3905871819370734,-1.1745823900686077,0.10168942494322764,2.2601211018959866,2.2646198481655944
4721.933,0.598401274088892,1.0656642356522186,-0.3906740906672761,-1.174637577356397,0.09140374157511122,2.2602976191855753,2.2920739349602126
4721.966,0.5984078015070216,1.0656476189664899,-0.3906851892197949,-1.1746508628562662,0.080723661459011,2.2603037597350095,2.32075437313906
4721.999,0.5983227877372963,1.0656447335673302,-0.39058514290467183,-1.1745672379176026,0.06893169524356058,2.2601056735984315,2.3524302426322343
4722.034,0.5983187523740208,1.065628732065326,-0.39058169998908276,-1.1745641007509091,0.05766891981932698,2.2600694755844977,2.382704307099159
4722.066,0.5983074531150585,1.0656375914502139,-0.39056704550290267,-1.1745318752742726,0.046196464434411055,2.2600140842878993,2.413971068510733
4722.1,0.5982857255474787,1.0656259696671242,-0.39053668624268933,-1.1745169544751421,0.03453994224984669,2.2599612106171705,2.4457386384795203
4722.133,0.5982739541381488,1.0656111266347512,-0.3905250572674399,-1.1745048386786365,0.022657900581362966,2.259901524399478,2.4781044847557396
4722.166,0.598261367586848,1.0656203138980764,-0.3905097039194336,-1.1744718616750642,0.010640461419128222,2.259837883356745,2.5109494055736086
4722.199,0.5982385589878518,1.0656087582677651,-0.3904783755453263,-1.1744548666659558,-0.0015900154191781368,2.2597759293710045,2.5443444086704403
4722.234,0.5982255753496935,1.0655934690599924,-0.39046480954066,-1.174440810730129,-0.014057519983368572,2.259706849516693,2.5784533579519113
4722.267,0.5983122701658399,1.0655906705656664,-0.3905685055098651,-1.1745349998211658,-0.025597720640818444,2.2599993035194093,2.610064616691309
4722.3,0.5982143771988104,1.0655896056845249,-0.39044985651161923,-1.174423293554156,-0.03918586138328006,2.25966492780133,2.647042005805046
4722.334,0.598203840189246,1.0655725616214555,-0.3904365383658206,-1.1744107380361237,-0.05223065080638456,2.259596213182798,2.6825206700967232
4722.367,0.5981915374789946,1.0655805791244637,-0.3904184419521828,-1.1743734678508346,-0.06544104190735656,2.25951499418157,2.7184798915662434
4722.4,0.5981676230742687,1.0655685943780986,-0.39038325098595994,-1.17435048211805,-0.0788916019321082,2.259432061652223,2.754930754813234
4722.434,0.5982637978913292,1.0655714386835768,-0.3905094126089681,-1.174446567374014,-0.09226258334316739,2.2597882964164135,2.79141903023646
4722.467,0.593305179611046,1.0663239046930637,-0.3894868079343972,-1.1701370203353343,0.28510118647896376,2.282986681168364,1.9306272738443522
4722.5,0.5913231536638963,1.066453090342558,-0.3889536075476317,-1.169303353789021,0.28510746151752464,2.289216407200925,1.930628290430031
4722.534,0.5893109294168439,1.0667676120304903,-0.388039068923047,-1.1684697033290794,0.28511309638663196,2.2950582162813276,1.9306256845486596
4722.567,0.5870589743761948,1.0671324792551626,-0.3856209239994966,-1.1674887589093719,0.2851385233316803,2.298635843024099,1.9306356738958659
4722.6,0.5849940477001033,1.06756807120565,-0.3807108064679425,-1.1664048563531186,0.2853998784843058,2.2989624607623558,1.930651447959184
4722.634,0.583260623090376,1.0680374701004267,-0.37273282080521974,-1.1657969671333077,0.28747441037191923,2.298854017932812,1.930691596054096
4722.667,0.5814356223015716,1.0690468730608789,-0.3615690687358806,-1.165847611142788,0.2943786370948009,2.298544066901701,1.9307044509984264
4722.699,0.5790640347430728,1.070687787637141,-0.3471327241924903,-1.1658755683115107,0.3072677174390252,2.2979802274644174,1.9307589594419503
4722.733,0.5763500557106782,1.0729712610125446,-0.3299463842706853,-1.1658742619993492,0.3261417729599945,2.2977216588586225,1.9308833051584875
4722.767,0.5733692172650687,1.0763482479112276,-0.30945130289550754,-1.1658466829910188,0.3501502085623682,2.29779554899502,1.9308410600807768
4722.8,0.571444145627016,1.079990280462462,-0.2939170831916387,-1.1658124459845665,0.3673358799207948,2.297978408845341,1.9305142755095541
4722.834,0.5707131036355086,1.083528708587305,-0.2825327645931575,-1.1656386154762883,0.3769781621179493,2.298708418150178,1.9303827072795157
4722.866,0.5709861575610252,1.0862325635619616,-0.2751682279935915,-1.1655142068580207,0.3788487483421525,2.298843902488144,1.9303798071513583
4722.899,0.572152134851052,1.0882317714518654,-0.27133019281524323,-1.1655095393307053,0.3788245256007856,2.2988289059003564,1.9303628527841403
4722.934,0.5738662347985708,1.0891867348165274,-0.2708263205548586,-1.1654983023000403,0.3788043410399803,2.2988241376074963,1.930262725282369
4722.966,0.5752244099166479,1.0892618742435267,-0.27173565830515906,-1.1653855805215358,0.37880830613109795,2.2988172329267202,1.9301166915747778
4723.0,0.5757570625287797,1.0889841150290425,-0.2735078656611981,-1.1643592331404231,0.3788239757170667,2.2987880529336358,1.9301020667345317
4723.034,0.5753538882941953,1.088835521007739,-0.27633470421855727,-1.1620104281847847,0.3788327245646051,2.2986093868081467,1.9300999670476926
4723.067,0.5740350914090429,1.0888332780398307,-0.27964843991551713,-1.1589391773075006,0.37884250727084456,2.2982039738556423,1.930088119299303
4723.099,0.5718986067485596,1.0887776055903313,-0.283109112640745,-1.1557740661509357,0.37885372835976666,2.297627453174903,1.9300940217136457
4723.133,0.5689195272767356,1.0888332288799591,-0.2859496691018857,-1.1523378973270302,0.3788617258580021,2.2968432647911565,1.9300954544226065
4723.167,0.5651173663230459,1.0888506334523342,-0.2872286893746933,-1.149605658296706,0.37887156729467664,2.2962009204999054,1.9300918911448108
4723.199,0.5606561803129202,1.0888312302807108,-0.2870447641660372,-1.1470947857057372,0.3788936649822951,2.295658826538508,1.9300965581808798
4723.233,0.5559072460703374,1.0888885090229434,-0.28617390079271926,-1.144254408525832,0.3788887979203983,2.2954817551115365,1.9301022825463683
4723.266,0.5514086675701666,1.0888981722403936,-0.2844004851891519,-1.141199530666248,0.3788857456743717,2.295437626044089,1.9301004238339583
4723.299,0.5472572077879474,1.088894714772691,-0.2822213761048498,-1.1373008101955218,0.37887341072287395,2.2954571950638685,1.9301050343263284
4723.333,0.543729593980714,1.0889630256642602,-0.28053223996738863,-1.1326982902346852,0.37887904452284177,2.295470380165494,1.9301141325508262
4723.366,0.5409206823981211,1.0889003708278138,-0.2799047529770545,-1.1291468039129986,0.37889392899473506,2.2954615899721786,1.9301261607349272
4723.4,0.5384833353732436,1.0888854667732133,-0.28010346535484393,-1.126890471713735,0.3788808497799195,2.2954644808417006,1.9301288764182631
4723.433,0.5443633699528316,1.088608575267906,-0.2820432592631317,-1.1340949102002131,0.3463141607787943,2.295536425330649,2.015761498116804
4723.466,0.5420819168032516,1.0879692365679094,-0.28268584859222745,-1.132903166477477,0.3435668073134286,2.2957307477302145,2.0197275682029368
4723.499,0.5409979986524691,1.0873116992801792,-0.28342060188062934,-1.1328643643610308,0.3332070643626963,2.2958631325235253,2.032986305176138
4723.534,0.5404373232822293,1.0870166810466566,-0.2837320001153234,-1.1327764441387567,0.3234030168931019,2.2959580979479846,2.047774928488437
4723.567,0.5401693576793205,1.086857107965983,-0.28391583505619966,-1.1327516268605278,0.313359600598039,2.2960128565349027,2.0646349315439743
4723.6,0.5399390498413954,1.0867773626965525,-0.2839030576502335,-1.1326789722934443,0.3021862827431798,2.29598464333602,2.08575444574247
4723.634,0.5398567495465763,1.0867232328150909,-0.28394256556987685,-1.132666816711966,0.29149054168928235,2.2959887720543826,2.106788229389828
4723.667,0.5398036614902653,1.0867106816233143,-0.28395382561318705,-1.1326333968157165,0.2806286504184108,2.295983782638695,2.1297040090030013
4723.7,0.5397589775801137,1.086686572489806,-0.283939249258629,-1.1326204362466399,0.2695944540037827,2.2959782062370397,2.1544808394536297
4723.734,0.5398242473183315,1.0866877594925466,-0.28404891923815345,-1.132652822672168,0.25870995526460305,2.2960860314504927,2.1802243766764526
4723.766,0.5397358094250988,1.086656068364647,-0.2839635512266865,-1.1326095321215792,0.24646227242741503,2.2959756188585505,2.211134206113716
4723.799,0.5355594410981204,1.0883978168265533,-0.280691960713644,-1.1269143907312742,0.3788104979925685,2.2958098686850468,1.9301357803017727
4723.834,0.5393723295227408,1.0876802237382597,-0.28258744863496776,-1.131116097158805,0.2686233216386489,2.2958720406365707,2.1592491526673925
4723.867,0.5356417720526979,1.0884113306116174,-0.2806678966798614,-1.126918202854898,0.3788104979925685,2.2958029354545806,1.930133644089249
4723.9,0.5356093066905402,1.088380196685168,-0.280678479023147,-1.1268945016860965,0.3788104979925685,2.2958051865003113,1.9301315238538175
4723.934,0.5355681330586101,1.0884035463698012,-0.2806926520741802,-1.1269176093820885,0.37881344802512057,2.295802935616087,1.930132564339296
4723.967,0.535546121036613,1.0884116635705199,-0.28070394451152886,-1.126920117871612,0.37880725971882223,2.2958040544344387,1.9301325250935133
4723.999,0.5355705383877458,1.0883988003029106,-0.28070116045182214,-1.1269054917873556,0.3788094412468147,2.2958062923881744,1.9301380790527813
4724.034,0.5355868128474656,1.0883875957121427,-0.28069865479803924,-1.1269045639602298,0.3788110086035917,2.2958073520442515,1.9301291088177026
4724.067,0.5355925371521396,1.0883972079738,-0.28068806523244283,-1.12691486530973,0.3788094792773294,2.2958051734103098,1.9301347032249165
4724.1,0.5356042918422875,1.0884031874297346,-0.28068485672029386,-1.1269073083609864,0.3788072992099656,2.295807411366039,1.9301335852160855
4724.134,0.5352937742526516,1.0881072317863953,-0.28110475323605044,-1.1270181524525738,0.34275048727927615,2.295846803385034,1.9236658038391852
4724.167,0.5351176774237194,1.0880623299676095,-0.2809337286043707,-1.126932346293252,0.3413985825431256,2.295787370673777,1.9147875267257426
4724.2,0.5351071112759822,1.087993448411532,-0.2811399767018852,-1.126957850606784,0.331852227574978,2.295835963264423,1.9132751477986414
4724.234,0.5349670106939906,1.087959659865981,-0.28103103192094636,-1.1268950167774205,0.32196738053825236,2.2958150607450882,1.916204006339374
4724.266,0.5349564497217898,1.087931355678557,-0.2810576547767756,-1.1268968657701484,0.3126045296165527,2.2958137701778263,1.9199405940151522
4724.299,0.5349368889297965,1.0879344221899485,-0.28104437578656327,-1.1268667199381737,0.30304653621721744,2.2958076094866833,1.9259660570586288
4724.334,0.5350091782174458,1.0879183643987416,-0.28114152749282084,-1.1269119773297867,0.2937206086279227,2.295843366956463,1.9327312966923031
4724.367,0.5350099911755306,1.0879207169008565,-0.2811473648561531,-1.126899726877876,0.2828774228667319,2.2958612275573707,1.944400939125444
4724.4,0.5349362811903147,1.0879082635353337,-0.2810637901052946,-1.1268488725830679,0.27183642295145205,2.2958084318807366,1.9594006919835305
4724.434,0.5349194061175471,1.0878941156910278,-0.28104135901488014,-1.1268414032685712,0.2612540282436395,2.2958048332102727,1.9746550131684764
4724.467,0.534911913403163,1.0878784382160323,-0.2810323009368476,-1.1268353346057527,0.2505415913517339,2.295787975303792,1.9919209723292468
4724.5,0.5349019800963752,1.0878859670678667,-0.2810177224393131,-1.1268071654554106,0.23966363361700616,2.2957696471309497,2.01119483852894
4724.534,0.5349801464928232,1.0878890502518228,-0.2811176317731938,-1.126843221521403,0.22961809843468473,2.2958420718424115,2.030064928828253
4724.567,0.5349935619406789,1.0878865385949723,-0.2811353799330334,-1.1268417157386246,0.218104945792704,2.295857780344221,2.054372762282579
4724.6,0.5349156827593973,1.0878580604659351,-0.28103999319653106,-1.1268023389391075,0.20589271857224567,2.2957670144255076,2.0819878658751385
4724.634,0.5349051500601281,1.0878647100810506,-0.28102675768803387,-1.1267727452013032,0.19411478816194183,2.2957375734440255,2.109446908546932
4724.667,0.5349832104563665,1.0878666800311345,-0.2811248805037234,-1.1268163338979562,0.18327329904998724,2.295843180757151,2.136001279631241
4724.7,0.5355731699289163,1.0883872403429267,-0.2806986547980394,-1.1269022970534206,0.3788091296014953,2.295807352028593,1.9301303455356436
4724.734,0.5355709437076983,1.0883847346891438,-0.28069865479803924,-1.126904802707054,0.3788067799014317,2.295807770932188,1.9301314061155757
4724.767,0.5355739661862976,1.0883872403429267,-0.28070116045182214,-1.1269022967263664,0.37880893963419604,2.295806293096893,1.9301291681600674
4724.8,0.5355737280947673,1.0883925300564683,-0.28069336508449755,-1.1269098127065742,0.3788100980404683,2.2958085252720655,1.9301357846625
4724.835,0.5355764719490967,1.0883900244026854,-0.2806958707382804,-1.1269048027072035,0.378808056697746,2.295806344718202,1.9301302871377193
4724.868,0.5355737277677185,1.0883872403429267,-0.28069865479803924,-1.126897007339879,0.37880716117450924,2.2958052184712785,1.9301391372333807
4724.9,0.5355762334215014,1.0883900253838317,-0.28069865479803924,-1.1269048027072035,0.37881232464294495,2.295806239030357,1.9301312295514994
4724.934,0.5355709177073182,1.0883932462933519,-0.28069865479803924,-1.1269048027073476,0.3788101755622604,2.295807769587637,1.930139137235375
4724.967,0.5355684380539154,1.0883900244026854,-0.28069865479803924,-1.1269015817976835,0.3788071030779078,2.29581098473092,1.9301391372353665
4725.0,0.5355762335426306,1.0883900244031395,-0.28070116045182214,-1.1269022970534153,0.3788067489577055,2.295810709958756,1.93013689927964
4725.034,0.5355737277677185,1.0883925300564683,-0.28069865479803924,-1.1269125980745116,0.3788067812015518,2.29580776512009,1.9301357804635084
4725.067,0.5355737278767347,1.0883900244026854,-0.28070116045182214,-1.1269098140147693,0.37881095008947147,2.2958063098848585,1.930128009935932
4725.1,0.5355684380539154,1.0883872406699753,-0.2807011692821897,-1.1268995129936454,0.3788057145075109,2.2958087006272896,1.9301325250934398
4725.134,0.5355709437076983,1.0883925300578141,-0.28069587073828045,-1.1269048027072035,0.3788112005072613,2.2958107231158107,1.930137252653853
4725.167,0.5355737277677185,1.0883900244026854,-0.28070116045182214,-1.1269022970534206,0.3788076369934607,2.2958109963061513,1.9301336489344165
4725.2,0.5355684380539154,1.0883872403433752,-0.28070116045182214,-1.1269047997637645,0.378805831463846,2.2958107488869124,1.9301392549730103
4725.234,0.5356133866942184,1.0883872403442725,-0.2806590896154188,-1.1269047986736016,0.37882224527841757,2.2958028592145534,1.93015140264793
4725.267,0.5357920420720602,1.0883822290353609,-0.280618290247338,-1.1268834877224616,0.3788199704293901,2.2958051777729542,1.930154885577529
4725.3,0.5358627952890063,1.088379444975602,-0.28053518969621916,-1.1268857549030078,0.37881383870029894,2.2958117630578196,1.9301450794673367
4725.334,0.5357643696525848,1.0883900244026854,-0.2805847150533889,-1.1269168934414682,0.3788090172940953,2.2958131400449027,1.930138419140296
4725.367,0.5355218044835212,1.088384734690938,-0.2807519050332813,-1.1269198666585152,0.37881034530655977,2.295815535953412,1.9301460479423258
4725.4,0.5357853988905106,1.0883944159197512,-0.2806652504170932,-1.1269338022733875,0.34612897736851167,2.2958184349325865,2.0288183982817145
4725.434,0.5354179516687115,1.0883925330362463,-0.2807710785614817,-1.1269022974074534,0.37880874469145714,2.2958165524621905,1.9301439056069487
4725.467,0.5357470610238062,1.0883669340335427,-0.28073452547591415,-1.1269329844689082,0.3399868683311089,2.295841337977757,2.029291982397364
4725.5,0.5355713651217862,1.0883539910915037,-0.2805838255942428,-1.126852770247405,0.33639512390996007,2.2957487899133646,2.032696415599606
4725.534,0.5355439181686442,1.0883291281865346,-0.28073502811815093,-1.1268585198957854,0.37881307488241195,2.295815870498876,1.9301460355361162
4725.567,0.5357139359964938,1.0883031805286763,-0.28069813680341915,-1.1268327084034013,0.37881293398794114,2.295813416938558,1.9301449228596315
4725.6,0.5357833086837138,1.0883039742389857,-0.28068281592868716,-1.1268456939289098,0.37880708929423185,2.2958224222073267,1.930148650666078
4725.633,0.5357011777875369,1.0883117387001975,-0.28070416094964007,-1.126851777996933,0.37880667246103517,2.2958269021643734,1.9301394297520174
4725.667,0.5356359391294506,1.0883562524992587,-0.28072103632383555,-1.126893477396743,0.37880902169742836,2.2958203006798534,1.9301372980499858
4725.7,0.5355516020698665,1.0883851146636099,-0.28075207695541615,-1.1269125699668887,0.3788057149512854,2.295821187106505,1.9301384124428949
4725.734,0.5354820895244775,1.0883826866375526,-0.280747281605737,-1.1269132944240905,0.3788127890243501,2.2958181433623173,1.9301394297143326
4725.767,0.5355378659598505,1.0884007148948542,-0.28070318460601007,-1.1269158000778734,0.3788190860078893,2.2958110789291344,1.930140548673355
4725.8,0.5356585077526371,1.0884037009590255,-0.2806629922437656,-1.1268977036894932,0.37881997042939003,2.295808822804035,1.9301384170218023
4725.834,0.5357874740350675,1.0883829477480207,-0.2805653069073858,-1.1268926923818756,0.3788222980685969,2.2958010916842353,1.9301460418354235
4725.867,0.5357996276971008,1.088422619951941,-0.28048173379008123,-1.1269551655821715,0.37881934662758976,2.295777150926771,1.9301475316886532
4725.9,0.5356352993830233,1.0883536686737418,-0.2807220038173188,-1.1269086512746487,0.34687404910665887,2.2958240256150013,1.870691999448404
4725.934,0.5357651012698711,1.0885346023124025,-0.28051907838931595,-1.1270469942374743,0.3788080811499494,2.2957623727226295,1.9301449228784038
4725.967,0.5357426171133781,1.0883836142661174,-0.2807394945187518,-1.1269134466828312,0.34081832328161443,2.2958653636430633,1.8870388941136582
4726.0,0.5356121889708013,1.0884616599835848,-0.2806045179221019,-1.1270581160034376,0.37881198098411584,2.2957800400148884,1.930147159361067
4726.034,0.5358486692364322,1.0884418613579605,-0.2806744058308306,-1.1269960498164222,0.3403188722194548,2.2958389617705155,1.9016055971643304
4726.067,0.5353668338693826,1.0884687413726781,-0.28078511902717146,-1.1270542743888332,0.3788116408645458,2.2957859600517483,1.9301385773529474
4726.1,0.535497276608843,1.0885370192106427,-0.2806857746690612,-1.1271065552520492,0.3788108504526411,2.2957617240084542,1.9301499360028458
4726.134,0.5356003783359382,1.0885303362940615,-0.2806823360360856,-1.1270925918879429,0.37880692474930344,2.2957799964083567,1.9301587795773667
4726.167,0.5356046511731117,1.0884616599952652,-0.2806813105696656,-1.1270528690018808,0.3788066159963159,2.2957815858655506,1.9301587204251909
4726.2,0.535546598432449,1.088464446415156,-0.28072341803771506,-1.127072754119717,0.3788057393106995,2.2957881980074775,1.9301701601999726
4726.234,0.5353694101468853,1.0884481699053312,-0.28078902054204385,-1.1270346939856544,0.37881089377188587,2.295797089548758,1.9301700396468287
4726.267,0.5352796596381216,1.0883005142589932,-0.28100542953820973,-1.126944006340388,0.378815072989736,2.295821028139468,1.930179230396558
4726.3,0.5355676817826032,1.0884901957909277,-0.28078010379262786,-1.1270838501605418,0.3465496561915673,2.295790298081563,1.9573789521105187
4726.334,0.5353876828936164,1.0884474042574244,-0.280713854772932,-1.1270068515725349,0.34540328789028596,2.2957417533053626,1.9721508317410752
4726.366,0.535309291968904,1.0883531449237163,-0.2809168630737693,-1.1270308097808783,0.3361586702088557,2.295792093373244,1.9887208230892064
4726.4,0.535250245729471,1.0883091942321457,-0.2809386621325478,-1.127018366123547,0.32782786912670137,2.2957862747721087,2.0062326414449636
4726.434,0.5352456371173178,1.0883108205012606,-0.2809830657643122,-1.127006075455336,0.31907252271852915,2.2958055092659997,2.0259387475139334
4726.466,0.535242193243957,1.0882958557019995,-0.28098915157944226,-1.1270157907768725,0.3101980255590133,2.2958206733644673,2.047488378321498
4726.5,0.535254765560035,1.088283038065832,-0.28101211000397086,-1.1270266698594407,0.3012415266002808,2.295821055956999,2.069925502107676
4726.533,0.5352672840543891,1.088297414177661,-0.28103382296837687,-1.1270161948018895,0.2921695226214105,2.295838312908698,2.0930941597726207
4726.567,0.5351892615859493,1.0882696517177637,-0.2809390520179864,-1.1269859989419135,0.2819832081873104,2.29574926843593,2.119870489477673
4726.599,0.5351947415113916,1.088284178175691,-0.2809463361027351,-1.1269664004651903,0.27257839877906687,2.295739082711215,2.1449296830438875
4726.634,0.5351726901315601,1.0882727499606757,-0.2809145610976831,-1.1269607646870838,0.2628416108138518,2.2957169231982846,2.171243373181305
4726.667,0.5352558120969917,1.0882838154455072,-0.28102244032779744,-1.1269992677596656,0.25337185287978237,2.2958204219946765,2.1975523733514777
4726.7,0.5352468599446878,1.0882733344244695,-0.28101147761662215,-1.1270041473283055,0.24342910808067852,2.2958309852763232,2.225394055481864
4726.734,0.535261424131491,1.0882608010773884,-0.28103768632618653,-1.1270199190307562,0.23338513419913642,2.2958461728638504,2.253688679695557
4726.767,0.5351830253889087,1.088253102873268,-0.2809479497279215,-1.1269628211683997,0.22287630472382247,2.2957018552816653,2.283384778127017
4726.8,0.5352676367270908,1.0882633514945201,-0.28104429681790855,-1.1270206023189875,0.21290182246274458,2.2958737618743985,2.3119440360505905
4726.833,0.5351829270853203,1.0882442279231341,-0.28094904449143243,-1.1269597841812535,0.20080674348715455,2.295679657910993,2.346425715149646
4726.866,0.5351777829293702,1.0882537580388618,-0.28094853091324,-1.1269361399148714,0.18987254735607006,2.295654194906236,2.3774482246367334
4726.9,0.5351539407832648,1.0882412911681882,-0.28091980948788997,-1.126925315229986,0.17864322215611406,2.2956116502159443,2.4096992443210663
4726.933,0.5351424284055373,1.0882277704902164,-0.2809126430052551,-1.1269168651085781,0.16725188365390764,2.2955609481446118,2.4423978317958763
4726.967,0.535129985593235,1.0882381616311694,-0.2809001141656875,-1.1268865281576463,0.15572385106244457,2.295509173194837,2.4754607199269874
4727.0,0.535107028296057,1.0882273103430915,-0.2808715637113597,-1.1268747649254722,0.14403630509681253,2.295460296110317,2.50899835121664
4727.033,0.5350950882064938,1.0882139468078167,-0.280863354997952,-1.1268648092232185,0.13214891781281768,2.2954016946167553,2.5430641923041843
4727.067,0.5351727472221723,1.0882083997722356,-0.28095354072079903,-1.1269423663342915,0.12118460767820594,2.2956395758196386,2.574689552435075
4727.1,0.5351814621606108,1.088218877068977,-0.28097245946156857,-1.126937555299361,0.10930661629608718,2.295671456233473,2.608850426186404
4727.134,0.5350990497568757,1.0881978074258853,-0.28087894062146734,-1.1268672078333672,0.09619534303634847,2.2953961518090296,2.646212756770005
4727.167,0.535091733507838,1.0882083419229556,-0.2808690125802382,-1.1268361236895252,0.0837339884722601,2.2953400561734227,2.6816814374798064
4727.2,0.5350687378661707,1.0881972878895354,-0.2808373293633828,-1.1268194501044082,0.07104615654453106,2.2952731249159086,2.7178602227774853
4727.233,0.5350557576364166,1.0881831282579384,-0.2808250498923659,-1.1268053167780696,0.058148642060266376,2.2951968986474682,2.754653748900054
4727.267,0.5350429171501228,1.088193083087706,-0.2808085103651603,-1.1267692542571366,0.045141725509671105,2.295118502878278,2.791715843067756
4727.299,0.5350190923962419,1.088182209979136,-0.28077647963336005,-1.1267498065809711,0.031938136035776665,2.2950426394169714,2.8293262587398154
4727.333,0.5350048487849364,1.088167809193144,-0.2807615638528098,-1.1267340283209633,0.01852953078172348,2.294957770552415,2.8673946727808044
4727.367,0.5352342284260779,1.0878286889394098,-0.28090411759102385,-1.1268038922985413,0.3788239777485576,2.2957855277193833,1.9301873725338456
4727.4,0.5352031530759352,1.0877567844892801,-0.2809337800425742,-1.1267630702701998,0.3788248892611939,2.295799247366566,1.9301924906797283
4727.434,0.5351781068517157,1.087711770337416,-0.2809549348775651,-1.126728122895116,0.3788310759544738,2.2958040877155295,1.930187036763074
4727.466,0.535125642715202,1.0877007560703544,-0.28101870515609456,-1.126716997873721,0.3788255990412159,2.295810628427398,1.930187427018334
4727.499,0.5350274535958566,1.0876450703072127,-0.2811286857296123,-1.126692745846451,0.3788288060572647,2.295825326125195,1.9301885084677943
4727.533,0.5348933557582298,1.087571158127956,-0.28123900992861023,-1.1266509156942384,0.37882890842804007,2.295837865363553,1.9301885808330057
4727.566,0.534894144268069,1.0870260980841286,-0.2822364670687711,-1.1260442065521779,0.3788071025163366,2.2964827599784337,1.9302116253434687
4727.6,0.5351912295689875,1.0866416128543526,-0.28545527958129735,-1.123007200084784,0.37881644085570715,2.2978591313483285,1.930280782626894
4727.632,0.5351393762132688,1.0848104985908051,-0.28918731012498383,-1.1187230733044653,0.37882835736089937,2.2978286229402567,1.9302852179334677
4727.667,0.5351406388020892,1.082224570581467,-0.29310133083739787,-1.1138982556890231,0.3788316226734055,2.2969065477445163,1.9302873606928885
4727.7,0.5347989099815713,1.078557498956693,-0.29616134162772073,-1.1092174899817606,0.37883469117938734,2.2951746030904396,1.9302947546901652
4727.734,0.5345625486513264,1.0751720530110713,-0.2991515367417457,-1.1042911482358595,0.3788393218715986,2.293538509142034,1.930335835306989
4727.767,0.5343153193523333,1.0711848010213914,-0.3022516912741045,-1.1003172119768418,0.37884130365980995,2.291871857491887,1.9304218177755461
4727.8,0.5343057845736077,1.067324660298066,-0.30549320945386005,-1.0971792483463478,0.3788354035947058,2.290448901010122,1.930478063863451
4727.834,0.5342269003418374,1.0626784803415819,-0.3087930369080229,-1.0947801689299312,0.37883504817440833,2.2892284902842253,1.930509968657076
4727.867,0.5342778937625668,1.05761247588451,-0.31228371968539465,-1.0932977792251646,0.3788246446025065,2.288440069975823,1.93053389564134
4727.9,0.5343169981432917,1.0518275232351926,-0.3162553810822977,-1.0930064666086463,0.3788236881211502,2.287942584464666,1.93056949480662
4727.934,0.5342807426006848,1.045732009198861,-0.3210651753098601,-1.0930314007395474,0.3788216535978847,2.287771163440712,1.9306874268036196
4727.967,0.5343609486106708,1.0394510288480234,-0.32675352726252255,-1.0929576342363037,0.3788216535978847,2.2876273730938297,1.9309472151168523
4728.0,0.5346405762750768,1.0319376395977444,-0.33315499318322883,-1.093010776702676,0.37882153512445493,2.2873220353712425,1.9311509204882173
4728.034,0.5348808964696578,1.0235913147436206,-0.33997183922091634,-1.093008303417271,0.37881741984854334,2.28560664576662,1.9313891656269235
4728.067,0.5340958849019262,1.0155017173604588,-0.3452155562557522,-1.0920235150044741,0.37887071835975517,2.283166291486244,1.931510964386805
4728.1,0.5323979249013184,1.0109374842092596,-0.345819697889668,-1.0893017191722993,0.3788605584311274,2.2833484205801593,1.9315301392257713
4728.134,0.5323369815925483,1.009139091540642,-0.346635245347047,-1.088127838934833,0.3788184528651018,2.283367606186998,1.9315358366061388
4728.167,0.5322205389888328,1.0078255257428814,-0.34747425824077177,-1.0876815724487112,0.3788071752769084,2.2833981366234903,1.9315429080436566
4728.2,0.5325276890490036,1.014837986752915,-0.3426928604989268,-1.0892707180443466,0.3445418731505807,2.2844329664046015,1.932205398597148
4728.234,0.5312762686669359,1.010283255396856,-0.3444729435321179,-1.0875811401549775,0.3402110665350211,2.2848209145883693,1.94751980488682
4728.266,0.53044394045145,1.0080020858038852,-0.34513521489055154,-1.0865919730711582,0.3292911437293622,2.2853077377242386,1.9612200627905736
4728.3,0.5300708818014037,1.006880334323383,-0.3455069934355608,-1.0861364552024293,0.3188605001101683,2.285571823086741,1.977899669989366
4728.334,0.5298899944279247,1.0063389043846023,-0.3457052260598088,-1.0858921947055356,0.3081571359371331,2.285766358719904,1.9982760401426276
4728.367,0.5297983423840078,1.0060445430120044,-0.3458050106438275,-1.0857807329959508,0.29726139955567543,2.2859083280051067,2.0194165572651563
4728.4,0.5297663699274144,1.0058828388520515,-0.34588156766364353,-1.0857306875867136,0.2862147328286886,2.2860048237001056,2.04299769627778
4728.434,0.529755653600942,1.005813016787231,-0.34593793804175554,-1.085687783013193,0.2749893670559338,2.286093164228614,2.0675872254771086
4728.467,0.5297495984533755,1.0057542078983621,-0.3459644805687976,-1.085677574349333,0.26358410575846314,2.2861654257074573,2.093787521773965
4728.5,0.5297613573711679,1.0057135598488722,-0.3460041409326733,-1.0856807380087616,0.2520151462000024,2.2862156066005,2.1209568873035938
4728.534,0.529655219581791,1.0056877092725633,-0.3458753803522798,-1.085609725955929,0.2391977186283114,2.286150669945698,2.1523248741931678
4728.567,0.5296447218094773,1.005662615684435,-0.34586792193213345,-1.085600101309021,0.22698264127053758,2.2861434595429593,2.182539474952776
4728.6,0.5296278678526818,1.0056629153693537,-0.34584964170080656,-1.0855691901640272,0.21450651317125136,2.2861264252784057,2.213874780426977
4728.634,0.5295988922412969,1.0056458670846045,-0.34581207169192396,-1.085553895841855,0.20180630074470152,2.2861055925092373,2.2461012241627785
4728.667,0.5295849569563593,1.0056283381465763,-0.3457994466628733,-1.0855440613977967,0.18897783130932666,2.286074758880307,2.278998452147338
4728.7,0.532108636909625,1.0016790707041643,-0.3493162452553998,-1.0856701010653846,0.3787930517130427,2.283502126160754,1.93147421610353
4728.734,0.5320401049965215,1.001666237287354,-0.34935320956619925,-1.0856494990231698,0.3787950862182511,2.2835054831504817,1.9314697009528614
4728.767,0.531996506969655,1.0016658376643532,-0.3493778513046199,-1.085659800044277,0.3787930517130427,2.28350754308726,1.9314719766463968
4728.799,0.5319822469738416,1.0016902497093891,-0.34938188686891947,-1.0856726067191673,0.3787930517130427,2.2835101406149723,1.931463188338402
4728.834,0.5319875366813256,1.0017232577868769,-0.34938198880070004,-1.0856886188174164,0.3787930517130427,2.2835053477032217,1.9314676032482228
4728.867,0.5319981960513941,1.001745964640848,-0.349373363381938,-1.0856863648096717,0.37879213618569896,2.2834977520306916,1.9314697401978316
4728.899,0.5320066244722702,1.0017764169655492,-0.34935962572215506,-1.0857194802660197,0.37879213618569896,2.283486663977305,1.931467564542939
4728.934,0.532020143122198,1.00183956973564,-0.3493380314694561,-1.085748010569711,0.37879010168049065,2.2834779362692066,1.9314578703135286
4728.967,0.5315327246000834,1.0010332080134425,-0.34930916237516296,-1.0852677551100411,0.3371032503360807,2.283679286545647,2.0049385118859284
4728.999,0.5316381800292316,1.0009324202253307,-0.3495350492681464,-1.085283689279155,0.3397257729072871,2.2837018203577504,1.9971692750993704
4729.034,0.5314803026365684,1.0008129758496231,-0.3495742467712386,-1.0852319428914416,0.3290125604487164,2.28372278048713,2.0064233642922495
4729.067,0.5314541342056653,1.0007672020340852,-0.3496234339505664,-1.0852245913627403,0.32003322008497115,2.2837530098882226,2.018712350757422
4729.1,0.5314552237410961,1.0007370533121316,-0.3496641871183197,-1.0852268917441785,0.3104486821778192,2.283766557446274,2.035888643666265
4729.134,0.5314663324448166,1.0007421775189842,-0.34969579726997235,-1.0852133017199694,0.30081289745297735,2.2837915469082617,2.056362251919058
4729.166,0.5314722533188716,1.0007276897377846,-0.34970559872501905,-1.0852238351084527,0.2909427191625289,2.283811102727819,2.0778118066230356
4729.2,0.5314917402664996,1.000715768146481,-0.3497363066274861,-1.0852352047473959,0.28100086481161757,2.2838197714803723,2.1004267268546037
4729.234,0.5315078041683288,1.0007291281051067,-0.34976390104884736,-1.0852278404405995,0.27089664778083566,2.2838431004859636,2.1240337639440465
4729.267,0.5315165432752096,1.0007193104686252,-0.349772442314908,-1.085240885360828,0.26059517110134855,2.2838644257473746,2.1486382368731576
4729.3,0.5315374172348575,1.0007094344164855,-0.3498028312094652,-1.08525440269473,0.2501987345930914,2.28387653803909,2.1743150001494183
4729.334,0.5315539843216879,1.0007238179054,-0.3498293343293817,-1.085249258586404,0.23966469623066633,2.2839013917292075,2.2006579416567664
4729.367,0.5315637596476872,1.000714716454814,-0.3498382618007243,-1.0852639604617087,0.22893294072254822,2.2839269296664284,2.2279400906022158
4729.4,0.5315847266754297,1.0007048768899942,-0.3498682380339204,-1.0852800064120203,0.2180990925234596,2.28394291900314,2.25561546542804
4729.433,0.5316012863712807,1.000719138225561,-0.3498946588993883,-1.085276567109398,0.2071179098016387,2.2839717792660217,2.2839883268547023
4729.467,0.5316121160244274,1.0007103238415498,-0.34990506835719426,-1.085292742472701,0.1959442632161572,2.284003662330777,2.3130358075240647
4729.5,0.5316331040150404,1.0006996707776592,-0.3499347168372138,-1.0853104899956678,0.18464011481468035,2.284024968446639,2.3426899576557823
4729.534,0.5316505660046662,1.0007134701351452,-0.3499626811585026,-1.0853088869243432,0.17318451526829914,2.2840600038556396,2.372659109822383
4729.567,0.5316628116459992,1.0007034202712886,-0.3499764847145741,-1.0853302628515058,0.1615739587014291,2.2840968657041447,2.4031692679826175
4729.6,0.5315688607038087,1.0006837959504287,-0.3498564366006285,-1.0852572541805054,0.14948883581096073,2.283879903200484,2.4348489526218486
4729.634,0.5315688263006884,1.000696221929699,-0.34984821503775,-1.0852342776471815,0.1374487545538905,2.28385390702517,2.4664775759026494
4729.667,0.5316693882801928,1.000684346443074,-0.34996955587419176,-1.0853276359936146,0.12555037897005317,2.2840724337387037,2.497865089962234
4729.7,0.5316757290438074,1.0006957830639802,-0.34998868136041317,-1.0853199749624096,0.11324542355362155,2.284097657755769,2.53027411900071
4729.734,0.5316860778889172,1.0006839838023156,-0.3500049097642002,-1.0853400708041185,0.10068400580735748,2.2841519349292962,2.563149623454013
4729.767,0.5317082428743136,1.000670796500077,-0.35003746686081616,-1.0853630687384568,0.08799492683873922,2.2841939633525765,2.59647668709734
4729.8,0.5316032193496003,1.0006612838271094,-0.349904879106548,-1.0852680282447373,0.0747787875158874,2.2839046761476176,2.630888683885411
4729.834,0.5315996555764135,1.0006711415071239,-0.34989739190661506,-1.0852468669193271,0.06161328665053478,2.283859049537707,2.6652640956758837
4729.867,0.53169659867135,1.0006659148525863,-0.35001347884525025,-1.0853364781071155,0.048648481764662854,2.2841552598456722,2.69909989612713
4729.9,0.5317142328584321,1.0006703836432234,-0.35004816603664324,-1.0853445561868176,0.03523467504376576,2.2842038746883766,2.7340495802286817
4729.934,0.5317309715859597,1.0006540398285475,-0.3500629798879249,-1.085366919127189,0.021476735685063808,2.284273720973271,2.7696291065878427
4729.967,0.531617466964466,1.0006469875171602,-0.34991490965684946,-1.0852526755264282,0.007285968525622799,2.283908179952183,2.806205177061047
4730.0,0.5317451095198802,1.000652588376643,-0.3500817087742494,-1.0853616692198704,-0.006581100007598373,2.2842866034060236,2.842223956910999
4730.034,0.5317531196193368,1.000639319522496,-0.3500935009129602,-1.0853806591179778,-0.021002439870328793,2.2843518954525805,2.879292307570342
4730.066,0.5318028545824642,1.0007083750752939,-0.3500668641786371,-1.0853909878871955,-0.0302265952416656,2.2842776360272676,2.8973473831071317
4730.1,0.5318667595700637,1.0007994028964635,-0.3500034071285283,-1.0854289701091941,-0.03355807411362122,2.284245496170877,2.897300070644814
4730.133,0.5319136320866109,1.0008757958984127,-0.349980103635235,-1.0854376290653462,-0.0362194282386481,2.2842391981013126,2.8973000906466915
4730.167,0.5319410029089253,1.0009118312472838,-0.34995544014151037,-1.0854570646599893,-0.038227107158387064,2.2842471367813726,2.8973000778934956
4730.2,0.5473213030415738,0.7265785434849602,-0.4321525332751305,-1.1062658187702479,0.37853909104547473,1.7566306668289327,1.9742488972510153
4730.234,0.5481397781834156,0.7070446998084976,-0.4416311626816009,-1.1068798261660031,0.378283181817001,1.734335535000965,1.9742654999291707
4730.267,0.5485425442615496,0.6886131125961421,-0.45148807285185794,-1.1068473190411041,0.37812258531917187,1.713523489226797,1.9742731181158713
4730.3,0.5489425240817594,0.669643137925113,-0.46201249093986063,-1.1066603788584923,0.37803068181871324,1.6924685640712276,1.97428123391097
4730.334,0.5492611786794108,0.6505300814848941,-0.4725348351948709,-1.1065631986054387,0.37788732058180075,1.6719783432861333,1.9742787874016887
4730.367,0.5494758567605278,0.6318982654188053,-0.4836567818765239,-1.1063718480454792,0.37775428599170024,1.6517275976474055,1.9742722517415157
4730.4,0.5495687168918256,0.614079489899606,-0.49460017993460725,-1.1062133311999527,0.3776734187071922,1.6320471758648103,1.974281811705844
4730.434,0.5494897862243315,0.5964869816378029,-0.5057003724430612,-1.106150698898839,0.37740503509368717,1.6126749244055156,1.9742743135756928
4730.467,0.549437150792026,0.5795986689948197,-0.5168051591716738,-1.1061297879764667,0.3771966581444313,1.5944400135357129,1.9742754325535563
4730.5,0.5493102787094206,0.5642986921530289,-0.5281568078900959,-1.1059543622726973,0.3770373228436172,1.5774310363918491,1.974262933080567
4730.534,0.5492654163007954,0.5492311788580085,-0.539828191878742,-1.1058745440104278,0.37699793822239247,1.562891021485865,1.9742586351702698
4730.567,0.54922838575606,0.5355329249939664,-0.5512383907120698,-1.105667776126401,0.37698572523065316,1.5500882694447242,1.974256104754503
4730.6,0.5490147001183014,0.5227092860584108,-0.5623354826580367,-1.1055519793210922,0.3769831391937383,1.540022204896314,1.9742501425646584
4730.633,0.5488927969296641,0.5111893884547392,-0.5726243476183019,-1.105518108618549,0.37699567966144815,1.533216139470466,1.9742465501937534
4730.667,0.5485587088526659,0.5004780904671813,-0.5824015694476989,-1.1055042141640485,0.37699365980095295,1.5293958720916443,1.9742352082257766
4730.7,0.548344146651808,0.49152196412636895,-0.5917395299412467,-1.1054349284898912,0.3769936598009533,1.528390904223948,1.9742325712512767
4730.734,0.5483426356300685,0.48369882343966053,-0.600617194836497,-1.1050844818282868,0.37698775973584914,1.5283856046994524,1.9742148159550026
4730.767,0.548345791955066,0.47648248819741346,-0.6091976331999018,-1.1048271387246702,0.3769789942948791,1.5283833667437234,1.974210244090918
4730.8,0.5484160459754202,0.4704173826557257,-0.6176024852826016,-1.1043843435807228,0.3769795144051548,1.528396374541638,1.974178831908263
4730.834,0.5484181944391682,0.46528623428300137,-0.6257054718969095,-1.103522454886806,0.37696444386648154,1.5284011480005772,1.9741406951389713
4730.867,0.5484102099504137,0.46098857693905987,-0.6344171567912844,-1.1023600723470608,0.3769598318710753,1.5284070353325248,1.9741008522757542
4730.9,0.548622101314276,0.4752868221253088,-0.5806507725471164,-1.1036314878111355,0.2676473652483793,1.531429708541511,1.896266656505123
4730.934,0.5458247170034856,0.4688014380401162,-0.5824765134865597,-1.10206566341971,0.2622388153801465,1.5310157586034183,1.8950706995388877
4730.967,0.5414615013250916,0.4647212749345657,-0.5765034679205225,-1.1005463007544494,0.23375696714088168,1.5317613675108754,1.8971330409235065
4731.0,0.5373942943698795,0.4623040422002953,-0.5652421853669889,-1.1000945301861371,0.2000212026208814,1.5320639248506884,1.9023953827539017
4731.034,0.5350842249499683,0.46116233180661315,-0.5526055240495324,-1.099871747704647,0.16723093861139215,1.532199525312814,1.9102222804867264
4731.067,0.5336955061095505,0.4605576664037363,-0.5388207052301448,-1.099790766918617,0.1330243922031107,1.5323014891603526,1.9197143549191686
4731.1,0.5327895078044547,0.46022925655905844,-0.5241995940807573,-1.0997619495672755,0.09785926783595311,1.5323308502341773,1.9309085374642088
4731.134,0.5321581340967247,0.4600887224851009,-0.5090179785755922,-1.0997426577653515,0.061920774481487584,1.5323300698816622,1.9432382093630594
4731.167,0.5316250920536731,0.4600501541775932,-0.4933629108968365,-1.0997312421633918,0.025307129954867058,1.5322713023967935,1.9563303094649687
4731.2,0.5311236537634034,0.4600556162677458,-0.47731797985372904,-1.099746414071891,-0.012005969830409136,1.532209165651282,1.9700194698053153
4731.234,0.5305558248217803,0.46008008923823596,-0.46077404578277825,-1.0997659661617192,-0.05013252152014669,1.5320250764869758,1.9842397285263402
4731.267,0.5300140502932855,0.4601542486234287,-0.44400267495621204,-1.099770282883786,-0.0885666409565724,1.531195980272562,1.998595050546081
4731.3,0.5294210453608992,0.4602363380204846,-0.42690030880586605,-1.0997745103677898,-0.12757221392871632,1.5295524169948669,2.0130631462690616
4731.334,0.5288245116407504,0.46032613875444195,-0.40954214373881026,-1.099787164389915,-0.16715278276574885,1.5270796886715745,2.027628080489837
4731.367,0.5281917892452972,0.46041704287798524,-0.39191815583436096,-1.099815654536636,-0.20695482752406935,1.5237302646987212,2.0421675791668275
4731.4,0.5275648764376148,0.4605308996233566,-0.3740247712728726,-1.099839254239943,-0.24725097923487827,1.5194556500135556,2.0567418835396403
4731.433,0.526897503025717,0.46065044631628727,-0.3557451592016321,-1.0998605209286225,-0.28812960073690785,1.5141877268170658,2.0713771193701476
4731.467,0.5262896284262171,0.46079043443454815,-0.3372985141088094,-1.0998915654804886,-0.3291340215813978,1.5080123224345021,2.085935564622794
4731.499,0.5256165430346353,0.46092304717193855,-0.3185167053026614,-1.099939902994313,-0.3705362248648054,1.5008843626918518,2.1004629073869356
4731.533,0.5249400099595842,0.4610800774771784,-0.2994120878808353,-1.099986682618395,-0.41240962047260865,1.4927556664485833,2.11499597024153
4731.566,0.524315467361645,0.4612620880138385,-0.2800804122656819,-1.1000363336512162,-0.4544338064912674,1.483722402020887,2.1294703575479
4731.601,0.5237038351817969,0.46145283607947274,-0.26049409843358795,-1.100094902362831,-0.49672651685144587,1.4737482691796107,2.1439035022911455
4731.634,0.5230641808956653,0.46164065578634883,-0.2405733888742505,-1.1001754570755722,-0.5394249225550141,1.462872561367142,2.1583636920785736
4731.667,0.5225107424322362,0.4618656638029677,-0.22049997373830976,-1.1002562649041119,-0.5821012753404551,1.4511992602765593,2.1727953311495867
4731.699,0.5219592133737976,0.46210920651584697,-0.20014427199048956,-1.1003367254142704,-0.6245808459786346,1.4386583270307778,2.1872055732710667
4731.734,0.5213947913198513,0.4623595070634767,-0.17960422730533754,-1.1004186671137726,-0.6651352657426468,1.425371008330531,2.201353840769464
4731.767,0.5208498919903315,0.4626038232603369,-0.15904283762571048,-1.1005138056061288,-0.7017762356828143,1.4115238611395968,2.215017813509572
4731.8,0.5202504938954196,0.4628541841574787,-0.13837173610868714,-1.1005864709208764,-0.7328831228801747,1.3970748257958423,2.228125929208172
4731.834,0.5195912670584963,0.46309767599677176,-0.11757596584781904,-1.1006413527051215,-0.757050619974355,1.3821627809064543,2.2407327165615545
4731.867,0.5474197852149192,0.4251767262463862,-0.7579756599488868,-1.0589398589189105,0.3769708920253648,1.5287306007525143,1.9740940636257296
4731.9,0.5474283039113573,0.4251766463980254,-0.7579724412989735,-1.0589526656301396,0.37697089221217983,1.5287330328895539,1.9740953464194846
4731.934,0.5473925779282679,0.42517602340401556,-0.7579813087351159,-1.0589554496777855,0.3769687690028554,1.528730446822874,1.974086143109425
4731.967,0.5473830007015609,0.4251788071206246,-0.7579919250838021,-1.0589554496898983,0.3769667203588424,1.5287330918444524,1.9740948798299622
4731.999,0.5474045939909803,0.42517880712057415,-0.7579916894557551,-1.0589526656301396,0.37696668037807346,1.5287353298001818,1.9740936972585297
4732.034,0.5474056712559631,0.42518131277435706,-0.7579830964507164,-1.0589476543225738,0.3769677437146355,1.5287330933404815,1.9740897966522544
4732.067,0.5473996793771522,0.42517389716181814,-0.7579837993711059,-1.0589501599763567,0.3769698900672271,1.5287330968168806,1.9740929907264813
4732.101,0.5474077531507141,0.42517588510302273,-0.7579859186473646,-1.0589553702170387,0.3769658839803027,1.5287341826087455,1.9740937736311255
4732.133,0.5474024634487996,0.4251805953928023,-0.7579834549887159,-1.0589554231626064,0.3769666765018615,1.5287375677559112,1.9740990886487833
4732.166,0.5473916114464903,0.4251787282595664,-0.7579894630589,-1.0589526656301396,0.37696581328645734,1.5287365701212294,1.9740897570213871
4732.2,0.5473915090236747,0.42517891424999843,-0.7579863185576717,-1.0589604609974648,0.37696895978782696,1.5287332130220943,1.9740957630837834
4732.233,0.5473862193100775,0.4251804871639326,-0.7579919338643729,-1.0589579553436814,0.3769666759962052,1.5287353342760053,1.9740875102343174
4732.267,0.5473940146771955,0.4251780854741005,-0.7579834933787462,-1.0589554497020113,0.3769666891545445,1.5287332130772981,1.9740925827026183
4732.299,0.5473915090236928,0.4251814442193811,-0.7579908906150404,-1.0589604609974643,0.37696682672391635,1.5287363502408176,1.9740893357805065
4732.334,0.5473962819124,0.42517915629144254,-0.7579864893633005,-1.0589629666472096,0.3769688913235788,1.5287331320714586,1.9740886761470835
4732.367,0.547399382391878,0.42517821249148624,-0.7579865547954319,-1.058960460997464,0.37696786079668787,1.528733179682812,1.9740991660348004
4732.4,0.547392211037969,0.42518344002927855,-0.75798369439045,-1.0589629666512637,0.37696667599647404,1.5287352719958622,1.9740980671605612
4732.435,0.5473833288527747,0.4251735428453189,-0.7579923533656242,-1.0589604609988101,0.3769670333608865,1.5287319744118864,1.9740859719238035
4732.467,0.5473993014466829,0.42516782290475424,-0.7579894576992905,-1.0589501599763569,0.37696887951401203,1.5287330607069662,1.9740894516863206
4732.5,0.547402229433048,0.4251643292399346,-0.7579866734926807,-1.058946939054275,0.37696979047994855,1.528734178194268,1.974096262895497
4732.534,0.547378068573661,0.4251618499964998,-0.7579972530665652,-1.0589473805827072,0.3769677107943839,1.5287319730873379,1.974097292494572
4732.567,0.5473719603187553,0.42515375790130056,-0.7580059887003449,-1.058942125063802,0.3769647478388812,1.528731986293995,1.9740880911245628
4732.6,0.5473850717220388,0.4251401908235968,-0.7580045829532553,-1.0589392254734138,0.376968964283632,1.528737470717848,1.9740885703560802
4732.634,0.5473769979487562,0.4251310065048535,-0.7580068494144238,-1.0589356601391617,0.37696672138801957,1.5287402494851465,1.974098040163736
4732.667,0.5473719866401273,0.4251220850609905,-0.7580093550682067,-1.0589309160038702,0.3769677442734598,1.5287413363589182,1.9740915770053329
4732.699,0.547382287698619,0.42511890528523694,-0.7580123741300292,-1.058933155762935,0.3769691172283728,1.528739096858119,1.9740925028495262
4732.734,0.5473882595044294,0.425121401866277,-0.758010395416343,-1.0589327204308367,0.37696679495190943,1.5287402173810536,1.9740837869559305
4732.767,0.5473845438080153,0.4251239075200599,-0.7580145688737554,-1.05892519169523,0.3769682163092693,1.5287402173810536,1.9740894370974131
4732.8,0.5473797834634129,0.4251181456313977,-0.7580125137933867,-1.0589299645842167,0.3769689594166343,1.528739098403189,1.9740950455890947
4732.836,0.5473797820084992,0.425112893518068,-0.758010008460548,-1.058925514915397,0.3769658005023702,1.5287402173810536,1.97409908477265
4732.867,0.547385071722039,0.42511567756167623,-0.758007502806814,-1.0589268907336031,0.3769693147259215,1.528739098403189,1.9740914608148334
4732.9,0.5473873057928825,0.4251234729290008,-0.7580125141143798,-1.0589323667838058,0.37696931471987766,1.5287402173810536,1.9740958927424455
4732.934,0.5473855028810484,0.42511567756167623,-0.7580152981741386,-1.0589276871963682,0.3769647451670775,1.5287402173808264,1.9740895702635697
4732.967,0.5423062204762674,0.4246778481917035,-0.6936071667283104,-1.0588377115804875,0.2542069847296524,1.528663722410868,2.0641947700329695
4733.0,0.5361132113930553,0.42303148346778574,-0.6819560335145054,-1.0585946431731719,0.2397314362452292,1.5287986856947189,2.0719343803636825
4733.034,0.5295519601043752,0.421258025706023,-0.6637643915424833,-1.0583876248099342,0.2021661822972316,1.5288078854330545,2.0905143151756818
4733.067,0.5263492910867678,0.4205820871578547,-0.6478653168981889,-1.0585893370188195,0.1671453727070027,1.5291465547704846,2.1107057212712945
4733.099,0.52032070809957,0.4198166996907453,-0.625574541744629,-1.0583603734366704,0.12669585839204522,1.5288507856334235,2.138152507610439
4733.134,0.5182946513694286,0.41971565651210874,-0.6068299123892897,-1.058739828878922,0.08762656115671597,1.529253337848326,2.163089673045299
4733.167,0.5148057253445106,0.4195401144133779,-0.5854472111554649,-1.0588182232778198,0.04721152412219709,1.5292778126931754,2.1898177533310967
4733.2,0.5118360462435172,0.4195128549375351,-0.5638854794661317,-1.058979099240144,0.006053315399246806,1.5290110156169847,2.2171185783023617
4733.234,0.5069881181852525,0.41933633223518196,-0.5396768544765687,-1.0587815076555964,-0.03646637045994616,1.5273761701410589,2.246291955371799
4733.267,0.5053103949187356,0.4196147608799583,-0.5181101845528264,-1.0591058057022913,-0.0796963296718971,1.5257004697066803,2.2745187867568752
4733.299,0.5021641075117751,0.41972920440844597,-0.4948721710759303,-1.0592409132227232,-0.12322005903598843,1.5225274614537874,2.3037175622266695
