yuan18844-afk/dissertation/catkin_ws/src/franka_digital_twin/analysis/data/gazebo_fast1_20250728_070807.csv
time,panda_joint1,panda_joint2,panda_joint3,panda_joint4,panda_joint5,panda_joint6,panda_joint7
28.167,0.42489938325481624,0.879421437788487,-0.07324021395235558,-1.3927173431094975,-0.029081874148346287,2.5731045293831034,2.479570794669698
28.2,0.42482531066592344,0.8794299944273387,-0.07318886203043995,-1.3926185691754505,-0.040394876376790734,2.5728283334736055,2.5044746100580575
28.234,0.42490467051903824,0.8794184019849984,-0.07325689580579908,-1.392701317030136,-0.05025134287674593,2.5731321508383562,2.5275610960446286
28.266,0.4248296211679019,0.8794225190992648,-0.07320770542514943,-1.3925993406472372,-0.061397912529824517,2.572823513907668,2.5555054614270265
28.299,0.4248230157720423,0.8794108132351459,-0.07320257263818153,-1.3926072459358405,-0.0720505465071053,2.5728455023432204,2.5834901061163134
28.334,0.42481645263156675,0.8794017015555671,-0.07320521619583076,-1.3925890679015325,-0.08307839649299087,2.5727831350847126,2.613850588575456
28.366,0.424812192927674,0.8794139925869144,-0.07320186537697193,-1.3925605384371904,-0.09412945858086452,2.572740491490258,2.645044215542807
28.4,0.4247894929112688,0.8794039947172978,-0.07318170573095006,-1.3925493159391014,-0.1053497203375251,2.572685923144739,2.677430937610458
28.433,0.42485965046014407,0.8793992582031951,-0.07324645798094132,-1.3926172389016962,-0.1162683564436966,2.572971993110837,2.7099773595853414
28.467,0.42478015009833037,0.8793912519521747,-0.07318400008969839,-1.3925282510174757,-0.12866868353826177,2.5726222839339172,2.747052164884277
28.499,0.42484292375041477,0.8793837690011177,-0.07324032123448365,-1.3926138584815169,-0.13992304713012693,2.5729781121251865,2.7817887881755574
28.534,0.42516847511759975,0.8795450710264111,-0.07307471123808308,-1.392805437680727,0.07280070331692695,2.5730956606997384,2.322875131911167
28.567,0.42516596946381685,0.8795428254816592,-0.07307220850729891,-1.3928129949569683,0.07280070331692695,2.5730978986554676,2.322871876683914
28.599,0.42516596946381685,0.8795478551213912,-0.07306942152454203,-1.3928132333715098,0.07280172056953112,2.5730956606997384,2.3228740129144603
28.633,0.42516318540405806,0.879545074983696,-0.0730722055847457,-1.3928132333755492,0.07279978778958321,2.5730978986554702,2.3228740174993465
28.667,0.42516596946381685,0.8795457759255968,-0.07307471123808308,-1.392813206884596,0.07280273782213528,2.5730978986554676,2.3228663835198513
28.7,0.4253061035166006,0.8796390061934893,-0.07290468835232033,-1.3927277372838693,0.011451350144628059,2.5728498453666617,2.45623460988816
28.734,0.4251606797502752,0.8795451490376732,-0.07306942152587795,-1.3928107277217499,0.07280070331692695,2.5730978986554702,2.322875132061828
28.767,0.42516596946381685,0.8795503867861253,-0.0730722055843008,-1.3928107277204205,0.07280070331692695,2.573099017633332,2.322875897656988
28.799,0.42452669181694613,0.8792066562265903,-0.07340097558117709,-1.392567811144299,0.019666722566676675,2.5729579616336533,2.4502426546699247
28.834,0.4243837187693762,0.8791851552111067,-0.07343100784202683,-1.392486898111482,0.016741835105307246,2.5728568807637533,2.456229266071354
28.867,0.42418218830006804,0.8791088817040853,-0.07357034709686872,-1.3924325571755256,0.004451903884588049,2.572843115496344,2.4783164782144027
28.9,0.424063054683681,0.8790599340907583,-0.07361239957467092,-1.3923946081911822,-0.007364011987550434,2.572798518072883,2.5048557350373226
28.934,0.4240696174274934,0.8790305754712797,-0.07369890662377099,-1.392435126388035,-0.019213456608241586,2.5730264262516958,2.5356241786197042
28.967,0.423983231563537,0.8790193144880272,-0.07368482732237336,-1.392350008983053,-0.03183081610219407,2.57278785320314,2.5705445699383205
28.999,0.42401449441164196,0.8789850686316871,-0.07373206766047957,-1.3924222354014049,-0.04411135863537741,2.5730265022629126,2.6050835540215065
29.033,0.4240141939398825,0.8789867799519868,-0.0737555307968707,-1.3924166539495584,-0.05682823052606256,2.573080277914059,2.6423509052795406
29.067,0.42516847511759975,0.8795450710246437,-0.0730724423471947,-1.392807862880936,0.07280172056953112,2.5730978986554676,2.322876250869698
29.1,0.42516318540405806,0.879540062606009,-0.07307220558563672,-1.3928132333742034,0.07280172056953112,2.5730964264648932,2.3228674007724557
29.133,0.42516318540405806,0.8795450970264975,-0.07307223578862006,-1.3928107247657655,0.07280070331692695,2.5730978986554676,2.322875131892247
29.167,0.4251606797502752,0.8795450719880631,-0.07307220558430019,-1.3928107277213178,0.07280172056953112,2.573096779677603,2.3228707577060494
29.2,0.42516596946381685,0.879547856047396,-0.07307473754507135,-1.392807942680861,0.07280070331692695,2.5730978986554676,2.3228728954089104
29.233,0.42535058027945993,0.8796399402320665,-0.07296046784139865,-1.3928567198921336,0.01685646694391174,2.573119444501632,2.424780212603215
29.268,0.42518206160100736,0.8795657082426214,-0.07309718368955931,-1.3927562829567401,0.02216316034142274,2.5731196607588984,2.397863918267067
29.299,0.4247113397538449,0.8793477789428499,-0.0733365294930799,-1.3925970982016604,0.007846925137037886,2.5730343689589983,2.4351624734210056
29.333,0.4246671532236377,0.8793068958462298,-0.07340153638746472,-1.3926540347156857,0.0006987275152221528,2.5731906877851234,2.4275858260275225
29.366,0.4245922491585219,0.8792758466487047,-0.07344522611299453,-1.392636784837797,-0.010276000246120631,2.573206049791281,2.4325443011032313
29.399,0.42516596946381685,0.8795450710246455,-0.07307220558430019,-1.3928132333737548,0.07280070331692695,2.573100132250546,2.3228730175609664
29.434,0.424915198086123,0.8793434005691401,-0.07337802473466937,-1.3928413381421105,-0.01823306801447533,2.573384996381577,2.4410398914613083
29.467,0.42516596946381685,0.8795450714539708,-0.07306691587075853,-1.392813232394403,0.07279877054029041,2.573096740431746,2.3228728939932775
29.5,0.4252108391250511,0.8795119939829616,-0.07308932011432656,-1.3928608923013783,-0.007215289490898336,2.57311294339652,2.4373110875252184
29.534,0.42516596946381685,0.8795480890879701,-0.07307220558430019,-1.3928107273947155,0.07280070331692695,2.573094541721874,2.322872893936518
29.567,0.425324171451992,0.8795422429875224,-0.07309960033313967,-1.3929282313596136,-0.0007485326371368117,2.5733003633913842,2.4322890319556976
29.6,0.42516596946381685,0.8795425653708616,-0.07306942249887431,-1.3928106482489067,0.07280172056953112,2.5730978986016324,2.3228740129143826
29.634,0.42529651291540205,0.8795536940955699,-0.0730274410207361,-1.3928912601058343,0.00511257016706157,2.573071060226855,2.4281195893013603
29.667,0.4251603849936787,0.8795351587180686,-0.073101155493978,-1.3927989495293707,0.0034392383424366457,2.573198533081987,2.4346070260887984
29.699,0.42516596946381685,0.8795446715086567,-0.07307220558430018,-1.3928132303957712,0.07280172056953112,2.5730978986554676,2.3228688906236656
29.734,0.42516596946381685,0.8795480920124196,-0.07307220558430019,-1.3928132333751007,0.07280172056953112,2.573097839315732,2.3228667532158127
29.767,0.4251737648321871,0.8795407617292468,-0.07306691587224357,-1.392815496686101,0.07279877054029041,2.5730979001090177,2.3228674007724557
29.8,0.42516596946381685,0.8795400626060633,-0.07307220558430025,-1.3928079348316877,0.07280070331692695,2.573096779677603,2.3228773697937273
29.834,0.42516596946381685,0.8795450713575742,-0.07306942152856997,-1.3928125151642599,0.07280070331692695,2.5730978986554676,2.3228719529778847
29.867,0.4252414941931981,0.8795548181506385,-0.07306969065254165,-1.392845883679219,0.030854458269562457,2.573190258016705,2.3604143247636635
29.901,0.4248890577376816,0.8794557625517943,-0.07315920211629034,-1.3926748984490587,0.023640271795660972,2.5729636916026823,2.3711220510368687
29.934,0.42467007471618246,0.8793382308358764,-0.07331114615203482,-1.3926286786053756,0.011283434924857616,2.5729545602198023,2.390791693909801
29.967,0.42455280857862476,0.8792965774137373,-0.07338255036024321,-1.3925707340733267,-0.0010847266275648693,2.5729214154104127,2.4155389697368133
30.0,0.42446915445128486,0.8792568152769364,-0.07340226220668455,-1.3925402934275386,-0.01370193081333948,2.5728777137090333,2.4447514495657927
30.034,0.4251714953883582,0.879545071026405,-0.07306691587075861,-1.3928107276127502,0.07280273782213528,2.5730947197410794,2.3228718812814395
30.067,0.4251606797502752,0.8795451490271047,-0.07306942152454142,-1.392813206884596,0.07279978778958321,2.5730956606997384,2.322872930784017
30.1,0.4251659694518106,0.8795425916926789,-0.0730695033686553,-1.392810727721761,0.07279877054029041,2.573099017633332,2.3228795198140073
30.134,0.42516847511759975,0.8795435043131178,-0.07306942152454142,-1.392813233266533,0.07280273782213528,2.5730978986554676,2.3228707714421777
30.167,0.42516596946381685,0.8795425653713029,-0.07307220558563672,-1.3928132333755492,0.07279978778958321,2.573096779677603,2.3228674007724557
30.2,0.4251684751174461,0.8795421686369379,-0.07307220558430019,-1.392813233375348,0.07280070331692695,2.573096779677603,2.322875131892247
30.234,0.42516847511759975,0.8795450710246437,-0.07306942152453591,-1.3928132333755492,0.07280070331692695,2.573096779677603,2.3228818203277055
30.267,0.4251659694633724,0.8795432673815673,-0.0730724423471947,-1.3928107277213178,0.07280172056953112,2.5730978986554676,2.3228774110557118
30.299,0.42516847511759975,0.879542565406967,-0.07306942152454081,-1.3928107188913987,0.07279978778958321,2.5730978986554676,2.3228707577060494
30.335,0.42516318540405806,0.8795446714135315,-0.07307220558430018,-1.3928132333755492,0.07280070331692695,2.573096779677603,2.322875131892945
30.371,0.42516070599594186,0.8795450710365323,-0.07307471123808307,-1.3928132333751007,0.07279978778958321,2.573099017633332,2.3228696387281857
30.4,0.42506790706685127,0.8794976235326102,-0.07317465769263354,-1.3928109931885704,0.03458143783978773,2.573212492584009,2.4372070759198294
30.434,0.42516847511759975,0.8795499614361769,-0.0730694215245414,-1.392815739029332,0.07279978778958321,2.5730956606997384,2.322878488825427
30.468,0.425026055726784,0.8794676807930699,-0.07320949437395718,-1.392845264356862,0.026684105986639395,2.573268609088375,2.445106467188868
30.501,0.42496599146272906,0.8795074167451009,-0.07311478817710704,-1.3927255494050055,0.023965539756340526,2.572969427655069,2.446452959490367
30.534,0.42516596946381685,0.879545074248217,-0.07307479113338082,-1.3928125181198066,0.07279877054029041,2.573096779677603,2.3228685197691883
30.567,0.42516318540405806,0.8795451750261656,-0.07306691587075853,-1.3928107277217499,0.07279978778958321,2.5730978986554676,2.322867496139896
30.6,0.4252958156029196,0.8796562054737525,-0.07293260280160752,-1.3928433235784885,0.02475496746641337,2.572968929896261,2.406131824621747
30.634,0.425096543341537,0.87957717050217,-0.07303571611817095,-1.3927204013924523,0.017639480101586003,2.5729016189612413,2.415030692956078
30.667,0.42493116148686294,0.8794932588995259,-0.07314690913501032,-1.392661863164169,0.0055438677918271395,2.572884312499081,2.441047103101173
30.7,0.42516596946381685,0.8795451490259305,-0.07306691597901774,-1.3928132333755474,0.07280070331692695,2.573096779677603,2.322869638728185
30.734,0.42516318540405806,0.8795425653709097,-0.07307220558430019,-1.3928029235241075,0.07280070331692695,2.5730978986554676,2.3228718771926564
30.767,0.42516318540405806,0.8795446717703365,-0.07307155239059214,-1.3928079436620056,0.07279978778958321,2.573096779677603,2.3228697623526333
30.8,0.4255319452279531,0.8797144752095853,-0.07286725341857192,-1.3928987927941687,0.023116990195721776,2.57315863172726,2.417842734600711
30.834,0.42516596946381685,0.8795460157090973,-0.07307471122605427,-1.3928125181198119,0.07280070331692695,2.573096779677603,2.322872893936518
30.868,0.4252866111143687,0.8796116407908432,-0.07296917807750258,-1.3928063954830483,0.02217303097501233,2.5729920788564957,2.4231924029164347
30.9,0.42516847511759975,0.8795428282650599,-0.07307220558431668,-1.3928085818078535,0.07280070331692695,2.573100136611197,2.322872000308371
30.934,0.4251631854040587,0.8795479571738748,-0.07306942152454142,-1.392815739029332,0.07280172056953112,2.573096779677603,2.32287625088854
30.967,0.42516847511759975,0.8795474113798873,-0.07307217927731191,-1.3928100124619915,0.07279978778958321,2.573096779677603,2.3228718766839136
31.0,0.42516318540405806,0.8795432674172278,-0.07307220558430018,-1.3928106999226162,0.07280172056953112,2.573097900109017,2.322875131892247
31.034,0.42516318540405806,0.8795432674287248,-0.0730694215245414,-1.3928132333755492,0.07280172056953112,2.573096779677603,2.3228773698475624
31.067,0.42516596946381685,0.8795428282812541,-0.07307196882140567,-1.3928132333392047,0.07280172056953112,2.573097898655763,2.322875131892325
31.1,0.42516847511759975,0.8795478814176634,-0.07306944783152969,-1.3928057978947954,0.07280172056953112,2.5730978986554676,2.3228739998882926
31.134,0.42517125917735854,0.8795457818562497,-0.07307220558430019,-1.3928132333755487,0.07280172056953112,2.573096779677603,2.322871918425929
31.167,0.4250604097431099,0.879493449511421,-0.07310951035087854,-1.392741130622074,0.03498585961570466,2.572990965288877,2.3815942624504807
31.2,0.4250347774486656,0.8795014249489395,-0.07310378439964982,-1.392711088206429,0.03406040735433091,2.5729493045323686,2.393864273574099
31.234,0.42481740691419656,0.8794150812032981,-0.07320855892154121,-1.3926632309942555,0.02213435026073185,2.5729263185033595,2.419949853088106
31.267,0.42476508501885224,0.8793826715762307,-0.07324801480645604,-1.3926394667756492,0.012425859998367095,2.572888734890789,2.446362478429492
31.3,0.42472752356323795,0.8793699663876327,-0.07325668576048905,-1.3926215970711926,0.001387034257559705,2.572850058919684,2.476474722345859
31.334,0.4247139030148084,0.8793780658657262,-0.07326363906547684,-1.392592858167597,-0.009164273371296439,2.5728110801575497,2.5060380300003864
31.367,0.42475331726523446,0.8793480127999462,-0.07330200010047694,-1.3926672822840924,-0.01960603884000367,2.5730314136859036,2.5367560963378626
31.401,0.42475430401004566,0.8793597356879248,-0.07331277081952958,-1.3926481951614678,-0.03039913051150389,2.5730395354820654,2.5691042539161444
31.434,0.4246895326586495,0.8793445320357165,-0.07327797181742124,-1.3925878949455521,-0.042411727278715006,2.5727943748666355,2.6051375845904055
31.467,0.42474928271084256,0.8793309152318427,-0.07332645604977372,-1.3926654056201109,-0.05264658190564209,2.573081740369199,2.6369238955309253
31.499,0.4247543506084357,0.8793412417069648,-0.07333422826088754,-1.3926530021300279,-0.0638991878250268,2.573089757249207,2.6722097962088753
31.534,0.42475209824096893,0.8793287273219388,-0.07333242521851524,-1.392669995044339,-0.07519143798887118,2.5731439343967004,2.7076418697612255
31.566,0.4247652297406157,0.8793153687844253,-0.07334858154190638,-1.3926850787190181,-0.08656265770166982,2.573185336110008,2.7439805422019194
31.599,0.4246999462776033,0.8793285304601852,-0.07329672332055903,-1.392594615112734,-0.09914508715677517,2.5728922405969605,2.7841201976202683
31.634,0.4247006271730571,0.8793148785536822,-0.07330404042658945,-1.3925950844349186,-0.11098725288796363,2.572870905050662,2.8221251605429423
31.667,0.42469565366380824,0.8793272098880589,-0.07329918001268876,-1.3925626915917366,-0.1230059571755131,2.5728083782499205,2.8611692496598273
31.699,0.42516596946381685,0.8795424008688091,-0.07306413181099976,-1.3928104098303276,0.0727997877895832,2.5730978986554676,2.3228751319110894
31.734,0.4251606797502752,0.8795428080410744,-0.07306942152454142,-1.3928182446467596,0.0728017205695311,2.573096779677603,2.3228777544569574
31.766,0.4263893151077376,0.8802843315788991,-0.07222145993782192,-1.3931304298085543,-0.04006104923620413,2.5727815642825878,2.673230587178276
31.799,0.42575350221949115,0.8800189392059536,-0.0725406478367212,-1.3927477644414115,-0.03299068102428038,2.5726290912535656,2.6344430115668924
31.834,0.4251384215093825,0.87963561271083,-0.07296113263328508,-1.3926080685158375,-0.046040235255976114,2.5726507316716294,2.6639952679335455
31.867,0.4248341103439994,0.8794750919155288,-0.0731102242210735,-1.3925100941982986,-0.05716656143242371,2.572602781104621,2.696034257125259
31.9,0.42468685149703767,0.8793893350450679,-0.07319935031808011,-1.392463201066013,-0.06880432534604441,2.5725509149858024,2.7299282915281715
31.933,0.4246101525387509,0.8793643537859408,-0.07324291984474307,-1.3924153950549787,-0.08073156559260397,2.572500447988112,2.7651584053302987
31.967,0.42462034476094956,0.8793172428808669,-0.07330544179426557,-1.3924923735982153,-0.09247520380344554,2.5727815231750526,2.801040991546637
31.999,0.42460946151314705,0.8793158685361151,-0.07333591445741838,-1.392481625282489,-0.10468676565844337,2.572829358888825,2.8384634112437634
32.034,0.4245947251747264,0.8792964581252729,-0.07334413840820808,-1.3924949699518159,-0.11711933102081762,2.572891888887284,2.877148446555328
32.067,0.4246716772454917,0.8793297554302413,-0.07327365859022095,-1.3925388952467284,-0.1249203062557962,2.572794904126056,2.897318592517669
32.1,0.4247942392634183,0.879422728749133,-0.07318172008180657,-1.3925638441886727,-0.1277475346129764,2.5727942866217184,2.897300098183102
32.134,0.4248725369112405,0.8794565155241196,-0.07314601211309402,-1.392591683553551,-0.13004358705980312,2.572789133029662,2.897300060426213
32.167,0.42491619457577556,0.8794922475522231,-0.07310860691124876,-1.3925994379164308,-0.13185622854035906,2.572791692373613,2.8973000941201956
32.2,0.42516318540405806,0.8795450720232866,-0.07307471123808308,-1.3928076964131106,0.0728017205695311,2.5730978986554676,2.322875131892247
32.235,0.42516596946381685,0.8795425663378007,-0.07307220558430019,-1.392813206884596,0.0727997877895832,2.5730978986554676,2.322870757706127
32.267,0.42517125917735854,0.8795425682597919,-0.07307013181322498,-1.3928157390172193,0.0728017205695311,2.573096779677603,2.322874013423125
32.3,0.42516596946381685,0.8795474110632981,-0.0730722055847457,-1.3928079436606615,0.0728017205695311,2.5730978986554676,2.322876374494147
32.334,0.42516596946381685,0.8795478580089996,-0.07306942152468991,-1.3928107277217645,0.0727997877895832,2.573096779677603,2.3228740129143817
32.366,0.42516318540405806,0.8795479330908266,-0.07307220558430019,-1.3928079348312405,0.0728017205695311,2.573096779677603,2.322869638728883
32.399,0.42516318540405806,0.8795472550566148,-0.0730722055843008,-1.3928107273905082,0.0727997877895832,2.5730978986554676,2.3228674022986833
32.433,0.42516596946381685,0.8795450970369123,-0.07307220558830979,-1.3928107188914265,0.0727997877895832,2.5730978986554676,2.322874072238276
32.466,0.42516318540405806,0.8795450711316901,-0.07307014058222108,-1.3928107277217645,0.07280070331692694,2.573099017633332,2.322878488825427
32.499,0.42516596946381685,0.8795400597527437,-0.07306942184931904,-1.3928079082316704,0.0728017205695311,2.573099017633332,2.3228696388977657
32.533,0.42516596946381685,0.8795499871155645,-0.07306942119976378,-1.39281072674062,0.07280070331893018,2.573096779677603,2.322874014442704
32.566,0.42467478567562367,0.8793202170292851,-0.07334269000018345,-1.3926516704543275,0.035496753708819995,2.5730194258002523,2.2884759557160983
32.599,0.4248037859850209,0.8794042316749193,-0.07324157644888007,-1.3926490235230826,0.034392483531296314,2.572971904627906,2.2814449390468887
32.633,0.4246726528746274,0.8793533380407714,-0.07329457036803788,-1.3926176733754847,0.022237439009565207,2.5729501843999234,2.29065418315953
32.667,0.42471684498557405,0.8793411736350549,-0.0733630734696602,-1.3926510120859872,0.01256883090228822,2.573127347478927,2.301269994625974
32.699,0.4246307541631591,0.8793183907921032,-0.07332683558046149,-1.392584120149217,0.0008928860026253815,2.572920782212071,2.319678101820992
32.733,0.4246299328091139,0.8793247822743435,-0.07334120155575796,-1.3925609612537269,-0.009927286379814326,2.5729245044586744,2.3385107867511206
32.766,0.42467062404834266,0.879293858434596,-0.07337921215831589,-1.3926251881223646,-0.020802170428050992,2.5731004030527416,2.3594250823933915
32.799,0.4246761852026619,0.8793017017982034,-0.07339461002637471,-1.3926067305221945,-0.03203347297184678,2.573122940880138,2.3842854987993256
32.833,0.4246701950493694,0.8792847614780595,-0.07339492996837649,-1.3926182147285786,-0.04347350564165087,2.5731640791312085,2.4111353011027497
32.866,0.42468293254030787,0.8792685711298054,-0.07341337686513416,-1.392627916746263,-0.05499610119992404,2.573198158685969,2.4405071763324635
32.899,0.42469750413293816,0.8792762501337101,-0.0734295045013571,-1.392623994610668,-0.06662949482111546,2.573247897801819,2.4710979014981884
32.933,0.4246937025817621,0.8792613997563397,-0.0734272555975144,-1.3926357931865372,-0.0785082995360904,2.5732890147362006,2.5038720981534244
32.966,0.42470950958807396,0.8792468513251359,-0.07344405707404444,-1.3926501830796205,-0.09037263358350689,2.573328826838555,2.537585128871667
33.0,0.4246497614531215,0.879249867398916,-0.0733997181466508,-1.3925713823363353,-0.1027606856108827,2.5730791406400826,2.573264897723595
33.034,0.42465389333183623,0.8792591207253215,-0.07340219900685963,-1.3925495936724577,-0.11504850527499144,2.5730530942638072,2.609395836732528
33.067,0.424633533196098,0.8792509138194937,-0.07337767659695782,-1.3925342848793187,-0.12741132624726959,2.572991027724875,2.646485510870292
33.1,0.42470386311129005,0.8792449016879473,-0.07344192760487012,-1.3926018306161474,-0.13955910561258023,2.5732681371575303,2.6838223917648953
33.134,0.42469531182975473,0.879232064441565,-0.07343880397531599,-1.392610278862099,-0.15217105928226005,2.5733050200658987,2.7226758981392827
33.167,0.4247084428362271,0.8792159460490785,-0.07345788460340863,-1.3926282103404857,-0.1648360874745185,2.5733565199070014,2.7621448702998066
33.2,0.4247250231766797,0.8792234765490221,-0.07347813506460188,-1.3926292946497485,-0.17763219267094232,2.573421728792077,2.802229715405117
33.233,0.42472463307643427,0.8792099176727541,-0.07347907910548557,-1.392645757271973,-0.19062867646565262,2.5734834903699824,2.8431919901777363
33.266,0.42474073111674215,0.8791942799863728,-0.07349804430762585,-1.392664206626474,-0.20369298785564105,2.5735397765031056,2.8847084088021777
33.3,0.42484572423185973,0.8792847655986282,-0.07339683495322191,-1.3927050597105124,-0.21025247780315404,2.573437426198243,2.8973163711019865
33.334,0.42495379005461054,0.8793667831061356,-0.07331405092735288,-1.392744233821193,-0.21316479201016847,2.5734377229580563,2.897300149276086
33.367,0.425030197299046,0.8794066646279983,-0.07328009366148613,-1.3927746856944232,-0.2155079494255432,2.5734334927034084,2.8973001098025435
33.399,0.42508128354198593,0.8794524348890329,-0.07325571032987455,-1.3927769211582959,-0.21724862366612463,2.5734314634868696,2.897300150344506
33.433,0.42510494422271705,0.8794678332237194,-0.07322715994107654,-1.3927906261280425,-0.21857959195183874,2.573433710222133,2.897300145426591
33.467,0.42516847511759975,0.879542565692294,-0.07306691587061002,-1.392810012466029,0.07279978778958321,2.573096775316952,2.3228696407624905
33.5,0.4251606797502752,0.8795425653708608,-0.0730694215245414,-1.392813233375383,0.07279978778958321,2.5730978986554676,2.322877369853843
33.534,0.42517125917735854,0.8795425654778583,-0.07306942249887433,-1.3928107272857013,0.07279978778958321,2.5730978986554676,2.322880701349841
33.567,0.42516596946381685,0.8795450800128697,-0.07306691587075669,-1.3928107276854276,0.07279978778958321,2.573097898655443,2.3228707578758887
33.6,0.42516596946381685,0.8795479330855444,-0.0730694215245414,-1.3928079436620073,0.07280070331692695,2.5730978986554676,2.322875131892247
33.633,0.42516596946381685,0.8795451499887608,-0.07307220558430039,-1.3928078666867043,0.07279978778958321,2.573096779677603,2.3228740129143866
33.667,0.4248828632456343,0.8793428408497741,-0.07314580279402705,-1.392596395680508,0.015016932673121985,2.572935206880995,2.400922719092904
33.7,0.42516847511759975,0.8795478550844025,-0.07306942152855102,-1.3928100124658795,0.07280070331692695,2.573098839614126,2.3228762552868756
33.734,0.42516596946381685,0.8795451490258496,-0.07307220558430019,-1.3928124386469523,0.07280070331692695,2.5730978986554676,2.322875131892247
33.766,0.4251581740964923,0.8795450970250237,-0.07306691587075853,-1.3928054380082244,0.07279877200065417,2.5730978986554676,2.3228773699040905
33.8,0.42516318540405806,0.8795450710246437,-0.07307220558430019,-1.3928106482489067,0.07280070477729071,2.573094541721874,2.3228707577060503
33.831,0.4251606797502752,0.8795425913832762,-0.07307220558430019,-1.3928132333753998,0.07280172056953112,2.573096784038254,2.322868519750321
33.867,0.42516596946381685,0.8795426003590265,-0.07307220558430019,-1.3928110872771013,0.07280172056953112,2.573099017633332,2.322875131892247
33.899,0.42516318540405806,0.8795499611271383,-0.07307220558415169,-1.3928132333755492,0.07280070331692695,2.573099017633332,2.3228784888252054
33.933,0.4251659694624834,0.8795457733558977,-0.07306942184931904,-1.3928054350647852,0.07280172056953112,2.5730956606997384,2.3228718636208043
33.967,0.42516318540405806,0.8795425654782986,-0.07307471123808308,-1.392804484333908,0.07279978778958321,2.573099017633332,2.3228728959903306
34.0,0.42516318540405806,0.87954785508485,-0.07307220558430019,-1.3928079407145286,0.07280070331692695,2.5730956606997384,2.3228762377877468
34.034,0.4251606797502752,0.8795478810971277,-0.07307220558430019,-1.3928132333755492,0.07280070331692695,2.5730967840402474,2.322872893936518
34.067,0.42516318540405806,0.8795471770673633,-0.07306942152454142,-1.3928150236645787,0.07280172056953112,2.5730978986554676,2.3228674008296806
34.1,0.4251659694636687,0.8795478550848428,-0.07306942152454142,-1.392805198608499,0.07280070331692695,2.573097898655246,2.3228751334750797
34.134,0.42516596946381685,0.8795425653708608,-0.07307220558430019,-1.3928157390293248,0.07279978778958321,2.5730978986554676,2.3228707577060494
34.167,0.42516318540405806,0.8795471887181532,-0.07306942152454142,-1.3928079435529905,0.07280172056953112,2.5730979379013217,2.3228685197503123
34.2,0.42517125917735854,0.8795425664408407,-0.07307221435329628,-1.392807943661991,0.07279978778958321,2.5730967796773814,2.3228696387288825
34.234,0.42516596946381685,0.8795457759277984,-0.0730694215245414,-1.3928132323942533,0.07280273782213528,2.573096779677603,2.322875131892247
34.267,0.42512749024564833,0.8795506575165843,-0.07304490392255403,-1.3927694553110088,0.03453544296357158,2.572969884857759,2.4454634583059054
34.3,0.42500049303088705,0.8795076432991324,-0.07308325260275783,-1.3927090666761117,0.029691878909416936,2.572893887027968,2.451943815266606
34.334,0.4248324399908796,0.8794440043637897,-0.07320039977899828,-1.3926571430850059,0.017481994222933395,2.5728794950907385,2.4696599137836728
34.366,0.4248064620263703,0.8793875648107567,-0.07327512642151301,-1.3927073222079898,0.006383287591058995,2.5730838569253827,2.490431127393297
34.4,0.42478205751886033,0.8793799388384382,-0.07331431595322613,-1.392687235170131,-0.005259575993345145,2.5731206952676615,2.5175614396055153
34.434,0.4247109248772043,0.8793709478501066,-0.07329684019301919,-1.3926077606371852,-0.017439891455546253,2.5728944440806814,2.550399530853257
34.466,0.4247544169288009,0.8793393352716956,-0.07333850577991541,-1.392683693063395,-0.029101114305140285,2.5731396377432674,2.5836770913447644
34.5,0.42468852193508155,0.8793391536515864,-0.07330661886374124,-1.3926013477891255,-0.04160657150823166,2.5728762724915644,2.6196899614944904
34.534,0.42473806898287236,0.8793307496854803,-0.07334243656396389,-1.3926698177233243,-0.053630099609756066,2.5731511016176274,2.6555391497694423
34.567,0.4246866545829393,0.8793387071373306,-0.07331595561105342,-1.3925789985622847,-0.06703266440335032,2.5728683875055136,2.6959728025270593
34.6,0.42474081853351553,0.8793246240478672,-0.07336436779997157,-1.3926512179110055,-0.07872531102766267,2.5731550474139464,2.7318835714738583
34.634,0.4247319076317577,0.879311469025776,-0.07336247011827446,-1.392658862710885,-0.09156212969210564,2.5731930952018036,2.771906317432885
34.667,0.42474688968754926,0.8792966892395366,-0.07337982800056952,-1.39267729033116,-0.10429487570262896,2.573246262657589,2.8120950696331874
34.692,0.42516318540405806,0.8795478819546194,-0.07306942152454142,-1.3928079436618561,0.07279978778958321,2.5730978986554676,2.322869640254645
34.734,0.42516318540405806,0.8795432933815015,-0.07306942152454142,-1.3928155002836986,0.07280070331692695,2.5730967796596578,2.3228740129144603
34.767,0.42516847511759975,0.8795450710246437,-0.07307220558430019,-1.392805438004187,0.07280273782213528,2.5730978986554676,2.3228707577060494
34.8,0.42516847511759975,0.8795425740495917,-0.07307220688341072,-1.392808502481678,0.07280172056953112,2.573096779677603,2.322879629937963
34.834,0.42516596946381685,0.8795425654078481,-0.07307220559632899,-1.3928132333755492,0.07279877054029041,2.573100136611197,2.322868519751018
34.867,0.42516596946381685,0.8795450710299275,-0.07306942152454142,-1.392815739029332,0.07280070331692695,2.573099017633332,2.322876244512309
34.899,0.42516596946381685,0.8795450797271035,-0.07307291587298376,-1.3928132333755492,0.07280070331692695,2.5730978986554676,2.3228784893906966
34.934,0.42516596946381685,0.8795429038202744,-0.07307220558430019,-1.3928054380082244,0.07279978778958321,2.573097898655467,2.322872041516512
34.967,0.42516596946381685,0.879545773034905,-0.07307471123808308,-1.39281072674062,0.07280172056953112,2.573099017633332,2.3228778643523347
35.0,0.42516318540405806,0.8795478666401269,-0.07306942152454142,-1.3928107277217647,0.07280070331692695,2.5730978986554685,2.322872893936518
35.034,0.42516596946381685,0.8795510656373772,-0.0730694507546769,-1.3928131539026896,0.07280172056953112,2.5730967796776056,2.3228795902563433
35.067,0.42516596946381685,0.8795450710246437,-0.0730747115628607,-1.3928079436620073,0.07280070331692695,2.5730978986554676,2.3228707714420964
35.1,0.42516596946381685,0.8795450710246437,-0.07307220558430019,-1.3928079171710541,0.07280172056953112,2.573096779677603,2.3228762513784402
35.134,0.42516596946381685,0.8795449054052105,-0.07306413181099974,-1.3928107277217499,0.07279978778958321,2.573096779677603,2.3228773634897335
35.167,0.42516847511759975,0.8795478819550597,-0.07307433645436051,-1.3928079436620073,0.07280172056953112,2.5730924817853587,2.322869638728185
35.2,0.42516847511759975,0.8795450710603095,-0.07307220558430019,-1.3928079436615588,0.07279978778958321,2.573096779677603,2.3228740129143826
35.234,0.42516596946381685,0.8795450710286068,-0.07306942152454143,-1.3928132330121616,0.07280070331692695,2.5730978986554676,2.3228707577061267
35.267,0.42516847511759975,0.8795451490297955,-0.07307220558430019,-1.3928132333751007,0.07280172056953112,2.5730966750219855,2.3228751260431695
35.3,0.42516596946381685,0.8795478580089994,-0.07306934260357657,-1.3928079347226565,0.07280070331692695,2.573096661940033,2.3228773680684167
35.334,0.42519937414368414,0.8795800182689097,-0.07302206863906768,-1.3927753156760545,0.03463081949293567,2.572978466720741,2.385241184067194
35.367,0.4251508694333399,0.8795397541297127,-0.07307264056612617,-1.3928078061738143,0.03232610317445861,2.573128353212711,2.397650626651684
35.399,0.42490534354447007,0.8794649089587896,-0.07316909939392247,-1.3927035958287401,0.01968946106870373,2.572927554875008,2.4251206846156474
35.433,0.42488986180001476,0.8794340201910478,-0.07324162698620551,-1.3927515810126847,0.00936446762381582,2.573166290270551,2.452753178025162
35.466,0.4247924441086983,0.8794226141799601,-0.07322038809170817,-1.3926669940735605,-0.002181352999945929,2.5729150444176945,2.483704429778143
35.499,0.4248482746338942,0.8794114105655124,-0.07328647759515938,-1.3927303570857772,-0.01303886108932062,2.573174617532338,2.514670906997006
35.534,0.4251606797502752,0.8795425653713067,-0.07306942152454161,-1.3928054378992083,0.07280070331692695,2.573096661940033,2.3228762523959254
35.567,0.42517125917735854,0.8795457990357254,-0.07306691587075852,-1.3928085731201973,0.07280273782213528,2.573096779677603,2.3228722284838503
35.599,0.425564752650752,0.87980021233352,-0.07278791653203065,-1.3929212562350965,0.000311693534467139,2.572946847081308,2.4673248412357704
35.633,0.4253316007118011,0.8797327617103736,-0.07287455458877279,-1.3927300056193754,-0.001239739552033825,2.572851131481235,2.4677881527534336
35.666,0.42516318540405806,0.8795402937204981,-0.07307155239059214,-1.392805437967848,0.07280070331692695,2.573099017633332,2.3228685197503203
35.7,0.4253682193485,0.879658335755714,-0.07292156207435774,-1.392857226713664,-0.0053705737624092365,2.5729220857079955,2.477650472077812
35.734,0.4252582403298186,0.8796819056795453,-0.07290174870697719,-1.3927094832242872,-0.005673320991973263,2.5727892310901144,2.474577161890352
35.767,0.42502287403702876,0.8795498791506651,-0.07304494588934585,-1.3926728600216887,-0.01843106071110512,2.572784221540431,2.4944505020803582
35.799,0.4249238836321956,0.879494822037481,-0.07310529611477623,-1.3926297199104196,-0.030028834316829567,2.5727396470982384,2.51829080275985
35.834,0.42486942307390496,0.8794785500116804,-0.07313820504048074,-1.3925859262485902,-0.04213475070730066,2.572699186640559,2.5475897239284144
35.867,0.424823239185522,0.8794554135569355,-0.0731337709047315,-1.3925652363929757,-0.05428441129896555,2.572646618845475,2.5794635932228527
35.901,0.4247946278829735,0.8794444662141512,-0.07313445525966245,-1.3925386480505768,-0.06742533400994066,2.572590999637651,2.614914162690358
35.934,0.42477594585392797,0.8794264586458826,-0.07314235259712643,-1.3925211815486662,-0.08017357559594984,2.5725344146198985,2.6506999183194377
35.966,0.4247617238403789,0.8794325748304797,-0.07314438239330645,-1.3924862639326179,-0.09315165213084331,2.5724760350644047,2.68768271043478
35.999,0.42473286802502397,0.879419728446849,-0.07312668407510792,-1.3924671944454925,-0.10632518645708355,2.5724118406219407,2.726632934891832
36.033,0.4247195541630653,0.8794057801782609,-0.07312704604214382,-1.3924497335242005,-0.11968261306000016,2.5723446573346145,2.7666553365723114
36.066,0.4247693873171414,0.8793972025432959,-0.07316884570997484,-1.3925195410436766,-0.13283469881778398,2.5726390381305464,2.8069063398372034
36.1,0.42516318540405806,0.8795453050280639,-0.0730722056886048,-1.3928107277216168,0.07280070331692695,2.5730978986554676,2.322867524396982
36.133,0.42516596946381685,0.8795478579772982,-0.07306942152454142,-1.3928157125222118,0.07279978778958321,2.573096779677603,2.322878487390719
36.166,0.42516847511759426,0.8795425913831302,-0.07306942152454142,-1.3928077052434227,0.07280070331692663,2.5730967796776767,2.3228795060787553
36.2,0.42517125917735854,0.8795425663338379,-0.0730694302935375,-1.3928132333378644,0.07280070331692694,2.573096784038254,2.3228773507765834
36.234,0.4251581740964923,0.879545073925464,-0.07306942152454142,-1.3928107277217663,0.07280070331692694,2.573096779677603,2.3228751318922587
36.267,0.42516318540405806,0.8795457739992024,-0.07307220558434968,-1.3928132333755492,0.07280070331692694,2.573096779677603,2.3228772526127544
36.299,0.42516318540405806,0.8795425653708773,-0.07306942152454142,-1.3928107247783272,0.07280070331692694,2.5730956606997384,2.3228707577000676
36.333,0.4251606797502752,0.8795480987176093,-0.07307471123941961,-1.3928110876083373,0.07280070331692694,2.5730956606997384,2.3228685197566095
36.367,0.42517125917735854,0.8795451490258328,-0.07306942152459091,-1.3928107277172634,0.0728017205695311,2.573096779677603,2.3228663835198513
36.4,0.42516596946381685,0.87954531402001,-0.07307220558430019,-1.3928107273947157,0.0728017205695311,2.5730978986554676,2.3228773698475624
36.434,0.42516318540405806,0.8795453050280639,-0.07306942152454203,-1.3928132333755492,0.07280273782213527,2.5730956606997384,2.3228751456282972
36.467,0.42516847511759975,0.8795450710366846,-0.07306942152454142,-1.3928107237971807,0.07280070331692694,2.5730956606997384,2.3228728939572325
36.5,0.4251606797502752,0.8795481680915687,-0.0730747115628607,-1.3928107012187003,0.0727997877895832,2.573096778224053,2.322870798914199
36.534,0.42516596946381685,0.8795450710286066,-0.07307217927731374,-1.3928085024816947,0.07280070331692694,2.5730956606997384,2.322877016634828
36.567,0.42516847511759975,0.8795450719876208,-0.0730694215245414,-1.3928107009024184,0.0727997877895832,2.5730978986554676,2.322874136538831
36.6,0.42516596946381685,0.8795450710246437,-0.07307504673903448,-1.3928110876083373,0.0728017205695311,2.5730978986554676,2.322871876683914
36.634,0.42516318540405806,0.8795453398379005,-0.0730722065626427,-1.3928157379391692,0.07280070331692694,2.5730978986554676,2.3228751731003965
36.666,0.42516318540405806,0.8795425682598083,-0.07306942055020851,-1.3928079436620073,0.0727997877895832,2.573096013912448,2.3228696402544156
36.7,0.42516318540405806,0.8795457730472841,-0.07306942260713352,-1.3928132333755439,0.07280070331692694,2.5730956606997384,2.322876244512283
36.734,0.42516318540405806,0.8795450710259665,-0.07306942152454142,-1.3928132333755492,0.07280070331692694,2.573099013272681,2.3228762508697005
36.766,0.42516847511759975,0.8795451490614985,-0.07307228742826373,-1.3928132333755492,0.0727987705402904,2.573097898655689,2.3228762730047747
36.8,0.42516596946381685,0.8795450711316647,-0.07307220562038659,-1.392815739029332,0.07280070331692694,2.5730978986554676,2.3228728954648394
36.834,0.42516596946381685,0.8795450970250237,-0.07306942152454142,-1.392815739029332,0.0728017205695311,2.5730957200394737,2.322869638728177
36.867,0.4251348964442121,0.8795615481362065,-0.07303868864266061,-1.3927796652485682,0.034511816983804344,2.572969721152841,2.4320647294870454
36.899,0.42516596946381685,0.8795450710246618,-0.07307220592110662,-1.3928107277217638,0.07280070331692694,2.5730967203378676,2.3228784903516546
36.933,0.42516596946381685,0.8795471770554965,-0.0730701318132256,-1.3928107247769757,0.0727997877895832,2.5730978986554676,2.322865265069572
36.967,0.42514662085789556,0.8795813428686641,-0.07301650624538425,-1.3927996145970312,0.0290066718341917,2.572943243444996,2.4225149965742236
37.0,0.4251454995144881,0.879573985215143,-0.07305695409298707,-1.3927927304988632,0.027276999788776735,2.573109410160445,2.4175122104750404
37.034,0.42492194966081875,0.8794899321493324,-0.07315983160963313,-1.392686400375589,0.01417621974405403,2.572913165009492,2.4398959073164175
37.067,0.42490938868980344,0.8794330261393464,-0.07323292972176088,-1.3927418277039214,0.0037116029307719955,2.573140402268173,2.46260389874568
37.1,0.4248846239955899,0.8794259018271022,-0.0732655815675427,-1.3927191464019417,-0.0075681070285886776,2.5731632177401202,2.491540401267555
37.134,0.42516318540405806,0.8795471857222373,-0.07306942152498692,-1.392810012466029,0.0728017205695311,2.573099017633332,2.3228718782289843
37.167,0.4252278811940249,0.8795577800792138,-0.0730405959845557,-1.3928754135912644,-0.01184327770437843,2.573031092672,2.505543970415353
37.2,0.42516318540405806,0.8795478550844187,-0.07306942152454142,-1.3928097740474499,0.07280070331692694,2.5730978986554676,2.3228740129206633
37.233,0.42551963532261805,0.8796822546637824,-0.07292498798127323,-1.3929824555801158,-0.001456103467096348,2.5732409701758723,2.478715691854042
37.267,0.42530843469566726,0.8796171650242588,-0.07300692132197284,-1.3928341856595612,-0.005316804309551948,2.5731786061912167,2.492258103514601
37.3,0.42516596946381685,0.8795450797272496,-0.07307820562399786,-1.3928107277217663,0.07280070331692694,2.5730956606997393,2.3228751320617547
37.334,0.42516596946381685,0.8795450710603584,-0.07307291294998507,-1.3928157389162783,0.07280070331692694,2.573099017633332,2.322875309911039
37.367,0.4251606797502752,0.8795453772638661,-0.07306691587075853,-1.392815738920316,0.0727997877895832,2.573096779677603,2.3228751318922733
37.4,0.4255779917391873,0.8797705969842369,-0.07280050449339637,-1.392874170302635,0.01710674084257935,2.5729681287950505,2.4442483446568257
37.434,0.4251854549761376,0.8796170168090889,-0.07296253838065603,-1.3927084854595266,0.01214218343307838,2.572877710386429,2.457366756506314
37.467,0.4248944185445058,0.8794566398073416,-0.07315983211109778,-1.3926457272458572,-0.0003388079602402172,2.572863013689899,2.4872639259210985
37.5,0.4247456523021853,0.8793989732822514,-0.0732469678988874,-1.3925817735581179,-0.012536331743918439,2.5728252464423313,2.520949614052153
37.534,0.4246460357114863,0.8793537623859606,-0.07327600500807563,-1.3925495449017706,-0.025048427955570496,2.572774297652254,2.5561002228394063
37.567,0.4246572713440351,0.8793243218173075,-0.07333843743784474,-1.392604823201376,-0.03660454933466628,2.573016055713266,2.589773487696645
37.6,0.42464309594243677,0.8792989366329493,-0.0733660794430735,-1.392612405993992,-0.04912919832183693,2.57304909553711,2.62705658988164
37.634,0.4251606797502752,0.8795426433838901,-0.07307471123852859,-1.392815736085893,0.07280070331692694,2.573096779677603,2.3228696524642345
37.667,0.425395906171695,0.879673468951883,-0.07289693628585692,-1.3929151927050265,-0.033904032679417995,2.5729408241807192,2.59475324411288
37.7,0.42516596946381685,0.8795457730349044,-0.07306942152454142,-1.3928079436620073,0.0727987705402904,2.5730978986554676,2.3228718766839145
37.734,0.42516596946381685,0.8795453137080669,-0.07307221435329628,-1.3928132333755492,0.0728017205695311,2.573096779677603,2.322878488825427
37.767,0.42516318540405806,0.8795450970254695,-0.07307473754507135,-1.3928132323942533,0.07280070331692694,2.573096779679597,2.322869638728185
37.8,0.42516596946381685,0.8795446717226594,-0.07307223189173398,-1.3928107277217496,0.0727997877895832,2.5730956602152215,2.322876250869698
37.834,0.42516318540405806,0.8795480900640094,-0.0730694302935375,-1.3928051995896453,0.0728017205695311,2.5730978986554676,2.322874012914641
37.867,0.42516847511759975,0.8795450984161379,-0.0730694302935375,-1.3928107277217663,0.0728017205695311,2.5730956607176836,2.322877370356305
37.9,0.42516596946381685,0.879550360773853,-0.07306942152459091,-1.3928132333755492,0.0727997877895832,2.573097898655476,2.322867414510599
37.934,0.42516318540405806,0.8795372756578085,-0.07307220558430019,-1.3928079432259424,0.07280273782213527,2.573096779677603,2.322873112928631
37.967,0.42516847511759975,0.8795458519990439,-0.0730722055844493,-1.3928107277217663,0.07280070331692694,2.5730978986554676,2.3228751319110894
38.0,0.42516596946381685,0.8795451577044657,-0.07307220558430019,-1.392813232394403,0.07280070331692694,2.573096779677603,2.3228696387281857
38.034,0.42516596946381685,0.8795450710365323,-0.07306942184932087,-1.3928077052434118,0.07280070331692694,2.573096779677603,2.3228728941060988
38.067,0.42516596946381685,0.8795450710250846,-0.07307471125011188,-1.3928132304199803,0.0728017205695311,2.573096779677603,2.322870757706127
38.1,0.42516596946381685,0.8795472030562461,-0.07306691587075853,-1.3928079433349587,0.07280070331692694,2.573095660699812,2.32286963871024
38.134,0.42516318540405806,0.8795453050293849,-0.07307471123808308,-1.39281299495697,0.0727997877895832,2.57309352446927,2.32287401444061
38.167,0.4251560936703571,0.8795114829306403,-0.07310892047484341,-1.3928167406646192,0.0349830969837317,2.573213556556798,2.3754427713621062
38.2,0.4250622920909617,0.879528237054517,-0.07307035434695397,-1.3927149458329735,0.031671280376246,2.5729479092056824,2.3925603094909764
38.234,0.4248848774674885,0.8794486140649571,-0.07317905726993157,-1.3926934243155014,0.01940044281064246,2.5729747847658775,2.4201756713246887
38.267,0.4248266465016304,0.879422214082437,-0.07320894139399847,-1.3926681144726034,0.008845982107867911,2.5729216694845523,2.447797752173585
38.3,0.4247972426114339,0.8794236215132507,-0.07322701059089809,-1.3926365448570968,-0.0022406254291480465,2.5728887478139075,2.477722563670305
38.334,0.4248383322328886,0.8794087392359735,-0.07327212426597374,-1.3926975272504674,-0.01234923172227198,2.573108089282041,2.5059243928104387
38.367,0.4247652244063156,0.8793972608522553,-0.07323236822477597,-1.3926237184824677,-0.024513351592044152,2.5728402404632114,2.5411798717719414
38.399,0.4247664466753518,0.8794077916777008,-0.0732426136534361,-1.3926027389926352,-0.035863128941454825,2.572831737828132,2.5743140122317527
38.434,0.42481588809859616,0.8793944716067124,-0.07328540311332699,-1.3926684744548519,-0.04648388694821204,2.573073296567795,2.6068315286158565
38.467,0.42516847511759975,0.879547855227555,-0.07307228450526503,-1.392815500610753,0.0727997877895832,2.573096779677603,2.3228795887298053
38.501,0.42516596946381685,0.8795450979893236,-0.07307220558430019,-1.3928079171347154,0.0727987705402904,2.573094541721874,2.3228696387282626
38.534,0.42580459645851043,0.8799201985787226,-0.07262497874023666,-1.3929746342587253,-0.015604037145018346,2.5728729801047248,2.5297006046008725
38.567,0.42550316823820467,0.8798324342071719,-0.07272624373014391,-1.3927541827024186,-0.011474694033755561,2.572743671603991,2.5138382578387706
38.599,0.4251142251994233,0.8795980884334265,-0.0729930081366339,-1.3926730016413407,-0.024345317676791822,2.5727465086865724,2.539069738388825
38.634,0.4249800832849191,0.8795012820734209,-0.07313209294706091,-1.3926779714629083,-0.03564442520377753,2.5729859045226338,2.567060045093216
38.666,0.42489931208613907,0.8794388818049006,-0.07320055819734161,-1.3926678470210874,-0.047510064112419315,2.5730145006569334,2.59917966501858
38.7,0.4248646187496332,0.8794227677037494,-0.0732460074056176,-1.3926550927831194,-0.059644578400208204,2.573073216919081,2.6326218203310425
38.734,0.42477545288979446,0.8793966188219793,-0.07322141198319088,-1.3925801762765397,-0.0731227258739553,2.572807487830012,2.671178437016044
38.767,0.4247588775550133,0.8793989827533881,-0.07323304450688095,-1.392547295831836,-0.08597706233102453,2.5727652697073964,2.708575110883606
38.8,0.4247278982400555,0.8793855383357618,-0.07321696569311342,-1.392527977961426,-0.09895005246182187,2.5726992487165994,2.747155512495363
38.834,0.42471247412935575,0.8793699943620208,-0.07322182355307394,-1.3925098738166497,-0.11222733652049222,2.572634203516298,2.7871578134769344
38.867,0.4247047174499645,0.8793791652468057,-0.07321920161764961,-1.3924776688888105,-0.125480004347172,2.572571621537641,2.8278283638879245
38.901,0.424676470661173,0.8793679677300883,-0.07319903212382428,-1.3924560634890515,-0.1390441252014556,2.5724947224556924,2.8697272733131154
38.934,0.4247523885706306,0.8793793740869633,-0.07317933280859457,-1.3925618458761608,-0.14932431928268386,2.572674110582007,2.897642087067542
38.966,0.42516596946381685,0.8795478554410606,-0.07306942152454142,-1.3928107277083057,0.07280070331692695,2.5730967665956506,2.3228728939372156
39.0,0.42516318540405806,0.8795499621851591,-0.07307220558430019,-1.3928107277217663,0.07279978778958321,2.5730978986734128,2.3228751324009895
39.035,0.42516596946381685,0.8795425653708608,-0.07307220558430019,-1.3928079426793656,0.07280070331692695,2.573099017633332,2.322876250869698
39.067,0.42516596946381685,0.8795471770593911,-0.07307220558430202,-1.3928107277217663,0.07280070331692695,2.5730978986554676,2.322875504291898
39.1,0.42516318540405806,0.8795425653708608,-0.07307220558430569,-1.3928107277177288,0.07280172056953112,2.5730978986554676,2.322875214544254
39.134,0.425520067270428,0.8797670692597004,-0.07274000840171624,-1.3927932578894078,0.00956726600177138,2.5727611476648704,2.4647680433820494
39.167,0.424982614266999,0.8794678029822709,-0.07313855835126315,-1.3926285577351782,0.01875917643460312,2.57289252571797,2.4153544374118248
39.199,0.4242766623017289,0.8791133818058947,-0.07352943338032603,-1.3924270140188968,0.00536573806002405,2.572866134781153,2.4509794697404725
39.233,0.42408651419689836,0.8790181240519948,-0.07361207362570443,-1.3923823866593104,-0.0008579021035846068,2.572794837185583,2.4508183265747956
39.267,0.4239809438098705,0.8789890912551961,-0.07369373516577671,-1.3923327970014991,-0.011545961357383838,2.5727911033798065,2.46036277830647
39.3,0.42393147065269865,0.878967463865516,-0.07368771624233084,-1.3923166177733393,-0.02124335172256231,2.5727447885605805,2.474250871995743
39.334,0.4251737648321871,0.8795478550844079,-0.07306942152459099,-1.3928079426790658,0.07280070331692695,2.5730978986554676,2.322869638728185
39.367,0.4251581740964923,0.8795451500244266,-0.07307315557090578,-1.3928054291765608,0.07280070331692695,2.573099017633332,2.322878471787325
39.4,0.42516847511759914,0.8795451500010897,-0.07307220590909615,-1.3928132333755492,0.07279877054029041,2.573099017633332,2.3228685243478457
39.434,0.42516596946381685,0.8795450710761664,-0.07306942152454142,-1.3928079436619574,0.07279978778958321,2.5730967796778246,2.322869762522214
39.463,0.42516318540405806,0.8795478811208886,-0.0730724423471947,-1.3928107276127502,0.07280273782213528,2.573097898493962,2.3228718766839145
39.501,0.4251606797502752,0.8795446714056221,-0.07307223189128907,-1.3928107277217663,0.07280172056953112,2.57309791173742,2.322875125534444
39.534,0.4251631854040599,0.8795451491486327,-0.07307220558430039,-1.3928132333755308,0.07280070331692695,2.573096779623768,2.322869679936334
39.567,0.42516318497203065,0.8795478579733337,-0.07307220559632899,-1.3928100123206686,0.07280172056953112,2.573097898655467,2.322875132061828
39.6,0.42516350035205763,0.8795478550883653,-0.07306942152454325,-1.3928132333755492,0.07280172056953112,2.57309901763334,2.322869640260693
39.635,0.42516596946381685,0.8795451519147148,-0.07306942152454204,-1.3928132333755492,0.07280172056953112,2.5730978986554676,2.3228696392369272
39.667,0.42517055054435954,0.8795450711316429,-0.0730722055847457,-1.3928085806463593,0.07279877054029041,2.573099017633332,2.3228696387281853
39.7,0.42516596946381685,0.8795478550883707,-0.07307471123808308,-1.3928107277096535,0.07280070331692695,2.573096779677603,2.3228728939365193
39.734,0.42516309791850265,0.8795478555124142,-0.07307220688341072,-1.3928157389189681,0.07280172056953112,2.573099017633332,2.3228718766841467
39.766,0.42513365861822816,0.8795310556774112,-0.07311627367027018,-1.3928338269043268,0.03485041115667897,2.573210757016268,2.441678576514633
39.8,0.4249773940713357,0.8795150257318287,-0.07311847058162524,-1.3927029641935915,0.0290270585797634,2.5729428578387896,2.451042692968617
39.834,0.42481330269474427,0.8794355290382239,-0.07321251824015285,-1.3926785380566544,0.01678898539070861,2.572948459638443,2.4698782654216203
39.867,0.4247451804013407,0.8793980093568763,-0.0732566310733116,-1.3926477865805822,0.005187988903138319,2.5729039789136436,2.4930275183257162
39.9,0.424757850676877,0.8793780420975148,-0.07330663174180163,-1.3926924132491392,-0.006344683055908185,2.5731280970820194,2.5203290451192615
39.934,0.4246905855837584,0.879374873629061,-0.07329663953591492,-1.3926026364491717,-0.01935324070994593,2.5728830519810373,2.556036578669147
39.967,0.4246614707296388,0.8793596362935725,-0.07328714859502306,-1.3925883794211433,-0.03166825668405693,2.572845395929912,2.5903738975590436
40.0,0.4247061200577198,0.8793444697244936,-0.07332931433791057,-1.3926510351273143,-0.04313724066494551,2.5730924773246997,2.623893849648532
40.033,0.4246539065352266,0.8793518319024995,-0.07330526519632663,-1.3925629601083864,-0.05661632476183964,2.5728234085945516,2.663884056003713
40.067,0.42463142560852507,0.8793419372290749,-0.07328819814981102,-1.3925485134804019,-0.06938187843235788,2.572771422394476,2.702307956006212
40.101,0.42462106990841875,0.8793299375821659,-0.07328841867264924,-1.392533149218302,-0.08233213829385555,2.5727070181226654,2.7421258992362443
40.134,0.4246694952270751,0.8793231530709793,-0.07332425040531731,-1.392600773923073,-0.0950682681056545,2.572990821084737,2.7820799687753404
40.167,0.42467663216708473,0.8793046602263814,-0.07334312688230504,-1.3926153173000504,-0.10817404848050582,2.573038192694847,2.823606064214861
40.2,0.4251606797502752,0.8795450710246437,-0.07307471123808308,-1.3928107277217663,0.07280070331692695,2.57309678016212,2.322875092815971
40.233,0.42516596946381685,0.8795425663338381,-0.07306942152855102,-1.3928079436620069,0.07280172056953112,2.573096775316952,2.322875131892247
40.266,0.42516847511759975,0.8795400597527601,-0.07306944783154619,-1.3928107277217663,0.07280172056953112,2.5730978986554676,2.322875131892247
40.299,0.42516596946381685,0.879545071488495,-0.07307471123808308,-1.392807864152809,0.07280172056953112,2.5730978594096108,2.322870023338278
40.333,0.42516847511759975,0.8795426433839112,-0.07306942152454142,-1.3928107188914487,0.07280070331692695,2.573096779677603,2.3228784843032706
40.367,0.42516318540405806,0.8795450710246439,-0.07307220558430019,-1.3928132333755474,0.07280070331692695,2.5730978986554676,2.3228718904199637
40.4,0.42509386335211996,0.8795415492626564,-0.07302245283231912,-1.3927194492441508,0.019797098223040877,2.5728789621066106,2.4273853505493896
40.434,0.42516318540405806,0.8795451490259305,-0.07307471123810019,-1.3928107277217645,0.07280172056953112,2.573096779677603,2.322869638728185
40.467,0.42516847511759975,0.8795453310324068,-0.07306692463975462,-1.3928085790110987,0.07280172056953112,2.5730978986554676,2.322878488825419
40.5,0.42516596946381685,0.8795446714021321,-0.07306942152855102,-1.392815739029332,0.07280172056953112,2.5730956606997384,2.3228739736625443
40.533,0.42516318540405806,0.8795451493472164,-0.07306691587209506,-1.3928132333755492,0.07280070331692695,2.573096779677603,2.322872935314248
40.567,0.42516596946381685,0.8795450710246926,-0.07307471123808308,-1.3928107276854274,0.07279978778958321,2.5730956606997384,2.3228708798831548
40.601,0.42516596946381685,0.8795450710259647,-0.07307220558430019,-1.392813232394403,0.07280273782213528,2.573093600763215,2.322869657212499
40.633,0.42516318540405806,0.8795375096611852,-0.07306942152454161,-1.3928132245452314,0.07280070331692695,2.573099017633332,2.322870757731198
40.667,0.42516318540405806,0.8795478637525169,-0.07306942152454142,-1.39280722840627,0.07279978778958321,2.5730957784373083,2.322867405859857
40.7,0.42516596946381685,0.8795478550883653,-0.07307220558430019,-1.3928107277217663,0.07280070331692695,2.57309678016212,2.3228674012294626
40.733,0.42516847511759975,0.8795425663338381,-0.07306942152454142,-1.39281299495697,0.07280070331692695,2.573096779677603,2.322876621743043
40.767,0.42516847511759975,0.8795503607382343,-0.07307220558430019,-1.3928132333755492,0.07280070331692695,2.5730957784373083,2.322875131898528
40.799,0.42516847511759975,0.8795427996952734,-0.07307220558430019,-1.3928132333755492,0.07280070331692695,2.5730978986554676,2.32287625088854
40.834,0.4251606797502752,0.879547863751196,-0.07306942152454161,-1.3928097740460978,0.07280172056953112,2.5730967796776767,2.3228674007731533
40.867,0.42516596654763167,0.8795425653708626,-0.0730722056925594,-1.3928129939758238,0.07280070331692695,2.573096779677603,2.3228656354160298
40.9,0.42516596946381685,0.8795450806664514,-0.07306692463975645,-1.3928157380481858,0.07280172056953112,2.5730978986554676,2.3228697623526333
40.934,0.42516318540405806,0.8795478563683718,-0.07307220558430569,-1.3928132333742034,0.07279978778958321,2.573096779677603,2.3228718703260856
40.966,0.4252040034424267,0.8795539104081112,-0.07309477555503818,-1.3928400940472478,0.03515555164504036,2.573211722646807,2.445523130708981
41.0,0.424986411359094,0.879498790826065,-0.07311440789240109,-1.3927182188102636,0.02799719613655416,2.5729517691531303,2.456304991860364
41.034,0.4248931068677422,0.8794164563516906,-0.07325758834349383,-1.3927605448288638,0.016757494948082652,2.5731908768102763,2.473219361488491
41.067,0.4247580906635795,0.8793945813487225,-0.07326075443092428,-1.3926620852920495,0.004008547986589228,2.5729653334537854,2.499457732748377
41.1,0.4247231692033715,0.8793641462255319,-0.07329181198369472,-1.3926464872500262,-0.008037610538934814,2.5729394359816045,2.5283786849655456
41.135,0.4246993124828009,0.8793637427949124,-0.07330398170850927,-1.3926090050531545,-0.02034590932657654,2.5728934801248187,2.5620576690605485
41.167,0.42466762416073056,0.8793480135170659,-0.07329091560538448,-1.392592307681758,-0.03271817012285538,2.5728406559277577,2.5972848839096336
41.2,0.4246537480380699,0.8793332982583628,-0.07329525782483692,-1.3925763477399924,-0.04525420750814568,2.572783609608482,2.634203152257218
41.234,0.42464496548682096,0.8793409714420317,-0.07329844926216111,-1.392544519845111,-0.057998444152797646,2.572733652304679,2.6723181509808
41.266,0.424619921708417,0.8793306259629707,-0.07327929754395068,-1.3925275994903155,-0.07081552166866434,2.5726692174156085,2.7112741784105214
41.3,0.4246097704492202,0.8793185789512075,-0.07327980729246253,-1.3925123452132429,-0.08378238353940226,2.5726054741160276,2.751283380291328
41.335,0.4246016309622407,0.8793276653588018,-0.07327877285974171,-1.3924791692570215,-0.09695627695620512,2.572542194233714,2.792444618848691
41.367,0.42465996256944294,0.8793156666280515,-0.07332530573283069,-1.3925554970302052,-0.10893653774677237,2.572840633218142,2.8308640415445403
41.401,0.42516596946381685,0.8795400943842513,-0.07307220558430264,-1.3928085015005485,0.07279978778958321,2.5730956606997384,2.3228777819311506
41.434,0.42591885135604635,0.8799128117401773,-0.07266017579810402,-1.3931657219963371,-0.07111454128592598,2.5730072372646333,2.7534174374389195
41.466,0.425165890726817,0.8795450713616403,-0.07307471123943611,-1.3928107237846137,0.07280070331692695,2.573099021832477,2.3228762450210256
41.499,0.42516847511759975,0.8795425692228233,-0.07306942152454142,-1.3928107266302578,0.07280172056953112,2.5730978594096108,2.322875255516704
41.533,0.42624477074766975,0.8800772040755378,-0.07242802905182355,-1.3931984391049967,-0.025820888803648856,2.57307345668986,2.64790604048658
41.566,0.42516596946381685,0.8795425914782437,-0.07307220558430019,-1.392812992013531,0.07280070331692695,2.5730978986734128,2.3228718771926564
41.599,0.42516596946381685,0.8795450710603095,-0.07306942152454142,-1.3928079436620018,0.07280273782213528,2.5730967796775785,2.3228685202590627
41.633,0.4254614082804338,0.8796391276190683,-0.0729170131227681,-1.3929671529284882,-8.085008236946578e-05,2.5731630749362306,2.5468409297351755
41.667,0.42536802904968507,0.8796214023092368,-0.07298434010276011,-1.392841121328403,0.010344272012520861,2.573105808779953,2.505518705292081
41.699,0.42483349390998537,0.8793900575984228,-0.07323566510307256,-1.3927110944125083,-0.0033084404328276307,2.572989658107309,2.541889849386731
41.733,0.42470173689804813,0.8793210739485966,-0.07329757055075437,-1.392657399469929,-0.010505697252478186,2.572928513935686,2.5410516446078866
41.766,0.4246135390432384,0.8792962591087274,-0.07336115462844628,-1.3926173178762324,-0.02136582519897523,2.5729086913950034,2.5490274779805837
41.799,0.4245673692542713,0.8792768999559275,-0.07335792422831666,-1.3925983535785047,-0.03153658427445727,2.5728628966670257,2.5615744317845355
41.835,0.42455292504168707,0.8792598111680281,-0.07337647073346609,-1.3925810359980444,-0.042088826156089,2.5728250383038027,2.57970828716741
41.866,0.42454144548500405,0.8792663637861011,-0.07338054875562161,-1.3925465375222288,-0.052819490820991355,2.572783774800506,2.6031423560763294
41.899,0.42451443731773697,0.8792517664436854,-0.0733621390634438,-1.392535281254669,-0.06369512695443635,2.5727340026344745,2.6292326984547074
41.933,0.42450765336081453,0.8792396729489989,-0.07337201732075727,-1.3925194957855966,-0.07478737201074193,2.5726884697342403,2.6570718961997493
41.966,0.42449939388331526,0.8792497335697043,-0.07336909028620209,-1.3924892533980149,-0.08599846147072299,2.572639942735293,2.6865252429095996
41.999,0.42447687996949135,0.8792392741424786,-0.07335166731339626,-1.3924755798824773,-0.09733035943520374,2.5725848134981817,2.717896244900153
42.033,0.42447088516700493,0.8792284323534147,-0.07335622818924037,-1.3924616316663538,-0.1088048373874777,2.5725321610682954,2.7503574177342003
42.067,0.4244646672716863,0.8792399972416076,-0.07335250723320552,-1.3924310530432908,-0.12039355003114327,2.5724786500051433,2.7839839745545945
42.099,0.42452530736032035,0.8792269322219131,-0.07340460432403528,-1.392512259317816,-0.13094405701928924,2.5727856788418197,2.8156172229853524
42.133,0.4244492072664885,0.8792207072437908,-0.07334357170326111,-1.392419735829204,-0.14360794661615373,2.572418398520872,2.853702580743171
42.166,0.42445635044956287,0.8792318009850622,-0.07335209536071652,-1.3924023939240007,-0.15537798203845998,2.5724163366330437,2.8898121305184965
42.2,0.42460936929849247,0.879296913006586,-0.07327115251259375,-1.3925228381277748,-0.15940120376698275,2.5725673361966805,2.8973016004693175
42.233,0.42516318540405806,0.8795478637511958,-0.07306942152454142,-1.3928157379391695,0.07280172056953112,2.573097898655394,2.322869638728495
42.266,0.42516847511759975,0.8795425656919039,-0.07307504673903448,-1.3928132333634364,0.07280172056953112,2.5730978986554676,2.3228674007724313
42.299,0.42637250390769577,0.8803281377561838,-0.07219295227669864,-1.393107454189325,-0.05822092022890679,2.572582833104615,2.6760074199090607
42.334,0.4257871508495761,0.8800197579666831,-0.07256586518896224,-1.3927780164360115,-0.045042815470851316,2.5727340347283327,2.6409231966768356
42.368,0.42510021011088295,0.8795811443312491,-0.0729998764519788,-1.3926497920037955,-0.056988465471940586,2.572829661156934,2.6621116742519426
42.399,0.4248095802991454,0.8794033119780531,-0.07320064539837468,-1.3925705462922195,-0.06696591662595175,2.572880658652977,2.6814576699183412
42.434,0.42467331675006914,0.8793286270638214,-0.07331524761251806,-1.392531649356747,-0.07781533489922676,2.572947516359097,2.706647702500197
42.466,0.42459198807316056,0.8792742775656324,-0.07336201751413807,-1.3925245530030992,-0.08907839610158508,2.5730006422813716,2.736655299469895
42.499,0.42516318540405806,0.8795450739137707,-0.07307220558430019,-1.3928107277217663,0.0727997877895832,2.573096779677603,2.322876250869698
42.534,0.42516318540405806,0.8795485583786327,-0.07306942152454143,-1.392813153902241,0.0728017205695311,2.5730967796775293,2.322878488825427
42.566,0.42516847511759975,0.8795478550844025,-0.07307471123808858,-1.392815739029332,0.07279865225082562,2.5730978986554756,2.3228675833165093
42.599,0.42516847511759975,0.8795451490297485,-0.07306691587120404,-1.3928032912598656,0.0727997877895832,2.5730947197410794,2.3228663972559787
42.633,0.4251606797502752,0.8795478839737138,-0.07307220558430019,-1.3928132333634364,0.0728017205695311,2.5730978986554676,2.3228696402544124
42.666,0.42516596946381685,0.8795453136952979,-0.07307220558430569,-1.3928079436615588,0.07280070331692694,2.5730957784373083,2.322872893937216
42.699,0.42517125917735854,0.8795426693723809,-0.07307244234719472,-1.3928150237735948,0.07280070331692694,2.5730978986554676,2.322870757706127
42.733,0.42516596946381685,0.8795446714069775,-0.07306942185334514,-1.3928132333755492,0.0728017205695311,2.573096779677611,2.3228718636019616
42.766,0.4251606797502752,0.8795446743262398,-0.0730694302935375,-1.3928107188914487,0.07280273782213527,2.573099017633332,2.322875131892273
42.799,0.42516847511759975,0.879542568295898,-0.07307220655863858,-1.3928100124539162,0.0728017205695311,2.5730978986554676,2.3228663835198513
42.833,0.42516318540405806,0.8795453050280639,-0.07307220562040309,-1.3928079435529905,0.07280070331692694,2.573096779677603,2.3228786124498755
42.866,0.42516596946381685,0.8795450797984405,-0.07307471123808369,-1.3928050826390528,0.0727997877895832,2.573099017633332,2.3228773620361833
42.899,0.4249686257643832,0.8794502097671097,-0.07317047123961551,-1.3927151377867633,0.03427553308828912,2.5730082541301833,2.3484899923343825
42.933,0.4248233039968774,0.8794249461077381,-0.07321340862015013,-1.39263426813892,0.0241988987209929,2.572927602880167,2.369500129909941
42.966,0.42516318540405806,0.8795425682611129,-0.07307471123808308,-1.3928055593672002,0.0728017205695311,2.5730967796776056,2.3228685197503203
42.999,0.42516318540405806,0.8795450713474139,-0.07306942152855102,-1.3928132333751007,0.07280070331692694,2.5730978986554676,2.3228696387282106
43.033,0.42516318540405806,0.8795425653721818,-0.07307471123808308,-1.392810727721761,0.07280070331692694,2.5730967798391085,2.32287735077449
43.066,0.42516318540405806,0.8795450710246443,-0.07306715263365304,-1.3928107277217663,0.07280273782213527,2.5730978986554676,2.322875131892247
43.099,0.42516596946381685,0.8795450739175377,-0.0730701327995867,-1.3928132333634364,0.0728017205695311,2.573096784038254,2.3228740134232027
43.133,0.42516318540405806,0.8795450739148963,-0.07307221435463282,-1.392813232249046,0.0727997877895832,2.5730977809178976,2.322875131892247
43.166,0.42516596946381685,0.8795471771624233,-0.0730722055883758,-1.3928054026869536,0.07280070331692694,2.573096779683585,2.3228697623526418
43.199,0.42516847511764916,0.8795425663338379,-0.07306942152454142,-1.3928107277217663,0.07280070331692694,2.573096779677603,2.3228642218580675
43.233,0.42516318540405806,0.879547177059405,-0.07307220558430019,-1.3928157389808749,0.07280070331692694,2.5730978986554676,2.3228665071442998
43.267,0.4251712591773585,0.8795425916922386,-0.07306965828877315,-1.3928132330485004,0.07280070331692694,2.5730978986554676,2.3228773698475624
43.299,0.42516847511759975,0.8795428003491521,-0.07306942152454142,-1.392810012453318,0.0728017205695311,2.573099017633332,2.322869638728185
43.333,0.42516596946381685,0.8795478810865927,-0.07307220558430019,-1.3928132068831007,0.07280070331692694,2.5730978986554676,2.3228674007726884
43.367,0.42516596946381685,0.8795499643607738,-0.07306942285973834,-1.3928107277213178,0.0727997877895832,2.5730956606997384,2.322875131892247
43.4,0.4251659694638168,0.8795425655139644,-0.0730722055963296,-1.3928132333755492,0.0728017205695311,2.5730978986554676,2.322868519750323
43.433,0.4251606797502752,0.8795453313903859,-0.0730722055843002,-1.392815500610753,0.0728017205695311,2.573096779677603,2.3228773698475624
43.466,0.4251737648321871,0.879542591371393,-0.07307220558430025,-1.3928157359768767,0.0727997877895832,2.5730967798391085,2.322877369849656
43.499,0.42516596946381685,0.8795478580090483,-0.07306942152454142,-1.39281323337535,0.0727997877895832,2.573096779677603,2.322874017738042
43.533,0.4252070212735868,0.8795539581046556,-0.07309560295159212,-1.3928415411198074,0.035147838543569954,2.5732125018048073,2.447319977685284
43.566,0.4251766237205894,0.8795438097896868,-0.07307639606659677,-1.3928348982580196,0.03450722564358344,2.573195915218772,2.4489801624837106
43.599,0.4249798073463875,0.8794465498662234,-0.0732202496811567,-1.3927959390847473,0.022628628470654277,2.573233938470999,2.465646060681541
43.633,0.42491993825842034,0.8794248348536433,-0.07328036293952866,-1.3927740765946321,0.012085160213703539,2.5732837593134636,2.4859484573775443
43.666,0.4248842168877438,0.8793957896553017,-0.0733005697512148,-1.3927779137258982,0.00110471482054475,2.5733256753517466,2.5115402496312864
43.699,0.4248832658540591,0.8793745756781162,-0.07332713652654554,-1.3927824370063107,-0.009896448783384137,2.573360471432032,2.5419702847256875
43.733,0.424888353033154,0.8793787315498767,-0.07334613025756287,-1.3927782808566036,-0.021100322054367737,2.5734123599261647,2.5739532692415352
43.768,0.42482463651631264,0.8793639518008698,-0.07331068903844074,-1.3927148648869174,-0.03347553573506268,2.573161395464602,2.6099015945361845
43.799,0.4248792954583207,0.8793597329948772,-0.07334741446148563,-1.3927842826375887,-0.04464152899468399,2.573448908662767,2.643127683074912
43.833,0.4248810086332879,0.879343106450249,-0.07336061412474582,-1.3927900929361465,-0.05637152389524225,2.5734596687540794,2.6791710501017647
43.866,0.42489232494779205,0.8793500446898923,-0.07337945383217015,-1.3927896044843182,-0.06821574584331547,2.5735222217786227,2.7155559608546955
43.9,0.4248894629061315,0.8793367222521766,-0.07337741514770446,-1.3928053277740524,-0.0801750643816801,2.5735747244932483,2.7532537110959545
43.933,0.4249015139586465,0.8793219195898443,-0.07339449573762646,-1.3928204593441373,-0.09226347985527994,2.573620560308509,2.791324985448636
43.967,0.42516318540405806,0.8795479330913155,-0.07306413278533265,-1.392815730162227,0.0728017205695311,2.573093600763215,2.322875173108771
44.0,0.42516596946381685,0.8795450711316417,-0.07307220558444869,-1.3928107277213178,0.07280070331692694,2.57309791173742,2.322867400835043
44.034,0.42516596946381685,0.8795478550848979,-0.0730722055843008,-1.392813233375532,0.0727997877895832,2.573096779671621,2.3228696387302787
44.06,0.42516596946381685,0.8795479359745225,-0.07307220558430204,-1.3928107277217663,0.0727997877895832,2.573099017633332,2.3228762509255603
44.1,0.42566358369703394,0.8798340856194828,-0.07270925817393081,-1.392897911916398,0.009476804822138085,2.5729651070085744,2.4898361028532747
44.134,0.4250150888466653,0.8794791848670025,-0.07318030450243906,-1.3926838748115156,0.004044140152863918,2.5731593510949686,2.501301694506994
44.167,0.42458340687571106,0.8792426139011456,-0.07346581641763539,-1.3925937260599497,-0.007625327084162414,2.5732319711962575,2.530214436194246
44.199,0.424354040892287,0.8791169056256276,-0.07360801846544263,-1.3925483079357104,-0.019617776041347845,2.5732926011414534,2.5609076945149756
44.234,0.4242432484389127,0.87904075521792,-0.0737002945223546,-1.392533266645132,-0.03196302240511084,2.5733412798920217,2.5959817143138277
44.266,0.42419499008390904,0.8790175841307892,-0.07375663672744626,-1.392519555097369,-0.04432432195045877,2.5734045187076866,2.631836232703975
44.3,0.42415460446359443,0.8789870787844505,-0.07377848435065548,-1.3925234777021265,-0.057060535962398795,2.5734585588665126,2.669186598642039
44.334,0.424146280428654,0.878961084594712,-0.07380790265590775,-1.3925348537756435,-0.06990334206693216,2.573508416668968,2.7082448000677033
44.366,0.42414954486456846,0.8789621232769536,-0.07383396670748432,-1.3925332247996574,-0.08291414475482561,2.5735740993364686,2.7479149925853505
44.4,0.42516596946381685,0.8795479421089994,-0.07307220562439619,-1.3928132333755492,0.0727997877895832,2.573099017633332,2.322876250869698
44.434,0.42516847511759975,0.8795402937561639,-0.07307220558830979,-1.392813233375532,0.07280070331692694,2.57309802947499,2.322870757706282
44.467,0.42516847511759975,0.8795450710365323,-0.07306691587075853,-1.3928132245452316,0.07280070331692694,2.573094540106818,2.3228708126523423
44.499,0.42516318540405806,0.8795425914782545,-0.07307220558830986,-1.39281323043211,0.07280070331692694,2.5730978986554676,2.3228774949982385
44.534,0.42516596946381685,0.8795457730350514,-0.07306715263498959,-1.3928132333755492,0.07280070331692694,2.573096779677603,2.3228664247280006
44.567,0.42516596946381685,0.879540060680057,-0.07306942188674198,-1.3928100124658795,0.07280273782213527,2.5730956606997384,2.322871876683914
44.6,0.42516596946381685,0.879545071024651,-0.07306942153657042,-1.3928057968773104,0.0728017205695311,2.573095660699738,2.3228751319110894
44.634,0.42493997484185364,0.8794074090323649,-0.07323994605713402,-1.392760403891299,0.02754362788572884,2.5731951137794855,2.3908969722892035
44.667,0.4247630525998689,0.8793624744902093,-0.07326949869714738,-1.39265075065053,0.02924560318873226,2.5729652046256746,2.371273891280273
44.699,0.4244726107472099,0.8792392675795604,-0.07347369568188888,-1.3925550908812276,0.017040254266107446,2.573020515185025,2.3846552205340963
44.733,0.42516596946381685,0.8795450710246493,-0.07307471134634419,-1.3928079435529912,0.0728017205695311,2.573097898816973,2.3228773698475624
44.766,0.42456481299053994,0.8792043478808518,-0.07358967208825806,-1.392677633162588,0.00214709693355708,2.573343112242169,2.4138747149590607
44.799,0.42485958176307914,0.8793723067657977,-0.07327567662692314,-1.3926911962097792,0.012517895468352691,2.573173520832068,2.399669692453406
44.833,0.4246201431597063,0.8792913853008226,-0.07342851156535168,-1.3926185064029042,-0.002669635008521354,2.5730757414296725,2.426837359474149
44.866,0.42456826954159155,0.8792745178844923,-0.07340424268790002,-1.3925917134944212,-0.01104203377049906,2.5730224200942864,2.434317844109721
44.9,0.42460197093638286,0.8792573295858856,-0.07349192846493402,-1.3926409383424643,-0.02150481583395436,2.5732470413745876,2.448228545879557
44.933,0.42457616923426933,0.879242894740047,-0.07348393594563696,-1.39263173381989,-0.03204906539273811,2.573242671422305,2.4686028288586
44.966,0.424516673619566,0.8792404372984715,-0.07345406726680714,-1.392557573435874,-0.043092848369780334,2.5730258244507382,2.4944893778451966
44.999,0.4245895339359027,0.8792330964456188,-0.0735164816799605,-1.3926264944329434,-0.05352076252157545,2.573297257854918,2.5201994961824514
45.033,0.42457081245769057,0.8792212454215145,-0.07350313342233061,-1.3926227206715858,-0.06465104270840438,2.5732902671867617,2.54872545010727
45.066,0.424513816114497,0.8792238320323857,-0.07346809751030214,-1.3925441417805748,-0.07615883559739878,2.5730491630570107,2.5800499579617266
45.099,0.42451842672895435,0.8792115432108636,-0.07347566395155347,-1.392546967975214,-0.08742732560168509,2.5730421115698867,2.611408401145944
45.133,0.42517125917735854,0.8795426433759638,-0.07306942152454142,-1.3928107277213178,0.07280070331692694,2.5730978986554676,2.3228674007724583
45.166,0.42516596946381685,0.8795457730349044,-0.0730722144976419,-1.3928132333378629,0.07280070331692694,2.573096779677603,2.3228762508759786
45.199,0.42516847511759975,0.8795400606919436,-0.07307471123808308,-1.392813153902684,0.07280070331692694,2.5730977809178976,2.3228773698475624
45.233,0.42516318540405806,0.8795453734132409,-0.07307471127416948,-1.3928182437019687,0.0728017205695311,2.5730979030161185,2.3228729893039497
45.267,0.4251606797502752,0.8795425653827494,-0.07306691587075853,-1.3928079407185683,0.0727997877895832,2.573096779677603,2.322873719041408
45.3,0.4253710853340902,0.879631983241624,-0.07297562383873135,-1.3928272290339017,0.016176153181291397,2.5731573773347733,2.399003381150399
45.334,0.42516596946381685,0.8795478550844025,-0.07307221435329628,-1.3928107276854258,0.07280070331692694,2.573096779677603,2.32286741908719
45.367,0.42479036058005537,0.8792934338169758,-0.07338496420631113,-1.3927187559867331,0.01660743662464359,2.573264521219361,2.4007966132273477
45.4,0.4246531433910956,0.8792927242028332,-0.07332589688474744,-1.392593090595831,0.01808232207992244,2.572977983507231,2.4084931010756847
45.434,0.4244495006616482,0.8791714781044684,-0.073535365653286,-1.3926069949523923,0.006319454731690932,2.5732363166279644,2.4318650758059377
45.467,0.4243452479336671,0.8791094194934717,-0.07361026860850473,-1.3925871067499562,-0.004506466086577454,2.57324781304866,2.459095720082164
45.5,0.42423358045045667,0.8790855065541381,-0.07361491067603065,-1.392506866199139,-0.016125411492848407,2.573041574015406,2.4889344764841788
45.533,0.42510144375556663,0.8795503896763773,-0.07313490500915663,-1.3928107277217663,0.0728017205695311,2.573099017633332,2.3228784888256597
45.567,0.42473085831480795,0.879285970612691,-0.07336241125336063,-1.3927417505326734,-0.014633352632760221,2.5730749929503176,2.4921891538220127
45.599,0.4247882141418673,0.8793802111843956,-0.07330803457712243,-1.3926790479820133,-0.013969768495087465,2.5731634223189594,2.4861823143144868
45.634,0.42457654059820893,0.8792960124138949,-0.07339592444518583,-1.3925902524157943,-0.026847554765204507,2.5729612499471717,2.5063660474325182
45.667,0.42448216393257443,0.8792518600376784,-0.07342722530554191,-1.3925556877639398,-0.03882638130481375,2.572925867956407,2.5297382773896473
45.699,0.4248699735389291,0.8795683738057393,-0.07329007947182964,-1.392848070454443,0.07281067239244778,2.573094537361223,2.3228674007724557
45.733,0.42485495562498055,0.8795616797823596,-0.0733534212696265,-1.3928374072871266,0.07281067239244778,2.5730979379013244,2.3228807077076956
45.767,0.4248355315093402,0.8795637327307081,-0.07335878120807178,-1.3928190781669958,0.07280670510729152,2.5730990176870936,2.3228718766908925
45.802,0.4254131834881152,0.8797927450675944,-0.07294192443940606,-1.392859516872397,0.009086816709915624,2.572923566202297,2.4078401470770316
45.834,0.4249143145466192,0.8795670759135259,-0.07326175009074198,-1.3927377444010682,0.0016018591578443875,2.573066378996314,2.422821711367023
45.866,0.42489661000200485,0.8795821955998738,-0.0733219760038258,-1.39284504560704,0.07279287047518623,2.5730868106020828,2.322878135675525
45.899,0.42459839847565206,0.8794178497545779,-0.07348936013965801,-1.3926751899858978,-0.010896639074254644,2.573136042904883,2.45011020024479
45.933,0.42487394167817527,0.8795725827177483,-0.07322153066718773,-1.3927340102174988,0.00527604865715503,2.5728517501926493,2.4227186112235604
45.966,0.4244496896763499,0.8794195977274786,-0.0734712071686685,-1.3925872746412447,-0.012140464278544982,2.572899492689462,2.452188548276231
45.995,0.4244481884867257,0.8794008840296197,-0.07347191725281021,-1.3926354131314707,-0.016751593140466703,2.5728516919657185,2.449389415608845
46.033,0.42441903561793026,0.8793663886354768,-0.07355957498911714,-1.3926576908764705,-0.027158917600292654,2.5730694236028917,2.455782463520947
46.066,0.42433498035248807,0.8793684492399381,-0.07351626500588182,-1.3925668895250496,-0.03799122935556021,2.5727987552345386,2.4704100493605488
46.1,0.4244023157383845,0.8793506049546194,-0.07357772056015577,-1.3926476750933343,-0.04697619646924789,2.5730986795120945,2.4859548701370073
46.133,0.4243371635832274,0.8793583600028994,-0.07353692897921338,-1.3925404336712495,-0.058293146895023185,2.572793230681894,2.5114076770613494
46.166,0.424330025940586,0.879344798187307,-0.07352810794140385,-1.3925528340993711,-0.06848260567535203,2.572824641234112,2.5353182507745764
46.199,0.42432299087626024,0.8793345940726622,-0.07353472724290189,-1.3925331067330884,-0.07922522681264699,2.572766493704064,2.5617729003035894
46.233,0.4243717252351855,0.8793296997346802,-0.07356957376472639,-1.3925978846126634,-0.08962282946298838,2.5730251388959093,2.589190382397611
46.266,0.4243718192536896,0.8793152160406983,-0.07357784502569586,-1.3925973896375785,-0.10045559186846553,2.5730081641461098,2.618825297887547
46.299,0.4243859756894235,0.8793234665587999,-0.07359709826356742,-1.3925982683855143,-0.11130323769599659,2.5730760500593437,2.649362328385923
46.334,0.42438102362881125,0.8793102904781271,-0.0735932895904936,-1.3926116991692368,-0.12235058153098777,2.5731160112761344,2.6810327183057012
46.366,0.4243954505226144,0.8792961224660552,-0.07361297638187114,-1.3926263800111611,-0.1335019509320876,2.573160612021269,2.7138964404209247
46.399,0.4244109734660393,0.8793072313599355,-0.07362717743194658,-1.392624887288651,-0.14466062517419243,2.5732170936633807,2.7472817479698826
46.434,0.42434548138686345,0.879295132053521,-0.07357512766285357,-1.3925514262423135,-0.15911607985927212,2.5729142097876654,2.7910824336236484
46.467,0.42434119135830795,0.8793035937761475,-0.07358119595982071,-1.3925217956686087,-0.17115358734139452,2.572886239971778,2.827901893989722
46.501,0.4243105949915167,0.8792894734133698,-0.07356001350941099,-1.3925038101959384,-0.18364538931764418,2.5728126475372246,2.8666363717380285
46.534,0.42438078380796274,0.8792961777372783,-0.07358290650672039,-1.3925943282290216,-0.1939792538852343,2.5730374671954284,2.897689169575921
46.567,0.4253127405058093,0.8796960225092364,-0.0729695099182817,-1.3929695814199088,0.07279480325513414,2.573002229215168,2.3228795933275634
46.6,0.4252515785455425,0.879709435454586,-0.0730203754145985,-1.3929790434528533,0.07279775328768623,2.572993379115837,2.3228828985410734
46.633,0.42521393502747873,0.8797281588742377,-0.07304983888654601,-1.393011442805334,0.0727997877895832,2.5729727690972695,2.32288761338571
46.667,0.42518458290428185,0.8797235962949478,-0.07305265233507563,-1.3931300038060368,0.07280568785468736,2.5729679815852835,2.3228867355595493
46.7,0.42518862109121525,0.8797547899881916,-0.07304519782348896,-1.3932213028772185,0.07280070331692694,2.5729517978196417,2.3228933629658486
46.734,0.4251834108518792,0.8797658040063175,-0.07305093436137723,-1.3932394779439556,0.07280070331692694,2.5729448743487042,2.322891138092072
46.768,0.42518586352241033,0.8797580086390177,-0.07305622408877163,-1.3932369722901727,0.0728017205695311,2.5729425922522102,2.322894835156423
46.8,0.42518082572329363,0.8797346225370439,-0.0730593414665853,-1.3932186798423396,0.07280273782213527,2.572944812420714,2.322895993622147
46.834,0.4251612486413871,0.8797327187418825,-0.07307450960401347,-1.3932212198471026,0.07280529283778167,2.572926347498428,2.322954872416833
46.866,0.4243401488686418,0.8793345509369388,-0.07352033631235155,-1.392934864334145,0.031859289181560335,2.5728695117391744,2.311222932391047
46.9,0.4242221273458604,0.8793368253245939,-0.07354686935235577,-1.3928878121219626,0.024065216573381676,2.5727846276378763,2.3076041443738298
46.933,0.4241524662151148,0.8792965768924317,-0.07365734764086795,-1.392921608775909,0.012046341889584866,2.5729704375676974,2.3123522336782116
46.967,0.4249463837903564,0.877339461266165,-0.0739105853664337,-1.392950770599955,0.07283025913058275,2.5715832354378714,2.32462735803944
46.999,0.42490135651177796,0.8758516163591598,-0.07405832960837934,-1.3929598802196743,0.07282863911986258,2.5709843677279625,2.324626006477093
47.034,0.42489570809985694,0.8739829256994011,-0.07436569496690702,-1.3929592452519013,0.0728306736270782,2.5697706257401713,2.3246252800296574
47.067,0.42477632798957377,0.8715032245836055,-0.07481684012323485,-1.3929706186662647,0.07282970076316543,2.567916116917128,2.3246468219332885
47.1,0.42506453302840974,0.8774598078217464,-0.07377211439212772,-1.3934504142045245,0.026160873340348445,2.570811477350505,2.3559147051917417
47.134,0.42507995609019833,0.8759501281122644,-0.07404230462965522,-1.3935381236742952,0.02956784477635921,2.5700550131779902,2.37136077039035
47.166,0.42462524700235615,0.8751806849097035,-0.07416470992903879,-1.3928386485386035,0.017844368165754076,2.5702202938193324,2.3974962374246243
47.2,0.42466833109117236,0.853415289338899,-0.0837090728561544,-1.3929517928446156,0.07282080627812279,2.5494734679703126,2.3246632697580036
47.233,0.4244641165291602,0.8455797040454373,-0.087354788203132,-1.3929881619995497,0.07282172180546655,2.537617410432259,2.324660902442285
47.267,0.4243549181385235,0.8367286381510816,-0.09146831224312814,-1.3930103321437541,0.07281877616081926,2.5211109701360828,2.324663271235509
47.3,0.42434624526493087,0.8263646937535326,-0.0957394616358163,-1.3930558298909923,0.07282080627812279,2.5010775213799796,2.3246691713933005
47.334,0.4242837600521673,0.8141838579135073,-0.09999957463995453,-1.39311476919763,0.07281774866107266,2.477750800717136,2.3246727115907753
47.366,0.4242672304057292,0.8011455688052518,-0.10436175030419849,-1.3930920847464792,0.0728208004249079,2.4525678580560495,2.3248155058145743
47.399,0.42418892786526113,0.7860562613481876,-0.10833637110932062,-1.3932479769461183,0.07281480448775819,2.4261352469868096,2.325064770228547
47.433,0.42418805139346993,0.770019320046738,-0.1118582264712552,-1.3932921992786467,0.0728208062781338,2.4001760238035734,2.325106101000783
47.467,0.4240433120362942,0.7527322918109418,-0.11475917328654484,-1.393459732397332,0.07283043458195851,2.3753085477468563,2.3252042295824054
47.5,0.42396741091366463,0.7340666473729462,-0.1171585683883365,-1.3936412360983488,0.0728285525310137,2.3514500329718135,2.3252850070737234
47.534,0.4238373256625927,0.7786102541772069,-0.1094426461819431,-1.3951832249934313,0.03525799659322448,2.4102626526702533,2.4339412731100882
47.567,0.4228246423177593,0.7647976002233472,-0.11167354101422688,-1.3932846789399038,0.0350649561004186,2.399812965835009,2.4379754787899657
47.6,0.42173155925306016,0.759245406834391,-0.11240059858433238,-1.389457550244038,0.026241800803918913,2.40292397993867,2.4534499538227568
47.634,0.4233643695804401,0.6538879313330946,-0.12391387648101711,-1.3939500734539856,0.07289560271530278,2.2575396328747157,2.325313636870802
47.667,0.4231147452176143,0.6330896627349075,-0.1248790502690401,-1.394005425441262,0.072925341936938,2.231569304433869,2.3253202635660095
47.7,0.4233160688933708,0.727095996288873,-0.1165608545092649,-1.4004665211120964,0.022753920733866728,2.3288211551849116,2.450935138347834
47.734,0.4226968286946834,0.5917039680751787,-0.12652503568500423,-1.3938375759370556,0.07297780204260698,2.1767557281402063,2.3253460704668245
47.767,0.42250896651249387,0.5712055520354005,-0.12723043261664102,-1.3938207104204055,0.07297182719975266,2.1477276187339966,2.3253417784407358
47.8,0.422346304313729,0.5512483821239366,-0.12814917574898055,-1.3937735489872372,0.07297089130579076,2.1192150538241283,2.3253462524212103
47.834,0.42204955864904453,0.5326224531532834,-0.1292852333467873,-1.3934803709465708,0.07296031536041384,2.093221463812902,2.325336967414184
47.867,0.4215938531012964,0.5190645653659361,-0.13041213333159163,-1.3912384563670996,0.0730008609037053,2.0749903560308267,2.3253321877689483
47.9,0.4226771206726676,0.5695541658724794,-0.12721321433113442,-1.394503538170894,0.03668281980469246,2.1377441668648203,2.4204079888291883
47.933,0.4210712225150053,0.5134115660675643,-0.13084292708525191,-1.385679781159184,0.07293549131678172,2.0747427476974734,2.3253133227241185
47.967,0.421181386823819,0.5368247189773809,-0.12897265489937482,-1.3843674383135518,0.03648412673298029,2.1192824968093866,2.4018774407427266
47.999,0.4210581790967156,0.528258234640762,-0.13004791816993944,-1.381694428007993,0.026193341053167174,2.117460134120133,2.416652714837909
48.034,0.4208160536865675,0.5244850549375135,-0.13050372255321552,-1.3796887869050565,0.011604054094362048,2.11845169527777,2.4415728689600904
48.066,0.41999857769920007,0.5136470957680866,-0.13118107094753895,-1.3854244018966113,0.07295148671927655,2.0749310092905717,2.325307376510989
48.099,0.4203418733212976,0.5197671469219101,-0.13026714705734221,-1.3802660104650029,0.006092114789204572,2.105573063264151,2.447046922343489
48.133,0.4199967186967859,0.5185880835320571,-0.13018476529537004,-1.3802724929493788,-0.0009382990020876392,2.1046655217304373,2.472728926090804
48.167,0.42008025615143924,0.5138554982379405,-0.13112889537740238,-1.3854226199729003,0.07294625810872989,2.074900762716929,2.325299393885381
48.2,0.42007132806179687,0.5137990857581091,-0.1311369888470243,-1.38539970465767,0.07294625955699208,2.0749051369163696,2.3253052402802905
48.233,0.42008687926591637,0.513766930170833,-0.13112390409020055,-1.385388404932471,0.07294783600782001,2.0749096128278306,2.325299729672768
48.266,0.42013142229243683,0.5137540165458905,-0.13110236714297047,-1.385404400577366,0.07294394705535699,2.074906255894237,2.325298508761618
48.3,0.4201598537770775,0.5137559426432367,-0.131086023302182,-1.3854018948873115,0.07294517543962094,2.0749084938499665,2.3252975634932946
48.333,0.4201499873472765,0.5137481207847595,-0.13106246080562028,-1.3853812928450735,0.07295109213280837,2.0749084938320213,2.3252930876920495
48.367,0.42016056677437663,0.5137534104983011,-0.13104103002952208,-1.385375278718378,0.07294618870976488,2.074910731805695,2.325299745389633
48.4,0.42016097156311333,0.5137612058656258,-0.13102703612033006,-1.3853862124698053,0.07295009091000941,2.0749118507835598,2.3252941710821675
48.433,0.4201648756673461,0.5137637115194087,-0.13102908561112533,-1.3853761117234347,0.07295043985035944,2.074911851268151,2.325298233953201
48.467,0.42017795848924644,0.5137612058656258,-0.13102562926944933,-1.3853753784422294,0.07295240275542815,2.07491185078356,2.3252949918270707
48.499,0.42017582782188,0.513740325417435,-0.13102809603942153,-1.385370638713502,0.07295090433162003,2.074914441951999,2.3252873244031242
48.534,0.4201680324548169,0.5137396118514335,-0.13103247543183166,-1.3853702788269309,0.07295353458618953,2.0749118507835598,2.3252982339532746
48.567,0.42015958406783194,0.5137402914358602,-0.13102876376063308,-1.3853830855018212,0.07295125483761943,2.0749118507835598,2.3252993529310655
48.599,0.420164873408594,0.513739985433002,-0.13103091865496466,-1.38538837520325,0.07295547174745126,2.0749073748721014,2.325295994543507
48.633,0.4201758190069194,0.513768997332165,-0.13102017229203372,-1.3854011818902532,0.07295643726638533,2.0749029992191077,2.3252982339352557
48.667,0.42017582782188,0.5138189919726428,-0.13101969563998547,-1.3854358973907868,0.07295842031963969,2.074895167773768,2.3252927407887243
48.7,0.4201858042776874,0.5138300021429368,-0.13101388275816972,-1.3854448389849041,0.07295547174745044,2.074887144253681,2.32529162181086
48.734,0.4202040867466714,0.5138327901656167,-0.13099337079355125,-1.3854644396463929,0.0729551168790569,2.074880096770509,2.3252938597665893
48.766,0.42021050193146625,0.5138505749899481,-0.13098169910844562,-1.3854941677399208,0.07295445238543287,2.0748701688448588,2.325295995997058
48.8,0.42021908880082554,0.5138487558866313,-0.13097037099260722,-1.3855150834574037,0.0729564889933697,2.0748677593701266,2.325294978744454
48.833,0.42023393414617516,0.5138618409675463,-0.13096218040158536,-1.3855289272961302,0.07295535345798525,2.0748609245618184,2.325294800725248
48.866,0.42024539394995436,0.5138887590766513,-0.13095514696198546,-1.385565550299048,0.0729563706562806,2.074859766338097,2.3252971149753114
48.9,0.42027032168547723,0.5139089963211462,-0.13093180554803246,-1.3856105513013244,0.07295433615128662,2.074850663032258,2.3253015908867942
48.934,0.4202870445832141,0.5139313997546501,-0.13093595893200072,-1.3856235426023236,0.07295305264834114,2.0748440084448867,2.3252916218108597
48.966,0.4202680784549991,0.5139764003456958,-0.13093596772143715,-1.3856614095599296,0.07295541855141416,2.074837044556938,2.3253004719089296
49.0,0.420241859089551,0.5141117401540706,-0.1309546801426137,-1.3857479995790105,0.07295647569429642,2.0748378980579902,2.3252959959970574
49.033,0.4202139956640246,0.5142817378490049,-0.13095502571055578,-1.3858965486282206,0.07295942588930616,2.074819712997954,2.3252982339532005
49.067,0.4202252382550828,0.5147011575396276,-0.1309501276629194,-1.3861319068269684,0.07297198689204674,2.074798253078087,2.3253015315470593
49.1,0.420302369046488,0.5159473395401696,-0.13093387138941734,-1.3868611609110684,0.0729652470085356,2.0747994058114285,2.325309143987602
49.134,0.420230794403961,0.5180421514667061,-0.13098686791012507,-1.3883121284211921,0.0729632695461672,2.074822657847054,2.325309574664474
49.167,0.42013168329580547,0.5213391843523562,-0.1309899102310144,-1.3903691086111258,0.07296422993917913,2.074853877879955,2.3253041207995206
49.2,0.42056313390011635,0.5156601141906263,-0.13136571384526885,-1.3869894535799911,0.019958651923770887,2.075244618687096,2.4267365717528655
49.234,0.4204910434249216,0.5168746384702549,-0.13137767536424771,-1.3876492155315905,0.013056322634256823,2.0751087534949484,2.4329039625939437
49.267,0.42054348412413134,0.5174663381100757,-0.13155191572828695,-1.3879711271046018,-0.0037925413037749323,2.0750963999413443,2.4495847192397413
49.3,0.42061758711169883,0.5177634620687215,-0.13167412369566112,-1.3881183257596392,-0.020173871650476016,2.0751175517180407,2.4691340282886376
49.334,0.42068880635341177,0.517891475202811,-0.1317723921473668,-1.3882039269407613,-0.037194779423350255,2.075151700904989,2.492371405694893
49.367,0.42080435648288006,0.5179511984081602,-0.13191277469092721,-1.388264674794769,-0.054504545212291866,2.075203179157672,2.519010663711221
49.4,0.42029363710559586,0.5179794722918611,-0.1312723329666472,-1.3881530260344626,-0.07270587836248499,2.0748151169529514,2.5481969878348174
49.433,0.4208362327457271,0.5180165844498825,-0.13192080409828844,-1.3882933042733416,-0.09103834436309644,2.0752157592374196,2.577217548253593
49.467,0.42093077814042346,0.5180171180556759,-0.13204296808897809,-1.388320756674224,-0.10999697664078045,2.0752145856879967,2.608170342194864
49.5,0.4210464207585032,0.5180294124457481,-0.13218620731043007,-1.3883309218904571,-0.12946604013179197,2.0748905828653985,2.6400338032648953
49.534,0.42114559730289347,0.5180120637626642,-0.13230114865675446,-1.3883433671900915,-0.14950793369790016,2.0740836475529996,2.6731094308723335
49.567,0.42128723990494343,0.5179889332004688,-0.132457433358935,-1.388361136410989,-0.16977544822161494,2.0727803479287097,2.706946631603941
49.599,0.42142342940118116,0.517984198232071,-0.13260320807270443,-1.388362442376752,-0.19055562757813238,2.070932845886972,2.741605737796654
49.633,0.4215635238859621,0.5179430423121261,-0.13275153358787684,-1.388379809969842,-0.21206815424180814,2.068427264851101,2.777561482978385
49.666,0.4013061032802611,0.7114945208744877,-0.13855635009040912,-1.3944937878653043,0.0729767016498316,2.1776701779693974,2.3253212567528934
49.7,0.40070272851587724,0.7252654800121349,-0.14045306935913593,-1.3941796312525674,0.07298204650830277,2.19909514605594,2.325321035306874
49.733,0.4004394299660481,0.7367114615598426,-0.1421729621620165,-1.3942746508933013,0.0729530806421225,2.2172448942561114,2.325316503218057
49.767,0.39979697461755326,0.740929139887975,-0.14259905529647818,-1.3963120350948048,0.07294910681096545,2.217114551266926,2.325305240280521
49.799,0.3999703999711126,0.7416251888052318,-0.14236380933368079,-1.396760058686911,0.07296258607188827,2.2171297792590443,2.3252965493054947
49.834,0.39997945761569315,0.7401234437649523,-0.14261873254177512,-1.3955804375383996,0.07299471969542382,2.2172077867182276,2.325298162582661
49.867,0.40010000163404985,0.7390923123676392,-0.14253677182448535,-1.394787121276517,0.0729995626093435,2.2172313339118697,2.3253014259677163
49.901,0.4004014804714466,0.7394132001302142,-0.14232352434280734,-1.3947520731767427,0.0729847107066076,2.2172150473596877,2.3253005291358413
49.934,0.40045277472371155,0.7396989126137498,-0.14232786734031172,-1.394833670381895,0.0729807434214486,2.2172083334922785,2.325302650758234
49.967,0.4004371514450796,0.7392382636287819,-0.14232571342102113,-1.3945650855191831,0.0729807434214486,2.217241559262204,2.3252982344377173
49.999,0.4003978366235074,0.7391170459921946,-0.14235950940491512,-1.394427975693443,0.07298277792665693,2.217255411074153,2.3252916087289086
50.034,0.400437445172518,0.739276676255814,-0.14233136193163212,-1.3945096272167283,0.07297677613651492,2.217244441721199,2.325292740789389
50.067,0.4003864934018624,0.7393120932441642,-0.14237742658692393,-1.394519844647904,0.07297677613629235,2.217244029168508,2.3253015908867947
50.1,0.40036022844732133,0.7391761385778102,-0.14239710194289154,-1.3944545014636227,0.07297982789410486,2.217255470434824,2.325300471908927
50.134,0.4004190183726275,0.7390996062890558,-0.14239726175188047,-1.3944229765783145,0.07297881210186445,2.2172658336957007,2.3252982339532005
50.167,0.4004147611344069,0.7391618161928942,-0.14239698617081686,-1.3944485897974868,0.07297779338889651,2.217265247356638,2.325297038680977
50.2,0.40038540249818566,0.7392174835230345,-0.14240756559789614,-1.394475510043083,0.07297484335634444,2.217259289321709,2.3252905023484787
50.234,0.40036021504075564,0.739152310542524,-0.14242452444032241,-1.394451702438682,0.07297677613629235,2.217262897918595,2.325297055635187
50.267,0.4003509214992373,0.7390837499803143,-0.14243982796895055,-1.3944068361396849,0.07297779338889651,2.217277254527979,2.325299338395563
50.3,0.40035909725474944,0.7391239634145942,-0.14244229390424953,-1.3944214578483536,0.0729758606089486,2.217282396206149,2.3252905028329214
50.334,0.40037035293251966,0.7391767336629752,-0.14243767780175204,-1.3944452520504147,0.07297484335634444,2.2172767278725094,2.3252981162156305
50.367,0.4003693992958879,0.739146324404577,-0.14244052363911555,-1.39442993972176,0.07297677613629235,2.217277745101187,2.3252993529309913
50.4,0.4003641085635151,0.7390908313694005,-0.1424380208656986,-1.394406119046243,0.07297677613629235,2.21728577203789,2.325290502832994
50.434,0.4003668926232739,0.7391005773126034,-0.1424380121254326,-1.3944110817053705,0.07297677613629235,2.217282513478726,2.3253004719089296
50.467,0.4003668926232739,0.7391444439888001,-0.14244052646058655,-1.3944370220915634,0.07297677613629235,2.217281496220165,2.325292740770777
50.5,0.4004267109810007,0.7393859544318273,-0.14254352636855483,-1.3945715143358361,0.03951060311679022,2.217325179499813,2.314967568039396
50.534,0.40036301026344656,0.7393893555125892,-0.14253804758824185,-1.3945571848213865,0.03574712298022931,2.2172776898605697,2.3287748561322577
50.567,0.40039668622300534,0.7391239634145776,-0.14242674339237593,-1.3944232176477998,0.07297677613629235,2.2172836324506333,2.3253004719029455
50.601,0.4004337460615517,0.7393891741439269,-0.1426380601607029,-1.3946329550026926,0.026011552588482978,2.2173852523636715,2.34174917224
50.634,0.40026312439522815,0.7393921146424596,-0.14235616145301666,-1.3944996365425997,0.025053327206660647,2.21708109261699,2.3491813772414147
50.667,0.400207862188374,0.7392917397288565,-0.14241028732547534,-1.3944675849149597,0.012316512643837818,2.217071522965723,2.368236950792399
50.699,0.40031192774760793,0.7392744760132057,-0.1425890990130254,-1.3944991156635025,0.002372833824372478,2.217283624492609,2.3841995106280613
50.734,0.4001603849234012,0.739234147886207,-0.14243407987691903,-1.39442853911702,-0.009706909460982516,2.2170473138314506,2.406702695525663
50.767,0.40013220769293056,0.7392216897777066,-0.1424096816336995,-1.3944085802280402,-0.02125934958529463,2.216994510255983,2.429177032510701
50.8,0.40040823869106257,0.7391161681577807,-0.1424203907293194,-1.3944242154171593,0.07297779338889651,2.217280377229055,2.3252900972924766
50.834,0.40010324373765194,0.7392118766532558,-0.14237868651520014,-1.3943889786813326,-0.03311367665081377,2.216933871973861,2.4538330017005325
50.867,0.40063815327431396,0.7394923837965628,-0.14251041369518003,-1.3946769651063473,-0.008560114671189112,2.2173692906538527,2.4334252000051215
50.899,0.4001430889618858,0.7392853924379219,-0.14221487258711107,-1.3943724795004204,-0.025960670456498747,2.216824276049362,2.4495811810161285
50.933,0.40038340318485144,0.739248674042007,-0.14256091536389892,-1.3945174925210884,-0.03072566827957246,2.2173096801884764,2.4539947705918657
50.966,0.40043883042984996,0.7391161680472524,-0.14240122732368082,-1.39440625227046,0.07297484335634444,2.2172792582511898,2.325288365148976
50.999,0.40043890916704744,0.7390874922317371,-0.14239661123676697,-1.394400513933416,0.07297677613629235,2.2172770202954597,2.325293936060724
51.033,0.4004390666410472,0.7390683870817487,-0.1423931564853635,-1.3943817104246525,0.07297881064150069,2.2172770202954606,2.3252971130372604
51.066,0.400476430863046,0.7390437629005695,-0.14238069807954107,-1.3942980691429834,0.0729771310046867,2.2172821808772323,2.325296881383694
51.099,0.40062686717539125,0.7387112459180885,-0.14240017070060818,-1.39277274891457,0.07297639242404873,2.2172733551303385,2.325288035623154
51.133,0.4010679506738574,0.7383398611082034,-0.1424169076398859,-1.38954071301116,0.07298156685961617,2.2172255913456214,2.3252898161879014
51.167,0.40157965081663927,0.7370072161183866,-0.1424246857371922,-1.3854107704180507,0.07298258411222033,2.217091981326909,2.325292958651772
51.199,0.4025245674341318,0.7352252144489029,-0.14242112543978389,-1.3804407836031385,0.07298156685961617,2.2162944986237423,2.325287822511989
51.233,0.4036527491486828,0.7322090579130891,-0.14241335843093147,-1.375934496049708,0.07298258411222033,2.2150282688497853,2.3252856990479707
