yuan18844-afk/dissertation/catkin_ws/src/franka_digital_twin/analysis/data/gazebo_slow2_20250728_065133.csv
time,panda_joint1,panda_joint2,panda_joint3,panda_joint4,panda_joint5,panda_joint6,panda_joint7
5403.799,0.3928081133240262,1.0682238020149848,-0.045537911629869754,-1.2292191344501617,-0.04302881150633464,2.385156749944473,1.3878919141629042
5403.834,0.3927890391582096,1.0681993579483144,-0.04555578258263093,-1.2292217081669214,-0.052079550177184686,2.385163795220361,1.3890759789347413
5403.865,0.3927963326352959,1.0681815529721357,-0.045583181629449854,-1.2292267985188587,-0.06114768681622795,2.385160141317451,1.3907129265398321
5403.899,0.39281081988464983,1.0681904396599684,-0.045607580582149865,-1.2292144943179988,-0.07029390015225268,2.3851640056206023,1.392750039344298
5403.933,0.3927332031468387,1.0681700087050858,-0.04551478068318815,-1.2291938320227533,-0.08051308912963329,2.3851440688765173,1.3969432760544018
5403.967,0.39273023294467,1.0681822943210824,-0.045507188529316345,-1.2291705159099404,-0.09009786891142646,2.385134321993762,1.39973875514674
5404.0,0.39270888409496685,1.0681717819677283,-0.04547751907335851,-1.229167892503468,-0.0998524089277728,2.3851288828078907,1.4027352116940843
5404.034,0.39270045720507873,1.068160407265312,-0.04546800534438411,-1.229165290198404,-0.10972297473314896,2.385119601985158,1.4058260893819998
5404.067,0.39276759327170296,1.0681638371374653,-0.04555091300746916,-1.2291889567016758,-0.11933189817000667,2.3851461839720827,1.4072695355220386
5404.1,0.39269678985162226,1.06816645606001,-0.04546389437819709,-1.2291414019810398,-0.13021760648532954,2.3851071140434463,1.4119699566804895
5404.134,0.39267512404380067,1.0681559658043733,-0.045437387788323846,-1.2291371107784403,-0.1405821296460985,2.3850983642861614,1.4149394701243896
5404.167,0.39275618515664235,1.0681591635389402,-0.04554220439153056,-1.2291598687958665,-0.15067181374305338,2.3851260183628966,1.4160003770780927
5404.2,0.392926312368167,1.068330330962933,-0.04537585645757223,-1.2292829727373624,0.009450224685791993,2.3851655356235058,1.4602327960001098
5404.235,0.3929235283081468,1.0683254785995933,-0.04536778268427179,-1.2292829727373624,0.00945172795990286,2.385169729022969,1.4602415443727272
5404.267,0.39292352830769817,1.0683254520374574,-0.045373072397813456,-1.2292829727373624,0.00945240324643348,2.3851669430942457,1.4602327960001098
5404.3,0.3929235283081468,1.0683280608206143,-0.045373072397813456,-1.2292854783911453,0.009448359269711278,2.385163825189083,1.4602393064167765
5404.334,0.392926312368167,1.0683227740491825,-0.045373072397814074,-1.2292854783924911,0.009452758878531168,2.3851656600811437,1.4602393078763083
5404.367,0.392926312368167,1.068328063751957,-0.04537585645752279,-1.2292829727373624,0.00945375851493942,2.385168024318326,1.460236090472245
5404.4,0.3929235283081468,1.068324576963721,-0.04537585645757223,-1.2292854783911453,0.009448479716083352,2.3851690803502508,1.460243783781785
5404.434,0.3929235283081468,1.0683311282375394,-0.04537585645757223,-1.2292829727373624,0.009448044079003935,2.385166655198661,1.4602336925723693
5404.467,0.3929210226543639,1.0683280637627186,-0.04537585645757223,-1.2292801886776037,0.009452640009099766,2.385166969202312,1.460239306632139
5404.5,0.39292353697494015,1.0683259166882135,-0.04537585645757223,-1.2292829727373624,0.009453815242762047,2.385170086579246,1.460237170167914
5404.535,0.3929263123721299,1.0683280637625747,-0.0453705667440305,-1.2292829727373624,0.009451109027190454,2.385167945844557,1.4602316770222452
5404.567,0.3929235283081468,1.0683280372730608,-0.04537585645757223,-1.2292879840449282,0.009448176692339001,2.385165717789938,1.460240425394715
5404.6,0.3929235283081468,1.0683305690544636,-0.04537585645757223,-1.2292829727373624,0.009450481854581895,2.3851643191654373,1.460233813252714
5404.634,0.39292905202537015,1.06832806376407,-0.04537056674403056,-1.2292879840449282,0.009452399347542613,2.3851669353738867,1.4602338115975033
5404.667,0.392926312368167,1.0683280369460175,-0.04537056674403056,-1.2292854783911453,0.009451475213066019,2.38516343557784,1.4602426633503702
5404.7,0.3929182385946052,1.0683303300140399,-0.045373072397368465,-1.2292829727373624,0.00945227171119506,2.385163709713918,1.4602393064167765
5404.734,0.3929235283081468,1.0683304899436454,-0.04537585645757223,-1.2292829727373624,0.009452394686581635,2.385164884649797,1.4602349322305785
5404.767,0.39301453121476193,1.0683645927080043,-0.04540399699937403,-1.229307093668413,-0.022058671348538894,2.3851609961352054,1.5560999837328762
5404.8,0.3928651424511349,1.0683333988408137,-0.04527118217322723,-1.2292414421021682,-0.02527925289976185,2.385086436737385,1.5613617047284274
5404.834,0.3928532224012553,1.0682571772458367,-0.04545570448047087,-1.2292571846737719,-0.034648653091776005,2.385146494547218,1.569869637082669
5404.867,0.3927229032193873,1.068240395393718,-0.045356131387103815,-1.229191205087357,-0.0445545330966759,2.3851005997647476,1.5821457663379626
5404.9,0.39271147210292856,1.0682152240891396,-0.04537524669908155,-1.2291910395762704,-0.05392810997928521,2.385094743270285,1.593438186800368
5404.934,0.39269322935476847,1.0682223991023205,-0.04536195078318972,-1.2291606385151415,-0.06358208353558314,2.385079508395556,1.6055969442095366
5404.967,0.3926708475036351,1.068208666921442,-0.04533742960203302,-1.229157623816012,-0.07331283011276568,2.385069643093585,1.6183968249027778
5404.999,0.3926628313504219,1.0681966987672338,-0.045330997804638784,-1.229152222966552,-0.08317633100381805,2.3850549123359492,1.6318556442692227
5405.034,0.3926536539394352,1.0682084032812114,-0.04531634828838893,-1.229125550108093,-0.09316195573322794,2.3850368345881705,1.6459104296877225
5405.066,0.3926334645289522,1.0681974252916078,-0.04528887354417144,-1.2291217111803228,-0.10326567418537103,2.3850231093643046,1.6605175519977502
5405.1,0.3926259738927156,1.0681859742571893,-0.045281304877741846,-1.2291164304098956,-0.11354863016779504,2.385005459756865,1.6757134161121376
5405.134,0.39261586873853993,1.0681974460879413,-0.04526599030517087,-1.2290886112087902,-0.12401751550707285,2.3849831854039323,1.6914625287994243
5405.167,0.39269141693741716,1.0681896812536298,-0.04535954844214096,-1.2291307006592964,-0.13358629636712038,2.3850607681424574,1.7054298148472897
5405.2,0.39268826277770774,1.0681797425040873,-0.04535648356430855,-1.2291355864673825,-0.144114337932141,2.385072665840399,1.7219560016311846
5405.234,0.392625031856924,1.0681873436976996,-0.04527652791620351,-1.2290749985919422,-0.1556935537373194,2.3849745478206295,1.7411491836220598
5405.267,0.392698792997467,1.0681633855872663,-0.04536710413190548,-1.2291348738044814,-0.1682577238829408,2.3850689865166714,1.7606607629527478
5405.301,0.39292631240515374,1.068328063653708,-0.04537307239781346,-1.2292829727373624,0.009454664982359822,2.38516658232911,1.460240425412586
5405.334,0.392926312368167,1.0683248428545478,-0.04537307143664495,-1.2292879840449282,0.009451360379417238,2.3851691401558903,1.4602371701863077
5405.367,0.3929313236757328,1.0683252027249703,-0.04537585645757223,-1.2292829727373624,0.009449198382448872,2.3851685701361576,1.4602415443725056
5405.4,0.39291573294082227,1.0683255580940867,-0.04537585645757223,-1.2292829727373624,0.00945278467412214,2.385166619873011,1.4602402897609603
5405.434,0.392926312368167,1.068325888182922,-0.045375856457572236,-1.2292829727373624,0.009453776069057118,2.3851690722151218,1.4602449013060994
5405.467,0.392926312368167,1.068327745872625,-0.045375856457572236,-1.2292776830238374,0.009450145905130493,2.385168067542041,1.4602415443718244
5405.5,0.392926312368167,1.0683255571291383,-0.04537307239781346,-1.2292854783911453,0.009453443065064196,2.385165830076121,1.4602372847449632
5405.535,0.392926312368167,1.0683253196876703,-0.04537836211135513,-1.2292829727373624,0.009448554899546432,2.3851658759152023,1.4602393064167765
5405.568,0.392926312368167,1.0683331150590325,-0.04537307239796196,-1.2292829727373624,0.00945269567926843,2.385166931683852,1.4602393064167765
5405.599,0.3929203073986266,1.0683227740505283,-0.045375856457572236,-1.2292801886776037,0.009449553474674395,2.3851669474396164,1.460239306901293
5405.634,0.3929313236757328,1.0683303221685074,-0.04537307239781346,-1.2292829727373624,0.009452235169356863,2.3851680113539726,1.4602415443725056
5405.667,0.392926312368167,1.068327268997633,-0.0453758564575723,-1.2292829727373624,0.009450170815714296,2.385165906441617,1.4602426633503702
5405.7,0.3929235283081468,1.0683280549333036,-0.04537307239781346,-1.2292829727373624,0.009453393427136723,2.385169129675975,1.4602360611176841
5405.734,0.3929235283081468,1.0683206282832667,-0.04537307239781346,-1.2292829727373624,0.009450443893693424,2.3851665421141917,1.460233813252714
5405.767,0.3929210226543639,1.0683333534776112,-0.045375856457572236,-1.2292829727373624,0.009452678116571194,2.385164535921319,1.4602349670067682
5405.8,0.39292889602309,1.0683280372731163,-0.04537307239781346,-1.2292801886776037,0.009449466048109435,2.3851680673798707,1.4602316770222452
5405.834,0.3929210226543639,1.0683280627811274,-0.04537307272259111,-1.2292829727373624,0.00945232329744311,2.3851690790554696,1.4602404238863584
5405.867,0.39301171399928503,1.0683447895462406,-0.04540018380360422,-1.2293099091233204,-0.020668210153053757,2.385160231967589,1.3765876812327527
5405.9,0.3929182385946052,1.068325917996858,-0.04537307239781346,-1.2292829727373624,0.00944919692865551,2.3851664650762427,1.4602349322305785
5405.933,0.3929944368031224,1.0683122767033897,-0.045471311066624054,-1.2292747069353194,-0.027287143950909254,2.3852556474615447,1.3863125832219199
5405.968,0.3929080167590593,1.0683293999633738,-0.04527809352458689,-1.22925243904018,-0.027764471828430892,2.385087250657044,1.3976089455884626
5405.999,0.39284653993940477,1.068274143313971,-0.045493588029462906,-1.2292565956588835,-0.03811880942008017,2.385130029755665,1.383948145513699
5406.034,0.39270230575988396,1.0682401767737906,-0.04541875217673752,-1.2292231337468413,-0.047870070212184146,2.3851116212235244,1.3753307550212321
5406.067,0.39267029794117647,1.068242486148372,-0.04542842796479363,-1.229196366538332,-0.05721471286686253,2.3851038609089326,1.3664032045139969
5406.1,0.3926345028290976,1.068227023245952,-0.04540665529147958,-1.2291912487240753,-0.06670925894496094,2.3851010143513935,1.3581383733104655
5406.133,0.3926187381193307,1.068212325415713,-0.04540090394881169,-1.2291876447310104,-0.07633810075508762,2.3850944970926733,1.350407817054485
5406.167,0.3926922780420794,1.0682212436612089,-0.04549744031596337,-1.229199047397703,-0.08621878413178763,2.3851030330755734,1.3406497335326755
5406.2,0.39268879483451435,1.0682072341445137,-0.04550550137689857,-1.2292027917724875,-0.09610296257342466,2.385107561180389,1.3336021151333801
5406.234,0.39270263036078923,1.068191717625564,-0.045530536154236856,-1.2292108405635291,-0.10608293115449197,2.3851028210015137,1.3266866231831553
5406.267,0.3926308731517807,1.0681860414094846,-0.04544006652224475,-1.2291804872995087,-0.1164108199406515,2.3850858589967423,1.3216176907041017
5406.3,0.39291823859460456,1.0683298499104805,-0.04537307239914999,-1.2292854783911453,0.009452436783367074,2.3851680676198033,1.460236051183893
5406.333,0.3929235283081468,1.0683305684367066,-0.04537836211135515,-1.229285478427484,0.00944978659362122,2.385168063743669,1.4602316770222452
5406.367,0.392926312368167,1.068329854156278,-0.04537307239781346,-1.2292854783911453,0.00945377142193299,2.385166909396082,1.4602403491006957
5406.4,0.39292352830815225,1.068327705451448,-0.045375856457572236,-1.2292801886776037,0.00945160150935055,2.385165889434488,1.4602393064167762
5406.433,0.3929235283081468,1.0683279813472726,-0.045373072397813456,-1.2292879840449282,0.009452270350680725,2.3851680680504845,1.4602393064167765
5406.467,0.3929235283081468,1.068329852849881,-0.04537585645757223,-1.2292854783911453,0.009451614678024724,2.3851690853569156,1.4602360512084431
5406.5,0.39292101971092463,1.0683305660262339,-0.045378362111355125,-1.2292829727023695,0.009451718273025397,2.385168055020373,1.4602393064167765
5406.534,0.3929235283081468,1.068330568388205,-0.045373072397813456,-1.229285478391145,0.00945227674025037,2.3851680676195817,1.4602371701863077
5406.567,0.392552099569083,1.0681654623108692,-0.04547221092280118,-1.22919162078015,-0.025857315369986367,2.3851222192056394,1.5120994754793005
5406.6,0.3924688250027444,1.068163522242891,-0.045482836374367785,-1.2291508125091077,-0.025268058765436585,2.385100540510848,1.5225557893837758
5406.634,0.3922911307497934,1.068069174967861,-0.045539994116972515,-1.2291099752613972,-0.035508687261287086,2.3851066510620154,1.542263930067774
5406.667,0.39224349437658024,1.0680348539853295,-0.04555790715445429,-1.2290914745511436,-0.04358611068010898,2.3850941897859297,1.5608230863647856
5406.7,0.39221299010637,1.0680365516041608,-0.045556022748667324,-1.2290621790844272,-0.05242422526706392,2.3850820145018883,1.5805192022940222
5406.734,0.392926312368167,1.068325882675421,-0.04537307239781346,-1.2292801886776037,0.009452627289440584,2.3851680681043197,1.4602384069017431
5406.768,0.392926312368167,1.0683332651380948,-0.04537307239781346,-1.2292829727373624,0.00944955336574112,2.385166949126455,1.4602426633503702
5406.8,0.39292352834381267,1.068332635278435,-0.04537836211135513,-1.2292857168097244,0.00945471005162712,2.385165825787275,1.4602382891641723
5406.834,0.39281199093673447,1.0683982069027032,-0.0454539150064166,-1.229348422866531,-0.03790531690500387,2.3850771228534704,1.5226675105741156
5406.867,0.3927945057191131,1.0684035167419381,-0.04538483982665209,-1.229236824243988,-0.03657721953864623,2.3851342158175033,1.5095603775664763
5406.9,0.3926504191423774,1.0682581496259038,-0.04538425566937132,-1.2291785500044803,-0.04748603925439987,2.3850697484826675,1.5288365958210335
5406.934,0.3925972559687976,1.0682255752138232,-0.045396854979705026,-1.2291400824475485,-0.0567129935443873,2.3850763112250526,1.5343370536891685
5406.967,0.3925552795467331,1.0681980822439119,-0.04538185590925714,-1.2291292879297355,-0.06603077233900922,2.3850689911890175,1.5406681266429514
5407.0,0.39261811062702723,1.0681867294935996,-0.04547711120771414,-1.2291565972800198,-0.07456047760623097,2.385110334594149,1.5457363868580032
5407.034,0.3925392524824449,1.0681888972670635,-0.045385138971267835,-1.2291007716701596,-0.08486711809889602,2.3850554394769414,1.5551120385548094
5407.067,0.39252730655265644,1.0681774430389481,-0.04537061168789247,-1.2291016425549044,-0.09440586286859354,2.385051950020797,1.5630933041100121
5407.1,0.39260741206242056,1.0681789602057092,-0.04547200778893412,-1.2291259966942718,-0.10386971264328704,2.385095680155029,1.5702140255580508
5407.134,0.3926007090992645,1.0681669904420747,-0.045468330752153285,-1.2291306744076618,-0.11380135858181273,2.3851043337094158,1.5792044338524782
5407.168,0.3925371334254182,1.0681556045050407,-0.0453905910180481,-1.2290958560950305,-0.12704435189775776,2.385045759530154,1.592706044803248
5407.2,0.3926004120394353,1.0681418755388643,-0.045481757001032186,-1.2291302854743806,-0.1371174221645992,2.385098069495296,1.6010952755367045
5407.234,0.3929288180219499,1.0683259090570238,-0.04537585645757223,-1.2292829727373624,0.00945025992325259,2.38516694912616,1.4602360512438846
5407.267,0.392926312368167,1.0683304810781704,-0.04537056674403056,-1.2292854783911453,0.009452745321854028,2.3851677018096495,1.4602382891642463
5407.3,0.3929235283081468,1.068333323021179,-0.04537307239781346,-1.2292801886897167,0.009449244920270362,2.38516795036675,1.4602404582434227
5407.334,0.392926312368167,1.0683305692724971,-0.04537056674403057,-1.2292829727373624,0.00944947797295079,2.3851680681035816,1.4602404253925974
5407.367,0.39344605705942026,1.0687157323704621,-0.04513856280074613,-1.229478760072209,-0.05608274508939903,2.3850768907205993,1.4971804103409427
5407.4,0.39322293047279633,1.0685578211095166,-0.04524697318917781,-1.2293674524034142,-0.04353277519878329,2.3850907210548264,1.4757847213181954
5407.433,0.3927090729764018,1.0682437210227231,-0.04536541344700051,-1.2291348125853307,-0.056101235312585374,2.385117687877152,1.4914533333814388
5407.467,0.39257507385553314,1.0681362021564178,-0.04542610237683409,-1.2291200406852258,-0.06179365967885175,2.3850869428438415,1.491271682229196
5407.5,0.3929288180219499,1.0683234035127058,-0.045373782686497034,-1.2292879840449282,0.009450324952934689,2.3851668313888843,1.460240425394641
5407.534,0.3929210226543639,1.0683305340964322,-0.04537307239781346,-1.2292801886776037,0.009452754476069653,2.3851702043347145,1.460234932230582
5407.567,0.3929235283081302,1.0683305694176315,-0.045375619970625135,-1.2292829727373624,0.0094523513309705,2.3851680681042953,1.4602371701863077
5407.6,0.3929288180219499,1.068325558001271,-0.045373072397813456,-1.2292854783911453,0.009451246152600443,2.3851690853569236,1.4602415443725056
5407.634,0.3929210226543639,1.0683312077099456,-0.045375856458908764,-1.2292801886776037,0.009448045698694039,2.385168719060268,1.460242663331968
5407.667,0.3929210226543639,1.0683305689454492,-0.045375856457572236,-1.2292854783911453,0.009450145435149321,2.3851627062073057,1.4602449008096914
5407.7,0.3929911666544097,1.068337045752826,-0.04539454055105985,-1.2292705494228384,-0.026759316961347146,2.3851571325343226,1.4752870012999946
5407.734,0.39292104865474575,1.0683305694164573,-0.045375856457572236,-1.2292801888996738,0.009453357704046372,2.3851680637416752,1.46023167702424
5407.767,0.39275092767144937,1.0682123524878726,-0.045462937843437246,-1.2292345231345925,-0.03149495433855787,2.385147216359524,1.4909867916907
5407.801,0.3929235283081468,1.0683281852307154,-0.04537585645757244,-1.2292801886776037,0.009451220061842019,2.3851669491264524,1.460233813252714
5407.835,0.39282842139525265,1.068229916001627,-0.0455579028083708,-1.2292770640104118,-0.03168000728236109,2.3851697415591957,1.484232572927418
5407.867,0.39279917613285065,1.068299616048824,-0.045365079394655616,-1.2292284619317195,-0.028610197961476125,2.3851148557842983,1.4814899923359057
5407.9,0.39266772584156406,1.0682152760763497,-0.045420166916118276,-1.2291929764429668,-0.03784088621058945,2.3851198048620823,1.488222957001489
5407.934,0.39261346238215555,1.0681778915149032,-0.04543247316552357,-1.2291736779928302,-0.04601400578781689,2.3851126318843328,1.4948195538886297
5407.967,0.3929210226543639,1.0683278252243393,-0.04537585645757223,-1.2292801886776037,0.009450496670987792,2.3851690853569236,1.4602404253885097
5408.0,0.3929235283081468,1.0683254786314396,-0.045375856565831464,-1.2292879840449282,0.009452675572232137,2.3851680681043197,1.4602408963449947
5408.034,0.392926312368167,1.0683280343254848,-0.04537307239781346,-1.2292879840449282,0.009449193984943333,2.385168067619802,1.4602349322305785
5408.067,0.39310004188671055,1.0684374600419986,-0.04533125820723072,-1.2293468407676276,-0.03238139975289833,2.385145170202346,1.477051630074306
5408.1,0.39298920830343587,1.0683800256602742,-0.04532198430894585,-1.229290254058749,-0.03209904013061937,2.3851030050980206,1.4755646917209981
5408.134,0.39285584776450655,1.0682806021642977,-0.04545660449177724,-1.2292394169562284,-0.041988255329843405,2.3851335743093536,1.4831068436563237
5408.167,0.39279190712615364,1.068228480358436,-0.04548838725870041,-1.2292251145565674,-0.050642535315622794,2.385141772066861,1.4903317237756664
5408.201,0.3927773106892447,1.068194725649871,-0.045528578652913154,-1.2292237577221332,-0.05970052013444693,2.38514268449954,1.498457970135787
5408.234,0.39278008243313955,1.0681956554903147,-0.045558348530144954,-1.2292082164141167,-0.06892281251515886,2.3851503248482455,1.5071943878337803
5408.268,0.39278735938685827,1.0681861838333644,-0.04558131153722833,-1.2292079382506662,-0.07884801592148527,2.3851557857074237,1.517009504834581
5408.3,0.392785377070088,1.0681729069140715,-0.045588959376729576,-1.2292129967518743,-0.08856218938492066,2.385165949373704,1.5268990816499235
5408.335,0.3927987204392833,1.06815759190133,-0.04561239493601921,-1.2292219269273446,-0.09845788192727412,2.385166843775222,1.5372196848764093
5408.368,0.3928169409391895,1.0681674586563181,-0.04563604670472898,-1.2292123636876786,-0.10843542637055403,2.3851755137921984,1.5478319394122897
5408.4,0.39274119483695014,1.0681492707519835,-0.04554381218798387,-1.2291843705705707,-0.11956023282455597,2.3851240465409678,1.5608217120306351
5408.435,0.3927327148342963,1.0681596796137853,-0.045532134633149646,-1.2291575303719524,-0.1302680378910166,2.3851057678506535,1.5723201519349477
5408.467,0.3927123456854016,1.0681494661646447,-0.04550305830075274,-1.2291526793711194,-0.14102812140247334,2.3850918319588477,1.5839239134081353
5408.5,0.39270180666942966,1.0681370081494421,-0.04549212577424555,-1.2291474049190958,-0.15202819429339431,2.3850739299255004,1.5957609765821301
5408.534,0.39269107991730756,1.0681479452078388,-0.04547564985011032,-1.229120325031606,-0.1631578599911867,2.385051344700212,1.6076881360294033
5408.567,0.39266990758597675,1.0681380545132324,-0.04544586975837284,-1.2291142109748723,-0.17435840241629474,2.3850337001336825,1.6196146382744274
5408.6,0.3926597682409243,1.0681258804780303,-0.04543411552852472,-1.2291092212835624,-0.18574838207532718,2.385013293268802,1.6316174522495448
5408.634,0.3926477162327826,1.0681363153262078,-0.04541673340839569,-1.2290808700708258,-0.19734904193466463,2.38498675116767,1.6436685485420375
5408.667,0.3929210226543639,1.0683333266192168,-0.04537585645757223,-1.2292829727373624,0.009453710067233567,2.3851690853569236,1.4602404253946437
5408.7,0.392926312368167,1.068330569404394,-0.04537585645757223,-1.2292879840449282,0.00945148325496059,2.385170204334788,1.460240425394641
5408.734,0.3929236063092869,1.0683271100897476,-0.04537056674403056,-1.2292829727373624,0.009453696667991262,2.3851637702120674,1.4602382891641723
5408.767,0.3929182385905675,1.0683270296357419,-0.045378362111355125,-1.2292829727373624,0.009452424186341239,2.3851680681043197,1.4602338524986445
5408.8,0.392926312368167,1.0683273484948712,-0.045373072397813456,-1.2292829727373624,0.00945040027223503,2.3851690853569236,1.4602415443725056
5408.834,0.392926312368167,1.0683280636537023,-0.04537836211135506,-1.2292801886776037,0.009452438260271409,2.3851690853569236,1.4602382891641694
5408.867,0.3929288180219499,1.0683326292825324,-0.045373072397813456,-1.2292879840449282,0.009452349789306274,2.3851669486418645,1.4602371702401429
5408.9,0.392926312368167,1.0683275935642849,-0.045378362111355125,-1.2292829727373624,0.00945274534419829,2.3851680681043197,1.4602437689192338
5408.934,0.392926312368167,1.0683283398856978,-0.04537585645757223,-1.2292829727373624,0.009451478839299258,2.385170204334788,1.4602337369587686
5408.967,0.39292631236682113,1.0683298453196683,-0.04537585645757223,-1.2292801886776037,0.009450330373774742,2.385166949126455,1.4602402922595077
5408.993,0.3929210226543641,1.0683333502030674,-0.045373072397813456,-1.2292829717925549,0.009453774775204723,2.3851658301485905,1.4602371701863077
5409.034,0.39292352830816313,1.068330304179926,-0.045373072397813456,-1.2292854783911453,0.009454826509053275,2.3851658301485883,1.4602404257136146
5409.067,0.3929235283081468,1.0683253163848814,-0.04537585645356731,-1.2292801886776037,0.009452745183575032,2.3851680681043197,1.4602426633503702
5409.1,0.392926312368167,1.0683258915058496,-0.04537585645757223,-1.2292854783911453,0.009452629826528319,2.385166949126455,1.4602316770220172
5409.135,0.392926312368167,1.0683302485825263,-0.045373072397813456,-1.2292801886776037,0.009450562233088476,2.3851680681043197,1.4602382891641723
5409.167,0.3929235283081468,1.068328420706701,-0.04537585644555745,-1.2292801886776037,0.00945483233834819,2.3851677148915775,1.4602382891641723
5409.2,0.39292353119708334,1.0683305690784917,-0.04537585645757223,-1.2292829727373624,0.00945216119368689,2.3851690853566776,1.4602349322305785
5409.235,0.3929210226543639,1.0683280637636212,-0.04537307207341436,-1.2292854783911293,0.009450444002148263,2.385168732126269,1.4602393062512333
5409.267,0.392926312368167,1.0683277360475587,-0.04537056580691966,-1.2292801886776037,0.009451579634940161,2.385166949126234,1.4602415443725056
5409.3,0.3929288180219499,1.0683304012078938,-0.04537585645757223,-1.2292829727373624,0.009450214016485575,2.38516795036675,1.460234855942614
5409.334,0.39292631236817244,1.0683305399470697,-0.045378598874101325,-1.2292879840449282,0.009452222063227125,2.385166949126455,1.4602393064167765
5409.368,0.3929288180219499,1.068330322022947,-0.045375856457572236,-1.2292879840449282,0.009450259869714159,2.3851690853569236,1.4602382891641723
5409.401,0.3929210226543639,1.0683271090722677,-0.045375856457572236,-1.229282973718509,0.009453276014672485,2.3851669489111145,1.4602404646411624
5409.435,0.392926312368167,1.0683273218702298,-0.04537056674403057,-1.2292829727373624,0.009454656904720193,2.385166949126455,1.4602393064167765
5409.467,0.3928827810198259,1.068328051870557,-0.04531325669015729,-1.2292608575084563,-0.02221681642077744,2.3851401636474474,1.5260409423359853
5409.5,0.3928460779307894,1.0682897660318194,-0.0453996387437785,-1.2292429887534677,-0.026669094072467203,2.385145571926129,1.534930001978588
5409.534,0.39268158948046494,1.0682300141131922,-0.045383092131388025,-1.2291731537738215,-0.03769004518101138,2.3851167566158686,1.5527106552625112
5409.567,0.3929235283085871,1.0683304899445383,-0.04537056674402994,-1.2292854783911453,0.009450205122253067,2.3851680681043197,1.460240425394641
5409.6,0.39284908906788996,1.06830072283313,-0.045372384533212795,-1.2292916610941518,-0.042547849513349334,2.385114593244815,1.5592298229181383
5409.634,0.392784076310269,1.0683328903405753,-0.04528286705245943,-1.2291895321434456,-0.046628302315818715,2.3850949765006177,1.5696906088916958
5409.667,0.3929182385946052,1.0683256765984288,-0.04537585645757223,-1.2292829727373624,0.009452638704796703,2.3851658301485905,1.4602360512084431
5409.7,0.3930493653056395,1.0683816308015457,-0.04539193044002854,-1.2293774881603206,-0.047046026958957654,2.3851287803232175,1.5743905568727126
5409.734,0.3929450288303151,1.0683681765768078,-0.0453475304975024,-1.2292666358293536,-0.05181761029381793,2.3851459251545677,1.588989022723589
5409.768,0.3928876880281713,1.0682733002787206,-0.04543064588061352,-1.229260463632727,-0.062074457786504667,2.38515528862259,1.6138903398788793
5409.8,0.39286373507274863,1.0682502916683951,-0.04547431180203798,-1.2292330698479876,-0.07223751930605182,2.3851705157095022,1.6382844767395062
5409.834,0.392844040799468,1.0682200128813557,-0.04549329805637381,-1.2292339431592305,-0.0827640776597045,2.38518763326943,1.663344176121325
5409.868,0.3928478844519603,1.0681963526686262,-0.04552194581877611,-1.2292407167419324,-0.0934317515864489,2.3851953998664506,1.6888783869377129
5409.9,0.3927648741915091,1.0681965320359446,-0.0454319641859362,-1.229185397801448,-0.10533293312032743,2.385121469282028,1.7174691412959913
5409.934,0.3929265492605238,1.06833048863679,-0.04537585645756674,-1.2292829727373624,0.009450078043584446,2.3851669491262255,1.4602404253953056
5409.967,0.392926312368167,1.0683302956375766,-0.045373072397813456,-1.2292854783911453,0.009450566646742875,2.3851669491264307,1.4602404253946157
5410.0,0.392926312368167,1.0683255286254822,-0.04537585645757223,-1.2292879840449282,0.009450433386355133,2.3851680681043197,1.4602381684831631
5410.034,0.3929288180219499,1.068327975096857,-0.04537056674403056,-1.2292879840449282,0.009451266759797634,2.3851669491257907,1.4602415443725056
5410.067,0.3929235283081468,1.068323412234059,-0.04537585613317312,-1.2292854783911453,0.009450104784453574,2.3851669491085103,1.46023385563824
5410.1,0.39292355527150385,1.0683279829816692,-0.04537585645757223,-1.2292879840449282,0.009453774613573046,2.385166949126455,1.460242663350345
5410.134,0.39292631236817244,1.068328344064709,-0.045373072397813456,-1.2292854783911453,0.009450446287721036,2.3851690853569236,1.460233813737228
5410.167,0.3929210226543639,1.0683251199964106,-0.045378362111355125,-1.2292854783911453,0.009451584013222988,2.3851670084661905,1.4602392930616106
5410.2,0.392716187437391,1.0681910872370333,-0.04539853216864742,-1.2291903816259477,-0.027527152428006296,2.3851491956237485,1.445679531150688
5410.235,0.3929235283081468,1.0683325576547644,-0.045378362111355125,-1.2292854783911453,0.009453629696846443,2.3851690853569236,1.4602360512084431
5410.267,0.39266816290592477,1.0680658761279096,-0.0456231816542747,-1.2291587255235763,-0.03293260607554238,2.3852710549190927,1.4251057282978046
5410.3,0.3928125899385293,1.068129991680899,-0.04551382026276496,-1.2291672703969754,-0.028673839314001803,2.385227498529332,1.4359425612936647
5410.334,0.3926982090497786,1.068067945284672,-0.04555067271661706,-1.2291506889507149,-0.03694213275253233,2.3852131932522056,1.4425043876038082
5410.367,0.3925787700754304,1.0680470065945435,-0.04549042979208551,-1.2291005956293022,-0.04506014058470065,2.385197940541108,1.446906823452819
5410.4,0.39265452598548034,1.0680416311595495,-0.04562519951917565,-1.2291266387634234,-0.052809889296333345,2.385221039961376,1.4490415854250074
5410.435,0.3929235283081468,1.0683259176321247,-0.045373072397813456,-1.2292776840049673,0.00945233653623336,2.385168068102326,1.4602415443725056
5410.467,0.3929263123681833,1.0683305693653635,-0.04537585645757223,-1.2292801886776037,0.009451469584376228,2.3851680637436665,1.4602381689675958
5410.501,0.393123691120862,1.0682868277169364,-0.04544328045663182,-1.229261379109417,-0.0476667390756873,2.3852633827233998,1.468887162230863
5410.534,0.39314979324500765,1.068341801741914,-0.04530801175168264,-1.2292640945917794,-0.04021254349123815,2.38519382542934,1.4845074742924638
5410.567,0.3929552994519705,1.0682197403507763,-0.045454053223679125,-1.2292392304909683,-0.05010967491386964,2.385187655187007,1.4991625093115326
5410.6,0.392887522394596,1.0682033383052172,-0.04551094379090603,-1.2292015803323757,-0.05800410405698564,2.3851974405274454,1.5098214524412708
5410.635,0.39285173061496526,1.068173216770231,-0.04553764829066509,-1.2292078066231236,-0.06669324936020526,2.385205957106093,1.521627041799305
5410.667,0.39285198875736427,1.0681556874910223,-0.04556719095284034,-1.2292113464338748,-0.07541280870526812,2.3852046988459144,1.5338824800723643
5410.7,0.39286161645091155,1.0681642087347845,-0.04559127357831283,-1.229199777412692,-0.08431465581291686,2.385212203701668,1.5466380218289428
5410.734,0.3928597303864958,1.068150799697551,-0.04559686425481235,-1.2292097973831977,-0.09345054323315427,2.3852216082027304,1.5598771708080648
5410.767,0.3928743533002619,1.0681379369780926,-0.045619775591412726,-1.2292184855767196,-0.10269322657535263,2.3852225346198423,1.5734716116498797
5410.8,0.3928909105016416,1.068149252004341,-0.04564083519515716,-1.229208599302611,-0.1120542830890372,2.385231750889375,1.5873877855959453
5410.834,0.39289246011240486,1.0681371670291746,-0.04564553685699746,-1.2292194611905538,-0.12165348128145759,2.3852434357769496,1.6016819508680165
5410.867,0.3928195450765779,1.068137440176569,-0.0455521052547887,-1.2291727808332542,-0.13168974368480768,2.385175213551843,1.6174983486604848
5410.9,0.3929123020978098,1.0681391552007478,-0.0456658708156823,-1.2292103694015557,-0.1411892632526186,2.3852433158550763,1.6310178615959838
5410.934,0.3929035440296502,1.0681290555728342,-0.04565632423747168,-1.2292143343239745,-0.15125683882946372,2.385249782092753,1.646102051419068
5410.967,0.3928297123263427,1.068128403651298,-0.04556429459238487,-1.2291653669209968,-0.1617759845957112,2.385168016135424,1.6626469508872441
5411.0,0.39292167909734754,1.068129392684268,-0.045678002581150956,-1.2292057410507402,-0.17175970765396187,2.3852508342445233,1.6768559093530992
5411.034,0.3928348982643186,1.0681145553794869,-0.04557011310985182,-1.2291641610463948,-0.18321997635717313,2.385154260043082,1.694718801749258
5411.067,0.39291588500609365,1.068105744246373,-0.045673167245467994,-1.2292132949908368,-0.19300946546297038,2.3852459828374286,1.708464598367832
5411.1,0.39283079718826386,1.0681127014129883,-0.04556260239350429,-1.2291517691829146,-0.20480070956226015,2.3851401313876686,1.726696503772331
5411.134,0.3928266696832159,1.0680988163332525,-0.04555921544664354,-1.229150303005385,-0.21597559808050715,2.3851211100185132,1.7430677299887218
5411.167,0.39281727944554934,1.068111241719313,-0.045541195448617344,-1.2291212645082288,-0.22726433161159942,2.385089741573454,1.759559687541019
5411.2,0.39279491746763195,1.068100362033988,-0.04551109906023232,-1.2291129499779965,-0.23878195470838648,2.385062897681429,1.7762711111508338
5411.234,0.3927846102156609,1.0680875276820831,-0.0455001248607978,-1.2291056616234197,-0.2505408936918867,2.385034635472101,1.7932333031192904
5411.267,0.392773797115054,1.068098966098506,-0.04548183358870084,-1.2290753443870068,-0.26242916528645477,2.384998842764265,1.8103455985467924
5411.3,0.39275153425870446,1.0680881002398648,-0.04545108520123353,-1.2290657471160422,-0.2745157989878395,2.3849678351231596,1.827675340710753
5411.334,0.3928254722265434,1.0680774608984658,-0.04554996386991661,-1.2291174750787235,-0.28580322401712266,2.3851032547741813,1.8430253926447087
5411.368,0.39283998265522957,1.0680624242455314,-0.04556957637713843,-1.2291308051219554,-0.29793854175353474,2.385120265765064,1.8605755234262382
5411.4,0.39275975210645164,1.0680704212060217,-0.045459596901126886,-1.2290610929756536,-0.31132231509689934,2.384967801485633,1.8806843731391503
5411.434,0.3929266632141928,1.0683277083944533,-0.04537585645757223,-1.2292854783911453,0.00944958693174667,2.3851680681043197,1.4602327960001098
5411.467,0.3939900061587842,1.0689858022709036,-0.04537214255550204,-1.2299072150722328,-0.24498145079198252,2.3851780822642894,1.7935589254601965
5411.5,0.39291000974481494,1.0683336338908724,-0.045381149094112595,-1.2292801886776037,0.009454425067931878,2.3851680681043197,1.4602407786073508
5411.534,0.39293661338927255,1.0683305596019024,-0.045367782684273626,-1.2292829727373624,0.009450447789020338,2.3851679508492727,1.4602415443727272
5411.567,0.39293197706812305,1.0683255580012023,-0.04537056674403057,-1.2292829727373624,0.009453635982368092,2.3851690853569236,1.460241182329478
5411.6,0.39291823858249225,1.0683302485828248,-0.04537836211536473,-1.2292829727373624,0.00944837836005945,2.3851680681043197,1.4602360512084431
5411.634,0.3929362917674138,1.0683279842907119,-0.045375856457572236,-1.2292854783911453,0.009453643290226221,2.385166949126455,1.4602327957793855
5411.667,0.3929157362702849,1.0683258901976924,-0.045375856457572236,-1.2292854783911453,0.009452381372703274,2.3851690853569236,1.4602415443725056
5411.7,0.3929210226543639,1.0683333534291095,-0.04537585645758876,-1.2292854783911453,0.009450422448222211,2.385166949126234,1.4602316901041974
5411.734,0.3929319496232847,1.068324838887771,-0.045375855484369426,-1.2292829727373624,0.00945056930586666,2.3851680681043197,1.4602415443725056
5411.767,0.39292103260666705,1.0683326280693044,-0.04537585645757223,-1.2292829727373624,0.00945267847540568,2.385166949126455,1.4602360507118217
5411.801,0.3929313236757328,1.0683280636535528,-0.045378362111355125,-1.2292829727373624,0.009451614521917399,2.3851680681043197,1.4602360512084431
5411.834,0.39292631236816944,1.0683234113498077,-0.04537585645757217,-1.2292801886776037,0.009450500850363329,2.385166949126234,1.4602327825911088
5411.867,0.3929235283081468,1.0683278214083383,-0.045378362111355125,-1.2292829727373624,0.0094495523436477,2.3851700865972183,1.4602338132527166
5411.9,0.392926312368167,1.0683305428044239,-0.045373072397813456,-1.2292801886776037,0.009453756642519006,2.385169085356899,1.460240425394641
5411.934,0.3929263652503894,1.0683298512047466,-0.04537585645757223,-1.2292879840449282,0.009453815591369038,2.3851690853567025,1.460233813252714
5411.967,0.3929235283081468,1.0683278253049484,-0.045375856493658634,-1.2292879840449282,0.009450578043158383,2.3851680681043197,1.460240385167638
5412.0,0.3929270143784766,1.0683281587406355,-0.045375830181244775,-1.2292829727373624,0.00945122730704295,2.3851690853569236,1.4602338568614284
5412.034,0.39292361501174605,1.0683278243642946,-0.045378362111355125,-1.2292829727373624,0.009451718283032344,2.3851658301485905,1.4602320301797727
5412.067,0.392926312368167,1.0683258109383402,-0.04537585645757223,-1.2292854783911453,0.009449430768553996,2.3851680681043197,1.4602382891641723
5412.1,0.39293413267975263,1.0683304866623424,-0.04537585645757223,-1.2292829727373624,0.009454660495557841,2.3851690853569236,1.4602327960001098
5412.134,0.3929182385946052,1.0683326293915565,-0.045378362111355125,-1.2292801886776037,0.009451829800502336,2.3851690090629787,1.460238289648689
5412.167,0.3929288180219499,1.0683283411239795,-0.04537585645757223,-1.2292829727373624,0.009454670056449194,2.38516806810432,1.4602415443725056
5412.201,0.3929235283085871,1.0683309663429787,-0.04537585645757223,-1.2292854783911453,0.009451228870110278,2.385165830148591,1.4602371702926322
5412.235,0.3929182385946052,1.068330560549402,-0.045375856461581834,-1.2292801886776037,0.009452750248556907,2.3851669491264555,1.4602381684831631
5412.267,0.392926312368167,1.0683231706535423,-0.045375856457572236,-1.2292879840449282,0.009452121919354902,2.385166936044503,1.4602360512084431
5412.3,0.3929210226543639,1.0683303044679369,-0.04537307239781346,-1.2292801886776037,0.009453414753874918,2.385166949126455,1.4602382891641723
5412.334,0.3929288180219499,1.0683278165111187,-0.04537836211135513,-1.2292829727373624,0.009449545125498462,2.3851690853569236,1.4602358711876986
5412.367,0.392926312368167,1.0683255580976756,-0.045375856457572236,-1.2292801886776037,0.009449535976705841,2.38516818584189,1.4602418975852154
5412.4,0.3929235283085871,1.0683283971594875,-0.04537585645712724,-1.2292801886659395,0.009450461606091393,2.385169085356924,1.4602338087830469
5412.434,0.3929235283081468,1.068328063751357,-0.04537585645757223,-1.2292801886776037,0.009454358830454236,2.385164889189932,1.4602426633503702
5412.467,0.3929729195180238,1.0683146500648864,-0.04542632093018906,-1.2292975798196455,-0.020335378491730616,2.3851628323366434,1.388613691414733
5412.499,0.3927940739067237,1.0682928610548617,-0.045306288854486176,-1.2292237852587178,-0.02483388997932945,2.3851072293556363,1.394393083448798
5412.534,0.392926312368167,1.068327816369319,-0.045378362111355125,-1.2292879840449282,0.009451619151481523,2.385166949126455,1.4602426040106595
5412.566,0.39292631236831377,1.0683273189281137,-0.04537056674403056,-1.2292854783911453,0.009452340935960984,2.3851702043347145,1.460241544370462
5412.6,0.3929263123681851,1.068327824000955,-0.04537585645757223,-1.2292829727373624,0.009452587384267202,2.3851690853569236,1.4602305580443806
5412.634,0.392926312368167,1.0683280369446717,-0.045378362111355125,-1.2292829727373624,0.009452384677669226,2.3851690853569236,1.4602349322305532
5412.667,0.3929235283081468,1.068330242356916,-0.045373072397813456,-1.2292801886776037,0.009451486249540654,2.3851680681043197,1.460237170186232
5412.7,0.392926312368167,1.0683258002579397,-0.045375856458908764,-1.2292829727373624,0.009453815675577057,2.38516806810432,1.4602404297552833
5412.733,0.3929270143784277,1.068328063762652,-0.045375856457572236,-1.2292904896987111,0.009453809827195521,2.3851690853569236,1.4602371706708244
5412.767,0.3929235283081468,1.0683254521342118,-0.04537307239781285,-1.2292801886776037,0.009450513709987896,2.3851658301485905,1.4602349322305785
5412.8,0.392926312368167,1.0683297707117263,-0.04537585645757223,-1.2292829727373624,0.009452380321067128,2.3851680681043197,1.460231556341236
5412.834,0.3929235283081957,1.068325652104684,-0.04537585646960124,-1.2292879840449282,0.00945009333814199,2.3851680681043197,1.4602396581395973
5412.866,0.3928193223931995,1.0683150528568195,-0.04535877939667721,-1.2292706278069465,-0.022396807309203126,2.3851268789404525,1.536762732734065
5412.9,0.3927462012569558,1.0682560584792968,-0.045453932261276364,-1.2292375318916182,-0.030064167517556584,2.385136608013557,1.5471182885414878
5412.934,0.3926779962274134,1.0681855207240005,-0.04552710552380912,-1.2292241993821422,-0.0405601502826487,2.385143962048776,1.5615483193760333
5412.967,0.3929210226543639,1.0683259175589928,-0.045375856457572236,-1.2292854783911453,0.009452324247210745,2.385166949126455,1.4602349714824168
5413.0,0.3929235311970779,1.068328422620974,-0.04537307239781346,-1.2292829727373624,0.009449233408685065,2.3851669491264307,1.460236168946013
5413.034,0.392926312368167,1.0683283175763165,-0.04537585645755582,-1.2292829727373624,0.009449496969276034,2.385166949126455,1.4602382891639452
5413.067,0.39304965983520823,1.068418963915084,-0.045398595371780814,-1.2293669396677682,-0.03364118039301367,2.385156035351084,1.5492130017092611
5413.1,0.3930708065990336,1.068424616689696,-0.04536964332549687,-1.2293636491539957,-0.029547197731141672,2.385144654950949,1.5412508378968965
5413.135,0.39281755019747155,1.0683188939941841,-0.04535065252734771,-1.2292402868217254,-0.03965758840451006,2.385120340478867,1.5516366566448738
5413.167,0.39277783653006804,1.0682597349705922,-0.04539431088949275,-1.229239639966516,-0.047316833970501904,2.385116993001022,1.5596024141316045
5413.2,0.39274532252224237,1.0682607175682994,-0.045384397043553015,-1.229199734588736,-0.05594479155044407,2.38510551510862,1.5690695844483526
5413.234,0.3928099221535426,1.068232949009614,-0.0454741637076479,-1.2292516873228854,-0.06411137204821671,2.3851457806464804,1.577671813977335
5413.267,0.39280889698451293,1.068245888188688,-0.04547626341002875,-1.2292263689640128,-0.0728149906246216,2.385146068677571,1.5884034459271303
5413.299,0.392811763824235,1.0682313503204162,-0.0454847158902556,-1.2292412578713527,-0.08155803307376441,2.385158922598361,1.599676137720981
5413.334,0.3928264528677259,1.0682195051120882,-0.045505338564702846,-1.2292472663026235,-0.09044311750167733,2.3851600679288847,1.6115489011582236
5413.367,0.3928435916424222,1.0682311248018648,-0.04552498996004495,-1.2292377212979808,-0.09942908393127237,2.3851715707928918,1.6239403351512012
5413.4,0.39276981081840745,1.068230354747488,-0.04543158394936597,-1.229192167010627,-0.10894226534731732,2.385102705405796,1.638189708518663
5413.434,0.3928547633249764,1.068209296620057,-0.04553648486419881,-1.229252109809444,-0.11786855816860342,2.385176900419843,1.6502645480733849
5413.469,0.39285777296633295,1.0682241958965442,-0.0455353430830332,-1.229230849887835,-0.12729687724079408,2.3851744669080475,1.6641230286524271
5413.499,0.3927867895957293,1.0682225073306704,-0.045447196371771525,-1.229186051200979,-0.13713878426335668,2.385095869056194,1.6796389254356665
5413.534,0.3928716731111832,1.0682008674850305,-0.04555318320368418,-1.2292488298490651,-0.14643395949273508,2.385185787615523,1.693000649070095
5413.567,0.39287437988103413,1.068215541435288,-0.04555216118363248,-1.2292274550130706,-0.15624186233906467,2.3851823523233993,1.7080633533267422
5413.6,0.39287908620432255,1.0682024984839256,-0.045560696573974546,-1.2292427747833745,-0.16612602556764244,2.3852028691328613,1.7234526357679663
5413.634,0.3928045024897795,1.068203947322517,-0.04546458939350373,-1.2291873686513846,-0.17653625458980038,2.385100959252947,1.7405033875398601
5413.666,0.3928954661709616,1.0681868786696702,-0.04557743551183169,-1.2292504875968868,-0.1869926670715305,2.3852096187880463,1.7563710161430173
5413.699,0.39290058911461934,1.0681980621052096,-0.04558359087361552,-1.2292332910805328,-0.19743341029547512,2.385212862883442,1.7729908365615472
5413.734,0.3928221801705769,1.0681798995394622,-0.045490333943052796,-1.2291932005170958,-0.20911866954664227,2.385101752403088,1.7923237411074755
5413.767,0.3928987391697252,1.068178329549438,-0.04558627379842051,-1.2292388485857018,-0.21980174925007745,2.3852267729749137,1.8087134560937557
5413.8,0.3928132658607435,1.0681771572879262,-0.04547663765319321,-1.2291741139440413,-0.23134754433595806,2.385084563713315,1.8279458700676514
5413.834,0.3929044619676194,1.068173246786034,-0.04559390674491226,-1.2292231615367166,-0.24244216037554622,2.3852196653788624,1.845232338722802
5413.867,0.3929009509286665,1.0681611664360853,-0.04559169932202778,-1.2292298317020496,-0.2540017786516371,2.3852372223042106,1.8641095760011233
5413.9,0.39283383877777656,1.0681691709310526,-0.04550341401507829,-1.229157121290818,-0.2667335454322748,2.3850859318157003,1.8857577744794511
5413.934,0.3929158868496119,1.0681576066582048,-0.04561066535685221,-1.229213990823279,-0.277888927369526,2.3852396791882313,1.90348913212161
5413.967,0.39283341827237006,1.0681450625903794,-0.04550195990030037,-1.2291582494412312,-0.2910778912905485,2.3850738566496226,1.9262390549536974
5414.0,0.3928270109028009,1.0681560706773912,-0.04548667408028351,-1.2291270431868337,-0.3036812902639081,2.3850350684766326,1.9474351759028323
5414.035,0.39280514658130183,1.0681441288243336,-0.045454088852759256,-1.2291145831419925,-0.3165773465817727,2.3849947638490523,1.969321815353407
5414.067,0.392798212981857,1.0681324255980984,-0.04544001490650551,-1.2291053609917197,-0.32951930767604765,2.3849550673037463,1.9917557547540081
5414.1,0.39322928439279564,1.0676184284833536,-0.04438195544864814,-1.2275166841102936,0.009590367088345817,2.3859633786940035,1.4705943772477512
5414.134,0.39308204812088,1.0663138915658714,-0.043379288085339154,-1.2254707290193139,0.009827680313002922,2.386886204422588,1.4856381583409188
5414.167,0.39310397279392645,1.064139565153554,-0.04252790068799416,-1.2233913575716666,0.010333537679147289,2.3877729488982298,1.5059869463823132
5414.2,0.3930779826174376,1.0608077232521236,-0.04161843584175153,-1.2215078523140281,0.011000202161309642,2.3879372634633484,1.5288634630917397
5414.234,0.39299826602222104,1.0565283204218126,-0.040862089681318554,-1.2199963289979585,0.012568364200202105,2.387922672152109,1.5521310904441339
5414.267,0.3928044081177908,1.0517094864007204,-0.04048901429424344,-1.2188540423446659,0.016359568099905693,2.3878931995413772,1.5745155915090054
5414.3,0.392256962291418,1.0467672029063357,-0.04051041598363491,-1.2179250257357237,0.022574957274795485,2.387833236311152,1.5934679122792115
5414.334,0.3911224211358435,1.0414413042407296,-0.04053986540183593,-1.2174180997014996,0.030163285533065024,2.3875263418203523,1.6098078250022587
5414.367,0.38949398835855886,1.0356261910362312,-0.04056969224706534,-1.2173209300995158,0.03802375861475999,2.386961677975155,1.6225372859191947
5414.401,0.38746703885692807,1.0293761058208217,-0.04062229402621407,-1.2174615288241775,0.04644536288739573,2.3864637524434738,1.6315009980705417
5414.434,0.38497193999295926,1.023394636382672,-0.0406696123865621,-1.2174384662708913,0.054831267199682336,2.3860008412830505,1.6386339769629612
5414.467,0.38199598827940984,1.017575535317253,-0.04068599848923507,-1.2174204813655134,0.06306855237536851,2.38571956275154,1.6431267104358516
5414.5,0.3788249027441091,1.0117256333829525,-0.04070079232634645,-1.2174391826390354,0.07062214230481491,2.385420991698981,1.6452634415935552
5414.534,0.37520189503938056,1.0055684359177488,-0.04070139657887244,-1.2175405391659595,0.07812752942379227,2.38473885639722,1.6467837986111311
5414.567,0.37120584442374444,0.9994660050034955,-0.04072351085821848,-1.21754503226282,0.08494545707443595,2.3827737610948487,1.648426425585582
5414.6,0.3667654743161829,0.9933602953630291,-0.040706996797386284,-1.217586492716905,0.09100523743852403,2.3786316118378257,1.649643396986731
5414.634,0.36198782424675596,0.9871680572063363,-0.0407355702644346,-1.217543636607586,0.09674683474976568,2.3719571442867617,1.6509968831281185
5414.667,0.35679620762729136,0.9804725040818776,-0.04073276637683753,-1.2176178160026154,0.10209147623288232,2.3636694001891,1.6529102166180771
5414.7,0.35135579467497335,0.9735625236778807,-0.04075309994342715,-1.2177481678634845,0.10623429031350812,2.3529355323838095,1.6561832596440909
5414.734,0.3454100888283716,0.9667215309135627,-0.04073435599247894,-1.2177777921199182,0.10884854706238131,2.3397624686315135,1.661068673780102
5414.767,0.3394112391217154,0.9595822928619162,-0.04072887160460192,-1.2177380262717392,0.1099558913329207,2.324158920180275,1.6664538551292274
5414.8,0.33335873873551664,0.9516160538940913,-0.04073664068935294,-1.217811414868197,0.11022563476252606,2.3073437102080243,1.6734021167655955
5414.834,0.32704766442741723,0.9434720721213649,-0.040711751345765324,-1.217759567787496,0.11033082724629707,2.288847433058563,1.6819802670384059
5414.867,0.3202324974170536,0.934919113275837,-0.040739866296047075,-1.2177501126596175,0.11042671880670636,2.2699418470618276,1.6891260645656658
5414.9,0.31312815362429847,0.9255610350571741,-0.04072426676661653,-1.2178475139963765,0.11051379530109434,2.2504748170267526,1.6953184567666961
5414.934,0.30566389954267054,0.9161320562699526,-0.04069017031271232,-1.2177834913618597,0.11060360681813051,2.2315008937470124,1.6997876015893354
5414.967,0.29790750601386956,0.9065841536892136,-0.040686155527766235,-1.2178130426018612,0.1107869803685908,2.213679667397883,1.7019731807367107
5415.0,0.2895250779672379,0.8964750426357423,-0.0406554118557633,-1.2178734914889175,0.11117669830242483,2.1973847972134983,1.7028407241455756
5415.033,0.28119483656922084,0.8868804175922222,-0.040669957323191244,-1.2178517797903596,0.11128711892667527,2.183446828911594,1.702903468258085
5415.067,0.27263367652821463,0.8769772911408948,-0.04064166957788005,-1.2178403455933284,0.11134286394622675,2.1713074209227576,1.7029174559390534
5415.1,0.26361007341029213,0.8670277093660885,-0.04071749290277478,-1.217825985765162,0.11135441788065857,2.1618733755686717,1.7029163501160003
5415.134,0.25454131637070504,0.8575793835730597,-0.04070722623601296,-1.2178277740826255,0.11136300332900244,2.154818733344415,1.7029196939137248
5415.167,0.24533930009128918,0.847947108717688,-0.040681698994098174,-1.2178928705598124,0.11136281701443115,2.1486915408512965,1.7029163384336812
5415.199,0.23562594461725123,0.8386875692459742,-0.04064911549382537,-1.2178489317449868,0.1113642941714832,2.141955595719336,1.7029115336869505
5415.234,0.22610546481237911,0.8298198079493528,-0.04063907680568009,-1.2178429517489,0.11137730621960422,2.134287275959597,1.7028951833890753
5415.267,0.2164192579298836,0.8209449562410198,-0.04062599634452281,-1.2179226460474983,0.11135963431184334,2.12641206112306,1.7028794346165308
5415.3,0.2381358052313134,0.8410665683406391,-0.040303521060639724,-1.2177112590469736,0.08092962676050242,2.144390188403584,1.78512473020246
5415.334,0.231304955611912,0.8342222842906972,-0.04304664437616612,-1.2157011916155707,0.08068967356625922,2.143305757964228,1.7906385021714293
5415.367,0.22799449927771676,0.8309637903583722,-0.04504410915332979,-1.213980103586886,0.07212594342909373,2.144108232260397,1.806867136223719
5415.4,0.22614885032604537,0.8292460657498646,-0.045876494630390674,-1.2131152286352602,0.06202828835896135,2.144416411798069,1.8283405370511545
5415.434,0.22525785943468168,0.8283924811386703,-0.04632204312417887,-1.212697184343055,0.05216890412983499,2.144652560091483,1.850156960801998
5415.467,0.15534220787675185,0.7777833497162429,-0.04082627495381678,-1.2178691633176921,0.11135257646393287,2.070155351198193,1.7023175711224185
5415.5,0.2151927933290434,0.820934302444515,-0.03809713889312505,-1.2174511444941958,0.05296192655437082,2.1207050466536845,1.83378435003622
5415.534,0.20862214851652716,0.816068689757012,-0.04084228005098023,-1.2163560228058081,0.046580544734836415,2.1194161266858575,1.8547680873156924
5415.567,0.1329236243882934,0.7655404608848031,-0.04112376411900301,-1.2178980618022295,0.11135622305444294,2.0618065882455716,1.7023041877419585
5415.6,0.12106010843873102,0.7600008494846102,-0.04120868517582155,-1.2178663860420176,0.11135621055414459,2.060056037829529,1.7022998273098215
5415.634,0.10865199347358231,0.7548894411817314,-0.04135969354829538,-1.2178790351127609,0.11135724095699714,2.059969407467449,1.7022933286405182
5415.667,0.09599342299746909,0.7499992687282993,-0.0414048529146816,-1.2179005394377445,0.11135819591416252,2.059968302459817,1.7022917210993667
5415.7,0.0829171932976291,0.7454126366569191,-0.04145920391636549,-1.217952779577079,0.11136023041605948,2.0599643431239656,1.7022782775034375
5415.734,0.07000217637950892,0.7413808524145429,-0.0414654842824348,-1.2179886523817363,0.11135819591416252,2.059960558313903,1.702274516936458
5415.767,0.11526986155462993,0.7599166197871021,-0.038834631056223756,-1.2179358853075524,0.07677161480325445,2.066944524162764,1.7113592488462102
5415.8,0.09749994059661837,0.7512392322991772,-0.041988208694641926,-1.2165876792850359,0.07915497788047698,2.065181249249296,1.6973831839119775
5415.834,0.08955405257123328,0.7472798498776889,-0.04845965147625808,-1.2138725659668834,0.08012924953865053,2.0667630017950174,1.7014234399520642
5415.866,0.08628601660230384,0.7455569178817338,-0.05018031307132542,-1.2133718185546538,0.07184391745548702,2.0669446519327153,1.7089976466054573
5415.9,0.08518097232684418,0.7450788310187253,-0.05057280680290521,-1.2130226964833142,0.0641277078362208,2.0671546379510595,1.7203369387712204
5415.934,0.08487991359457059,0.7449167004399895,-0.050733871673542374,-1.2129546292047628,0.056389443232753855,2.0672531790110824,1.731929487299471
5415.967,0.08493762817793282,0.7448514518656317,-0.05103642098732575,-1.2129715884677417,0.04924060167695199,2.0674071490714496,1.742683039839088
5416.0,0.08484567109840402,0.7448089897526202,-0.05103403469228418,-1.21295312554283,0.041028102039944336,2.067472913350116,1.7571458227816628
5416.034,0.08466439750956845,0.744796701136031,-0.05085402112895121,-1.212877430249601,0.03197790139793444,2.0674550148556,1.7744286268780005
5416.067,0.0846323836780778,0.7447777575457888,-0.05084433881400319,-1.212874838074832,0.023457539521497317,2.0674903783474985,1.7907331516904303
5416.1,0.08461138029224458,0.7447678941865314,-0.05083512506858767,-1.2128642423476466,0.014618734066866423,2.06750523203495,1.808267601422953
5416.134,0.0845692581208759,0.7447762415400492,-0.050784189763047216,-1.21283600018546,0.005573668313352265,2.0675012693300996,1.8267084392735242
5416.167,0.08473580638895406,0.744755313182754,-0.05102900392415677,-1.2129090947389578,-0.0032177820556107406,2.0676206259090897,1.8449094207173289
5416.2,0.08473947219388567,0.7447634990880676,-0.05103891514783676,-1.2128981588625871,-0.012498621225907947,2.0676406876296234,1.8647529434829622
5416.234,0.08474467167931454,0.7447518327507945,-0.051062988115690544,-1.21291348626505,-0.02201968323799708,2.0676724483861655,1.884988128049578
5416.267,0.08478582513570743,0.7447449330251494,-0.051127010086541524,-1.2129274413690245,-0.031589318342155615,2.06770221065209,1.9058806588555832
5416.3,0.08481993343568739,0.7447535141190151,-0.05116937675245037,-1.2129314564316171,-0.04142867320867971,2.067733268165256,1.9272259347652803
5416.334,0.08482796197833142,0.7447449910254464,-0.05118641273440705,-1.2129476260267964,-0.051552515049571035,2.067761717394232,1.949306138042811
5416.367,0.08487267406837606,0.7447393432552909,-0.051250949413672586,-1.2129646209807845,-0.06168980226009069,2.067792307866851,1.9714791242223484
5416.4,0.08490943984322552,0.7447488095891268,-0.05129449914884976,-1.212970864967648,-0.07207348968919369,2.0678237195158324,1.994134103610584
5416.434,0.0847398874443055,0.744745760097115,-0.05106402011049571,-1.21290078660172,-0.08372892734711357,2.067648557301295,2.0195680827427793
5416.467,0.08472597130960402,0.7447614078363616,-0.05102919397082939,-1.2128775098442164,-0.09480103636814707,2.06761171400953,2.0434241312551897
5416.499,0.08468425445846695,0.7447578677650153,-0.05096079491419214,-1.2128642324401593,-0.1061653595207055,2.0675648155845323,2.067996597662038
5416.533,0.08467367572175011,0.7447552891196887,-0.05094337444566843,-1.2128548231796854,-0.11782196769273323,2.0675224842129296,2.0929394457967874
5416.567,0.08463505763627133,0.7447703830958456,-0.05088077479383113,-1.2128218064277192,-0.12969482131262655,2.067456257167974,2.1182231521719856
5416.599,0.08459079127161839,0.7447659799202864,-0.05081558760921023,-1.2128065491238331,-0.14180897302135786,2.0674027649234894,2.1438382452015716
5416.634,0.08457638771900733,0.7447628400349382,-0.05079510577083113,-1.2127948767319854,-0.15425359360165292,2.0673500205215127,2.1699669687877705
5416.667,0.0845356018566088,0.7447788458813589,-0.05073007698565846,-1.2127582914695454,-0.16694232334266257,2.0672729751222754,2.196371928838971
5416.7,0.08448931293032569,0.7447743852789559,-0.05066181337811315,-1.2127395459535304,-0.17991217131785397,2.067209133358917,2.223149624274228
5416.734,0.08447252193775423,0.7447710133692853,-0.05063708945723722,-1.2127249903315898,-0.19324195045585668,2.067145377875331,2.250441101374788
5416.767,0.08443049941192804,0.7447851619857113,-0.050568692976913354,-1.2126879241912842,-0.2068535811155936,2.0670540627146536,2.2780199478417895
5416.8,0.08438214101067931,0.7447814497873093,-0.05049577854830645,-1.2126681556310501,-0.22079405012345266,2.06697899706133,2.306057918673929
5416.834,0.08456990083212368,0.7447624323714619,-0.05076451025207085,-1.2127827676395135,-0.23400287988102875,2.0673170576978137,2.332114836391522
5416.867,0.08437393016914818,0.7447859702519839,-0.050485663629801,-1.2126477532356041,-0.24943517100752022,2.0669217201574597,2.3625262573629726
5416.899,0.08433111306738539,0.7447826723165987,-0.05041305376526406,-1.2126281632994278,-0.2644294985406406,2.0668423939568097,2.391655471881208
5416.934,0.08431139760564044,0.7447799646350104,-0.05037661862825438,-1.2126063476401878,-0.2799224428060958,2.0667534611398324,2.421579092825544
5416.967,0.08426588284957681,0.7447939304467424,-0.05029659107030682,-1.2125607058013435,-0.29574832354690006,2.066629528796449,2.451774284325552
5417.0,-0.3732182262190289,0.8100275131416638,-0.05483272574823381,-1.2437731200302433,0.11066616460529491,2.061269430793641,1.6168582844584765
5417.034,-0.37622510774052,0.8187923120601293,-0.054851323652093095,-1.2430598500857741,0.11066411798399559,2.0613675971701073,1.6140421266406615
5417.067,-0.3785094645040121,0.8279379505640463,-0.05485050375301303,-1.2421734255028507,0.11066813641316521,2.061760644360486,1.611802666758879
5417.099,-0.38022268394506814,0.8366880786771512,-0.054853700050136414,-1.2409116283171941,0.11068081507597767,2.0620175668816842,1.609718196289979
5417.134,-0.3816993311228672,0.8456604613330586,-0.054856896349212265,-1.2394877634321937,0.11068327493800055,2.0621947024742733,1.6078955226838159
5417.167,-0.3830503653957525,0.8548920863777786,-0.054868459775034586,-1.2384612362555976,0.11069149272113178,2.062718462879602,1.6055763199910715
5417.2,-0.3841831018576868,0.8636580643846101,-0.054865243371177555,-1.2377565265026131,0.11069406745168896,2.063777102173208,1.602768663306214
5417.234,-0.38510138681085865,0.8727551869897712,-0.05486575695533424,-1.237162711667256,0.1106920329464806,2.0655881744883455,1.6004524141301986
5417.267,-0.38597482542801403,0.8823358045562771,-0.05486397586686495,-1.236744108629678,0.1106970174822378,2.0685595086482946,1.598355952183507
5417.3,-0.3969673638154312,0.8649921239527822,-0.07913813532756997,-1.2403149170797398,0.0718616769903413,2.0647871401849223,1.7124062041931571
5417.334,-0.4125585640784539,0.8734222656390251,-0.08310016057771819,-1.2411866085841794,0.07586654308347818,2.0655716066836938,1.7088002446405195
5417.367,-0.4175571404855045,0.876948609980726,-0.08740527603392945,-1.2441764635634227,0.06906477714313475,2.064525673770918,1.731291281943399
5417.4,-0.4199273526862948,0.8784427654723252,-0.08813408185550209,-1.2445619802771706,0.06236883549761352,2.064282593783359,1.7379275154657332
5417.435,-0.42080449352196236,0.8789630578686438,-0.08873159980937739,-1.2449228942365247,0.055304415376732585,2.0640725324183826,1.7447505228743925
5417.468,-0.42111517418042954,0.8791646085299663,-0.08907168930000431,-1.245085873960468,0.048857163317305385,2.0640485706696765,1.7494223366129305
5417.5,-0.4213031368563991,0.8792642047114123,-0.08920197103591399,-1.2451345924478572,0.04199292778372676,2.0639728299231486,1.7544225253629229
5417.534,-0.4214179005743208,0.8792993262923314,-0.08925899961984385,-1.2451760504391247,0.03492864400050344,2.0639280601441463,1.7582861023985767
5417.567,-0.4214533596981047,0.8793220927435899,-0.08933992420815695,-1.2452023903491547,0.02785233955454114,2.063889471576463,1.760814845820967
5417.6,-0.4216183008739769,0.8793502447845292,-0.08921310027649021,-1.2451373982861904,0.019872148866749484,2.063751845467305,1.7635955387915132
5417.634,-0.42151093480582613,0.8793593285183041,-0.08940190677574744,-1.2452282476892753,0.012863693114754327,2.063828783792486,1.7618679195077185
5417.667,-0.4215547321380315,0.8793614127054123,-0.08939099192144973,-1.245236368255095,0.0052732192166526914,2.063807088393812,1.7603981937394408
5417.7,-0.4215404052674927,0.8793616745546453,-0.08944563954293727,-1.2452538146468033,-0.0022182001589063916,2.0637972750744957,1.7574539652421777
5417.734,-0.4215494747837081,0.8793727083784173,-0.08945354540499562,-1.2452708533809256,-0.00989265710191134,2.0638039256472744,1.753181841237355
5417.767,-0.4215303463865494,0.8793643060939438,-0.0895016315176429,-1.245284436370481,-0.017525873617741716,2.063796952644072,1.7474505289466116
5417.8,-0.4215056877886365,0.8793768762580303,-0.08954070222279054,-1.2452955200435891,-0.025194025441430234,2.0638049561210696,1.740285800330625
5417.834,-0.421505923624121,0.8793660317857448,-0.08956100140900425,-1.2453131155832207,-0.03303357771985116,2.063804919542786,1.7317460804179277
5417.867,-0.4214725758880178,0.8793807697491287,-0.08960720578860837,-1.245318860341758,-0.04078536026143009,2.063816483248102,1.721675201299167
5417.9,-0.4214875894037826,0.8793678055555771,-0.08960313513032858,-1.245339124483957,-0.048704231999535885,2.063822097152194,1.7101744536376238
5417.934,-0.4214446105879057,0.8793792677641772,-0.08966169772848076,-1.245347976934922,-0.056542421213491956,2.063829972431984,1.697103734241992
5417.967,-0.4214564553445035,0.8793718496231611,-0.08965934157750244,-1.2453675452577357,-0.06451132380352753,2.063839896435441,1.6825160640705343
5418.0,-0.421565512274765,0.8793811702879584,-0.08952480574842969,-1.2452903455656017,-0.07275854445090335,2.063726840440074,1.6684479465136581
5418.034,-0.4214592565821649,0.8793757611686264,-0.08965925479311299,-1.2453721658137056,-0.08051733260512073,2.063826051119303,1.6497214910341667
5418.067,-0.4214421829073558,0.8793691435045021,-0.08969800897152158,-1.2453811589458912,-0.08843214227575835,2.0638245015490124,1.6321431296909221
5418.1,-0.4214147934874539,0.8793784553832218,-0.08973396714799886,-1.2453913856675314,-0.09635071633088721,2.0638379870021186,1.6136600279806386
5418.134,-0.42140660600747193,0.8793653285375838,-0.08976231003547408,-1.2454128091291023,-0.10435821028270453,2.0638430782304837,1.5944292278547874
5418.166,-0.4213713961858323,0.8793787581724208,-0.0898039180450354,-1.2454148100626217,-0.11224645795524957,2.0638582530782372,1.5749178584155583
5418.2,-0.4213778849561516,0.8793709438965696,-0.08980492615873636,-1.2454310933355064,-0.12025132675491079,2.063872114548346,1.5548148210807895
5418.234,-0.42148604214002816,0.8793781014256803,-0.08966410358119603,-1.2453592305691323,-0.12851664648955463,2.063776798724753,1.5364240758595553
5418.267,-0.421377543195276,0.8793749622481117,-0.0897973649468593,-1.2454332608611791,-0.13622371603721195,2.0638625402652977,1.514193295822749
5418.3,-0.4331169327552869,1.2098240434259777,-0.07201910773262006,-0.9983424234489902,0.11061109838220806,2.273778825291026,1.3969454713756344
5418.334,-0.43339591140342654,1.2146193636760205,-0.07270934366487829,-0.9942959637713734,0.11061313288741641,2.273779944260915,1.3935810924649406
5418.367,-0.43360099484969206,1.2191065060413968,-0.07319916496378638,-0.9912855652034128,0.11061348775590969,2.273779401119912,1.3898600358879472
5418.4,-0.43373050167570193,1.223473875295164,-0.07361458594293326,-0.9886493538487445,0.11061406172029666,2.2737830758385105,1.3854315859850495
5418.434,-0.4338390697225998,1.2274946588980573,-0.07391748635603157,-0.9868512576358667,0.11061830683556664,2.2737831994692472,1.380963582992434
5418.467,-0.4338989093552029,1.2313358748015248,-0.07400967362298214,-0.9858115625163144,0.11061360653273397,2.273791959065062,1.375832927076811
5418.5,-0.4338907486851454,1.2351040868252283,-0.07400540196207167,-0.9854027296946719,0.1106131328874906,2.2738048684025998,1.3700503480089707
5418.534,-0.43385031133732294,1.2386345577683067,-0.07400477119132678,-0.9854082746860283,0.11061109838220806,2.27381924768448,1.3650864492912196
5418.567,-0.43384120356124667,1.2419025609986127,-0.0740022828603542,-0.9854047229847209,0.11060684285563478,2.2738305656359636,1.3628426305787142
5418.6,-0.4338073838028815,1.244684326188888,-0.07400479761238238,-0.9854046843011929,0.11060630020831203,2.273859047242856,1.3625874810805367
5418.634,-0.4337743346437987,1.246695186638043,-0.07401605926024815,-0.9853898355152998,0.11059956932968149,2.2739173219684834,1.362587733110118
5418.668,-0.4337796305894838,1.2478904273626645,-0.07407931342125072,-0.9854064170184136,0.11060240059688702,2.273933873653412,1.3625868856653192
5418.7,-0.43378559477318407,1.2482857240065433,-0.07442284419646995,-0.9854231524344679,0.11059670825449588,2.2739327546755472,1.3625933300993431
5418.734,-0.43379520518897036,1.2481204713057734,-0.07532760909562715,-0.985351730224587,0.1105947710805469,2.273930503582004,1.3625898130772098
5418.767,-0.4338206991709062,1.2476436071613384,-0.0772838435941366,-0.9851621189501509,0.11059772111309898,2.2739288698611784,1.3625934335599783
5418.801,-0.43390297202326217,1.2469744776558227,-0.08078428294093896,-0.9850896604229203,0.1105924927202247,2.2739204121677,1.3625959305075537
5418.834,-0.4341146127882959,1.2460577553143255,-0.08623053362235787,-0.9851492125973845,0.11059736618459633,2.2739051388200537,1.3625983708348344
5418.867,-0.4344812704754657,1.2451235418559805,-0.09343317315587385,-0.9853370405486387,0.11059191368673554,2.2738967029199872,1.362609970599004
5418.9,-0.4325100438368583,1.2459039095731157,-0.08125113146050644,-0.9852672458606939,0.08059098268138687,2.2732431204585914,1.3642454202914172
5418.934,-0.4354727870898637,1.2426964680262544,-0.11344021791592827,-0.9879280220313158,0.11056997047159248,2.2738371133916075,1.3626423511154862
5418.967,-0.4327905237402625,1.244708857845918,-0.08690724716455733,-0.985217123281231,0.07431414939790137,2.2734529712154163,1.3748171515718157
5419.001,-0.43592159041497514,1.2401042310855082,-0.13795403197610892,-0.9934588691038635,0.11039136230203812,2.2737942493756718,1.3626558498548784
5419.033,-0.43589811915663984,1.2390973954949485,-0.149616440924491,-0.9966739362800687,0.11037722126146343,2.2737905566719605,1.3627582382641539
5419.067,-0.4297748521442868,1.2423572243904744,-0.11233703123661343,-0.9895815661924967,0.0744160885813896,2.273626701891306,1.3776349207926506
5419.1,-0.4323990464353695,1.2415403037819512,-0.11925156825699901,-0.9907674594457223,0.07004848911968775,2.2735840115909767,1.3768937754293606
5419.134,-0.4353867308870445,1.2413942578884294,-0.11977277283108112,-0.9905839607126055,0.06031604055181283,2.273609412202328,1.38345810272296
5419.167,-0.4365944373159536,1.2412790798748468,-0.12040251992580941,-0.9906220891175916,0.0511167919517721,2.273598087551104,1.3922141129754584
5419.2,-0.43709027009195367,1.2412400764136704,-0.12076016040339521,-0.9906702370895264,0.04253296730494949,2.273629672261487,1.4001751929740163
5419.234,-0.43745973878435507,1.2412201530945062,-0.12077552179078666,-0.990609678598644,0.03214562780332919,2.2735830835715767,1.4121789795501742
5419.267,-0.43761334400284646,1.2411972999655587,-0.12081735587711062,-0.9906131631650101,0.022443677777663318,2.2735715857253815,1.4221804767323576
5419.3,-0.4376926478810743,1.2411877281129797,-0.12084596910619805,-0.9906071586875616,0.012502707176819783,2.2735559309502094,1.4319487852781254
5419.335,-0.43765922659751055,1.2411832749956577,-0.1209742152462665,-0.9906556652526977,0.003309405754765571,2.273591874114757,1.439399233779194
5419.367,-0.43767080396876246,1.2411877129948445,-0.12100887837713525,-0.9906506225419847,-0.00724828074459527,2.2735966249641955,1.4485470710686297
5419.4,-0.4376934858984427,1.2411708080479311,-0.12101960824513291,-0.9906653003477812,-0.01751885882896609,2.2736051740550067,1.4566792722885618
5419.434,-0.4377849924056987,1.2411627702069605,-0.12090526977440419,-0.9906081776049191,-0.028914937304667987,2.273537655294799,1.466054128515986
5419.467,-0.43779365115111624,1.2411560086619922,-0.12090904555442972,-0.9906061343775283,-0.03968675360891094,2.2735208498039654,1.4729606701949756
5419.499,-0.43782562129666935,1.2411538739089654,-0.12087332256432148,-0.9905886475207577,-0.05071115784115321,2.2734983055857754,1.4791536731261905
5419.533,-0.4378377478265998,1.2411454733778777,-0.12086494594254837,-0.9905822170089476,-0.061880151043773424,2.2734764279168367,1.4845203025663727
5419.567,-0.4377673937682909,1.2411422745989231,-0.12098054777693701,-0.9906360025710184,-0.07216268013105775,2.2735382930045986,1.4871762941398101
5419.6,-0.43784984542434824,1.2411334016442188,-0.12086938440229122,-0.9905800229192785,-0.08425809397870321,2.2734575373299073,1.492197049627241
5419.634,-0.43777734810260416,1.2411290653369411,-0.12098729829446331,-0.9906359008547305,-0.09485887653342662,2.2735261913685054,1.4929521066365927
5419.666,-0.41075652132706725,1.1233111601192116,-0.1739742043431267,-1.2306300674757216,0.11037904173798027,2.273901200059822,1.3661336512360749
5419.699,-0.4082261018957106,1.1014829912224582,-0.1737692061218502,-1.2653695397175146,0.11038686457384511,2.273879909129507,1.3661269227567066
5419.734,-0.40569805213977755,1.0783345919073821,-0.1734022579668486,-1.3023924808600975,0.1103917479812833,2.273923291964737,1.3661301765094949
5419.767,-0.40294706223726307,1.05346331630407,-0.17291064991249216,-1.3417652298845242,0.11037887087541595,2.273916590224315,1.366131122547884
5419.8,-0.3998691130514567,1.0272905944338606,-0.17234116529953744,-1.3829808002634376,0.11039916929931286,2.2739901664437596,1.3661280212226319
5419.834,-0.3965247599166456,1.0000932120759631,-0.17158692792772437,-1.4255224046405215,0.11038775247501277,2.273949360876635,1.3661105112953362
5419.867,-0.39298853659805943,0.9719760030301738,-0.1703953384518318,-1.4685098274920503,0.11037953302424904,2.274110485216769,1.3660675604781596
5419.9,-0.3892250197467057,0.9436142160745983,-0.16887166717256236,-1.5113760543231587,0.110393360828617,2.274320351766419,1.3659271385782492
5419.934,-0.3851769381654438,0.9149302352100934,-0.16728403375928866,-1.5535617314485743,0.11038644400770542,2.274477651977937,1.365860127368516
5419.966,-0.3810372991479318,0.8866461027056259,-0.1658795312954103,-1.5948587792325442,0.11039657874128687,2.274777313290926,1.3655683266157255
5419.999,-0.37695452480739877,0.8589107209348742,-0.16493091771711044,-1.6349025157424149,0.11039268579793741,2.274962892609621,1.3653928822828867
5420.034,-0.3726277289579022,0.831798188930923,-0.16458347093504458,-1.6734693506191027,0.11038823472759053,2.2752247580228735,1.3653477820126736
5420.067,-0.36840025505499013,0.8055646731032079,-0.16455092492546594,-1.7108401547725725,0.1103816547517558,2.2752910464400244,1.3651305779393603
5420.1,-0.3644082458862362,0.7802613298177076,-0.16455552706910467,-1.7465428017935738,0.11037400314735805,2.2755580053988034,1.3648534704820072
5420.134,-0.3607911341060848,0.7557540644518592,-0.16456289109980626,-1.7803397735467368,0.11036918891711098,2.2757757731690504,1.3644895833217663
5420.167,-0.357722670913138,0.7323850968326995,-0.16458031998376219,-1.8129189264725267,0.11037076567703716,2.2757929507876917,1.3644063699794595
5420.199,-0.3551494789264183,0.7099052777997997,-0.16457773522920494,-1.844367857340724,0.11036248296457805,2.2758584808248297,1.364389218696578
5420.234,-0.35303515029599225,0.6883965677024412,-0.16459903523717842,-1.8747074933071317,0.11036388343592472,2.2758941174667227,1.364351957710863
5420.267,-0.35155483066922133,0.6675632843232879,-0.16461003730653959,-1.9044954757461725,0.11036384920858101,2.275893253113108,1.3642918256512235
5420.3,-0.3507195406975966,0.6474580373572142,-0.16461254292412808,-1.9338173741011553,0.11036202069704554,2.2758738633283664,1.3637688271099413
5420.334,-0.350431371335694,0.6284647488440371,-0.164620616680889,-1.963022686133441,0.11036064224772983,2.2758650376029435,1.3627861467814106
5420.367,-0.3504797179522343,0.6113273102926903,-0.16466190941104514,-1.9918093217085666,0.11034118513033186,2.2758559501699165,1.362286520545937
5420.399,-0.35068804886181554,0.5956791645648981,-0.1648451863870633,-2.020211689573333,0.11028311329598915,2.275839465211077,1.3617033265284286
5420.434,-0.3504205833000471,0.6393123489526964,-0.1637428451757259,-1.944878199342157,0.09144062758231186,2.2761836072650876,1.3117829901950815
5420.467,-0.3505520139118099,0.6266724421137333,-0.1638856231478707,-1.963830250047783,0.08847467827898736,2.274277326835822,1.3116617551239225
5420.5,-0.3510022459586164,0.6280707897542772,-0.16426644038585358,-1.9586472622589826,0.08301550936710278,2.2749975284732002,1.3120726517263837
5420.534,-0.35112621995240634,0.6274098627508247,-0.1643578556638614,-1.9596499971881833,0.07770396320166295,2.2747529086309974,1.3036490296575272
5420.567,-0.35122466675724695,0.627472203078371,-0.16436901006707405,-1.9593774475958208,0.072527826533757,2.2747277025428296,1.2909663873431798
5420.6,-0.35126202694927056,0.6274262233201968,-0.16438160819607273,-1.9594203818729925,0.06730444357503895,2.274667381422347,1.274814356071083
5420.634,-0.3511602943152523,0.6274254520777545,-0.16449158289650256,-1.9594808081591442,0.062417686414374174,2.274675435950467,1.2558593244755052
5420.667,-0.3512854980887772,0.6274226078474383,-0.1643892251678647,-1.9593966166882568,0.05661637745640036,2.2746069698937426,1.2390837962873817
5420.7,-0.35116752919120575,0.6274055183500327,-0.1645167749446701,-1.9594771401874729,0.051795975516003345,2.274616779111696,1.2174394341826948
5420.734,-0.3513086363202218,0.6274033578228586,-0.16439489753656744,-1.959397596123516,0.04627258679057711,2.274553044118358,1.1995654160919953
5420.767,-0.3513037114316315,0.6274120304709188,-0.16440003826382998,-1.9593950653101402,0.041087963448037,2.274543864030761,1.1788448581893203
5420.8,-0.3513504059014103,0.6274060043099059,-0.16435772034214846,-1.9593769410924642,0.035924155809998304,2.274508347210645,1.1577725432165185
5420.834,-0.35136694845386973,0.6274025079635654,-0.16434885998940363,-1.9593671339826946,0.03079237609136065,2.2744938499758813,1.1364219838991003
5420.867,-0.3513779061216251,0.6274153461862815,-0.1643357712025839,-1.9593508812325027,0.025706503914488366,2.274485624914,1.1146010513479583
5420.9,-0.3514234855334122,0.6274089711870134,-0.16429476665808807,-1.9593335424312874,0.02067386714574937,2.2744553158880763,1.0924414736967627
5420.934,-0.3514412490180403,0.6274062406802896,-0.16428442119712372,-1.9593230161860493,0.015680711496836253,2.2744448023391257,1.0699193354014653
5420.966,-0.351326346379059,0.6274122088357696,-0.16439127852008983,-1.9593898792473734,0.011077358722186403,2.274476903410269,1.045123194421822
5421.0,-0.35146569037504527,0.6274097622506556,-0.16426374794514853,-1.9593076438154835,0.005962018001746117,2.2744213679118293,1.023928996521831
5421.034,-0.3513030599067637,0.6274174229926466,-0.16441377527525347,-1.9593871110404777,0.0015189486921611817,2.274472631523672,0.99854081035165
5421.067,-0.35131443747840496,0.627413106779124,-0.1644143749367899,-1.9593905221066983,-0.0032119649014203944,2.274466762749329,0.9749816101087525
5421.1,-0.35144422490627303,0.6274127565727854,-0.16428842918074515,-1.9593148513296264,-0.008172498267797756,2.2744130440152475,0.9534255228585167
5421.133,-0.35128091042192455,0.6274230798027878,-0.16443415886535018,-1.9593925005874038,-0.012463353948817257,2.2744659265744787,0.9280234269069645
5421.167,-0.35128809340926725,0.6274192610917,-0.1644372218320198,-1.9593977754213103,-0.017006525492711866,2.2744620028570015,0.9042812459863336
5421.2,-0.351418020037757,0.6274188729954666,-0.16430855382796317,-1.9593220285529398,-0.021808568966337205,2.274404996237127,0.8827528887558902
5421.234,-0.3579233330667856,0.5566630051037511,-0.18930123986153968,-2.260797174874525,0.10930245742845267,2.3802622124829194,1.3076897413953208
5421.266,-0.3584697657282487,0.5625172370828384,-0.1892904119553352,-2.2604974025748317,0.10930668609340984,2.402409723457428,1.2995202032658384
5421.3,-0.35862124787252186,0.5684662633681116,-0.18927198062283485,-2.2597098424752486,0.10930668463304605,2.425562718094885,1.2912088840924105
5421.333,-0.35865843012308035,0.5746253074067578,-0.18928354424093685,-2.2585205995646738,0.10932224890702835,2.4489668754065805,1.283350207909878
5421.366,-0.3587566488843035,0.5807532545406304,-0.18928154714818948,-2.2580090277868785,0.10931840158502261,2.472906320351095,1.2793545342686183
5421.4,-0.3588065802967435,0.5868984630193901,-0.18926780401271293,-2.2580666511963754,0.1093175027841459,2.4962377318605062,1.2779900499555636
5421.434,-0.35875867394747085,0.5928082727472515,-0.18926175547622118,-2.2581073626436936,0.10931738433244317,2.5175502703121473,1.277774441627852
5421.466,-0.3587076568513302,0.5983712016018919,-0.18904463826971826,-2.258147116529915,0.10931841910961035,2.5370725665103593,1.2777865481643427
5421.499,-0.35859501076445244,0.6035756453062958,-0.18864791887812565,-2.2580885505345045,0.10932043614520882,2.553798640810277,1.2777777590557626
5421.534,-0.35841085642873716,0.6085127123237198,-0.18802391309502595,-2.258080247623423,0.10931840158502353,2.5674004862844093,1.2777696744502482
5421.567,-0.358232995688188,0.6131209580257233,-0.18697970545244183,-2.25804159327007,0.10931443429986636,2.5780221336830045,1.2777703978075565
5421.6,-0.3578430072897987,0.616935790623305,-0.18569023293700118,-2.257950526865318,0.1093173711684808,2.586159412544245,1.2777758386256077
5421.633,-0.3572697190351756,0.6199484187542341,-0.1841902090553888,-2.2579372709397147,0.10932043609089868,2.5920460357359,1.277773754722956
5421.667,-0.3566713125512511,0.6223134181836943,-0.18242516727224373,-2.2579645255224876,0.10931840304538637,2.5950266189058824,1.2777726313822253
5421.7,-0.3561182535823414,0.6240157101377406,-0.18044270961523562,-2.257980826430377,0.10931646880507469,2.5957511118572834,1.2777692352025742
5421.733,-0.3558359332980367,0.6251928058614857,-0.17828918293223048,-2.258042218237305,0.10932055437969572,2.5957496063532006,1.2777649046248858
5421.767,-0.3557343299141695,0.6260155807462441,-0.1760206961924869,-2.2580323216640292,0.10932236887017886,2.5957507516570417,1.277766095536045
5421.799,-0.3557338910642266,0.6265905818597653,-0.17383496581382313,-2.258182780603203,0.10933077054915749,2.5957495932711496,1.2777748737008205
5421.833,-0.35572987116755483,0.6271997844034511,-0.17199270293330943,-2.2584535097339073,0.10933010962605474,2.595750712249014,1.2777659073108292
5421.866,-0.3557400906498594,0.6280354835397595,-0.17070232886945672,-2.2586400422794104,0.10933112687865586,2.5957473548309036,1.2777715162824885
5421.9,-0.35572736595006943,0.6294198307356743,-0.16998873221515706,-2.2587925982649293,0.10933010962605474,2.5957528482980132,1.277765866565464
5421.934,-0.3557541874340606,0.6313183246200619,-0.16982906823387486,-2.2588114011683764,0.10933010962605474,2.5957609737846474,1.2777726684245507
5421.966,-0.35599871645659087,0.6336168553987509,-0.16990167592101935,-2.258854129826084,0.109329194098711,2.5957657028921317,1.2777758909507306
5421.999,-0.3564001365072367,0.6364141040647598,-0.1701035442505364,-2.2588611737916557,0.10933010962605474,2.595797293932242,1.2777737007262315
5422.034,-0.3567880579137993,0.6392277012064457,-0.1704102175809147,-2.2588192587716254,0.109329194098711,2.5959177309777277,1.2777758909467756
5422.066,-0.357021202380545,0.6415356787208131,-0.17057806105659554,-2.258860863500364,0.1093261423408985,2.5959526611098944,1.277769837691388
5422.1,-0.35686993564341113,0.6420953585520995,-0.17047564949056362,-2.258844146822958,0.10933044505943154,2.595919281209484,1.277788178972698
5422.134,-0.35662509315310265,0.6415943679545051,-0.17047162906824795,-2.258566474544841,0.10932965680098385,2.595938789539867,1.27779957266638
5422.167,-0.35666694311517305,0.6414974271707496,-0.17053170059468858,-2.258091867231574,0.10933284920754961,2.5959536655960522,1.2778009709982676
5422.2,-0.3566832176869055,0.6415706939959094,-0.17054523310117553,-2.2580880827183667,0.1093258836488501,2.5959445415829934,1.277803563893734
5422.234,-0.3566067330377564,0.6414833413300239,-0.1705242476703182,-2.2579370235100225,0.10933000439160136,2.5959455054176432,1.2778046203682794
5422.267,-0.35669209248835987,0.6418462041302817,-0.17059218392532838,-2.258737976092611,0.07958040376937792,2.5957115973952174,1.1694583444440072
5422.3,-0.35690173290092453,0.6418185880013141,-0.1706967341284633,-2.2585267028351943,0.07408946950145623,2.5956482927662687,1.16997383560404
5422.334,-0.35698472816243587,0.641761751542786,-0.17086394908354485,-2.2585820698743344,0.06488792353531814,2.5956435437833,1.1603319267297767
5422.367,-0.3570407648693035,0.6417606586765787,-0.17092434645913368,-2.2585862100291685,0.05551673980291927,2.595626909026034,1.1476531658088476
5422.4,-0.3570641674895656,0.6417541812907777,-0.17097097548026685,-2.2585950528830647,0.046027899586536414,2.5955994099066153,1.130270726016401
5422.434,-0.3571734298390181,0.6417525479745319,-0.17095775900528487,-2.2585446252591144,0.03557054196272791,2.595546488253772,1.1092345541544981
5422.467,-0.3565531163624702,0.6412370843421512,-0.17056190524184914,-2.2576980688530104,0.10933153056547835,2.5959435186476463,1.2778141466881707
5422.5,-0.3566002841858803,0.6412367311946131,-0.17058028003625703,-2.257714118407073,0.10933079084354419,2.595942085714893,1.2778231201344676
5422.534,-0.35660792368104943,0.6412260379070517,-0.1706305980407303,-2.257712301521978,0.10933478205966642,2.5959381361961644,1.2778242455812727
5422.567,-0.3565944334658856,0.641233441522766,-0.17062543301205882,-2.2577248679731157,0.1093339848220101,2.595940083186449,1.2778242454198656
5422.6,-0.3565831712076541,0.6412265139398912,-0.1706144338950777,-2.2577156393820776,0.10933398482202379,2.595940966741008,1.2778286762944246
5422.634,-0.3565912449851786,0.6412261860949843,-0.17062222926240217,-2.2577181450358603,0.10932875502285958,2.5959368985114706,1.277827371295354
5422.667,-0.35659723097644563,0.6412307800209505,-0.17062501332216096,-2.2577206506896434,0.10933398476727953,2.5959359989959943,1.277834097546133
5422.7,-0.35657717679137924,0.6412261056021759,-0.17061443389507763,-2.2577156027526115,0.10933191088692795,2.595940200744569,1.2778322722878126
5422.734,-0.3568841121476396,0.6411496382501563,-0.17081563238158282,-2.2576631273700514,0.07674964722194488,2.59588007598526,1.3144932444133444
5422.767,-0.35687778561514616,0.6411700979527755,-0.17083535518786963,-2.257655281068704,0.07688865270513734,2.595869338418497,1.3248634520196445
5422.8,-0.3570782406857882,0.6411239275323526,-0.1709735581539915,-2.2576071248641743,0.06894229319555656,2.595840026653949,1.3367167153713915
5422.833,-0.3571430410432228,0.6411258688683033,-0.17104449881517425,-2.257596601809043,0.060517860834362835,2.5958301288577594,1.343511994498777
5422.866,-0.3570913810178018,0.6411312789900663,-0.17110135527898507,-2.257659988337366,0.05239028030744919,2.5958572118490792,1.3429782056008994
5422.899,-0.35713079016436566,0.6411249701917905,-0.17111288194244434,-2.257663079770847,0.0437395797532778,2.5958363764384593,1.3386563457715415
5422.933,-0.3571134894593033,0.6411327182680102,-0.17115545301148316,-2.257678492804697,0.035105802065959146,2.5958358609708387,1.3288365136057791
5422.966,-0.3571401548198567,0.6411296269403257,-0.17116490841421506,-2.2576934387589827,0.02633637313037518,2.595819401506871,1.3137066655945668
5422.999,-0.3571146695836287,0.6411397541942785,-0.17119749584463673,-2.2577022459264295,0.017605178318941483,2.595824747777673,1.2957495860543986
5423.033,-0.35722556427520225,0.6411274106970399,-0.17116144999300698,-2.257641916327863,0.007818184615474344,2.5957623595621495,1.2765605263930544
5423.066,-0.35723120890259974,0.6411346874896982,-0.17116547827246098,-2.2576426644267773,-0.0011666771381060315,2.5957504341203155,1.254099874978973
5423.099,-0.35714054576312027,0.6411434656469517,-0.17122103341395611,-2.2576999025338704,-0.009898992426666808,2.595787087374841,1.2274856185016336
5423.133,-0.3572417384215436,0.6411410516238591,-0.17118950245818798,-2.2576259245365344,-0.019926856482269883,2.595741833521064,1.2030151172647727
5423.166,-0.35726051298091654,0.6411259409629162,-0.17118863260357742,-2.257631403747019,-0.029121489074277918,2.5957207084428404,1.1751049316364348
5423.2,-0.3572695488698532,0.6411426660836295,-0.17119472875239694,-2.257609855701242,-0.0384034425722497,2.595718851202623,1.1464694767700756
5423.233,-0.35730572343109124,0.6411333032744722,-0.17118296175642733,-2.257595124022254,-0.04768827932080555,2.595699859618355,1.1165492337774916
5423.266,-0.3573036665312239,0.6411415136972023,-0.17118769905824038,-2.2575814484983585,-0.056917085146491075,2.5956988190265715,1.0860227068656751
5423.299,-0.3573378451493685,0.6411305233470381,-0.17117269066032392,-2.257566452234819,-0.06610614551030736,2.595679555477414,1.0547643445353474
5423.334,-0.35733890921242306,0.6411398734289184,-0.17117762047873253,-2.257549745837924,-0.07532397167955196,2.595678618345863,1.022671130650945
5423.367,-0.357370976582283,0.6411284480345989,-0.17116045566057903,-2.2575350659589812,-0.08445079822363599,2.5956610977161354,0.9903136771652807
5423.399,-0.35737011840737054,0.6411378886022243,-0.1711629466728377,-2.2575174922582857,-0.0935632423035555,2.595661393389552,0.9574089360308431
5423.433,-0.3574041247793547,0.6411249797471905,-0.1711460420531834,-2.2575016033929316,-0.1026567791354358,2.5956421435339685,0.9241940487344689
5423.467,-0.35740139588769093,0.6411349886954003,-0.17114589313575124,-2.257484007430202,-0.1116952479574298,2.5956442291582196,0.8907513094501871
5423.499,-0.35743431998059005,0.6411217547618664,-0.17112723138126373,-2.2574677745916247,-0.12069690857088045,2.5956246899970115,0.8571171408063458
5423.533,-0.3574340430989462,0.6411310684189155,-0.17112790165931102,-2.2574485524521126,-0.1297216967449497,2.595624596105882,0.8231675080924692
5423.566,-0.35735758287582176,0.6411276694323202,-0.17116974245583005,-2.257504874918949,-0.13778662394746455,2.595659681779054,0.7886820310034199
5423.599,-0.35745095820444917,0.6411171862592484,-0.1711133207029798,-2.25743257658751,-0.14732315964018383,2.595613723893093,0.7551831047588937
5423.633,-0.3574675655570809,0.6411134509446699,-0.17110188413062133,-2.2574185511504865,-0.1562126301637612,2.595599482195972,0.7209852155701677
5423.666,-0.3574847449004315,0.641118860559855,-0.1710822331830837,-2.257398171382153,-0.16507734808652508,2.5955838616858333,0.6870511229654541
5423.699,-0.3565912449812157,0.6412257767811156,-0.17061986281946367,-2.257715639382078,0.10933195031682647,2.5959398940209346,1.2778301327692139
5423.733,-0.35495777238500015,0.6416572459672416,-0.1687402635699513,-2.2583985459730114,-0.09565414567046826,2.5962740446596584,0.7957400796337915
5423.766,-0.35659124498076705,0.6412257767811156,-0.17061148266569318,-2.2577181450358608,0.10932773919458556,2.595939126642421,1.2778356259332764
5423.799,-0.35658846092145696,0.6412285608408744,-0.17061656407815015,-2.2577181450475248,0.1093339848220101,2.5959377577924263,1.2778290137922355
5423.834,-0.3565937506349986,0.6412257767811156,-0.1706192854099765,-2.257720650689644,0.10933296318833936,2.595934774919903,1.2778290137913493
5423.866,-0.3565912449812157,0.6412285608408744,-0.17062214910866963,-2.2577231563434266,0.10933490034737532,2.595938123871113,1.2778345067939063
5423.899,-0.3565912449812157,0.6412257767811156,-0.17061615835806115,-2.2577128553223194,0.10933093290195968,2.5959409665635484,1.2778400001194743
5423.933,-0.35658846092145696,0.6412285608408744,-0.17061124537194428,-2.257720650689643,0.10933398482203482,2.5959379019497506,1.2778411190973389
5423.966,-0.35659398752734994,0.6412285608408744,-0.17062187790268385,-2.2577181450358608,0.10933490034930438,2.5959391006200847,1.2778315032345278
5424.0,-0.35657815990008807,0.6412285608408744,-0.1706115614106881,-2.257723156343426,0.10933194983003858,2.595939052905482,1.2778366431858805
5424.034,-0.3565699249993204,0.641225776888113,-0.17060876563846647,-2.257720650701308,0.10933195031615875,2.5959369042718405,1.2778377752476913
5424.066,-0.35661778868545685,0.6412285608408744,-0.17063555372076591,-2.257715639382078,0.10933398482203208,2.595939170104873,1.277834447615898
5424.1,-0.3565863279966865,0.641256558627413,-0.17062611619476245,-2.257730951593285,0.10933398482203482,2.595935415019533,1.2778366431858805
5424.133,-0.3565586673269573,0.6412154757604647,-0.170600245930271,-2.2576975399411903,0.10933296756943062,2.595943544650046,1.2778381153764549
5424.166,-0.35658802633019204,0.6412204755118495,-0.1706027515847234,-2.2577231563434257,0.10933195031682649,2.595940161723331,1.2778400001194743
5424.199,-0.3567424136934143,0.6412455355957274,-0.1706962295748431,-2.2577033789346785,0.07993937150997343,2.5958480652948808,1.3227920447775858
5424.234,-0.3565743367915577,0.6412147737497474,-0.17061082535668634,-2.2577032432234634,0.10933296756943066,2.5959411964039485,1.2778377621637451
5424.266,-0.3567307583288626,0.6412266353887057,-0.17062946041000782,-2.2577260308925506,0.07452468895201836,2.5958363985653,1.3065191118922117
5424.299,-0.356657407786539,0.6412598180567617,-0.17059735054428504,-2.257679708488098,0.07478035133362937,2.595825168059129,1.2918477095044372
5424.333,-0.35672748488128647,0.6412160447205455,-0.17078074637015828,-2.25769873742653,0.06620215323306677,2.595864300263342,1.2852551098049423
5424.366,-0.35679235376684115,0.6411941066900191,-0.17081843390274543,-2.25769583272971,0.058036104279904244,2.5958384171333755,1.2747070661442503
5424.399,-0.3569001305803692,0.641194693566006,-0.17081376355242917,-2.2576394347982536,0.048668484385481214,2.5957927518310324,1.2605617354108798
5424.434,-0.35690790589492405,0.6412044144611215,-0.17084221896417962,-2.2576434371103584,0.03990430645209386,2.595782900699568,1.2402624352611014
5424.466,-0.3569516346885093,0.6411991494514693,-0.17083487876626702,-2.2576263864192,0.03096323020113445,2.595762082487031,1.2190287163065614
5424.499,-0.35695626791896196,0.6412073043076623,-0.17084962744867926,-2.257617720965702,0.02199609563471494,2.595753567359891,1.1952729976397949
5424.533,-0.3569950660462382,0.6411972948807989,-0.1708423353501125,-2.257606307541783,0.012998103699271901,2.595730100703955,1.1697622800811027
5424.566,-0.3569973698607951,0.6412081028533372,-0.17085193471391946,-2.257592032981295,0.003957472833760356,2.595730098136368,1.1430361634248802
5424.6,-0.3570339903174986,0.6411961075464383,-0.1708404648801629,-2.257579911452269,-0.005043074178585627,2.595706094263992,1.1150562460190336
5424.633,-0.3570358632189903,0.6412069974496166,-0.17084883984263133,-2.257564496811094,-0.014104128516091663,2.59570587892542,1.0859585874484337
5424.666,-0.35707058195569097,0.6411948714590627,-0.17083511435098675,-2.257551886877959,-0.023103682121835334,2.595687254837264,1.0559622619728053
5424.699,-0.3570705865698862,0.641205569511536,-0.17084083421035867,-2.257535452147403,-0.03210114481596893,2.5956870157692578,1.025220929972532
5424.733,-0.3569825475043915,0.6412062963689085,-0.17089142854058004,-2.2575904059231675,-0.04071942196846745,2.59571564154799,0.9915307786791461
5424.766,-0.35699733722989446,0.6411948827577225,-0.17089704412587814,-2.2575835599347123,-0.04958045308681225,2.59570747565218,0.9590899025087998
5424.799,-0.356960264228559,0.6412034333920174,-0.1709196144023073,-2.2575947555449414,-0.05835593608723855,2.595722711906344,0.9263175409558384
5424.833,-0.3569664140786122,0.6411926172206224,-0.17092662354012855,-2.257594004770538,-0.06719988925347042,2.595717047262312,0.8928149306176758
5424.866,-0.3569254144207106,0.6412024861347883,-0.17094552141559038,-2.257605015241877,-0.07590841771598988,2.595734142391013,0.8593644095996922
5424.9,-0.3569269718779191,0.641195351131719,-0.17095135160965214,-2.25760492632375,-0.0846841385648327,2.5957313587574227,0.8255705992817477
5424.933,-0.3570138474039837,0.6411909118143608,-0.17089525495497426,-2.2575433753011254,-0.09425896522539734,2.5956859302541275,0.7922912956143406
5424.966,-0.3569225418874655,0.641196897717804,-0.17094649774748927,-2.257600870415808,-0.10282342361524854,2.5957303313337476,0.755850512253744
5425.0,-0.35658846092145696,0.6412332591399367,-0.17061405535200752,-2.2577177343524446,0.10933292021685176,2.5959370220634344,1.277838881321085
5425.034,-0.35658846092145696,0.6412249877460994,-0.17061653800434817,-2.2577156393820803,0.10933398482203482,2.595941302010647,1.2778312025350604
5425.066,-0.35657215718968505,0.6412289513162459,-0.1706140291063415,-2.2577181459806708,0.10933296751534312,2.5959344742164476,1.2778333880314563
5425.099,-0.35658805282135103,0.6412235811815585,-0.1706140291063409,-2.257716329411792,0.10933195031682558,2.5959349437191834,1.2778301459057435
5425.133,-0.3565835346569713,0.6412284797958103,-0.1706140291063409,-2.257715640326886,0.10933296756943066,2.5959401484679336,1.277835465357339
5425.166,-0.35659121811476135,0.6412334824430177,-0.1706140291063409,-2.2577231563434266,0.10933398482203482,2.5959381239176404,1.2778333879775472
5425.199,-0.3565913239492977,0.6412275949338033,-0.1706140291063415,-2.257715713365492,0.10933195031682649,2.595939100458111,1.277838129912056
5425.233,-0.3565912449812157,0.641225663119964,-0.17061124504673028,-2.2577231648471274,0.10933296756943066,2.595938699621202,1.2778400451795566
5425.266,-0.35659985930719124,0.6412229307071028,-0.1706218254617301,-2.257718145071287,0.10933296755140148,2.595940195089853,1.277836687024956
5425.299,-0.3565806655538711,0.641222326338097,-0.17061124504658215,-2.257715639382078,0.10933195031682649,2.595939729865766,1.277834629053657
5425.333,-0.3565963602900402,0.641225741240079,-0.17061405927626402,-2.2577181450479573,0.10933296756742741,2.595938070227899,1.277838939593567
5425.366,-0.35658595526774556,0.6412254365708462,-0.17061618125100472,-2.257718145035863,0.10933195031682649,2.5959337038633623,1.277829015729493
5425.399,-0.3565912449812157,0.6412255384819386,-0.17061677392331645,-2.2577231818571213,0.10933398482203482,2.5959400989009693,1.2778301502118252
5425.433,-0.35659612855084966,0.6412254917795629,-0.17062182450971797,-2.2577231563477627,0.10933398482203482,2.5959402583254665,1.2778356259332846
5425.466,-0.35659904034827883,0.6412277808131086,-0.17061889687417192,-2.257715642532877,0.10933195031682649,2.595938064244842,1.2778389208786294
5425.499,-0.35659683135457904,0.641231387779087,-0.170619040750142,-2.257720650689841,0.10933296756742741,2.595939847747197,1.2778389226390776
5425.533,-0.35659375063499926,0.641230718537046,-0.1706165350854796,-2.2577181535391317,0.10933398482203482,2.5959398301429935,1.2778321941592874
5425.566,-0.3565912449812157,0.6412254018079169,-0.17061661393065525,-2.2577156393821314,0.10933398482203482,2.5959401873574524,1.2778388856823761
5425.599,-0.35658846092145696,0.6412288792166976,-0.17061618225966116,-2.2577206601727133,0.10933398482196063,2.595936000270761,1.277829053091115
5425.633,-0.3565884579780175,0.6412235627369982,-0.17061402910635756,-2.257720211330213,0.10933296756943066,2.59594016157046,1.2778337432958122
5425.666,-0.356585228201841,0.6412256458916967,-0.17061653486814718,-2.2577181451447275,0.10933296756943066,2.5959391444773754,1.2778378773038745
5425.699,-0.3565884609160012,0.6412303601987235,-0.17061889978650327,-2.257715741421305,0.10933398482196063,2.595937016230648,1.2778311505070814
5425.733,-0.3565912449812157,0.6412285231376319,-0.1706140300784033,-2.2577128553223194,0.10933296756943066,2.5959409652894507,1.2778400132016572
5425.766,-0.3565912449812157,0.6412277418778443,-0.17061724354113222,-2.257718221565473,0.10933488704384206,2.595940847318604,1.2778432967714322
5425.799,-0.3565937506468872,0.6412279854510926,-0.17061927663041013,-2.2577157245547386,0.10933296756943066,2.595940200977105,1.2778425927594332
5425.833,-0.3565912449812157,0.6412280128570204,-0.17061615793352403,-2.2577181535391295,0.10933296756943066,2.595936959347348,1.2778278952982232
5425.866,-0.3565912449812157,0.6412229683673655,-0.17061656104179274,-2.25771770567643,0.10933490034937857,2.5959365331681146,1.277830134228746
5425.899,-0.35658846092145696,0.6412275178163169,-0.17061663974330146,-2.2577231823120285,0.10933296756943056,2.5959391830583782,1.2778366431858899
5425.933,-0.3565937506349986,0.6412228518467488,-0.17061873939612068,-2.257723385931688,0.1093349003493758,2.5959366504403376,1.2778326222123924
5425.966,-0.35658595526767406,0.6412254884804438,-0.17061653767633095,-2.257729475096375,0.10933296756943066,2.5959381409852784,1.2778366432456973
5425.999,-0.35659904034827883,0.6412254115359218,-0.17062500311689568,-2.257720653629243,0.10933398482203482,2.595939178716485,1.2778399443662007
5426.033,-0.3565994121241334,0.6412307444902612,-0.17061898727207506,-2.257726150439349,0.10933296756943066,2.595938004728511,1.2778335071693323
5426.066,-0.3565937594609671,0.6412236321911768,-0.17061664265917328,-2.25772835013464,0.10933296756943066,2.5959380804778562,1.277839945786634
5426.099,-0.35659941533467626,0.6412256627615022,-0.17062217835366814,-2.2577372706855297,0.10933296756943066,2.595934931528272,1.2778400001221601
5426.133,-0.35660748910799356,0.6412275347941406,-0.17062751864652376,-2.257731544553689,0.10933296756943066,2.5959401425738173,1.2778321941654989
5426.166,-0.3566129748793912,0.6412247237776131,-0.1706303030357026,-2.257720980522235,0.10933490034937847,2.5959390873782255,1.277840000121493
5426.199,-0.3565569943712479,0.6412288782906259,-0.17064139642987897,-2.257751744889319,0.07959679351248994,2.5959389509282573,1.1654081376111556
5426.233,-0.35662066403003045,0.6412212001640736,-0.17075505499876265,-2.2577229029341908,0.07642593627882377,2.595915862764146,1.1636323129608588
5426.266,-0.3568795895069572,0.6411885725841948,-0.1708801265971367,-2.2576502370971863,0.06639658529778902,2.5958775035619137,1.156701003652297
5426.299,-0.35688271995362886,0.6411732669894761,-0.1709793345776056,-2.2577069836308725,0.057393601453402,2.5958791388959526,1.1411917079176606
5426.333,-0.3569133655321952,0.6411766964013035,-0.17102028203179298,-2.2577176345919545,0.04799676526144303,2.5958734659146714,1.1230850193400466
5426.366,-0.3570216338233161,0.641171704450521,-0.1710066077320933,-2.25766227284662,0.03821237627192353,2.595824799395393,1.102842199985207
5426.399,-0.3565720492434041,0.6412228521703154,-0.17060420009055563,-2.257725940403168,0.10933296756943066,2.5959413199018844,1.2778356259871124
5426.433,-0.35614941239137377,0.6412854853712835,-0.17026262195786845,-2.2577932211277707,0.04556480745434133,2.5960973889592474,1.1299068457101402
5426.466,-0.35660890568130316,0.6412279854536379,-0.17062955503419786,-2.257725940443556,0.10933296756943066,2.595940844644781,1.2778348606526628
