yuan18844-afk/dissertation/catkin_ws/src/franka_digital_twin/analysis/data/real_fast1_20250728_070807.csv
time,panda_joint1,panda_joint2,panda_joint3,panda_joint4,panda_joint5,panda_joint6,panda_joint7
28.380000000,0.424789,0.879404,-0.073182,-1.392549,-0.105350,2.572686,2.677431
28.403000000,0.425163,0.879547,-0.073069,-1.392810,0.072800,2.573096,2.322878
28.414000000,0.424860,0.879399,-0.073246,-1.392617,-0.116268,2.572972,2.709977
28.435000000,0.425163,0.879547,-0.073075,-1.392811,0.072801,2.573097,2.322874
28.449000000,0.424780,0.879391,-0.073184,-1.392528,-0.128669,2.572622,2.747052
28.468000000,0.425166,0.879545,-0.073075,-1.392808,0.072802,2.573098,2.322875
28.484000000,0.424843,0.879384,-0.073240,-1.392614,-0.139923,2.572978,2.781789
28.500000000,0.425168,0.879548,-0.073072,-1.392805,0.072802,2.573097,2.322869
28.517000000,0.424764,0.879388,-0.073178,-1.392508,-0.152156,2.572601,2.819311
28.533000000,0.425168,0.879545,-0.073075,-1.392805,0.072801,2.573096,2.322875
28.553000000,0.425765,0.879777,-0.072841,-1.393206,-0.120638,2.573145,2.761359
28.564000000,0.425166,0.879543,-0.073072,-1.392813,0.072801,2.573098,2.322872
28.588000000,0.426519,0.880377,-0.072201,-1.393142,-0.059569,2.572780,2.644236
28.598000000,0.425166,0.879548,-0.073069,-1.392813,0.072802,2.573096,2.322874
28.622000000,0.426369,0.880275,-0.072224,-1.393041,-0.024293,2.572754,2.563932
28.632000000,0.425163,0.879545,-0.073072,-1.392813,0.072800,2.573098,2.322874
28.656000000,0.425868,0.879954,-0.072540,-1.392889,-0.002377,2.572789,2.502932
28.666000000,0.425166,0.879546,-0.073075,-1.392813,0.072803,2.573098,2.322866
28.690000000,0.425306,0.879639,-0.072905,-1.392728,0.011451,2.572850,2.456235
28.700000000,0.425158,0.879550,-0.073069,-1.392813,0.072802,2.573095,2.322876
28.726000000,0.424521,0.879263,-0.073368,-1.392437,0.006027,2.572816,2.469038
28.732000000,0.425161,0.879545,-0.073069,-1.392811,0.072801,2.573098,2.322875
28.759000000,0.424453,0.879154,-0.073474,-1.392536,0.011027,2.572944,2.464469
28.766000000,0.425166,0.879550,-0.073072,-1.392811,0.072801,2.573099,2.322876
28.794000000,0.424527,0.879207,-0.073401,-1.392568,0.019667,2.572958,2.450243
28.799000000,0.425163,0.879545,-0.073075,-1.392811,0.072801,2.573099,2.322871
28.827000000,0.424384,0.879185,-0.073431,-1.392487,0.016742,2.572857,2.456229
28.834000000,0.425163,0.879543,-0.073072,-1.392813,0.072802,2.573098,2.322872
28.861000000,0.424182,0.879109,-0.073570,-1.392433,0.004452,2.572843,2.478316
28.867000000,0.425168,0.879550,-0.073069,-1.392811,0.072800,2.573098,2.322871
28.895000000,0.424063,0.879060,-0.073612,-1.392395,-0.007364,2.572799,2.504856
28.902000000,0.425166,0.879546,-0.073072,-1.392816,0.072801,2.573098,2.322870
28.930000000,0.424070,0.879031,-0.073699,-1.392435,-0.019213,2.573026,2.535624
28.934000000,0.425163,0.879543,-0.073072,-1.392813,0.072803,2.573099,2.322881
28.963000000,0.423983,0.879019,-0.073685,-1.392350,-0.031831,2.572788,2.570545
28.967000000,0.425166,0.879540,-0.073072,-1.392813,0.072801,2.573098,2.322867
28.998000000,0.424014,0.878985,-0.073732,-1.392422,-0.044111,2.573027,2.605084
29.000000000,0.425163,0.879547,-0.073069,-1.392813,0.072801,2.573097,2.322871
29.032000000,0.424014,0.878987,-0.073756,-1.392417,-0.056828,2.573080,2.642351
29.033000000,0.425168,0.879545,-0.073072,-1.392808,0.072802,2.573098,2.322876
29.067000000,0.423946,0.878971,-0.073720,-1.392347,-0.070736,2.572814,2.682908
29.069000000,0.425163,0.879540,-0.073072,-1.392813,0.072802,2.573096,2.322867
29.100000000,0.425007,0.879436,-0.073247,-1.392859,-0.034737,2.573263,2.594703
29.102000000,0.425163,0.879545,-0.073072,-1.392811,0.072801,2.573098,2.322875
29.135000000,0.425416,0.879685,-0.072932,-1.392913,-0.009278,2.573176,2.523960
29.136000000,0.425161,0.879545,-0.073072,-1.392811,0.072802,2.573097,2.322871
29.170000000,0.425417,0.879731,-0.072853,-1.392813,0.006161,2.572881,2.469855
29.170000000,0.425166,0.879548,-0.073075,-1.392808,0.072801,2.573098,2.322873
29.203000000,0.425166,0.879545,-0.073069,-1.392808,0.072801,2.573099,2.322876
29.205000000,0.425351,0.879640,-0.072960,-1.392857,0.016856,2.573119,2.424780
29.237000000,0.425166,0.879545,-0.073067,-1.392813,0.072802,2.573098,2.322873
29.239000000,0.425182,0.879566,-0.073097,-1.392756,0.022163,2.573120,2.397864
29.271000000,0.425166,0.879550,-0.073072,-1.392811,0.072801,2.573098,2.322875
29.272000000,0.424711,0.879348,-0.073337,-1.392597,0.007847,2.573034,2.435162
29.302000000,0.425166,0.879545,-0.073073,-1.392813,0.072800,2.573098,2.322874
29.310000000,0.424667,0.879307,-0.073402,-1.392654,0.000699,2.573191,2.427586
29.337000000,0.425166,0.879543,-0.073075,-1.392813,0.072802,2.573099,2.322869
29.345000000,0.424592,0.879276,-0.073445,-1.392637,-0.010276,2.573206,2.432544
29.366000000,0.425166,0.879545,-0.073075,-1.392811,0.072801,2.573095,2.322874
29.379000000,0.424588,0.879255,-0.073475,-1.392643,-0.020513,2.573240,2.442254
29.399000000,0.425166,0.879545,-0.073072,-1.392813,0.072801,2.573100,2.322873
29.414000000,0.424915,0.879343,-0.073378,-1.392841,-0.018233,2.573385,2.441040
29.434000000,0.425168,0.879548,-0.073067,-1.392808,0.072800,2.573097,2.322875
29.448000000,0.425012,0.879519,-0.073116,-1.392634,-0.011760,2.572974,2.443964
29.466000000,0.425166,0.879545,-0.073067,-1.392813,0.072799,2.573097,2.322873
29.486000000,0.425211,0.879512,-0.073089,-1.392861,-0.007215,2.573113,2.437311
29.500000000,0.425161,0.879543,-0.073075,-1.392810,0.072799,2.573096,2.322867
29.520000000,0.425102,0.879539,-0.073065,-1.392704,-0.006491,2.572970,2.439779
29.529000000,0.425166,0.879548,-0.073072,-1.392811,0.072801,2.573095,2.322873
29.554000000,0.425324,0.879542,-0.073100,-1.392928,-0.000749,2.573300,2.432289
29.567000000,0.425163,0.879545,-0.073069,-1.392810,0.072801,2.573098,2.322870
29.587000000,0.425147,0.879565,-0.073054,-1.392715,-0.000804,2.572977,2.437845
29.599000000,0.425166,0.879543,-0.073069,-1.392811,0.072802,2.573098,2.322874
29.622000000,0.425297,0.879554,-0.073027,-1.392891,0.005113,2.573071,2.428120
29.634000000,0.425168,0.879545,-0.073072,-1.392813,0.072802,2.573096,2.322873
29.657000000,0.425160,0.879535,-0.073101,-1.392799,0.003439,2.573199,2.434607
29.667000000,0.425168,0.879548,-0.073067,-1.392816,0.072801,2.573097,2.322877
29.692000000,0.424953,0.879400,-0.073257,-1.392790,-0.008342,2.573239,2.460504
29.699000000,0.425166,0.879545,-0.073072,-1.392813,0.072802,2.573098,2.322869
29.727000000,0.425347,0.879574,-0.073037,-1.392952,0.004948,2.573286,2.432593
29.732000000,0.425166,0.879548,-0.073072,-1.392813,0.072802,2.573098,2.322867
29.761000000,0.425496,0.879673,-0.072926,-1.392951,0.016473,2.573217,2.400775
29.766000000,0.425174,0.879541,-0.073067,-1.392815,0.072799,2.573098,2.322867
29.795000000,0.425395,0.879682,-0.072889,-1.392844,0.022998,2.572976,2.380700
29.799000000,0.425166,0.879540,-0.073072,-1.392808,0.072801,2.573097,2.322877
29.828000000,0.425353,0.879625,-0.072991,-1.392876,0.027986,2.573195,2.366269
29.830000000,0.425166,0.879545,-0.073069,-1.392813,0.072801,2.573098,2.322872
29.862000000,0.425171,0.879548,-0.073070,-1.392818,0.072801,2.573098,2.322867
29.862000000,0.425241,0.879555,-0.073070,-1.392846,0.030854,2.573190,2.360414
29.895000000,0.425158,0.879547,-0.073075,-1.392808,0.072803,2.573096,2.322875
29.896000000,0.424889,0.879456,-0.073159,-1.392675,0.023640,2.572964,2.371122
29.928000000,0.425171,0.879545,-0.073070,-1.392813,0.072800,2.573096,2.322875
29.932000000,0.424670,0.879338,-0.073311,-1.392629,0.011283,2.572955,2.390792
29.961000000,0.425166,0.879543,-0.073069,-1.392808,0.072801,2.573097,2.322876
29.965000000,0.424553,0.879297,-0.073383,-1.392571,-0.001085,2.572921,2.415539
29.995000000,0.425163,0.879548,-0.073075,-1.392810,0.072801,2.573097,2.322873
29.999000000,0.424469,0.879257,-0.073402,-1.392540,-0.013702,2.572878,2.444751
30.028000000,0.425171,0.879545,-0.073067,-1.392811,0.072803,2.573095,2.322872
30.034000000,0.424494,0.879235,-0.073476,-1.392583,-0.026244,2.573090,2.474181
30.061000000,0.425161,0.879545,-0.073069,-1.392813,0.072800,2.573096,2.322873
30.067000000,0.425102,0.879518,-0.073084,-1.392780,-0.005831,2.572951,2.446499
30.095000000,0.425166,0.879543,-0.073070,-1.392811,0.072799,2.573099,2.322880
30.103000000,0.425378,0.879659,-0.072906,-1.392821,0.008584,2.572929,2.428459
30.124000000,0.425168,0.879544,-0.073069,-1.392813,0.072803,2.573098,2.322871
30.136000000,0.425425,0.879694,-0.072878,-1.392803,0.017964,2.572931,2.421081
30.159000000,0.425166,0.879543,-0.073072,-1.392813,0.072800,2.573097,2.322867
30.170000000,0.425330,0.879644,-0.072903,-1.392787,0.023890,2.572928,2.421377
30.193000000,0.425168,0.879542,-0.073072,-1.392813,0.072801,2.573097,2.322875
30.205000000,0.425279,0.879583,-0.073030,-1.392830,0.028475,2.573172,2.421758
30.227000000,0.425168,0.879545,-0.073069,-1.392813,0.072801,2.573097,2.322882
30.239000000,0.425114,0.879541,-0.073060,-1.392740,0.030131,2.572948,2.426579
30.262000000,0.425166,0.879543,-0.073072,-1.392811,0.072802,2.573098,2.322877
30.284000000,0.425005,0.879493,-0.073110,-1.392734,0.032068,2.572963,2.430948
30.296000000,0.425168,0.879543,-0.073069,-1.392811,0.072800,2.573098,2.322871
30.318000000,0.424980,0.879475,-0.073140,-1.392740,0.032942,2.572966,2.434004
30.332000000,0.425163,0.879545,-0.073072,-1.392813,0.072801,2.573097,2.322875
30.352000000,0.424988,0.879493,-0.073148,-1.392732,0.033502,2.572976,2.436724
30.365000000,0.425161,0.879545,-0.073075,-1.392813,0.072800,2.573099,2.322870
30.386000000,0.425068,0.879498,-0.073175,-1.392811,0.034581,2.573212,2.437207
30.400000000,0.425166,0.879545,-0.073072,-1.392813,0.072802,2.573096,2.322875
30.420000000,0.424908,0.879469,-0.073155,-1.392703,0.029266,2.572944,2.446573
30.433000000,0.425168,0.879550,-0.073069,-1.392816,0.072800,2.573096,2.322878
30.455000000,0.425026,0.879468,-0.073209,-1.392845,0.026684,2.573269,2.445106
30.467000000,0.425163,0.879543,-0.073069,-1.392811,0.072801,2.573097,2.322869
30.488000000,0.424966,0.879507,-0.073115,-1.392726,0.023966,2.572969,2.446453
30.500000000,0.425163,0.879543,-0.073072,-1.392813,0.072802,2.573097,2.322876
30.523000000,0.424895,0.879433,-0.073278,-1.392770,0.012176,2.573239,2.461823
30.531000000,0.425166,0.879545,-0.073075,-1.392813,0.072799,2.573097,2.322869
30.559000000,0.425161,0.879566,-0.073042,-1.392834,0.018553,2.572986,2.439996
30.566000000,0.425163,0.879545,-0.073067,-1.392811,0.072800,2.573098,2.322867
30.593000000,0.425296,0.879656,-0.072933,-1.392843,0.024755,2.572969,2.406132
30.600000000,0.425168,0.879550,-0.073072,-1.392818,0.072799,2.573096,2.322879
30.627000000,0.425097,0.879577,-0.073036,-1.392720,0.017639,2.572902,2.415031
30.634000000,0.425163,0.879545,-0.073075,-1.392813,0.072800,2.573098,2.322869
30.661000000,0.424931,0.879493,-0.073147,-1.392662,0.005544,2.572884,2.441047
30.669000000,0.425166,0.879542,-0.073072,-1.392811,0.072801,2.573099,2.322873
30.695000000,0.424827,0.879442,-0.073178,-1.392626,-0.006454,2.572840,2.469455
30.699000000,0.425166,0.879545,-0.073067,-1.392813,0.072801,2.573097,2.322870
30.729000000,0.425328,0.879590,-0.073019,-1.392897,0.005294,2.573165,2.448173
30.731000000,0.425163,0.879543,-0.073072,-1.392803,0.072801,2.573098,2.322872
30.763000000,0.425541,0.879721,-0.072885,-1.392907,0.016285,2.573158,2.428110
30.765000000,0.425163,0.879545,-0.073072,-1.392808,0.072800,2.573097,2.322870
30.797000000,0.425532,0.879714,-0.072867,-1.392899,0.023117,2.573159,2.417843
30.801000000,0.425166,0.879545,-0.073069,-1.392808,0.072801,2.573098,2.322877
30.831000000,0.425229,0.879588,-0.073014,-1.392796,0.017075,2.573131,2.425527
30.833000000,0.425166,0.879546,-0.073075,-1.392813,0.072801,2.573097,2.322873
30.866000000,0.425287,0.879612,-0.072969,-1.392806,0.022173,2.572992,2.423192
30.866000000,0.425168,0.879543,-0.073072,-1.392809,0.072801,2.573100,2.322872
30.900000000,0.425058,0.879538,-0.073044,-1.392700,0.016369,2.572884,2.432507
30.902000000,0.425163,0.879548,-0.073069,-1.392816,0.072802,2.573097,2.322876
30.935000000,0.425337,0.879616,-0.072984,-1.392889,0.027405,2.573182,2.401007
30.935000000,0.425168,0.879547,-0.073072,-1.392810,0.072800,2.573097,2.322872
30.969000000,0.425327,0.879610,-0.073003,-1.392882,0.031158,2.573169,2.381166
30.969000000,0.425163,0.879543,-0.073072,-1.392811,0.072802,2.573098,2.322875
31.003000000,0.425279,0.879600,-0.073050,-1.392850,0.033400,2.573185,2.368571
31.004000000,0.425163,0.879543,-0.073069,-1.392813,0.072802,2.573097,2.322877
31.036000000,0.425153,0.879573,-0.073048,-1.392758,0.033881,2.572967,2.364563
31.038000000,0.425166,0.879543,-0.073072,-1.392813,0.072802,2.573098,2.322875
31.070000000,0.425092,0.879535,-0.073068,-1.392750,0.034540,2.572979,2.364473
31.072000000,0.425168,0.879548,-0.073069,-1.392806,0.072802,2.573098,2.322874
31.105000000,0.425137,0.879512,-0.073148,-1.392804,0.035569,2.573211,2.368498
31.106000000,0.425171,0.879546,-0.073072,-1.392813,0.072802,2.573097,2.322872
31.139000000,0.425166,0.879545,-0.073072,-1.392811,0.072801,2.573096,2.322870
31.140000000,0.425060,0.879493,-0.073110,-1.392741,0.034986,2.572991,2.381594
31.172000000,0.425166,0.879547,-0.073075,-1.392811,0.072803,2.573098,2.322869
31.173000000,0.425035,0.879501,-0.073104,-1.392711,0.034060,2.572949,2.393864
31.205000000,0.425163,0.879545,-0.073075,-1.392811,0.072801,2.573099,2.322869
31.208000000,0.424817,0.879415,-0.073209,-1.392663,0.022134,2.572926,2.419950
31.239000000,0.425168,0.879545,-0.073072,-1.392808,0.072801,2.573099,2.322877
31.242000000,0.424765,0.879383,-0.073248,-1.392639,0.012426,2.572889,2.446362
31.268000000,0.425171,0.879545,-0.073067,-1.392811,0.072800,2.573098,2.322875
31.278000000,0.424728,0.879370,-0.073257,-1.392622,0.001387,2.572850,2.476475
31.302000000,0.425166,0.879545,-0.073077,-1.392813,0.072801,2.573098,2.322875
31.312000000,0.424714,0.879378,-0.073264,-1.392593,-0.009164,2.572811,2.506038
31.336000000,0.425161,0.879540,-0.073075,-1.392811,0.072803,2.573095,2.322873
31.347000000,0.424753,0.879348,-0.073302,-1.392667,-0.019606,2.573031,2.536756
31.369000000,0.425166,0.879547,-0.073069,-1.392811,0.072803,2.573098,2.322875
31.381000000,0.424754,0.879360,-0.073313,-1.392648,-0.030399,2.573040,2.569104
31.404000000,0.425163,0.879550,-0.073072,-1.392818,0.072802,2.573099,2.322877
31.416000000,0.424690,0.879345,-0.073278,-1.392588,-0.042412,2.572794,2.605138
31.438000000,0.425168,0.879543,-0.073072,-1.392811,0.072801,2.573099,2.322878
31.449000000,0.424749,0.879331,-0.073326,-1.392665,-0.052647,2.573082,2.636924
31.472000000,0.425161,0.879545,-0.073072,-1.392811,0.072801,2.573097,2.322872
31.484000000,0.424754,0.879341,-0.073334,-1.392653,-0.063899,2.573090,2.672210
31.506000000,0.425166,0.879549,-0.073075,-1.392813,0.072802,2.573098,2.322873
31.517000000,0.424752,0.879329,-0.073332,-1.392670,-0.075191,2.573144,2.707642
31.540000000,0.425166,0.879543,-0.073069,-1.392811,0.072800,2.573098,2.322873
31.550000000,0.424765,0.879315,-0.073349,-1.392685,-0.086563,2.573185,2.743981
31.573000000,0.425161,0.879545,-0.073075,-1.392816,0.072800,2.573099,2.322877
31.586000000,0.424700,0.879329,-0.073297,-1.392595,-0.099145,2.572892,2.784120
31.605000000,0.425166,0.879543,-0.073072,-1.392808,0.072801,2.573097,2.322871
31.620000000,0.424701,0.879315,-0.073304,-1.392595,-0.110987,2.572871,2.822125
31.640000000,0.425166,0.879545,-0.073075,-1.392809,0.072801,2.573098,2.322870
31.654000000,0.424696,0.879327,-0.073299,-1.392563,-0.123006,2.572808,2.861169
31.672000000,0.425166,0.879547,-0.073072,-1.392810,0.072800,2.573097,2.322874
31.687000000,0.424755,0.879314,-0.073350,-1.392644,-0.134015,2.573126,2.897353
31.697000000,0.425166,0.879542,-0.073064,-1.392810,0.072800,2.573098,2.322875
31.722000000,0.425823,0.879816,-0.072801,-1.393205,-0.093217,2.573186,2.807214
31.732000000,0.425161,0.879543,-0.073069,-1.392818,0.072802,2.573097,2.322878
31.756000000,0.426389,0.880284,-0.072221,-1.393130,-0.040061,2.572782,2.673231
31.767000000,0.425168,0.879545,-0.073069,-1.392811,0.072802,2.573099,2.322877
31.790000000,0.425754,0.880019,-0.072541,-1.392748,-0.032991,2.572629,2.634443
31.800000000,0.425168,0.879545,-0.073072,-1.392808,0.072802,2.573097,2.322869
31.823000000,0.425138,0.879636,-0.072961,-1.392608,-0.046040,2.572651,2.663995
31.834000000,0.425166,0.879545,-0.073075,-1.392816,0.072801,2.573097,2.322876
31.857000000,0.424834,0.879475,-0.073110,-1.392510,-0.057167,2.572603,2.696034
31.868000000,0.425163,0.879548,-0.073077,-1.392808,0.072799,2.573096,2.322876
31.891000000,0.424687,0.879389,-0.073199,-1.392463,-0.068804,2.572551,2.729928
31.902000000,0.425163,0.879549,-0.073072,-1.392806,0.072800,2.573099,2.322867
31.925000000,0.424610,0.879364,-0.073243,-1.392415,-0.080732,2.572500,2.765158
31.936000000,0.425166,0.879543,-0.073072,-1.392813,0.072801,2.573098,2.322876
31.960000000,0.424620,0.879317,-0.073305,-1.392492,-0.092475,2.572782,2.801041
31.970000000,0.425163,0.879543,-0.073069,-1.392808,0.072802,2.573097,2.322878
31.994000000,0.424609,0.879316,-0.073336,-1.392482,-0.104687,2.572829,2.838463
32.004000000,0.425168,0.879548,-0.073072,-1.392811,0.072802,2.573098,2.322866
32.028000000,0.424595,0.879296,-0.073344,-1.392495,-0.117119,2.572892,2.877148
32.037000000,0.425168,0.879545,-0.073069,-1.392813,0.072800,2.573099,2.322874
32.062000000,0.424672,0.879330,-0.073274,-1.392539,-0.124920,2.572795,2.897319
32.072000000,0.425161,0.879545,-0.073075,-1.392806,0.072801,2.573098,2.322878
32.096000000,0.424794,0.879423,-0.073182,-1.392564,-0.127748,2.572794,2.897300
32.104000000,0.425163,0.879545,-0.073072,-1.392811,0.072800,2.573096,2.322875
32.131000000,0.424873,0.879457,-0.073146,-1.392592,-0.130044,2.572789,2.897300
32.139000000,0.425163,0.879543,-0.073072,-1.392813,0.072801,2.573096,2.322875
32.166000000,0.424916,0.879492,-0.073109,-1.392599,-0.131856,2.572792,2.897300
32.172000000,0.425163,0.879545,-0.073075,-1.392808,0.072802,2.573098,2.322875
32.200000000,0.424953,0.879502,-0.073097,-1.392614,-0.133169,2.572788,2.897300
32.206000000,0.425166,0.879543,-0.073072,-1.392813,0.072800,2.573098,2.322871
32.234000000,0.426275,0.880150,-0.072464,-1.393195,-0.066439,2.573036,2.755737
32.239000000,0.425171,0.879543,-0.073070,-1.392816,0.072802,2.573097,2.322874
32.267000000,0.426495,0.880293,-0.072250,-1.393129,-0.020960,2.572935,2.651061
32.274000000,0.425166,0.879547,-0.073072,-1.392808,0.072802,2.573098,2.322876
32.301000000,0.425977,0.880032,-0.072440,-1.392911,0.003249,2.572750,2.565613
32.307000000,0.425166,0.879548,-0.073069,-1.392811,0.072800,2.573097,2.322874
32.336000000,0.425440,0.879685,-0.072885,-1.392826,0.018278,2.573070,2.492434
32.341000000,0.425163,0.879548,-0.073072,-1.392808,0.072802,2.573097,2.322870
32.370000000,0.424925,0.879409,-0.073199,-1.392716,0.026472,2.573116,2.435309
32.374000000,0.425163,0.879547,-0.073072,-1.392811,0.072800,2.573098,2.322867
32.404000000,0.424599,0.879233,-0.073429,-1.392654,0.031280,2.573146,2.387968
32.408000000,0.425166,0.879545,-0.073072,-1.392811,0.072800,2.573098,2.322874
32.439000000,0.424375,0.879176,-0.073487,-1.392552,0.033190,2.572969,2.353626
32.442000000,0.425163,0.879545,-0.073070,-1.392811,0.072801,2.573099,2.322878
32.473000000,0.424387,0.879175,-0.073507,-1.392573,0.034523,2.572997,2.325828
32.476000000,0.425166,0.879540,-0.073069,-1.392808,0.072802,2.573099,2.322870
32.508000000,0.424553,0.879237,-0.073477,-1.392667,0.035871,2.573216,2.302320
32.511000000,0.425166,0.879550,-0.073069,-1.392811,0.072801,2.573097,2.322874
32.541000000,0.425161,0.879543,-0.073072,-1.392810,0.072801,2.573098,2.322873
32.546000000,0.424675,0.879320,-0.073343,-1.392652,0.035497,2.573019,2.288476
32.579000000,0.425168,0.879545,-0.073067,-1.392816,0.072800,2.573098,2.322875
32.579000000,0.424804,0.879404,-0.073242,-1.392649,0.034392,2.572972,2.281445
32.613000000,0.425166,0.879545,-0.073067,-1.392807,0.072802,2.573096,2.322877
32.614000000,0.424673,0.879353,-0.073295,-1.392618,0.022237,2.572950,2.290654
32.646000000,0.425166,0.879543,-0.073075,-1.392811,0.072801,2.573097,2.322876
32.648000000,0.424717,0.879341,-0.073363,-1.392651,0.012569,2.573127,2.301270
32.680000000,0.425168,0.879545,-0.073069,-1.392810,0.072801,2.573097,2.322871
32.683000000,0.424631,0.879318,-0.073327,-1.392584,0.000893,2.572921,2.319678
32.714000000,0.425166,0.879540,-0.073072,-1.392813,0.072801,2.573098,2.322875
32.717000000,0.424630,0.879325,-0.073341,-1.392561,-0.009927,2.572925,2.338511
32.749000000,0.425166,0.879545,-0.073067,-1.392808,0.072802,2.573098,2.322872
32.752000000,0.424671,0.879294,-0.073379,-1.392625,-0.020802,2.573100,2.359425
32.783000000,0.425163,0.879545,-0.073072,-1.392813,0.072801,2.573098,2.322865
32.786000000,0.424676,0.879302,-0.073395,-1.392607,-0.032033,2.573123,2.384285
32.815000000,0.425163,0.879548,-0.073069,-1.392811,0.072801,2.573099,2.322880
32.820000000,0.424670,0.879285,-0.073395,-1.392618,-0.043474,2.573164,2.411135
32.849000000,0.425163,0.879548,-0.073069,-1.392813,0.072800,2.573096,2.322870
32.854000000,0.424683,0.879269,-0.073413,-1.392628,-0.054996,2.573198,2.440507
32.883000000,0.425163,0.879548,-0.073069,-1.392811,0.072802,2.573098,2.322867
32.888000000,0.424698,0.879276,-0.073430,-1.392624,-0.066629,2.573248,2.471098
32.918000000,0.425163,0.879545,-0.073070,-1.392806,0.072800,2.573097,2.322870
32.922000000,0.424694,0.879261,-0.073427,-1.392636,-0.078508,2.573289,2.503872
32.951000000,0.425166,0.879545,-0.073069,-1.392810,0.072802,2.573098,2.322877
32.956000000,0.424710,0.879247,-0.073444,-1.392650,-0.090373,2.573329,2.537585
32.984000000,0.425166,0.879545,-0.073072,-1.392811,0.072801,2.573098,2.322874
32.989000000,0.424650,0.879250,-0.073400,-1.392571,-0.102761,2.573079,2.573265
33.019000000,0.425166,0.879543,-0.073069,-1.392811,0.072801,2.573099,2.322871
33.022000000,0.424654,0.879259,-0.073402,-1.392550,-0.115049,2.573053,2.609396
33.054000000,0.425166,0.879548,-0.073074,-1.392811,0.072800,2.573096,2.322871
33.057000000,0.424634,0.879251,-0.073378,-1.392534,-0.127411,2.572991,2.646486
33.088000000,0.425165,0.879545,-0.073071,-1.392811,0.072802,2.573096,2.322872
33.091000000,0.424704,0.879245,-0.073442,-1.392602,-0.139559,2.573268,2.683822
33.121000000,0.425166,0.879543,-0.073072,-1.392813,0.072801,2.573097,2.322867
33.126000000,0.424695,0.879232,-0.073439,-1.392610,-0.152171,2.573305,2.722676
33.154000000,0.425166,0.879548,-0.073072,-1.392813,0.072801,2.573096,2.322867
33.160000000,0.424708,0.879216,-0.073458,-1.392628,-0.164836,2.573357,2.762145
33.186000000,0.425163,0.879547,-0.073069,-1.392813,0.072803,2.573097,2.322874
33.194000000,0.424725,0.879223,-0.073478,-1.392629,-0.177632,2.573422,2.802230
33.223000000,0.425166,0.879543,-0.073072,-1.392808,0.072801,2.573097,2.322876
33.228000000,0.424725,0.879210,-0.073479,-1.392646,-0.190629,2.573483,2.843192
33.256000000,0.425163,0.879548,-0.073069,-1.392816,0.072801,2.573097,2.322874
33.262000000,0.424741,0.879194,-0.073498,-1.392664,-0.203693,2.573540,2.884708
33.291000000,0.425158,0.879545,-0.073069,-1.392813,0.072801,2.573098,2.322871
33.296000000,0.424846,0.879285,-0.073397,-1.392705,-0.210252,2.573437,2.897316
33.325000000,0.425166,0.879545,-0.073072,-1.392813,0.072802,2.573097,2.322874
33.330000000,0.424954,0.879367,-0.073314,-1.392744,-0.213165,2.573438,2.897300
33.355000000,0.425171,0.879550,-0.073070,-1.392808,0.072802,2.573096,2.322866
33.364000000,0.425030,0.879407,-0.073280,-1.392775,-0.215508,2.573433,2.897300
33.382000000,0.425166,0.879545,-0.073072,-1.392818,0.072801,2.573099,2.322869
33.399000000,0.425081,0.879452,-0.073256,-1.392777,-0.217249,2.573431,2.897300
33.414000000,0.425166,0.879545,-0.073069,-1.392811,0.072802,2.573100,2.322875
33.432000000,0.425105,0.879468,-0.073227,-1.392791,-0.218580,2.573434,2.897300
33.448000000,0.425168,0.879543,-0.073067,-1.392810,0.072800,2.573097,2.322870
33.467000000,0.425137,0.879490,-0.073224,-1.392789,-0.219637,2.573431,2.897300
33.481000000,0.425161,0.879543,-0.073069,-1.392813,0.072800,2.573098,2.322877
33.501000000,0.426651,0.880355,-0.072443,-1.393542,-0.136935,2.573488,2.746549
33.510000000,0.425171,0.879543,-0.073069,-1.392811,0.072800,2.573098,2.322881
33.536000000,0.426965,0.880624,-0.072000,-1.393349,-0.067303,2.573029,2.626779
33.546000000,0.425166,0.879545,-0.073067,-1.392811,0.072800,2.573098,2.322871
33.569000000,0.426482,0.880311,-0.072205,-1.393067,-0.024670,2.572900,2.530020
33.581000000,0.425166,0.879548,-0.073069,-1.392808,0.072801,2.573098,2.322875
33.605000000,0.425712,0.879765,-0.072734,-1.392887,0.000853,2.573147,2.454558
33.616000000,0.425166,0.879545,-0.073072,-1.392808,0.072800,2.573097,2.322874
33.638000000,0.425161,0.879543,-0.073069,-1.392813,0.072801,2.573096,2.322870
33.648000000,0.424883,0.879343,-0.073146,-1.392596,0.015017,2.572935,2.400923
33.673000000,0.424320,0.879052,-0.073510,-1.392410,0.021453,2.572928,2.368346
33.681000000,0.425168,0.879548,-0.073069,-1.392810,0.072801,2.573099,2.322876
33.707000000,0.423916,0.878814,-0.073900,-1.392410,0.012905,2.573252,2.390131
33.716000000,0.425166,0.879545,-0.073072,-1.392812,0.072801,2.573098,2.322875
33.742000000,0.424059,0.878899,-0.073701,-1.392426,0.022715,2.573022,2.380318
33.747000000,0.425158,0.879545,-0.073067,-1.392805,0.072799,2.573098,2.322877
33.775000000,0.424326,0.879023,-0.073618,-1.392561,0.028220,2.573243,2.377816
33.781000000,0.425163,0.879545,-0.073072,-1.392811,0.072801,2.573095,2.322871
33.809000000,0.424562,0.879185,-0.073484,-1.392625,0.031365,2.573247,2.383839
33.813000000,0.425161,0.879543,-0.073072,-1.392813,0.072802,2.573097,2.322869
33.844000000,0.424720,0.879316,-0.073301,-1.392647,0.032705,2.573006,2.393434
33.846000000,0.425166,0.879543,-0.073072,-1.392811,0.072802,2.573099,2.322875
33.878000000,0.424906,0.879444,-0.073194,-1.392693,0.033759,2.572993,2.401067
33.881000000,0.425163,0.879550,-0.073072,-1.392813,0.072801,2.573099,2.322878
33.911000000,0.425099,0.879518,-0.073149,-1.392808,0.035007,2.573208,2.406129
33.916000000,0.425166,0.879546,-0.073069,-1.392805,0.072802,2.573096,2.322872
33.945000000,0.425185,0.879567,-0.073079,-1.392844,0.035285,2.573203,2.412592
33.950000000,0.425163,0.879543,-0.073075,-1.392804,0.072800,2.573099,2.322873
33.979000000,0.425246,0.879588,-0.073053,-1.392864,0.035389,2.573188,2.418389
33.984000000,0.425163,0.879548,-0.073072,-1.392808,0.072801,2.573096,2.322876
34.013000000,0.425278,0.879613,-0.073045,-1.392858,0.035474,2.573197,2.423369
34.018000000,0.425161,0.879548,-0.073072,-1.392813,0.072801,2.573097,2.322873
34.048000000,0.425215,0.879601,-0.073002,-1.392799,0.034758,2.572960,2.429690
34.051000000,0.425163,0.879547,-0.073069,-1.392815,0.072802,2.573098,2.322867
34.082000000,0.425208,0.879604,-0.073014,-1.392784,0.034723,2.572963,2.433390
34.085000000,0.425166,0.879548,-0.073069,-1.392805,0.072801,2.573098,2.322875
34.116000000,0.425178,0.879585,-0.073010,-1.392785,0.034686,2.572965,2.436573
34.119000000,0.425166,0.879543,-0.073072,-1.392816,0.072800,2.573098,2.322871
34.151000000,0.425231,0.879573,-0.073074,-1.392845,0.035361,2.573203,2.437541
34.153000000,0.425163,0.879547,-0.073069,-1.392808,0.072802,2.573098,2.322869
34.185000000,0.425206,0.879556,-0.073071,-1.392848,0.035308,2.573208,2.439865
34.185000000,0.425171,0.879543,-0.073072,-1.392808,0.072800,2.573097,2.322870
34.219000000,0.425199,0.879540,-0.073087,-1.392849,0.035249,2.573200,2.441974
34.220000000,0.425166,0.879546,-0.073069,-1.392813,0.072803,2.573097,2.322875
34.253000000,0.425161,0.879545,-0.073069,-1.392816,0.072800,2.573098,2.322876
34.254000000,0.425127,0.879551,-0.073045,-1.392769,0.034535,2.572970,2.445463
34.283000000,0.425163,0.879540,-0.073075,-1.392813,0.072799,2.573096,2.322872
34.288000000,0.425000,0.879508,-0.073083,-1.392709,0.029692,2.572894,2.451944
34.317000000,0.425163,0.879545,-0.073072,-1.392811,0.072802,2.573096,2.322872
34.322000000,0.424832,0.879444,-0.073200,-1.392657,0.017482,2.572879,2.469660
34.351000000,0.425168,0.879548,-0.073069,-1.392811,0.072800,2.573098,2.322870
34.357000000,0.424806,0.879388,-0.073275,-1.392707,0.006383,2.573084,2.490431
34.385000000,0.425163,0.879548,-0.073075,-1.392816,0.072800,2.573098,2.322876
34.391000000,0.424782,0.879380,-0.073314,-1.392687,-0.005260,2.573121,2.517561
34.419000000,0.425166,0.879543,-0.073069,-1.392813,0.072801,2.573097,2.322870
34.424000000,0.424711,0.879371,-0.073297,-1.392608,-0.017440,2.572894,2.550400
34.453000000,0.425163,0.879543,-0.073072,-1.392816,0.072802,2.573096,2.322877
34.458000000,0.424754,0.879339,-0.073339,-1.392684,-0.029101,2.573140,2.583677
34.487000000,0.425163,0.879540,-0.073075,-1.392816,0.072801,2.573099,2.322871
34.491000000,0.424689,0.879339,-0.073307,-1.392601,-0.041607,2.572876,2.619690
34.521000000,0.425168,0.879545,-0.073069,-1.392813,0.072801,2.573097,2.322874
34.527000000,0.424738,0.879331,-0.073342,-1.392670,-0.053630,2.573151,2.655539
34.554000000,0.425166,0.879548,-0.073069,-1.392805,0.072800,2.573097,2.322865
34.562000000,0.424687,0.879339,-0.073316,-1.392579,-0.067033,2.572868,2.695973
34.587000000,0.425166,0.879546,-0.073072,-1.392808,0.072803,2.573098,2.322873
34.595000000,0.424741,0.879325,-0.073364,-1.392651,-0.078725,2.573155,2.731884
34.620000000,0.425163,0.879545,-0.073075,-1.392811,0.072802,2.573098,2.322876
34.629000000,0.424732,0.879311,-0.073362,-1.392659,-0.091562,2.573193,2.771906
34.652000000,0.425163,0.879547,-0.073069,-1.392816,0.072803,2.573098,2.322873
34.663000000,0.424747,0.879297,-0.073380,-1.392677,-0.104295,2.573246,2.812095
34.688000000,0.425163,0.879548,-0.073069,-1.392808,0.072800,2.573098,2.322870
34.702000000,0.424690,0.879299,-0.073338,-1.392596,-0.119761,2.572949,2.860953
34.716000000,0.425163,0.879543,-0.073069,-1.392816,0.072801,2.573097,2.322874
34.735000000,0.426087,0.879972,-0.072625,-1.393253,-0.060600,2.573275,2.718570
34.747000000,0.425168,0.879545,-0.073072,-1.392805,0.072803,2.573098,2.322871
34.769000000,0.426256,0.880178,-0.072368,-1.393092,-0.026115,2.572912,2.619379
34.777000000,0.425168,0.879543,-0.073072,-1.392809,0.072802,2.573097,2.322880
34.804000000,0.425995,0.880031,-0.072486,-1.392982,-0.003786,2.572877,2.538490
34.807000000,0.425166,0.879543,-0.073072,-1.392813,0.072799,2.573100,2.322869
34.844000000,0.425567,0.879783,-0.072755,-1.392856,0.010519,2.572876,2.472256
34.849000000,0.425166,0.879545,-0.073069,-1.392816,0.072801,2.573099,2.322876
34.868000000,0.425111,0.879536,-0.073047,-1.392730,0.019536,2.572913,2.416430
34.881000000,0.425166,0.879545,-0.073073,-1.392813,0.072801,2.573098,2.322878
34.907000000,0.424804,0.879382,-0.073252,-1.392646,0.025017,2.572954,2.378703
34.915000000,0.425166,0.879543,-0.073072,-1.392805,0.072800,2.573098,2.322872
34.941000000,0.424618,0.879286,-0.073351,-1.392616,0.028602,2.572981,2.348942
34.948000000,0.425166,0.879546,-0.073075,-1.392811,0.072802,2.573099,2.322878
34.975000000,0.424574,0.879254,-0.073401,-1.392616,0.030800,2.573005,2.326570
34.981000000,0.425163,0.879548,-0.073069,-1.392811,0.072801,2.573098,2.322873
35.009000000,0.424623,0.879292,-0.073385,-1.392618,0.032223,2.573020,2.310863
35.014000000,0.425166,0.879551,-0.073069,-1.392813,0.072802,2.573097,2.322880
35.042000000,0.424780,0.879335,-0.073368,-1.392710,0.033848,2.573225,2.299740
35.047000000,0.425166,0.879545,-0.073075,-1.392808,0.072801,2.573098,2.322871
35.076000000,0.424891,0.879389,-0.073281,-1.392745,0.034404,2.573223,2.296185
35.081000000,0.425166,0.879545,-0.073072,-1.392808,0.072802,2.573097,2.322876
35.111000000,0.424965,0.879460,-0.073181,-1.392701,0.034086,2.573021,2.300413
35.115000000,0.425166,0.879545,-0.073064,-1.392811,0.072800,2.573097,2.322877
35.145000000,0.425054,0.879499,-0.073104,-1.392729,0.034308,2.573015,2.308359
35.149000000,0.425168,0.879548,-0.073074,-1.392808,0.072802,2.573092,2.322870
35.178000000,0.425188,0.879525,-0.073101,-1.392811,0.035116,2.573216,2.319408
35.180000000,0.425168,0.879545,-0.073072,-1.392808,0.072800,2.573097,2.322874
35.213000000,0.425190,0.879558,-0.073045,-1.392749,0.034514,2.573006,2.340174
35.214000000,0.425166,0.879545,-0.073069,-1.392813,0.072801,2.573098,2.322871
35.247000000,0.425196,0.879563,-0.073010,-1.392767,0.034581,2.572991,2.357796
35.247000000,0.425168,0.879545,-0.073072,-1.392813,0.072802,2.573097,2.322875
35.280000000,0.425258,0.879563,-0.073044,-1.392845,0.035301,2.573203,2.370374
35.281000000,0.425166,0.879548,-0.073069,-1.392808,0.072801,2.573097,2.322877
35.314000000,0.425163,0.879543,-0.073072,-1.392811,0.072802,2.573096,2.322869
35.315000000,0.425199,0.879580,-0.073022,-1.392775,0.034631,2.572978,2.385241
35.348000000,0.425166,0.879541,-0.073067,-1.392813,0.072802,2.573099,2.322878
35.351000000,0.425151,0.879540,-0.073073,-1.392808,0.032326,2.573128,2.397651
35.382000000,0.425166,0.879543,-0.073072,-1.392813,0.072801,2.573098,2.322870
35.383000000,0.424905,0.879465,-0.073169,-1.392704,0.019689,2.572928,2.425121
35.416000000,0.425171,0.879548,-0.073069,-1.392813,0.072800,2.573098,2.322870
35.417000000,0.424890,0.879434,-0.073242,-1.392752,0.009364,2.573166,2.452753
35.450000000,0.425168,0.879545,-0.073073,-1.392811,0.072801,2.573097,2.322873
35.452000000,0.424792,0.879423,-0.073220,-1.392667,-0.002181,2.572915,2.483704
35.484000000,0.425163,0.879547,-0.073072,-1.392813,0.072800,2.573097,2.322877
35.486000000,0.424848,0.879411,-0.073286,-1.392730,-0.013039,2.573175,2.514671
35.519000000,0.424828,0.879398,-0.073282,-1.392730,-0.024490,2.573184,2.547935
35.520000000,0.425161,0.879543,-0.073069,-1.392805,0.072801,2.573097,2.322876
35.554000000,0.425180,0.879547,-0.073043,-1.392900,-0.018005,2.573007,2.527137
35.554000000,0.425171,0.879546,-0.073067,-1.392809,0.072803,2.573097,2.322872
35.587000000,0.425168,0.879547,-0.073072,-1.392816,0.072800,2.573099,2.322873
35.587000000,0.425565,0.879800,-0.072788,-1.392921,0.000312,2.572947,2.467325
35.621000000,0.425163,0.879550,-0.073075,-1.392805,0.072801,2.573098,2.322872
35.621000000,0.425332,0.879733,-0.072875,-1.392730,-0.001240,2.572851,2.467788
35.655000000,0.425163,0.879540,-0.073072,-1.392805,0.072801,2.573099,2.322869
35.655000000,0.425065,0.879559,-0.073040,-1.392698,-0.013564,2.572833,2.495159
35.688000000,0.425163,0.879543,-0.073072,-1.392807,0.072801,2.573098,2.322875
35.689000000,0.425368,0.879658,-0.072922,-1.392857,-0.005371,2.572922,2.477650
35.722000000,0.425161,0.879543,-0.073069,-1.392811,0.072802,2.573097,2.322872
35.723000000,0.425258,0.879682,-0.072902,-1.392709,-0.005673,2.572789,2.474577
35.757000000,0.425171,0.879548,-0.073069,-1.392811,0.072802,2.573099,2.322876
35.758000000,0.425023,0.879550,-0.073045,-1.392673,-0.018431,2.572784,2.494451
35.790000000,0.425166,0.879548,-0.073069,-1.392813,0.072802,2.573099,2.322866
35.791000000,0.424924,0.879495,-0.073105,-1.392630,-0.030029,2.572740,2.518291
35.824000000,0.425163,0.879550,-0.073077,-1.392806,0.072800,2.573096,2.322871
35.825000000,0.424869,0.879479,-0.073138,-1.392586,-0.042135,2.572699,2.547590
35.856000000,0.425168,0.879550,-0.073072,-1.392813,0.072802,2.573097,2.322869
35.857000000,0.424823,0.879455,-0.073134,-1.392565,-0.054284,2.572647,2.579464
35.890000000,0.425163,0.879545,-0.073073,-1.392811,0.072802,2.573098,2.322873
35.895000000,0.424795,0.879444,-0.073134,-1.392539,-0.067425,2.572591,2.614914
35.923000000,0.425163,0.879546,-0.073072,-1.392808,0.072802,2.573098,2.322869
35.929000000,0.424776,0.879426,-0.073142,-1.392521,-0.080174,2.572534,2.650700
35.954000000,0.425168,0.879545,-0.073067,-1.392813,0.072800,2.573097,2.322878
35.962000000,0.424762,0.879433,-0.073144,-1.392486,-0.093152,2.572476,2.687683
35.988000000,0.425166,0.879540,-0.073069,-1.392810,0.072801,2.573097,2.322865
35.997000000,0.424733,0.879420,-0.073127,-1.392467,-0.106325,2.572412,2.726633
36.022000000,0.425166,0.879543,-0.073072,-1.392808,0.072800,2.573099,2.322873
36.031000000,0.424720,0.879406,-0.073127,-1.392450,-0.119683,2.572345,2.766655
36.058000000,0.425163,0.879545,-0.073072,-1.392811,0.072802,2.573098,2.322876
36.065000000,0.424769,0.879397,-0.073169,-1.392520,-0.132835,2.572639,2.806906
36.090000000,0.425163,0.879545,-0.073072,-1.392811,0.072801,2.573098,2.322868
36.100000000,0.424776,0.879377,-0.073189,-1.392534,-0.146365,2.572689,2.848893
36.125000000,0.425166,0.879548,-0.073069,-1.392816,0.072800,2.573097,2.322878
36.134000000,0.426283,0.880165,-0.072413,-1.393220,-0.079402,2.572864,2.709114
36.159000000,0.425168,0.879543,-0.073069,-1.392808,0.072801,2.573097,2.322880
36.168000000,0.426544,0.880346,-0.072188,-1.393182,-0.036667,2.572948,2.615741
36.192000000,0.425171,0.879543,-0.073069,-1.392813,0.072801,2.573097,2.322877
36.202000000,0.426234,0.880135,-0.072378,-1.393059,-0.009797,2.572961,2.541378
36.223000000,0.425158,0.879545,-0.073069,-1.392811,0.072801,2.573097,2.322875
36.236000000,0.425711,0.879834,-0.072720,-1.392896,0.006968,2.573024,2.483535
36.260000000,0.425163,0.879546,-0.073072,-1.392813,0.072801,2.573097,2.322877
36.270000000,0.425098,0.879526,-0.073007,-1.392695,0.016848,2.572818,2.438996
36.293000000,0.425163,0.879543,-0.073069,-1.392811,0.072801,2.573096,2.322871
36.304000000,0.424726,0.879336,-0.073267,-1.392603,0.023316,2.572892,2.403890
36.327000000,0.425161,0.879548,-0.073075,-1.392811,0.072801,2.573096,2.322869
36.339000000,0.424503,0.879222,-0.073401,-1.392573,0.027461,2.572948,2.377058
36.360000000,0.425171,0.879545,-0.073069,-1.392811,0.072802,2.573097,2.322866
36.373000000,0.424449,0.879189,-0.073463,-1.392578,0.030107,2.572983,2.357609
36.394000000,0.425166,0.879545,-0.073072,-1.392811,0.072802,2.573098,2.322877
36.407000000,0.424506,0.879237,-0.073445,-1.392586,0.031761,2.573002,2.344924
36.428000000,0.425163,0.879545,-0.073069,-1.392813,0.072803,2.573096,2.322875
36.441000000,0.424616,0.879295,-0.073361,-1.392627,0.032833,2.573010,2.338479
36.460000000,0.425168,0.879545,-0.073069,-1.392811,0.072801,2.573096,2.322873
36.475000000,0.424771,0.879360,-0.073284,-1.392672,0.033512,2.573010,2.338008
36.494000000,0.425161,0.879548,-0.073075,-1.392811,0.072800,2.573097,2.322871
36.509000000,0.424922,0.879445,-0.073204,-1.392694,0.033907,2.573011,2.343264
36.528000000,0.425166,0.879545,-0.073072,-1.392809,0.072801,2.573096,2.322877
36.543000000,0.425032,0.879495,-0.073115,-1.392727,0.034157,2.573004,2.353974
36.562000000,0.425168,0.879545,-0.073069,-1.392811,0.072800,2.573098,2.322874
36.577000000,0.425126,0.879526,-0.073067,-1.392755,0.034348,2.572991,2.368732
36.595000000,0.425166,0.879545,-0.073075,-1.392811,0.072802,2.573098,2.322872
36.611000000,0.425188,0.879568,-0.073036,-1.392762,0.034453,2.572990,2.381861
36.629000000,0.425163,0.879545,-0.073072,-1.392816,0.072801,2.573098,2.322875
36.645000000,0.425200,0.879577,-0.073002,-1.392779,0.034506,2.572979,2.392984
36.664000000,0.425163,0.879543,-0.073069,-1.392808,0.072800,2.573096,2.322870
36.678000000,0.425264,0.879578,-0.073036,-1.392856,0.035225,2.573201,2.400280
36.698000000,0.425163,0.879546,-0.073069,-1.392813,0.072801,2.573096,2.322876
36.713000000,0.425206,0.879591,-0.073016,-1.392781,0.034553,2.572971,2.410406
36.732000000,0.425163,0.879545,-0.073069,-1.392813,0.072801,2.573099,2.322876
36.747000000,0.425178,0.879580,-0.073009,-1.392787,0.034555,2.572970,2.417196
36.766000000,0.425168,0.879545,-0.073072,-1.392813,0.072799,2.573098,2.322876
36.781000000,0.425166,0.879566,-0.073029,-1.392791,0.034560,2.572965,2.422982
36.799000000,0.425166,0.879545,-0.073072,-1.392816,0.072801,2.573098,2.322873
36.815000000,0.425159,0.879574,-0.073047,-1.392776,0.034535,2.572974,2.427917
36.833000000,0.425166,0.879545,-0.073069,-1.392816,0.072802,2.573096,2.322870
36.848000000,0.425135,0.879562,-0.073039,-1.392780,0.034512,2.572970,2.432065
36.867000000,0.425168,0.879545,-0.073069,-1.392811,0.072801,2.573098,2.322873
36.883000000,0.425028,0.879525,-0.073063,-1.392727,0.030939,2.572892,2.439508
36.899000000,0.425166,0.879545,-0.073072,-1.392811,0.072801,2.573097,2.322878
36.917000000,0.425006,0.879494,-0.073133,-1.392810,0.024848,2.572973,2.445156
36.933000000,0.425166,0.879547,-0.073070,-1.392811,0.072800,2.573098,2.322865
36.951000000,0.425147,0.879581,-0.073017,-1.392800,0.029007,2.572943,2.422515
36.967000000,0.425166,0.879546,-0.073072,-1.392813,0.072800,2.573097,2.322877
36.984000000,0.425145,0.879574,-0.073057,-1.392793,0.027277,2.573109,2.417512
37.000000000,0.425163,0.879548,-0.073072,-1.392803,0.072800,2.573096,2.322875
37.019000000,0.424922,0.879490,-0.073160,-1.392686,0.014176,2.572913,2.439896
37.034000000,0.425163,0.879543,-0.073075,-1.392811,0.072800,2.573099,2.322870
37.054000000,0.424909,0.879433,-0.073233,-1.392742,0.003712,2.573140,2.462604
37.068000000,0.425163,0.879549,-0.073069,-1.392811,0.072801,2.573096,2.322877
37.088000000,0.424885,0.879426,-0.073266,-1.392719,-0.007568,2.573163,2.491540
37.101000000,0.425163,0.879543,-0.073075,-1.392808,0.072801,2.573097,2.322874
37.122000000,0.424865,0.879404,-0.073275,-1.392728,-0.018999,2.573210,2.521570
37.133000000,0.425163,0.879547,-0.073069,-1.392810,0.072802,2.573099,2.322872
37.156000000,0.425228,0.879558,-0.073041,-1.392875,-0.011843,2.573031,2.505544
37.167000000,0.425166,0.879548,-0.073072,-1.392811,0.072803,2.573098,2.322869
37.191000000,0.425257,0.879663,-0.072928,-1.392740,-0.009006,2.572866,2.497551
37.198000000,0.425163,0.879548,-0.073069,-1.392810,0.072801,2.573098,2.322874
37.224000000,0.425520,0.879682,-0.072925,-1.392982,-0.001456,2.573241,2.478716
37.233000000,0.425166,0.879545,-0.073072,-1.392813,0.072799,2.573097,2.322871
37.258000000,0.425308,0.879617,-0.073007,-1.392834,-0.005317,2.573179,2.492258
37.267000000,0.425168,0.879548,-0.073069,-1.392811,0.072803,2.573098,2.322877
37.292000000,0.425113,0.879502,-0.073162,-1.392813,-0.017323,2.573258,2.520628
37.298000000,0.425166,0.879545,-0.073078,-1.392811,0.072801,2.573096,2.322875
37.326000000,0.425414,0.879645,-0.072932,-1.392922,-0.006995,2.573058,2.498394
37.332000000,0.425166,0.879545,-0.073073,-1.392816,0.072801,2.573099,2.322875
37.359000000,0.425670,0.879769,-0.072817,-1.392992,0.008060,2.573243,2.464661
37.366000000,0.425161,0.879545,-0.073067,-1.392816,0.072800,2.573097,2.322875
37.394000000,0.425578,0.879771,-0.072801,-1.392874,0.017107,2.572968,2.444248
37.400000000,0.425163,0.879548,-0.073077,-1.392809,0.072801,2.573097,2.322874
37.428000000,0.425185,0.879617,-0.072963,-1.392708,0.012142,2.572878,2.457367
37.434000000,0.425166,0.879548,-0.073069,-1.392813,0.072802,2.573098,2.322873
37.462000000,0.424894,0.879457,-0.073160,-1.392646,-0.000339,2.572863,2.487264
37.469000000,0.425168,0.879543,-0.073072,-1.392811,0.072802,2.573097,2.322878
37.496000000,0.424746,0.879399,-0.073247,-1.392582,-0.012536,2.572825,2.520950
37.502000000,0.425166,0.879543,-0.073069,-1.392806,0.072801,2.573097,2.322875
37.530000000,0.424646,0.879354,-0.073276,-1.392550,-0.025048,2.572774,2.556100
37.536000000,0.425163,0.879545,-0.073069,-1.392811,0.072800,2.573095,2.322874
37.563000000,0.424657,0.879324,-0.073338,-1.392605,-0.036605,2.573016,2.589773
37.568000000,0.425163,0.879551,-0.073069,-1.392811,0.072800,2.573095,2.322880
37.597000000,0.424643,0.879299,-0.073366,-1.392612,-0.049129,2.573049,2.627057
37.599000000,0.425168,0.879545,-0.073069,-1.392813,0.072801,2.573099,2.322876
37.632000000,0.424568,0.879303,-0.073329,-1.392528,-0.062905,2.572795,2.668430
37.632000000,0.425161,0.879543,-0.073075,-1.392816,0.072801,2.573097,2.322870
37.662000000,0.425163,0.879545,-0.073072,-1.392808,0.072801,2.573097,2.322870
37.665000000,0.425396,0.879673,-0.072897,-1.392915,-0.033904,2.572941,2.594753
37.695000000,0.425166,0.879546,-0.073069,-1.392808,0.072799,2.573098,2.322872
37.700000000,0.425116,0.879594,-0.073003,-1.392680,-0.042505,2.572770,2.623696
37.726000000,0.425166,0.879545,-0.073072,-1.392813,0.072802,2.573097,2.322878
37.734000000,0.425724,0.879808,-0.072782,-1.393043,-0.015991,2.573186,2.548289
37.759000000,0.425163,0.879545,-0.073075,-1.392813,0.072801,2.573097,2.322870
37.768000000,0.425796,0.879871,-0.072694,-1.393017,0.002363,2.573137,2.487713
37.793000000,0.425166,0.879545,-0.073072,-1.392811,0.072800,2.573096,2.322876
37.803000000,0.425574,0.879801,-0.072763,-1.392867,0.013487,2.572877,2.440941
37.826000000,0.425163,0.879548,-0.073069,-1.392805,0.072802,2.573098,2.322874
37.839000000,0.425385,0.879648,-0.072957,-1.392882,0.021794,2.573131,2.401185
37.857000000,0.425168,0.879545,-0.073069,-1.392811,0.072802,2.573096,2.322877
37.872000000,0.425163,0.879544,-0.073108,-1.392806,0.026420,2.573159,2.373267
37.888000000,0.425166,0.879550,-0.073069,-1.392813,0.072800,2.573098,2.322867
37.905000000,0.424946,0.879466,-0.073170,-1.392697,0.028721,2.572962,2.355173
37.921000000,0.425163,0.879537,-0.073072,-1.392808,0.072803,2.573097,2.322873
37.940000000,0.424912,0.879394,-0.073266,-1.392758,0.031502,2.573189,2.339207
37.950000000,0.425168,0.879546,-0.073072,-1.392811,0.072801,2.573098,2.322875
37.974000000,0.424901,0.879396,-0.073290,-1.392741,0.032854,2.573211,2.331965
37.983000000,0.425166,0.879545,-0.073072,-1.392813,0.072801,2.573097,2.322870
38.009000000,0.424864,0.879397,-0.073230,-1.392692,0.033002,2.573007,2.332735
38.017000000,0.425166,0.879545,-0.073069,-1.392808,0.072801,2.573097,2.322873
38.044000000,0.424979,0.879425,-0.073227,-1.392766,0.034239,2.573222,2.335865
38.050000000,0.425166,0.879545,-0.073075,-1.392813,0.072802,2.573097,2.322871
38.072000000,0.425163,0.879548,-0.073072,-1.392813,0.072801,2.573098,2.322867
38.079000000,0.425051,0.879447,-0.073195,-1.392787,0.034583,2.573214,2.346315
38.098000000,0.425166,0.879547,-0.073067,-1.392808,0.072801,2.573096,2.322870
38.113000000,0.425049,0.879491,-0.073105,-1.392730,0.034128,2.573004,2.363793
38.133000000,0.425163,0.879545,-0.073075,-1.392813,0.072800,2.573094,2.322874
38.146000000,0.425156,0.879511,-0.073109,-1.392817,0.034983,2.573214,2.375443
38.169000000,0.425163,0.879547,-0.073072,-1.392813,0.072801,2.573098,2.322871
38.182000000,0.425062,0.879528,-0.073070,-1.392715,0.031671,2.572948,2.392560
38.203000000,0.425166,0.879543,-0.073072,-1.392811,0.072802,2.573096,2.322878
38.216000000,0.424885,0.879449,-0.073179,-1.392693,0.019400,2.572975,2.420176
38.237000000,0.425168,0.879548,-0.073072,-1.392811,0.072801,2.573098,2.322874
38.248000000,0.424827,0.879422,-0.073209,-1.392668,0.008846,2.572922,2.447798
38.271000000,0.425163,0.879543,-0.073069,-1.392811,0.072801,2.573098,2.322871
38.283000000,0.424797,0.879424,-0.073227,-1.392637,-0.002241,2.572889,2.477723
38.305000000,0.425166,0.879540,-0.073069,-1.392811,0.072801,2.573097,2.322873
38.316000000,0.424838,0.879409,-0.073272,-1.392698,-0.012349,2.573108,2.505924
38.338000000,0.425161,0.879540,-0.073069,-1.392811,0.072802,2.573098,2.322878
38.351000000,0.424765,0.879397,-0.073232,-1.392624,-0.024513,2.572840,2.541180
38.372000000,0.425158,0.879543,-0.073067,-1.392810,0.072801,2.573098,2.322870
38.385000000,0.424766,0.879408,-0.073243,-1.392603,-0.035863,2.572832,2.574314
38.401000000,0.425168,0.879547,-0.073069,-1.392806,0.072801,2.573097,2.322866
38.418000000,0.424816,0.879394,-0.073285,-1.392668,-0.046484,2.573073,2.606832
38.433000000,0.425168,0.879548,-0.073068,-1.392811,0.072800,2.573095,2.322877
38.454000000,0.424746,0.879386,-0.073240,-1.392591,-0.059105,2.572776,2.645162
38.461000000,0.425168,0.879548,-0.073072,-1.392816,0.072800,2.573097,2.322880
38.487000000,0.425384,0.879613,-0.073020,-1.392997,-0.044079,2.573243,2.607654
38.489000000,0.425166,0.879545,-0.073072,-1.392808,0.072799,2.573095,2.322870
38.522000000,0.425161,0.879548,-0.073074,-1.392808,0.072801,2.573097,2.322874
38.522000000,0.425805,0.879920,-0.072625,-1.392975,-0.015604,2.572873,2.529701
38.547000000,0.425166,0.879550,-0.073069,-1.392808,0.072800,2.573097,2.322870
38.557000000,0.425503,0.879832,-0.072726,-1.392754,-0.011475,2.572744,2.513838
38.581000000,0.425166,0.879546,-0.073069,-1.392813,0.072802,2.573097,2.322869
38.591000000,0.425114,0.879598,-0.072993,-1.392673,-0.024345,2.572747,2.539070
38.614000000,0.425158,0.879545,-0.073072,-1.392813,0.072802,2.573097,2.322876
38.626000000,0.424980,0.879501,-0.073132,-1.392678,-0.035644,2.572986,2.567060
38.647000000,0.425166,0.879547,-0.073067,-1.392808,0.072801,2.573098,2.322869
38.660000000,0.424899,0.879439,-0.073201,-1.392668,-0.047510,2.573015,2.599180
38.680000000,0.425166,0.879548,-0.073069,-1.392811,0.072801,2.573099,2.322875
38.694000000,0.424865,0.879423,-0.073246,-1.392655,-0.059645,2.573073,2.632622
38.714000000,0.425161,0.879543,-0.073069,-1.392811,0.072801,2.573100,2.322867
38.730000000,0.424775,0.879397,-0.073221,-1.392580,-0.073123,2.572807,2.671178
38.747000000,0.425168,0.879545,-0.073072,-1.392808,0.072802,2.573099,2.322869
38.763000000,0.424759,0.879399,-0.073233,-1.392547,-0.085977,2.572765,2.708575
38.778000000,0.425166,0.879546,-0.073072,-1.392811,0.072802,2.573099,2.322872
38.797000000,0.424728,0.879386,-0.073217,-1.392528,-0.098950,2.572699,2.747156
38.813000000,0.425168,0.879540,-0.073069,-1.392808,0.072802,2.573098,2.322869
38.831000000,0.424712,0.879370,-0.073222,-1.392510,-0.112227,2.572634,2.787158
38.841000000,0.425166,0.879543,-0.073067,-1.392811,0.072801,2.573097,2.322871
38.864000000,0.424705,0.879379,-0.073219,-1.392478,-0.125480,2.572572,2.827828
38.875000000,0.425166,0.879549,-0.073072,-1.392813,0.072801,2.573099,2.322874
38.899000000,0.424676,0.879368,-0.073199,-1.392456,-0.139044,2.572495,2.869727
38.905000000,0.425163,0.879543,-0.073069,-1.392813,0.072801,2.573098,2.322870
38.932000000,0.424752,0.879379,-0.073179,-1.392562,-0.149324,2.572674,2.897642
38.938000000,0.425166,0.879548,-0.073069,-1.392811,0.072801,2.573097,2.322873
38.966000000,0.424912,0.879486,-0.073090,-1.392587,-0.152844,2.572650,2.897300
38.969000000,0.425163,0.879550,-0.073072,-1.392811,0.072800,2.573098,2.322875
39.000000000,0.426410,0.880240,-0.072359,-1.393282,-0.081021,2.572956,2.748755
39.002000000,0.425166,0.879543,-0.073072,-1.392808,0.072801,2.573099,2.322876
39.034000000,0.426616,0.880382,-0.072153,-1.393223,-0.034830,2.572975,2.627515
39.037000000,0.425166,0.879547,-0.073072,-1.392811,0.072801,2.573098,2.322876
39.068000000,0.426132,0.880143,-0.072340,-1.392961,-0.006381,2.572692,2.531060
39.068000000,0.425163,0.879543,-0.073072,-1.392811,0.072802,2.573098,2.322875
39.104000000,0.425166,0.879543,-0.073069,-1.392813,0.072802,2.573097,2.322869
39.104000000,0.425520,0.879767,-0.072740,-1.392793,0.009567,2.572761,2.464768
39.136000000,0.425166,0.879550,-0.073072,-1.392811,0.072801,2.573096,2.322875
39.137000000,0.424983,0.879468,-0.073139,-1.392629,0.018759,2.572893,2.415354
39.169000000,0.425168,0.879545,-0.073069,-1.392813,0.072802,2.573098,2.322872
39.171000000,0.424277,0.879113,-0.073529,-1.392427,0.005366,2.572866,2.450979
39.202000000,0.425163,0.879545,-0.073072,-1.392811,0.072801,2.573097,2.322872
39.206000000,0.424087,0.879018,-0.073612,-1.392382,-0.000858,2.572795,2.450818
39.233000000,0.425174,0.879545,-0.073064,-1.392811,0.072801,2.573096,2.322869
39.239000000,0.423981,0.878989,-0.073694,-1.392333,-0.011546,2.572791,2.460363
39.266000000,0.425166,0.879540,-0.073072,-1.392811,0.072801,2.573096,2.322871
39.273000000,0.423931,0.878967,-0.073688,-1.392317,-0.021243,2.572745,2.474251
39.299000000,0.425158,0.879547,-0.073075,-1.392813,0.072801,2.573096,2.322877
39.307000000,0.423915,0.878949,-0.073710,-1.392298,-0.031534,2.572716,2.493997
39.330000000,0.425174,0.879548,-0.073069,-1.392808,0.072801,2.573098,2.322870
39.341000000,0.424108,0.879005,-0.073671,-1.392463,-0.034247,2.572846,2.503268
39.364000000,0.425158,0.879545,-0.073073,-1.392805,0.072801,2.573099,2.322878
39.375000000,0.424765,0.879337,-0.073263,-1.392602,-0.010099,2.572840,2.466863
39.398000000,0.425168,0.879545,-0.073072,-1.392813,0.072799,2.573099,2.322869
39.410000000,0.425069,0.879503,-0.073045,-1.392679,0.005909,2.572858,2.444523
39.427000000,0.425166,0.879545,-0.073069,-1.392808,0.072800,2.573097,2.322870
39.443000000,0.425179,0.879550,-0.072999,-1.392715,0.016069,2.572886,2.433717
39.460000000,0.425163,0.879548,-0.073072,-1.392811,0.072803,2.573098,2.322872
39.477000000,0.425174,0.879564,-0.073014,-1.392712,0.022590,2.572909,2.430329
39.493000000,0.425161,0.879545,-0.073072,-1.392811,0.072802,2.573098,2.322875
39.513000000,0.425115,0.879543,-0.073054,-1.392716,0.026932,2.572932,2.429954
39.526000000,0.425163,0.879545,-0.073072,-1.392813,0.072801,2.573097,2.322870
39.547000000,0.425045,0.879515,-0.073077,-1.392724,0.029569,2.572942,2.431076
39.557000000,0.425163,0.879548,-0.073072,-1.392810,0.072802,2.573098,2.322875
39.582000000,0.425078,0.879503,-0.073159,-1.392794,0.032096,2.573190,2.431009
39.591000000,0.425164,0.879548,-0.073069,-1.392813,0.072802,2.573099,2.322870
39.616000000,0.425050,0.879494,-0.073157,-1.392804,0.033170,2.573197,2.433235
39.623000000,0.425166,0.879545,-0.073069,-1.392813,0.072802,2.573098,2.322870
39.653000000,0.425055,0.879499,-0.073156,-1.392812,0.033930,2.573202,2.435568
39.655000000,0.425171,0.879545,-0.073072,-1.392809,0.072799,2.573099,2.322870
39.685000000,0.425014,0.879515,-0.073108,-1.392748,0.033665,2.572968,2.439665
39.689000000,0.425166,0.879548,-0.073075,-1.392811,0.072801,2.573097,2.322873
39.719000000,0.425048,0.879518,-0.073103,-1.392761,0.033966,2.572966,2.441698
39.722000000,0.425163,0.879548,-0.073072,-1.392816,0.072802,2.573099,2.322872
39.750000000,0.425171,0.879545,-0.073069,-1.392811,0.072799,2.573097,2.322874
39.754000000,0.425134,0.879531,-0.073116,-1.392834,0.034850,2.573211,2.441679
39.784000000,0.425161,0.879545,-0.073072,-1.392813,0.072801,2.573097,2.322870
39.789000000,0.424977,0.879515,-0.073118,-1.392703,0.029027,2.572943,2.451043
39.819000000,0.425163,0.879543,-0.073069,-1.392808,0.072801,2.573097,2.322876
39.823000000,0.424813,0.879436,-0.073213,-1.392679,0.016789,2.572948,2.469878
39.849000000,0.425163,0.879547,-0.073069,-1.392803,0.072801,2.573098,2.322876
39.857000000,0.424745,0.879398,-0.073257,-1.392648,0.005188,2.572904,2.493028
39.885000000,0.425166,0.879546,-0.073072,-1.392815,0.072801,2.573098,2.322874
39.892000000,0.424758,0.879378,-0.073307,-1.392692,-0.006345,2.573128,2.520329
39.919000000,0.425166,0.879543,-0.073069,-1.392810,0.072802,2.573099,2.322880
39.930000000,0.424691,0.879375,-0.073297,-1.392603,-0.019353,2.572883,2.556037
39.952000000,0.425163,0.879543,-0.073075,-1.392808,0.072802,2.573098,2.322869
39.961000000,0.424661,0.879360,-0.073287,-1.392588,-0.031668,2.572845,2.590374
39.986000000,0.425166,0.879543,-0.073067,-1.392811,0.072801,2.573098,2.322872
39.995000000,0.424706,0.879344,-0.073329,-1.392651,-0.043137,2.573092,2.623894
40.021000000,0.425168,0.879545,-0.073069,-1.392816,0.072801,2.573098,2.322872
40.029000000,0.424654,0.879352,-0.073305,-1.392563,-0.056616,2.572823,2.663884
40.053000000,0.425171,0.879548,-0.073072,-1.392811,0.072801,2.573097,2.322875
40.063000000,0.424631,0.879342,-0.073288,-1.392549,-0.069382,2.572771,2.702308
40.082000000,0.425168,0.879546,-0.073075,-1.392813,0.072800,2.573096,2.322867
40.097000000,0.424621,0.879330,-0.073288,-1.392533,-0.082332,2.572707,2.742126
40.118000000,0.425163,0.879548,-0.073072,-1.392813,0.072801,2.573100,2.322873
40.133000000,0.424669,0.879323,-0.073324,-1.392601,-0.095068,2.572991,2.782080
40.149000000,0.425166,0.879543,-0.073069,-1.392811,0.072801,2.573096,2.322874
40.166000000,0.424677,0.879305,-0.073343,-1.392615,-0.108174,2.573038,2.823606
40.177000000,0.425161,0.879545,-0.073075,-1.392811,0.072801,2.573097,2.322875
40.201000000,0.424609,0.879314,-0.073292,-1.392525,-0.122543,2.572734,2.868869
40.210000000,0.425166,0.879543,-0.073069,-1.392808,0.072802,2.573097,2.322875
40.236000000,0.426080,0.880008,-0.072570,-1.393224,-0.060443,2.573117,2.721551
40.244000000,0.425168,0.879540,-0.073069,-1.392811,0.072802,2.573098,2.322875
40.270000000,0.426240,0.880191,-0.072328,-1.393077,-0.024883,2.572822,2.621949
40.279000000,0.425166,0.879545,-0.073075,-1.392808,0.072802,2.573098,2.322870
40.303000000,0.426043,0.880032,-0.072506,-1.393041,-0.002335,2.573081,2.543372
40.311000000,0.425168,0.879543,-0.073069,-1.392811,0.072801,2.573097,2.322878
40.338000000,0.425536,0.879784,-0.072764,-1.392822,0.011208,2.572836,2.479530
40.340000000,0.425163,0.879545,-0.073072,-1.392813,0.072801,2.573098,2.322872
40.369000000,0.425168,0.879543,-0.073072,-1.392809,0.072801,2.573099,2.322874
40.372000000,0.425094,0.879542,-0.073022,-1.392719,0.019797,2.572879,2.427385
40.400000000,0.425166,0.879544,-0.073072,-1.392815,0.072799,2.573096,2.322878
40.405000000,0.424821,0.879366,-0.073295,-1.392667,0.024509,2.573124,2.390341
40.431000000,0.425163,0.879545,-0.073075,-1.392811,0.072802,2.573097,2.322870
40.440000000,0.424436,0.879152,-0.073612,-1.392583,0.012991,2.573225,2.416811
40.463000000,0.425168,0.879545,-0.073067,-1.392809,0.072802,2.573098,2.322878
40.474000000,0.424609,0.879213,-0.073443,-1.392656,0.021189,2.573204,2.411120
40.493000000,0.425166,0.879545,-0.073069,-1.392816,0.072802,2.573096,2.322874
40.508000000,0.424778,0.879292,-0.073346,-1.392706,0.026333,2.573202,2.409520
40.524000000,0.425163,0.879545,-0.073067,-1.392813,0.072801,2.573097,2.322873
40.542000000,0.424918,0.879384,-0.073267,-1.392737,0.029690,2.573212,2.411166
40.548000000,0.425166,0.879545,-0.073075,-1.392811,0.072800,2.573096,2.322871
40.577000000,0.424956,0.879440,-0.073158,-1.392712,0.031048,2.572976,2.416463
40.585000000,0.425166,0.879545,-0.073072,-1.392813,0.072803,2.573094,2.322870
40.611000000,0.425040,0.879504,-0.073117,-1.392727,0.032347,2.572978,2.420504
40.619000000,0.425163,0.879538,-0.073069,-1.392813,0.072801,2.573099,2.322871
40.648000000,0.425146,0.879528,-0.073106,-1.392826,0.033904,2.573205,2.422918
40.652000000,0.425163,0.879548,-0.073069,-1.392807,0.072800,2.573096,2.322867
40.682000000,0.425184,0.879539,-0.073092,-1.392844,0.034368,2.573194,2.426875
40.687000000,0.425166,0.879548,-0.073072,-1.392811,0.072801,2.573097,2.322867
40.717000000,0.425138,0.879567,-0.073034,-1.392773,0.033994,2.572966,2.432348
40.717000000,0.425168,0.879543,-0.073069,-1.392813,0.072801,2.573097,2.322877
40.751000000,0.425153,0.879563,-0.073041,-1.392784,0.034199,2.572966,2.435435
40.753000000,0.425168,0.879550,-0.073072,-1.392813,0.072801,2.573096,2.322875
40.785000000,0.425160,0.879577,-0.073045,-1.392772,0.034303,2.572967,2.438165
40.788000000,0.425168,0.879543,-0.073072,-1.392813,0.072801,2.573098,2.322876
40.819000000,0.425147,0.879568,-0.073032,-1.392779,0.034373,2.572968,2.440591
40.821000000,0.425161,0.879548,-0.073069,-1.392810,0.072802,2.573097,2.322867
40.854000000,0.425148,0.879556,-0.073043,-1.392783,0.034421,2.572964,2.442672
40.855000000,0.425166,0.879543,-0.073072,-1.392813,0.072801,2.573097,2.322866
40.888000000,0.425199,0.879554,-0.073077,-1.392847,0.035137,2.573210,2.442685
40.888000000,0.425166,0.879545,-0.073067,-1.392816,0.072802,2.573098,2.322870
40.922000000,0.425199,0.879540,-0.073087,-1.392852,0.035117,2.573200,2.444260
40.923000000,0.425163,0.879548,-0.073072,-1.392813,0.072800,2.573097,2.322872
40.954000000,0.425166,0.879545,-0.073072,-1.392813,0.072802,2.573096,2.322872
40.956000000,0.425204,0.879554,-0.073095,-1.392840,0.035156,2.573212,2.445523
40.987000000,0.425163,0.879543,-0.073072,-1.392813,0.072800,2.573098,2.322867
40.990000000,0.424986,0.879499,-0.073114,-1.392718,0.027997,2.572952,2.456305
41.021000000,0.425161,0.879548,-0.073075,-1.392813,0.072800,2.573098,2.322871
41.024000000,0.424893,0.879416,-0.073258,-1.392761,0.016757,2.573191,2.473219
41.053000000,0.425168,0.879543,-0.073072,-1.392813,0.072802,2.573097,2.322877
41.059000000,0.424758,0.879395,-0.073261,-1.392662,0.004009,2.572965,2.499458
41.084000000,0.425163,0.879547,-0.073075,-1.392811,0.072800,2.573097,2.322880
41.093000000,0.424723,0.879364,-0.073292,-1.392646,-0.008038,2.572939,2.528379
41.115000000,0.425161,0.879543,-0.073069,-1.392811,0.072801,2.573100,2.322871
41.127000000,0.424699,0.879364,-0.073304,-1.392609,-0.020346,2.572893,2.562058
41.146000000,0.425166,0.879545,-0.073069,-1.392811,0.072800,2.573098,2.322872
41.161000000,0.424668,0.879348,-0.073291,-1.392592,-0.032718,2.572841,2.597285
41.176000000,0.425166,0.879548,-0.073077,-1.392811,0.072803,2.573097,2.322877
41.195000000,0.424654,0.879333,-0.073295,-1.392576,-0.045254,2.572784,2.634203
41.208000000,0.425166,0.879540,-0.073069,-1.392808,0.072801,2.573099,2.322874
41.229000000,0.424645,0.879341,-0.073298,-1.392545,-0.057998,2.572734,2.672318
41.240000000,0.425161,0.879545,-0.073072,-1.392813,0.072800,2.573098,2.322875
41.264000000,0.424620,0.879331,-0.073279,-1.392528,-0.070816,2.572669,2.711274
41.273000000,0.425168,0.879545,-0.073072,-1.392811,0.072801,2.573097,2.322872
41.297000000,0.424610,0.879319,-0.073280,-1.392512,-0.083782,2.572605,2.751283
41.306000000,0.425171,0.879545,-0.073072,-1.392813,0.072802,2.573098,2.322869
41.331000000,0.424602,0.879328,-0.073279,-1.392479,-0.096956,2.572542,2.792445
41.336000000,0.425163,0.879550,-0.073070,-1.392810,0.072802,2.573098,2.322875
41.364000000,0.424660,0.879316,-0.073325,-1.392555,-0.108937,2.572841,2.830864
41.369000000,0.425166,0.879540,-0.073072,-1.392809,0.072800,2.573096,2.322878
41.400000000,0.424595,0.879306,-0.073278,-1.392476,-0.123074,2.572519,2.875747
41.405000000,0.425163,0.879548,-0.073072,-1.392805,0.072802,2.573098,2.322874
41.432000000,0.425919,0.879913,-0.072660,-1.393166,-0.071115,2.573007,2.753417
41.440000000,0.425166,0.879545,-0.073075,-1.392811,0.072801,2.573099,2.322876
41.467000000,0.425472,0.879818,-0.072763,-1.392741,-0.073894,2.572602,2.778613
41.474000000,0.425168,0.879543,-0.073069,-1.392811,0.072802,2.573098,2.322875
41.502000000,0.425163,0.879547,-0.073072,-1.392816,0.072802,2.573097,2.322877
41.505000000,0.426245,0.880077,-0.072428,-1.393198,-0.025821,2.573073,2.647906
41.538000000,0.426029,0.880011,-0.072523,-1.393004,-0.005380,2.572939,2.577345
41.538000000,0.425166,0.879543,-0.073072,-1.392813,0.072801,2.573098,2.322872
41.573000000,0.425271,0.879588,-0.073040,-1.392883,-0.020082,2.573245,2.613662
41.573000000,0.425166,0.879545,-0.073069,-1.392808,0.072803,2.573097,2.322869
41.604000000,0.425166,0.879545,-0.073072,-1.392811,0.072799,2.573097,2.322875
41.607000000,0.425461,0.879639,-0.072917,-1.392967,-0.000081,2.573163,2.546841
41.637000000,0.425161,0.879543,-0.073075,-1.392805,0.072801,2.573098,2.322866
41.640000000,0.425368,0.879621,-0.072984,-1.392841,0.010344,2.573106,2.505519
41.672000000,0.425166,0.879545,-0.073072,-1.392811,0.072803,2.573098,2.322867
41.674000000,0.424833,0.879390,-0.073236,-1.392711,-0.003308,2.572990,2.541890
41.704000000,0.425163,0.879543,-0.073069,-1.392805,0.072800,2.573096,2.322880
41.709000000,0.424702,0.879321,-0.073298,-1.392657,-0.010506,2.572929,2.541052
41.739000000,0.425166,0.879543,-0.073072,-1.392808,0.072801,2.573097,2.322874
41.743000000,0.424614,0.879296,-0.073361,-1.392617,-0.021366,2.572909,2.549027
41.773000000,0.425166,0.879543,-0.073069,-1.392808,0.072803,2.573097,2.322874
41.777000000,0.424567,0.879277,-0.073358,-1.392598,-0.031537,2.572863,2.561574
41.806000000,0.425171,0.879543,-0.073069,-1.392813,0.072802,2.573097,2.322875
41.811000000,0.424553,0.879260,-0.073376,-1.392581,-0.042089,2.572825,2.579708
41.839000000,0.425163,0.879545,-0.073069,-1.392811,0.072801,2.573098,2.322874
41.845000000,0.424541,0.879266,-0.073381,-1.392547,-0.052819,2.572784,2.603142
41.872000000,0.425161,0.879550,-0.073067,-1.392811,0.072801,2.573096,2.322873
41.879000000,0.424514,0.879252,-0.073362,-1.392535,-0.063695,2.572734,2.629233
41.906000000,0.425166,0.879544,-0.073072,-1.392808,0.072800,2.573097,2.322876
41.912000000,0.424508,0.879240,-0.073372,-1.392519,-0.074787,2.572688,2.657072
41.939000000,0.425163,0.879545,-0.073072,-1.392811,0.072802,2.573098,2.322874
41.947000000,0.424499,0.879250,-0.073369,-1.392489,-0.085998,2.572640,2.686525
41.972000000,0.425171,0.879543,-0.073072,-1.392811,0.072801,2.573099,2.322870
41.981000000,0.424477,0.879239,-0.073352,-1.392476,-0.097330,2.572585,2.717896
42.003000000,0.425166,0.879545,-0.073072,-1.392811,0.072801,2.573098,2.322871
42.015000000,0.424471,0.879228,-0.073356,-1.392462,-0.108805,2.572532,2.750357
42.036000000,0.425166,0.879550,-0.073075,-1.392813,0.072799,2.573099,2.322867
42.049000000,0.424465,0.879240,-0.073353,-1.392431,-0.120394,2.572479,2.783984
42.068000000,0.425168,0.879545,-0.073072,-1.392811,0.072799,2.573096,2.322870
42.082000000,0.424525,0.879227,-0.073405,-1.392512,-0.130944,2.572786,2.815617
42.101000000,0.425163,0.879545,-0.073068,-1.392811,0.072800,2.573099,2.322867
42.116000000,0.424449,0.879221,-0.073344,-1.392420,-0.143608,2.572418,2.853703
42.133000000,0.425166,0.879543,-0.073077,-1.392808,0.072801,2.573099,2.322868
42.151000000,0.424456,0.879232,-0.073352,-1.392402,-0.155378,2.572416,2.889812
42.166000000,0.425168,0.879540,-0.073069,-1.392813,0.072799,2.573098,2.322873
42.185000000,0.424609,0.879297,-0.073271,-1.392523,-0.159401,2.572567,2.897302
42.200000000,0.425166,0.879543,-0.073075,-1.392808,0.072801,2.573097,2.322870
42.219000000,0.424706,0.879357,-0.073220,-1.392544,-0.161899,2.572536,2.897300
42.231000000,0.425163,0.879548,-0.073069,-1.392816,0.072802,2.573098,2.322870
42.253000000,0.425678,0.879788,-0.072854,-1.393139,-0.122609,2.572879,2.814379
42.266000000,0.425168,0.879543,-0.073075,-1.392813,0.072802,2.573098,2.322867
42.287000000,0.426373,0.880328,-0.072193,-1.393107,-0.058221,2.572583,2.676007
42.299000000,0.425163,0.879548,-0.073072,-1.392810,0.072802,2.573099,2.322876
42.321000000,0.425787,0.880020,-0.072566,-1.392778,-0.045043,2.572734,2.640923
42.334000000,0.425163,0.879545,-0.073072,-1.392811,0.072802,2.573098,2.322876
42.356000000,0.425100,0.879581,-0.073000,-1.392650,-0.056988,2.572830,2.662112
42.368000000,0.425166,0.879545,-0.073072,-1.392816,0.072801,2.573099,2.322872
42.389000000,0.424810,0.879403,-0.073201,-1.392571,-0.066966,2.572881,2.681458
42.399000000,0.425166,0.879545,-0.073067,-1.392811,0.072801,2.573096,2.322872
42.423000000,0.424673,0.879329,-0.073315,-1.392532,-0.077815,2.572948,2.706648
42.433000000,0.425168,0.879548,-0.073072,-1.392811,0.072801,2.573098,2.322874
42.457000000,0.424592,0.879274,-0.073362,-1.392525,-0.089078,2.573001,2.736655
42.467000000,0.425163,0.879543,-0.073072,-1.392811,0.072802,2.573099,2.322869
42.490000000,0.424490,0.879257,-0.073344,-1.392428,-0.101022,2.572708,2.769062
42.499000000,0.425163,0.879545,-0.073072,-1.392811,0.072800,2.573097,2.322876
42.525000000,0.425547,0.879703,-0.072896,-1.393008,-0.063190,2.573109,2.682714
42.531000000,0.425163,0.879549,-0.073069,-1.392813,0.072802,2.573097,2.322878
42.558000000,0.426019,0.880021,-0.072561,-1.393022,-0.024474,2.573114,2.590883
42.564000000,0.425168,0.879548,-0.073075,-1.392816,0.072799,2.573098,2.322868
42.593000000,0.425824,0.879936,-0.072579,-1.392898,-0.002111,2.572820,2.523511
42.598000000,0.425168,0.879545,-0.073067,-1.392803,0.072800,2.573095,2.322866
42.627000000,0.425496,0.879763,-0.072795,-1.392796,0.011784,2.572853,2.470598
42.632000000,0.425161,0.879548,-0.073072,-1.392813,0.072802,2.573098,2.322870
42.661000000,0.425131,0.879565,-0.073006,-1.392719,0.020611,2.572891,2.428912
42.661000000,0.425166,0.879545,-0.073072,-1.392808,0.072801,2.573096,2.322873
42.695000000,0.424858,0.879409,-0.073202,-1.392668,0.025929,2.572932,2.396774
42.697000000,0.425171,0.879543,-0.073072,-1.392815,0.072801,2.573098,2.322871
42.729000000,0.424702,0.879340,-0.073318,-1.392627,0.029360,2.572968,2.372456
42.731000000,0.425166,0.879545,-0.073069,-1.392813,0.072802,2.573097,2.322872
42.763000000,0.424636,0.879306,-0.073343,-1.392628,0.031464,2.572989,2.355280
42.765000000,0.425161,0.879545,-0.073069,-1.392811,0.072803,2.573099,2.322875
42.797000000,0.424671,0.879312,-0.073341,-1.392647,0.032759,2.573002,2.344664
42.799000000,0.425168,0.879543,-0.073072,-1.392810,0.072802,2.573098,2.322866
42.831000000,0.424761,0.879367,-0.073300,-1.392656,0.033538,2.573012,2.340192
42.832000000,0.425163,0.879545,-0.073072,-1.392808,0.072801,2.573097,2.322879
42.865000000,0.424855,0.879410,-0.073222,-1.392686,0.034004,2.573011,2.341535
42.866000000,0.425166,0.879545,-0.073075,-1.392805,0.072800,2.573099,2.322877
42.899000000,0.424969,0.879450,-0.073170,-1.392715,0.034276,2.573008,2.348490
42.900000000,0.425168,0.879551,-0.073075,-1.392808,0.072801,2.573097,2.322877
42.930000000,0.425168,0.879543,-0.073077,-1.392813,0.072800,2.573097,2.322876
42.933000000,0.424823,0.879425,-0.073213,-1.392634,0.024199,2.572928,2.369500
42.964000000,0.425163,0.879543,-0.073075,-1.392806,0.072802,2.573097,2.322869
42.967000000,0.424701,0.879371,-0.073265,-1.392602,0.011357,2.572894,2.395001
42.996000000,0.425163,0.879545,-0.073069,-1.392813,0.072801,2.573098,2.322870
43.001000000,0.425105,0.879518,-0.073108,-1.392737,0.019764,2.572978,2.398839
43.030000000,0.425163,0.879543,-0.073075,-1.392811,0.072801,2.573097,2.322877
43.035000000,0.425260,0.879595,-0.072971,-1.392779,0.025143,2.572963,2.404443
43.064000000,0.425163,0.879545,-0.073067,-1.392811,0.072803,2.573098,2.322875
43.070000000,0.425309,0.879614,-0.072938,-1.392796,0.028534,2.572943,2.410439
43.094000000,0.425166,0.879545,-0.073070,-1.392813,0.072802,2.573097,2.322874
43.104000000,0.425342,0.879611,-0.072979,-1.392861,0.031412,2.573182,2.414503
43.129000000,0.425163,0.879545,-0.073072,-1.392813,0.072800,2.573098,2.322875
43.138000000,0.425297,0.879584,-0.073016,-1.392863,0.032825,2.573177,2.419587
43.163000000,0.425166,0.879547,-0.073072,-1.392805,0.072801,2.573097,2.322870
43.172000000,0.425248,0.879578,-0.073059,-1.392844,0.033723,2.573193,2.424352
43.197000000,0.425168,0.879543,-0.073069,-1.392811,0.072801,2.573097,2.322864
43.207000000,0.425133,0.879551,-0.073046,-1.392776,0.033594,2.572957,2.430483
43.231000000,0.425163,0.879547,-0.073072,-1.392816,0.072801,2.573098,2.322867
43.241000000,0.425109,0.879553,-0.073075,-1.392760,0.033929,2.572970,2.434069
43.262000000,0.425171,0.879543,-0.073070,-1.392813,0.072801,2.573098,2.322877
43.275000000,0.425080,0.879538,-0.073071,-1.392764,0.034129,2.572968,2.437129
43.296000000,0.425168,0.879543,-0.073069,-1.392810,0.072802,2.573099,2.322870
43.309000000,0.425083,0.879528,-0.073085,-1.392772,0.034269,2.572970,2.439725
43.327000000,0.425166,0.879548,-0.073072,-1.392813,0.072801,2.573098,2.322867
43.343000000,0.425095,0.879544,-0.073086,-1.392759,0.034340,2.572973,2.441983
43.365000000,0.425166,0.879550,-0.073069,-1.392811,0.072800,2.573096,2.322875
43.377000000,0.425094,0.879541,-0.073064,-1.392767,0.034389,2.572973,2.443897
43.399000000,0.425166,0.879543,-0.073072,-1.392813,0.072802,2.573098,2.322869
43.412000000,0.425178,0.879546,-0.073108,-1.392835,0.035130,2.573210,2.443711
43.433000000,0.425161,0.879545,-0.073072,-1.392816,0.072802,2.573097,2.322877
43.446000000,0.425180,0.879543,-0.073089,-1.392844,0.035132,2.573213,2.445134
43.465000000,0.425174,0.879543,-0.073072,-1.392816,0.072800,2.573097,2.322877
43.480000000,0.425192,0.879536,-0.073092,-1.392851,0.035110,2.573202,2.446386
43.499000000,0.425166,0.879548,-0.073069,-1.392813,0.072800,2.573097,2.322874
43.515000000,0.425207,0.879554,-0.073096,-1.392842,0.035148,2.573213,2.447320
43.533000000,0.425168,0.879545,-0.073072,-1.392811,0.072802,2.573097,2.322869
43.548000000,0.425177,0.879544,-0.073076,-1.392835,0.034507,2.573196,2.448980
43.570000000,0.425166,0.879545,-0.073072,-1.392813,0.072800,2.573098,2.322876
43.582000000,0.424980,0.879447,-0.073220,-1.392796,0.022629,2.573234,2.465646
43.603000000,0.425163,0.879543,-0.073075,-1.392811,0.072801,2.573092,2.322881
43.616000000,0.424920,0.879425,-0.073280,-1.392774,0.012085,2.573284,2.485948
43.637000000,0.425161,0.879548,-0.073067,-1.392811,0.072802,2.573098,2.322877
43.650000000,0.424884,0.879396,-0.073301,-1.392778,0.001105,2.573326,2.511540
43.672000000,0.425166,0.879543,-0.073064,-1.392816,0.072802,2.573098,2.322872
43.684000000,0.424883,0.879375,-0.073327,-1.392782,-0.009896,2.573360,2.541970
43.704000000,0.425166,0.879545,-0.073069,-1.392813,0.072801,2.573097,2.322874
43.718000000,0.424888,0.879379,-0.073346,-1.392778,-0.021100,2.573412,2.573953
43.739000000,0.425168,0.879548,-0.073067,-1.392805,0.072801,2.573097,2.322873
43.753000000,0.424825,0.879364,-0.073311,-1.392715,-0.033476,2.573161,2.609902
43.772000000,0.425166,0.879546,-0.073069,-1.392808,0.072800,2.573099,2.322876
43.788000000,0.424879,0.879360,-0.073347,-1.392784,-0.044642,2.573449,2.643128
43.807000000,0.425166,0.879545,-0.073072,-1.392813,0.072802,2.573098,2.322869
43.822000000,0.424881,0.879343,-0.073361,-1.392790,-0.056372,2.573460,2.679171
43.838000000,0.425168,0.879551,-0.073069,-1.392806,0.072802,2.573098,2.322876
43.856000000,0.424892,0.879350,-0.073379,-1.392790,-0.068216,2.573522,2.715556
43.870000000,0.425166,0.879545,-0.073072,-1.392813,0.072801,2.573097,2.322876
43.890000000,0.424889,0.879337,-0.073377,-1.392805,-0.080175,2.573575,2.753254
43.902000000,0.425163,0.879547,-0.073072,-1.392808,0.072800,2.573096,2.322869
43.924000000,0.424902,0.879322,-0.073394,-1.392820,-0.092263,2.573621,2.791325
43.933000000,0.425163,0.879548,-0.073072,-1.392813,0.072801,2.573097,2.322869
43.958000000,0.424918,0.879331,-0.073410,-1.392822,-0.104382,2.573684,2.830208
43.964000000,0.425163,0.879548,-0.073064,-1.392816,0.072802,2.573094,2.322875
43.992000000,0.425890,0.879805,-0.072814,-1.393288,-0.066790,2.573595,2.736082
43.994000000,0.425166,0.879545,-0.073072,-1.392811,0.072801,2.573098,2.322867
44.026000000,0.426241,0.880119,-0.072440,-1.393153,-0.029292,2.573124,2.633289
44.030000000,0.425166,0.879548,-0.073072,-1.392813,0.072800,2.573097,2.322870
44.059000000,0.426145,0.880040,-0.072520,-1.393121,-0.005117,2.573274,2.553998
44.059000000,0.425166,0.879548,-0.073072,-1.392811,0.072800,2.573099,2.322876
44.094000000,0.425664,0.879834,-0.072709,-1.392898,0.009477,2.572965,2.489836
44.101000000,0.425163,0.879540,-0.073075,-1.392805,0.072801,2.573098,2.322868
44.128000000,0.425015,0.879479,-0.073180,-1.392684,0.004044,2.573159,2.501302
44.134000000,0.425166,0.879545,-0.073069,-1.392805,0.072801,2.573095,2.322872
44.162000000,0.424583,0.879243,-0.073466,-1.392594,-0.007625,2.573232,2.530214
44.167000000,0.425166,0.879548,-0.073072,-1.392811,0.072801,2.573096,2.322869
44.196000000,0.424354,0.879117,-0.073608,-1.392548,-0.019618,2.573293,2.560908
44.202000000,0.425168,0.879548,-0.073069,-1.392811,0.072801,2.573098,2.322878
44.230000000,0.424243,0.879041,-0.073700,-1.392533,-0.031963,2.573341,2.595982
44.237000000,0.425166,0.879543,-0.073072,-1.392808,0.072802,2.573099,2.322876
44.264000000,0.424195,0.879018,-0.073757,-1.392520,-0.044324,2.573405,2.631836
44.271000000,0.425168,0.879545,-0.073075,-1.392811,0.072801,2.573096,2.322873
44.298000000,0.424155,0.878987,-0.073778,-1.392523,-0.057061,2.573459,2.669187
44.305000000,0.425166,0.879545,-0.073067,-1.392816,0.072801,2.573097,2.322875
44.333000000,0.424146,0.878961,-0.073808,-1.392535,-0.069903,2.573508,2.708245
44.339000000,0.425166,0.879545,-0.073075,-1.392811,0.072801,2.573098,2.322875
44.366000000,0.424150,0.878962,-0.073834,-1.392533,-0.082914,2.573574,2.747915
44.373000000,0.425166,0.879548,-0.073072,-1.392813,0.072800,2.573099,2.322876
44.401000000,0.424142,0.878946,-0.073837,-1.392547,-0.096053,2.573635,2.788864
44.407000000,0.425168,0.879540,-0.073072,-1.392813,0.072801,2.573098,2.322871
44.435000000,0.425454,0.879625,-0.073051,-1.393041,-0.040907,2.573455,2.653797
44.440000000,0.425168,0.879545,-0.073067,-1.392813,0.072801,2.573095,2.322871
44.469000000,0.425710,0.879810,-0.072813,-1.393016,-0.013157,2.573370,2.574436
44.475000000,0.425163,0.879543,-0.073072,-1.392813,0.072801,2.573098,2.322877
44.503000000,0.425622,0.879760,-0.072836,-1.392954,0.004911,2.573254,2.511339
44.507000000,0.425166,0.879546,-0.073067,-1.392813,0.072801,2.573097,2.322866
44.537000000,0.425389,0.879651,-0.072973,-1.392864,0.016222,2.573216,2.461315
44.540000000,0.425166,0.879540,-0.073069,-1.392810,0.072803,2.573096,2.322872
44.571000000,0.425124,0.879514,-0.073110,-1.392801,0.023170,2.573201,2.421792
44.574000000,0.425166,0.879545,-0.073069,-1.392806,0.072802,2.573096,2.322875
44.603000000,0.425166,0.879545,-0.073072,-1.392813,0.072801,2.573097,2.322875
44.605000000,0.424940,0.879407,-0.073240,-1.392760,0.027544,2.573195,2.390897
44.638000000,0.425166,0.879545,-0.073067,-1.392805,0.072800,2.573097,2.322872
44.640000000,0.424763,0.879362,-0.073269,-1.392651,0.029246,2.572965,2.371274
44.672000000,0.425166,0.879548,-0.073069,-1.392811,0.072802,2.573098,2.322879
44.672000000,0.424473,0.879239,-0.073474,-1.392555,0.017040,2.573021,2.384655
44.700000000,0.425168,0.879548,-0.073069,-1.392813,0.072800,2.573097,2.322874
44.707000000,0.424439,0.879167,-0.073546,-1.392610,0.008227,2.573190,2.399004
44.732000000,0.425166,0.879545,-0.073075,-1.392808,0.072802,2.573098,2.322877
44.741000000,0.424565,0.879204,-0.073590,-1.392678,0.002147,2.573343,2.413875
44.775000000,0.424860,0.879372,-0.073276,-1.392691,0.012518,2.573174,2.399670
44.799000000,0.425166,0.879549,-0.073070,-1.392813,0.072801,2.573098,2.322871
44.810000000,0.424620,0.879291,-0.073429,-1.392619,-0.002670,2.573076,2.426837
44.833000000,0.425168,0.879545,-0.073072,-1.392812,0.072801,2.573097,2.322872
44.844000000,0.424568,0.879275,-0.073404,-1.392592,-0.011042,2.573022,2.434318
44.868000000,0.425163,0.879545,-0.073067,-1.392813,0.072801,2.573098,2.322877
44.879000000,0.424602,0.879257,-0.073492,-1.392641,-0.021505,2.573247,2.448229
44.902000000,0.425166,0.879545,-0.073069,-1.392808,0.072800,2.573099,2.322867
44.913000000,0.424576,0.879243,-0.073484,-1.392632,-0.032049,2.573243,2.468603
44.936000000,0.425166,0.879548,-0.073067,-1.392813,0.072802,2.573097,2.322867
44.946000000,0.424517,0.879240,-0.073454,-1.392558,-0.043093,2.573026,2.494489
44.971000000,0.425166,0.879548,-0.073069,-1.392811,0.072801,2.573099,2.322874
44.981000000,0.424590,0.879233,-0.073516,-1.392626,-0.053521,2.573297,2.520199
45.005000000,0.425163,0.879545,-0.073069,-1.392811,0.072800,2.573097,2.322873
45.015000000,0.424571,0.879221,-0.073503,-1.392623,-0.064651,2.573290,2.548725
45.039000000,0.425166,0.879548,-0.073072,-1.392813,0.072800,2.573097,2.322867
45.048000000,0.424514,0.879224,-0.073468,-1.392544,-0.076159,2.573049,2.580050
45.073000000,0.425166,0.879540,-0.073069,-1.392811,0.072801,2.573097,2.322877
45.082000000,0.424518,0.879212,-0.073476,-1.392547,-0.087427,2.573042,2.611408
45.107000000,0.425166,0.879543,-0.073072,-1.392813,0.072800,2.573099,2.322874
45.117000000,0.424567,0.879208,-0.073509,-1.392608,-0.098579,2.573297,2.643385
45.127000000,0.425171,0.879543,-0.073069,-1.392811,0.072801,2.573098,2.322867
45.152000000,0.425248,0.879472,-0.073197,-1.393028,-0.079234,2.573410,2.605993
45.162000000,0.425166,0.879546,-0.073072,-1.392813,0.072801,2.573097,2.322876
45.186000000,0.425900,0.879925,-0.072709,-1.393064,-0.038355,2.573248,2.521561
45.197000000,0.425168,0.879540,-0.073075,-1.392813,0.072801,2.573098,2.322877
45.219000000,0.425901,0.879962,-0.072588,-1.392948,-0.012897,2.572912,2.469187
45.231000000,0.425163,0.879545,-0.073075,-1.392818,0.072802,2.573098,2.322873
45.253000000,0.425648,0.879828,-0.072708,-1.392853,0.004238,2.572905,2.429273
45.266000000,0.425161,0.879543,-0.073067,-1.392808,0.072800,2.573097,2.322874
45.288000000,0.425371,0.879632,-0.072976,-1.392827,0.016176,2.573157,2.399003
45.300000000,0.425168,0.879547,-0.073069,-1.392811,0.072799,2.573096,2.322873
45.322000000,0.424906,0.879419,-0.073202,-1.392674,0.016661,2.573137,2.394930
45.333000000,0.425166,0.879548,-0.073072,-1.392811,0.072801,2.573097,2.322867
45.356000000,0.424790,0.879293,-0.073385,-1.392719,0.016607,2.573265,2.400797
45.368000000,0.425171,0.879545,-0.073069,-1.392811,0.072800,2.573097,2.322877
45.389000000,0.424653,0.879293,-0.073326,-1.392593,0.018082,2.572978,2.408493
45.402000000,0.425124,0.879553,-0.073104,-1.392839,0.072805,2.573096,2.322874
45.424000000,0.424450,0.879171,-0.073535,-1.392607,0.006319,2.573236,2.431865
45.436000000,0.425068,0.879566,-0.073153,-1.392840,0.072803,2.573096,2.322875
45.458000000,0.424345,0.879109,-0.073610,-1.392587,-0.004506,2.573248,2.459096
45.470000000,0.425098,0.879556,-0.073134,-1.392808,0.072802,2.573095,2.322874
45.491000000,0.424234,0.879086,-0.073615,-1.392507,-0.016125,2.573042,2.488934
45.504000000,0.425136,0.879545,-0.073114,-1.392803,0.072802,2.573098,2.322869
45.526000000,0.424251,0.879066,-0.073668,-1.392562,-0.027458,2.573282,2.519439
45.531000000,0.425101,0.879550,-0.073135,-1.392811,0.072802,2.573099,2.322878
45.559000000,0.425084,0.879545,-0.073155,-1.392813,0.072803,2.573098,2.322877
45.560000000,0.424731,0.879286,-0.073362,-1.392742,-0.014633,2.573075,2.492189
45.589000000,0.425059,0.879540,-0.073170,-1.392808,0.072806,2.573097,2.322871
45.594000000,0.424788,0.879380,-0.073308,-1.392679,-0.013970,2.573163,2.486182
45.623000000,0.425008,0.879543,-0.073197,-1.392816,0.072805,2.573097,2.322875
45.627000000,0.424577,0.879296,-0.073396,-1.392590,-0.026848,2.572961,2.506366
45.659000000,0.424926,0.879553,-0.073212,-1.392829,0.072809,2.573098,2.322876
45.661000000,0.424482,0.879252,-0.073427,-1.392556,-0.038826,2.572926,2.529738
45.695000000,0.424870,0.879568,-0.073290,-1.392848,0.072811,2.573095,2.322867
45.695000000,0.424437,0.879220,-0.073458,-1.392530,-0.051125,2.572878,2.558513
45.730000000,0.425184,0.879528,-0.073160,-1.392939,-0.028121,2.573249,2.494923
45.730000000,0.424855,0.879562,-0.073353,-1.392837,0.072811,2.573098,2.322881
45.764000000,0.425453,0.879762,-0.072911,-1.392896,-0.005526,2.572937,2.441647
45.764000000,0.424836,0.879564,-0.073359,-1.392819,0.072807,2.573099,2.322872
45.797000000,0.424805,0.879572,-0.073378,-1.392831,0.072802,2.573098,2.322881
45.798000000,0.425413,0.879793,-0.072942,-1.392860,0.009087,2.572924,2.407840
45.830000000,0.424841,0.879582,-0.073359,-1.392853,0.072795,2.573092,2.322872
45.833000000,0.424914,0.879567,-0.073262,-1.392738,0.001602,2.573066,2.422822
45.865000000,0.424897,0.879582,-0.073322,-1.392845,0.072793,2.573087,2.322878
45.868000000,0.424598,0.879418,-0.073489,-1.392675,-0.010897,2.573136,2.450110
45.900000000,0.424861,0.879618,-0.073343,-1.392861,0.072798,2.573080,2.322870
45.907000000,0.424874,0.879573,-0.073222,-1.392734,0.005276,2.572852,2.422719
45.934000000,0.424775,0.879630,-0.073408,-1.392877,0.072803,2.573074,2.322878
45.937000000,0.424450,0.879420,-0.073471,-1.392587,-0.012140,2.572899,2.452189
45.969000000,0.424675,0.879619,-0.073448,-1.392859,0.072805,2.573074,2.322877
45.971000000,0.424448,0.879401,-0.073472,-1.392635,-0.016752,2.572852,2.449389
46.001000000,0.424589,0.879624,-0.073490,-1.392870,0.072807,2.573072,2.322874
46.004000000,0.424419,0.879366,-0.073560,-1.392658,-0.027159,2.573069,2.455782
46.037000000,0.424594,0.879624,-0.073485,-1.392880,0.072807,2.573072,2.322872
46.039000000,0.424335,0.879368,-0.073516,-1.392567,-0.037991,2.572799,2.470410
46.069000000,0.424636,0.879617,-0.073455,-1.392865,0.072809,2.573073,2.322869
46.072000000,0.424402,0.879351,-0.073578,-1.392648,-0.046976,2.573099,2.485955
46.102000000,0.424661,0.879588,-0.073442,-1.392849,0.072807,2.573077,2.322873
46.108000000,0.424337,0.879358,-0.073537,-1.392540,-0.058293,2.572793,2.511408
46.135000000,0.424651,0.879606,-0.073447,-1.392862,0.072809,2.573074,2.322875
46.141000000,0.424330,0.879345,-0.073528,-1.392553,-0.068483,2.572825,2.535318
46.168000000,0.424661,0.879643,-0.073439,-1.392878,0.072808,2.573074,2.322867
46.175000000,0.424323,0.879335,-0.073535,-1.392533,-0.079225,2.572766,2.561773
46.202000000,0.424651,0.879631,-0.073442,-1.392870,0.072807,2.573073,2.322874
46.210000000,0.424372,0.879330,-0.073570,-1.392598,-0.089623,2.573025,2.589190
46.235000000,0.424648,0.879593,-0.073442,-1.392852,0.072805,2.573073,2.322867
46.244000000,0.424372,0.879315,-0.073578,-1.392597,-0.100456,2.573008,2.618825
46.269000000,0.424675,0.879595,-0.073431,-1.392864,0.072803,2.573072,2.322875
46.278000000,0.424386,0.879323,-0.073597,-1.392598,-0.111303,2.573076,2.649362
46.303000000,0.424670,0.879609,-0.073436,-1.392870,0.072800,2.573068,2.322866
46.312000000,0.424381,0.879310,-0.073593,-1.392612,-0.122351,2.573116,2.681033
46.333000000,0.424691,0.879585,-0.073428,-1.392855,0.072800,2.573069,2.322875
46.345000000,0.424395,0.879296,-0.073613,-1.392626,-0.133502,2.573161,2.713896
46.368000000,0.424708,0.879603,-0.073413,-1.392878,0.072793,2.573053,2.322870
46.380000000,0.424411,0.879307,-0.073627,-1.392625,-0.144661,2.573217,2.747282
46.401000000,0.424704,0.879672,-0.073402,-1.392923,0.072790,2.573044,2.322867
46.421000000,0.424345,0.879295,-0.073575,-1.392551,-0.159116,2.572914,2.791082
46.434000000,0.424744,0.879675,-0.073374,-1.392927,0.072793,2.573036,2.322866
46.455000000,0.424341,0.879304,-0.073581,-1.392522,-0.171154,2.572886,2.827902
46.467000000,0.424897,0.879649,-0.073268,-1.392912,0.072793,2.573038,2.322875
46.489000000,0.424311,0.879289,-0.073560,-1.392504,-0.183645,2.572813,2.866636
46.500000000,0.425121,0.879652,-0.073069,-1.392924,0.072791,2.573030,2.322870
46.522000000,0.424381,0.879296,-0.073583,-1.392594,-0.193979,2.573037,2.897689
46.534000000,0.425316,0.879685,-0.072974,-1.392954,0.072794,2.573013,2.322878
46.556000000,0.424520,0.879389,-0.073475,-1.392639,-0.196393,2.572966,2.897300
46.564000000,0.425313,0.879696,-0.072970,-1.392970,0.072795,2.573002,2.322880
46.590000000,0.425818,0.880058,-0.072892,-1.393370,-0.139432,2.573187,2.785673
46.598000000,0.425252,0.879709,-0.073020,-1.392979,0.072798,2.572993,2.322883
46.624000000,0.426496,0.880572,-0.072219,-1.393298,-0.070520,2.572769,2.663538
46.630000000,0.425214,0.879728,-0.073050,-1.393011,0.072800,2.572973,2.322888
46.659000000,0.426376,0.880393,-0.072333,-1.393226,-0.027300,2.572989,2.563204
46.665000000,0.425185,0.879724,-0.073053,-1.393130,0.072806,2.572968,2.322887
46.693000000,0.425776,0.879989,-0.072665,-1.393073,-0.003256,2.572980,2.491361
46.699000000,0.425189,0.879755,-0.073045,-1.393221,0.072801,2.572952,2.322893
46.728000000,0.425106,0.879624,-0.073026,-1.392886,0.011536,2.572768,2.435224
46.732000000,0.425183,0.879766,-0.073051,-1.393239,0.072801,2.572945,2.322891
46.761000000,0.424713,0.879380,-0.073356,-1.392912,0.021181,2.573038,2.390350
46.762000000,0.425186,0.879758,-0.073056,-1.393237,0.072802,2.572943,2.322895
46.795000000,0.424428,0.879264,-0.073524,-1.392916,0.026868,2.573062,2.355586
46.798000000,0.425181,0.879735,-0.073059,-1.393219,0.072803,2.572945,2.322896
46.829000000,0.424346,0.879252,-0.073597,-1.392954,0.030349,2.573067,2.329074
46.831000000,0.425161,0.879733,-0.073075,-1.393221,0.072805,2.572926,2.322955
46.861000000,0.425152,0.879532,-0.073282,-1.393136,0.072812,2.572625,2.324218
46.864000000,0.424340,0.879335,-0.073520,-1.392935,0.031859,2.572870,2.311223
46.896000000,0.425132,0.879186,-0.073592,-1.392959,0.072820,2.572039,2.324629
46.898000000,0.424222,0.879337,-0.073547,-1.392888,0.024065,2.572785,2.307604
46.928000000,0.425009,0.878389,-0.073782,-1.392940,0.072821,2.571747,2.324620
46.933000000,0.424152,0.879297,-0.073657,-1.392922,0.012046,2.572970,2.312352
46.963000000,0.424946,0.877339,-0.073911,-1.392951,0.072830,2.571583,2.324627
46.968000000,0.424045,0.879281,-0.073678,-1.392835,-0.001291,2.572801,2.326557
46.997000000,0.424901,0.875852,-0.074058,-1.392960,0.072829,2.570984,2.324626
47.003000000,0.424754,0.879153,-0.073636,-1.393242,0.014228,2.572535,2.323510
47.031000000,0.424896,0.873983,-0.074366,-1.392959,0.072831,2.569771,2.324625
47.037000000,0.425021,0.878574,-0.073657,-1.393396,0.021900,2.571920,2.335019
47.065000000,0.424776,0.871503,-0.074817,-1.392971,0.072830,2.567916,2.324647
47.072000000,0.425065,0.877460,-0.073772,-1.393450,0.026161,2.570811,2.355915
47.100000000,0.424750,0.868478,-0.075834,-1.392959,0.072830,2.565471,2.324648
47.107000000,0.425080,0.875950,-0.074042,-1.393538,0.029568,2.570055,2.371361
47.134000000,0.424734,0.864419,-0.077680,-1.392937,0.072823,2.562218,2.324654
47.142000000,0.424625,0.875181,-0.074165,-1.392839,0.017844,2.570220,2.397496
47.167000000,0.424717,0.859578,-0.080342,-1.392916,0.072826,2.557365,2.324660
47.176000000,0.424530,0.874842,-0.074278,-1.392756,0.008340,2.570209,2.419805
47.198000000,0.424668,0.853415,-0.083709,-1.392952,0.072821,2.549473,2.324663
47.209000000,0.425037,0.874394,-0.074789,-1.393193,0.007207,2.568803,2.429780
47.232000000,0.424464,0.845580,-0.087355,-1.392988,0.072822,2.537617,2.324661
47.243000000,0.426260,0.870734,-0.077230,-1.395034,0.017960,2.560583,2.416041
47.266000000,0.424355,0.836729,-0.091468,-1.393010,0.072819,2.521111,2.324663
47.278000000,0.426653,0.864328,-0.080387,-1.395762,0.023579,2.550166,2.415490
47.294000000,0.424346,0.826365,-0.095739,-1.393056,0.072821,2.501078,2.324669
47.312000000,0.426615,0.856104,-0.084106,-1.395850,0.027546,2.537468,2.418570
47.328000000,0.424284,0.814184,-0.100000,-1.393115,0.072818,2.477751,2.324673
47.347000000,0.426342,0.845986,-0.088414,-1.395703,0.030877,2.521686,2.420327
47.363000000,0.424267,0.801146,-0.104362,-1.393092,0.072821,2.452568,2.324816
47.381000000,0.425797,0.835191,-0.092581,-1.395324,0.031826,2.503482,2.425446
47.398000000,0.424189,0.786056,-0.108336,-1.393248,0.072815,2.426135,2.325065
47.414000000,0.425282,0.822882,-0.097060,-1.395091,0.032899,2.482265,2.428740
47.431000000,0.424188,0.770019,-0.111858,-1.393292,0.072821,2.400176,2.325106
47.448000000,0.424754,0.809426,-0.101445,-1.394975,0.033663,2.459199,2.431583
47.465000000,0.424043,0.752732,-0.114759,-1.393460,0.072830,2.375309,2.325204
47.483000000,0.424316,0.794370,-0.105746,-1.395075,0.034840,2.434613,2.432219
47.499000000,0.423967,0.734067,-0.117159,-1.393641,0.072829,2.351450,2.325285
47.517000000,0.423837,0.778610,-0.109443,-1.395183,0.035258,2.410263,2.433941
47.533000000,0.423965,0.714930,-0.119434,-1.393684,0.072833,2.328290,2.325299
47.551000000,0.422825,0.764798,-0.111674,-1.393285,0.035065,2.399813,2.437975
47.567000000,0.423763,0.695239,-0.121259,-1.393803,0.072852,2.305402,2.325302
47.585000000,0.421732,0.759245,-0.112401,-1.389458,0.026242,2.402924,2.453450
47.601000000,0.423606,0.674759,-0.122813,-1.393871,0.072881,2.282089,2.325308
47.619000000,0.421290,0.756528,-0.112830,-1.388408,0.015786,2.403120,2.472462
47.633000000,0.423364,0.653888,-0.123914,-1.393950,0.072896,2.257540,2.325314
47.654000000,0.422318,0.748651,-0.114369,-1.393037,0.016778,2.375647,2.467503
47.665000000,0.423115,0.633090,-0.124879,-1.394005,0.072925,2.231569,2.325320
47.688000000,0.423316,0.727096,-0.116561,-1.400467,0.022754,2.328821,2.450935
47.699000000,0.422867,0.612354,-0.125772,-1.393895,0.072972,2.204716,2.325348
47.722000000,0.422992,0.706438,-0.118013,-1.397982,0.026998,2.313548,2.457746
47.730000000,0.422697,0.591704,-0.126525,-1.393838,0.072978,2.176756,2.325346
47.755000000,0.423063,0.690744,-0.119385,-1.397099,0.030518,2.289146,2.454840
47.761000000,0.422509,0.571206,-0.127230,-1.393821,0.072972,2.147728,2.325342
47.790000000,0.423497,0.661970,-0.121527,-1.401489,0.034418,2.241401,2.437475
47.796000000,0.422346,0.551248,-0.128149,-1.393774,0.072971,2.119215,2.325346
47.824000000,0.423356,0.630630,-0.123455,-1.400993,0.036143,2.201820,2.428325
47.831000000,0.422050,0.532622,-0.129285,-1.393480,0.072960,2.093221,2.325337
47.858000000,0.423060,0.598944,-0.125370,-1.398339,0.036908,2.167170,2.423047
47.866000000,0.421594,0.519065,-0.130412,-1.391238,0.073001,2.074990,2.325332
47.892000000,0.422677,0.569554,-0.127213,-1.394504,0.036683,2.137744,2.420408
47.899000000,0.421048,0.513467,-0.130911,-1.386223,0.073002,2.074833,2.325320
47.926000000,0.421970,0.549505,-0.128554,-1.387776,0.036442,2.133242,2.422984
47.933000000,0.421071,0.513412,-0.130843,-1.385680,0.072935,2.074743,2.325313
47.961000000,0.421181,0.536825,-0.128973,-1.384367,0.036484,2.119282,2.401877
47.967000000,0.420925,0.514132,-0.130897,-1.385786,0.072927,2.074754,2.325322
47.996000000,0.421058,0.528258,-0.130048,-1.381694,0.026193,2.117460,2.416653
48.000000000,0.420604,0.514448,-0.130941,-1.386011,0.072928,2.074768,2.325312
48.030000000,0.420816,0.524485,-0.130504,-1.379689,0.011604,2.118452,2.441573
48.034000000,0.420280,0.514086,-0.131011,-1.385887,0.072937,2.074784,2.325310
48.065000000,0.420167,0.522485,-0.130112,-1.378634,-0.005128,2.118651,2.470094
48.066000000,0.419999,0.513647,-0.131181,-1.385424,0.072951,2.074931,2.325307
48.099000000,0.419955,0.513714,-0.131206,-1.385309,0.072950,2.074922,2.325303
48.099000000,0.420342,0.519767,-0.130267,-1.380266,0.006092,2.105573,2.447047
48.133000000,0.420011,0.513837,-0.131163,-1.385383,0.072948,2.074906,2.325304
48.133000000,0.419997,0.518588,-0.130185,-1.380272,-0.000938,2.104666,2.472729
48.159000000,0.420080,0.513855,-0.131129,-1.385423,0.072946,2.074901,2.325299
48.167000000,0.419769,0.518071,-0.130179,-1.379948,-0.017930,2.104810,2.502074
48.193000000,0.420071,0.513799,-0.131137,-1.385400,0.072946,2.074905,2.325305
48.201000000,0.420596,0.516777,-0.131065,-1.381616,0.001273,2.095649,2.463046
48.226000000,0.420087,0.513767,-0.131124,-1.385388,0.072948,2.074910,2.325300
48.235000000,0.420551,0.515617,-0.131144,-1.382960,0.009310,2.088617,2.435461
48.260000000,0.420131,0.513754,-0.131102,-1.385404,0.072944,2.074906,2.325299
48.269000000,0.420483,0.514849,-0.131291,-1.383837,0.014130,2.083998,2.414993
48.293000000,0.420160,0.513756,-0.131086,-1.385402,0.072945,2.074908,2.325298
48.303000000,0.420400,0.514389,-0.131402,-1.384381,0.016893,2.080955,2.400373
48.328000000,0.420150,0.513748,-0.131062,-1.385381,0.072951,2.074908,2.325293
48.336000000,0.419735,0.514093,-0.130714,-1.384612,0.017636,2.078692,2.392599
48.361000000,0.420161,0.513753,-0.131041,-1.385375,0.072946,2.074911,2.325300
48.371000000,0.420313,0.513938,-0.131507,-1.384991,0.019432,2.077631,2.385254
48.392000000,0.420161,0.513761,-0.131027,-1.385386,0.072950,2.074912,2.325294
48.405000000,0.420318,0.513877,-0.131510,-1.385139,0.019917,2.076777,2.383861
48.425000000,0.420165,0.513764,-0.131029,-1.385376,0.072950,2.074912,2.325298
48.439000000,0.420321,0.513838,-0.131469,-1.385250,0.020105,2.076191,2.386197
48.460000000,0.420178,0.513761,-0.131026,-1.385375,0.072952,2.074912,2.325295
48.473000000,0.420376,0.513822,-0.131468,-1.385331,0.020251,2.075807,2.391490
48.487000000,0.420176,0.513740,-0.131028,-1.385371,0.072951,2.074914,2.325287
48.506000000,0.419820,0.513809,-0.130709,-1.385262,0.019430,2.075268,2.398258
48.522000000,0.420168,0.513740,-0.131032,-1.385370,0.072954,2.074912,2.325298
48.541000000,0.420428,0.513835,-0.131402,-1.385407,0.020179,2.075392,2.401292
48.557000000,0.420160,0.513740,-0.131029,-1.385383,0.072951,2.074912,2.325299
48.575000000,0.420470,0.513824,-0.131410,-1.385434,0.020177,2.075275,2.405197
48.588000000,0.420165,0.513740,-0.131031,-1.385388,0.072955,2.074907,2.325296
48.610000000,0.419868,0.513809,-0.130629,-1.385324,0.019278,2.074899,2.410424
48.623000000,0.420176,0.513769,-0.131020,-1.385401,0.072956,2.074903,2.325298
48.644000000,0.419896,0.513795,-0.130661,-1.385338,0.019213,2.074852,2.413361
48.657000000,0.420176,0.513819,-0.131020,-1.385436,0.072958,2.074895,2.325293
48.678000000,0.419891,0.513802,-0.130644,-1.385332,0.019134,2.074811,2.415848
48.691000000,0.420186,0.513830,-0.131014,-1.385445,0.072955,2.074887,2.325292
48.713000000,0.419876,0.513802,-0.130626,-1.385349,0.019093,2.074791,2.417916
48.725000000,0.420204,0.513833,-0.130993,-1.385464,0.072955,2.074880,2.325294
48.747000000,0.420492,0.513839,-0.131396,-1.385480,0.019885,2.075086,2.418020
48.759000000,0.420211,0.513851,-0.130982,-1.385494,0.072954,2.074870,2.325296
48.780000000,0.419893,0.513834,-0.130638,-1.385376,0.018998,2.074750,2.421235
48.792000000,0.420219,0.513849,-0.130970,-1.385515,0.072956,2.074868,2.325295
48.815000000,0.420498,0.513853,-0.131381,-1.385532,0.019816,2.075044,2.420820
48.827000000,0.420234,0.513862,-0.130962,-1.385529,0.072955,2.074861,2.325295
48.848000000,0.419913,0.513854,-0.130636,-1.385435,0.018957,2.074732,2.423659
48.861000000,0.420245,0.513889,-0.130955,-1.385566,0.072956,2.074860,2.325297
48.882000000,0.419918,0.513880,-0.130611,-1.385445,0.018921,2.074716,2.424594
48.893000000,0.420270,0.513909,-0.130932,-1.385611,0.072954,2.074851,2.325302
48.916000000,0.419917,0.513890,-0.130582,-1.385478,0.018921,2.074713,2.425348
48.925000000,0.420287,0.513931,-0.130936,-1.385624,0.072953,2.074844,2.325292
48.951000000,0.420549,0.513930,-0.131341,-1.385625,0.019751,2.075023,2.424287
48.958000000,0.420268,0.513976,-0.130936,-1.385661,0.072955,2.074837,2.325300
48.985000000,0.420544,0.513945,-0.131305,-1.385653,0.019694,2.075008,2.424870
48.991000000,0.420242,0.514112,-0.130955,-1.385748,0.072956,2.074838,2.325296
49.019000000,0.420574,0.513964,-0.131319,-1.385691,0.019746,2.075000,2.425315
49.024000000,0.420214,0.514282,-0.130955,-1.385897,0.072959,2.074820,2.325298
49.054000000,0.419962,0.514006,-0.130546,-1.385614,0.018916,2.074693,2.427460
49.057000000,0.420225,0.514701,-0.130950,-1.386132,0.072972,2.074798,2.325302
49.089000000,0.420570,0.514121,-0.131319,-1.385810,0.019773,2.075013,2.426082
49.091000000,0.420302,0.515947,-0.130934,-1.386861,0.072965,2.074799,2.325309
49.122000000,0.419969,0.514289,-0.130583,-1.385826,0.018937,2.074716,2.428117
49.124000000,0.420231,0.518042,-0.130987,-1.388312,0.072963,2.074823,2.325310
49.157000000,0.420571,0.514740,-0.131347,-1.386315,0.019843,2.075105,2.426588
49.157000000,0.420132,0.521339,-0.130990,-1.390369,0.072964,2.074854,2.325304
49.189000000,0.419776,0.526052,-0.131113,-1.392715,0.072974,2.075038,2.325313
49.189000000,0.420563,0.515660,-0.131366,-1.386989,0.019959,2.075245,2.426737
49.224000000,0.419110,0.532510,-0.131253,-1.394925,0.072974,2.075824,2.325314
49.225000000,0.420491,0.516875,-0.131378,-1.387649,0.013056,2.075109,2.432904
49.257000000,0.418008,0.540808,-0.131263,-1.396507,0.072974,2.076930,2.325315
49.259000000,0.420543,0.517466,-0.131552,-1.387971,-0.003793,2.075096,2.449585
49.291000000,0.416549,0.550438,-0.131281,-1.396886,0.072984,2.078427,2.325315
49.293000000,0.420618,0.517763,-0.131674,-1.388118,-0.020174,2.075118,2.469134
49.323000000,0.415089,0.561826,-0.131482,-1.396883,0.072989,2.080593,2.325315
49.327000000,0.420689,0.517891,-0.131772,-1.388204,-0.037195,2.075152,2.492371
49.357000000,0.413391,0.574450,-0.131823,-1.396832,0.072995,2.083660,2.325317
49.361000000,0.420804,0.517951,-0.131913,-1.388265,-0.054505,2.075203,2.519011
49.386000000,0.411571,0.588083,-0.132104,-1.396851,0.072998,2.087236,2.325324
49.396000000,0.420294,0.517979,-0.131272,-1.388153,-0.072706,2.074815,2.548197
49.420000000,0.409831,0.602728,-0.132411,-1.396786,0.072995,2.091515,2.325329
49.429000000,0.420836,0.518017,-0.131921,-1.388293,-0.091038,2.075216,2.577218
49.452000000,0.407912,0.618205,-0.132674,-1.396724,0.072999,2.098118,2.325325
49.463000000,0.420931,0.518017,-0.132043,-1.388321,-0.109997,2.075215,2.608170
49.484000000,0.406361,0.634022,-0.132976,-1.396539,0.072987,2.106014,2.325326
49.497000000,0.421046,0.518029,-0.132186,-1.388331,-0.129466,2.074891,2.640034
49.514000000,0.404711,0.650221,-0.133458,-1.396273,0.072987,2.115298,2.325323
49.531000000,0.421146,0.518012,-0.132301,-1.388343,-0.149508,2.074084,2.673109
49.549000000,0.403494,0.665978,-0.134194,-1.395890,0.072986,2.126701,2.325334
49.565000000,0.421287,0.517989,-0.132457,-1.388361,-0.169775,2.072780,2.706947
49.580000000,0.402541,0.681787,-0.135333,-1.395452,0.072982,2.140966,2.325324
49.599000000,0.421423,0.517984,-0.132603,-1.388362,-0.190556,2.070933,2.741606
