yuan18844-afk/dissertation/catkin_ws/src/franka_digital_twin/analysis/data/real_slow3_20250728_065324.csv
time,panda_joint1,panda_joint2,panda_joint3,panda_joint4,panda_joint5,panda_joint6,panda_joint7
5513.132000000,0.428403,1.070900,-0.086523,-1.205299,0.191108,2.557078,1.778089
5513.132000000,0.428462,1.070906,-0.086457,-1.205312,0.235956,2.557099,1.662366
5513.162000000,0.428462,1.070908,-0.086462,-1.205310,0.235957,2.557093,1.662368
5513.166000000,0.428267,1.070837,-0.086613,-1.205284,0.179866,2.557110,1.794301
5513.191000000,0.428465,1.070906,-0.086460,-1.205312,0.235959,2.557097,1.662361
5513.200000000,0.428206,1.070791,-0.086673,-1.205275,0.168464,2.557124,1.815745
5513.223000000,0.428454,1.070906,-0.086457,-1.205310,0.235955,2.557093,1.662360
5513.234000000,0.428587,1.070976,-0.086403,-1.205361,0.181483,2.557050,1.775733
5513.255000000,0.428462,1.070908,-0.086457,-1.205307,0.235953,2.557095,1.662369
5513.269000000,0.428693,1.071041,-0.086300,-1.205372,0.188625,2.557040,1.743485
5513.286000000,0.428462,1.070908,-0.086457,-1.205312,0.235956,2.557095,1.662367
5513.302000000,0.428681,1.071031,-0.086300,-1.205360,0.193131,2.557035,1.719727
5513.318000000,0.428462,1.070906,-0.086455,-1.205312,0.235957,2.557095,1.662360
5513.337000000,0.428669,1.071001,-0.086390,-1.205356,0.196690,2.557079,1.701212
5513.352000000,0.428460,1.070906,-0.086455,-1.205310,0.235957,2.557094,1.662368
5513.370000000,0.428522,1.070950,-0.086371,-1.205299,0.197865,2.557072,1.693681
5513.383000000,0.428460,1.070908,-0.086465,-1.205305,0.235953,2.557094,1.662362
5513.405000000,0.428525,1.070910,-0.086491,-1.205298,0.199754,2.557107,1.688424
5513.417000000,0.428460,1.070906,-0.086457,-1.205307,0.235953,2.557094,1.662367
5513.438000000,0.428407,1.070874,-0.086457,-1.205246,0.199778,2.557096,1.692744
5513.451000000,0.428462,1.070908,-0.086457,-1.205310,0.235956,2.557096,1.662359
5513.473000000,0.428443,1.070835,-0.086532,-1.205282,0.200919,2.557126,1.699350
5513.484000000,0.428462,1.070906,-0.086457,-1.205307,0.235953,2.557094,1.662371
5513.507000000,0.428439,1.070842,-0.086537,-1.205267,0.201241,2.557129,1.711558
5513.523000000,0.428462,1.070906,-0.086460,-1.205315,0.235955,2.557096,1.662367
5513.541000000,0.428432,1.070840,-0.086521,-1.205284,0.201427,2.557130,1.722531
5513.559000000,0.428465,1.070908,-0.086455,-1.205310,0.235958,2.557094,1.662366
5513.576000000,0.428380,1.070862,-0.086464,-1.205256,0.200840,2.557088,1.733926
5513.593000000,0.428462,1.070906,-0.086457,-1.205312,0.235954,2.557094,1.662365
5513.609000000,0.428459,1.070882,-0.086518,-1.205300,0.201570,2.557114,1.739745
5513.628000000,0.428457,1.070906,-0.086460,-1.205310,0.235954,2.557098,1.662365
5513.643000000,0.428461,1.070893,-0.086496,-1.205318,0.201541,2.557112,1.746534
5513.662000000,0.428454,1.070906,-0.086459,-1.205312,0.235957,2.557096,1.662359
5513.677000000,0.428477,1.070898,-0.086496,-1.205334,0.201546,2.557100,1.752270
5513.697000000,0.428460,1.070903,-0.086460,-1.205307,0.235956,2.557094,1.662362
5513.712000000,0.428488,1.070925,-0.086494,-1.205323,0.201541,2.557100,1.757165
5513.731000000,0.428462,1.070908,-0.086460,-1.205315,0.235956,2.557098,1.662360
5513.745000000,0.428488,1.070923,-0.086482,-1.205334,0.201510,2.557105,1.761355
5513.763000000,0.428462,1.070906,-0.086460,-1.205310,0.235956,2.557095,1.662367
5513.779000000,0.428495,1.070915,-0.086487,-1.205341,0.201451,2.557097,1.764966
5513.798000000,0.428462,1.070911,-0.086455,-1.205310,0.235956,2.557096,1.662362
5513.813000000,0.428504,1.070931,-0.086492,-1.205326,0.201461,2.557101,1.767885
5513.831000000,0.428462,1.070906,-0.086455,-1.205312,0.235955,2.557099,1.662362
5513.848000000,0.428433,1.070912,-0.086426,-1.205306,0.200741,2.557062,1.772307
5513.866000000,0.428457,1.070908,-0.086457,-1.205312,0.235959,2.557097,1.662365
5513.883000000,0.428495,1.070919,-0.086476,-1.205330,0.201375,2.557106,1.772683
5513.900000000,0.428462,1.070908,-0.086457,-1.205307,0.235958,2.557097,1.662362
5513.917000000,0.428422,1.070889,-0.086488,-1.205315,0.198710,2.557072,1.777305
5513.934000000,0.428460,1.070908,-0.086457,-1.205307,0.235957,2.557095,1.662360
5513.951000000,0.428265,1.070841,-0.086612,-1.205279,0.187694,2.557108,1.793911
5513.969000000,0.428457,1.070903,-0.086460,-1.205312,0.235956,2.557098,1.662364
5513.984000000,0.428147,1.070812,-0.086592,-1.205228,0.177483,2.557068,1.815640
5514.003000000,0.428457,1.070903,-0.086457,-1.205307,0.235958,2.557093,1.662362
5514.019000000,0.428184,1.070777,-0.086668,-1.205262,0.167533,2.557127,1.840507
5514.037000000,0.428460,1.070908,-0.086457,-1.205310,0.235952,2.557095,1.662365
5514.053000000,0.428179,1.070778,-0.086682,-1.205238,0.157181,2.557139,1.870485
5514.071000000,0.428460,1.070906,-0.086455,-1.205307,0.235957,2.557092,1.662363
5514.087000000,0.428172,1.070760,-0.086686,-1.205246,0.146684,2.557157,1.900519
5514.104000000,0.428460,1.070906,-0.086457,-1.205312,0.235953,2.557099,1.662366
5514.120000000,0.428109,1.070754,-0.086639,-1.205200,0.135663,2.557086,1.933547
5514.139000000,0.428460,1.070903,-0.086457,-1.205315,0.235956,2.557096,1.662370
5514.155000000,0.428180,1.070754,-0.086707,-1.205232,0.125194,2.557170,1.965312
5514.173000000,0.428460,1.070908,-0.086460,-1.205305,0.235956,2.557094,1.662365
5514.190000000,0.428108,1.070735,-0.086651,-1.205195,0.113222,2.557069,2.002140
5514.206000000,0.428454,1.070911,-0.086462,-1.205307,0.235958,2.557095,1.662362
5514.224000000,0.428103,1.070745,-0.086657,-1.205169,0.101840,2.557055,2.037083
5514.241000000,0.428462,1.070906,-0.086460,-1.205307,0.235952,2.557093,1.662365
5514.258000000,0.428081,1.070731,-0.086638,-1.205163,0.090286,2.557029,2.073544
5514.274000000,0.428457,1.070906,-0.086462,-1.205310,0.235958,2.557097,1.662367
5514.292000000,0.428072,1.070718,-0.086641,-1.205155,0.078572,2.556998,2.110458
5514.309000000,0.428460,1.070903,-0.086457,-1.205307,0.235956,2.557096,1.662370
5514.326000000,0.428061,1.070728,-0.086639,-1.205126,0.066644,2.556966,2.148385
5514.342000000,0.428460,1.070908,-0.086462,-1.205310,0.235954,2.557094,1.662358
5514.360000000,0.428039,1.070716,-0.086621,-1.205117,0.054601,2.556934,2.186865
5514.376000000,0.428462,1.070908,-0.086462,-1.205310,0.235955,2.557093,1.662358
5514.394000000,0.428028,1.070703,-0.086621,-1.205109,0.042396,2.556893,2.225826
5514.410000000,0.428457,1.070908,-0.086455,-1.205310,0.235956,2.557097,1.662366
5514.427000000,0.428079,1.070690,-0.086670,-1.205161,0.031008,2.557044,2.262666
5514.444000000,0.428457,1.070903,-0.086457,-1.205312,0.235954,2.557097,1.662358
5514.462000000,0.428011,1.070696,-0.086615,-1.205092,0.017695,2.556867,2.305043
5514.477000000,0.428460,1.070906,-0.086460,-1.205312,0.235952,2.557097,1.662359
5514.495000000,0.428004,1.070681,-0.086620,-1.205085,0.004992,2.556830,2.345493
5514.510000000,0.428460,1.070911,-0.086457,-1.205307,0.235953,2.557095,1.662371
5514.529000000,0.427991,1.070689,-0.086615,-1.205052,-0.007991,2.556780,2.386906
5514.542000000,0.428457,1.070908,-0.086460,-1.205310,0.235956,2.557095,1.662367
5514.563000000,0.427968,1.070677,-0.086597,-1.205039,-0.021082,2.556732,2.428697
5514.572000000,0.428465,1.070908,-0.086455,-1.205310,0.235955,2.557100,1.662362
5514.597000000,0.428021,1.070664,-0.086648,-1.205101,-0.033267,2.556946,2.467866
5514.607000000,0.428457,1.070903,-0.086457,-1.205307,0.235952,2.557100,1.662361
5514.632000000,0.427964,1.070671,-0.086609,-1.205017,-0.047556,2.556707,2.513085
5514.641000000,0.428460,1.070908,-0.086457,-1.205307,0.235957,2.557095,1.662362
5514.665000000,0.428020,1.070658,-0.086664,-1.205083,-0.060053,2.556944,2.552969
5514.676000000,0.428460,1.070906,-0.086460,-1.205305,0.235957,2.557095,1.662369
5514.700000000,0.427954,1.070644,-0.086610,-1.205015,-0.074677,2.556682,2.598955
5514.712000000,0.428460,1.070908,-0.086457,-1.205307,0.235957,2.557094,1.662363
5514.734000000,0.430040,1.071651,-0.085907,-1.205812,0.015765,2.557179,2.424117
5514.746000000,0.428457,1.070911,-0.086455,-1.205307,0.235957,2.557095,1.662361
5514.769000000,0.430566,1.071982,-0.085369,-1.205811,0.087720,2.556913,2.274021
5514.780000000,0.428460,1.070903,-0.086460,-1.205312,0.235956,2.557100,1.662358
5514.802000000,0.430115,1.071752,-0.085428,-1.205632,0.134946,2.556737,2.156166
5514.811000000,0.428462,1.070906,-0.086457,-1.205307,0.235956,2.557094,1.662367
5514.836000000,0.429347,1.071359,-0.085838,-1.205425,0.167227,2.556786,2.060320
5514.846000000,0.428452,1.070903,-0.086460,-1.205307,0.235952,2.557094,1.662358
5514.870000000,0.428361,1.070891,-0.086358,-1.205233,0.180911,2.556851,1.988732
5514.879000000,0.428457,1.070906,-0.086460,-1.205307,0.235957,2.557094,1.662358
5514.903000000,0.427750,1.070579,-0.086808,-1.205152,0.189773,2.557024,1.926733
5514.915000000,0.428460,1.070903,-0.086457,-1.205312,0.235956,2.557095,1.662368
5514.938000000,0.427281,1.070411,-0.086980,-1.205036,0.194136,2.557030,1.875000
5514.949000000,0.428462,1.070903,-0.086457,-1.205307,0.235955,2.557095,1.662368
5514.972000000,0.427190,1.070357,-0.087064,-1.205034,0.197021,2.557082,1.831467
5514.979000000,0.428457,1.070911,-0.086460,-1.205310,0.235955,2.557097,1.662370
5515.006000000,0.427303,1.070418,-0.087024,-1.205041,0.198695,2.557113,1.795421
5515.012000000,0.428454,1.070906,-0.086457,-1.205314,0.235959,2.557093,1.662371
5515.039000000,0.427597,1.070512,-0.086978,-1.205118,0.200410,2.557169,1.765083
5515.048000000,0.428457,1.070906,-0.086457,-1.205310,0.235956,2.557096,1.662359
5515.074000000,0.427807,1.070611,-0.086766,-1.205152,0.200332,2.557130,1.743340
5515.080000000,0.428460,1.070906,-0.086457,-1.205310,0.235954,2.557092,1.662367
5515.108000000,0.428076,1.070735,-0.086631,-1.205182,0.200652,2.557125,1.726672
5515.116000000,0.428462,1.070900,-0.086455,-1.205312,0.235953,2.557095,1.662360
5515.141000000,0.428360,1.070822,-0.086581,-1.205252,0.201533,2.557145,1.714253
5515.151000000,0.428460,1.070908,-0.086457,-1.205310,0.235953,2.557095,1.662368
5515.176000000,0.428456,1.070868,-0.086426,-1.205265,0.200943,2.557111,1.710730
5515.186000000,0.428462,1.070913,-0.086460,-1.205312,0.235957,2.557095,1.662364
5515.210000000,0.428560,1.070922,-0.086377,-1.205263,0.200968,2.557106,1.711167
5515.219000000,0.428460,1.070906,-0.086457,-1.205312,0.235956,2.557098,1.662368
5515.244000000,0.428600,1.070933,-0.086339,-1.205279,0.200973,2.557107,1.716985
5515.254000000,0.428457,1.070906,-0.086460,-1.205305,0.235959,2.557098,1.662357
5515.278000000,0.428610,1.070926,-0.086341,-1.205293,0.200992,2.557093,1.726998
5515.286000000,0.428462,1.070903,-0.086457,-1.205310,0.235953,2.557098,1.662367
5515.313000000,0.428589,1.070940,-0.086355,-1.205281,0.200982,2.557086,1.736066
5515.319000000,0.428460,1.070908,-0.086457,-1.205313,0.235955,2.557094,1.662365
5515.346000000,0.428538,1.070928,-0.086360,-1.205293,0.200953,2.557083,1.743739
5515.350000000,0.428462,1.070911,-0.086457,-1.205307,0.235958,2.557095,1.662369
5515.380000000,0.428501,1.070915,-0.086391,-1.205303,0.200933,2.557074,1.750203
5515.384000000,0.428460,1.070908,-0.086457,-1.205312,0.235954,2.557096,1.662361
5515.414000000,0.428465,1.070928,-0.086413,-1.205287,0.200894,2.557069,1.755706
5515.419000000,0.428462,1.070908,-0.086460,-1.205307,0.235956,2.557096,1.662359
5515.448000000,0.428428,1.070918,-0.086415,-1.205296,0.200863,2.557071,1.760371
5515.452000000,0.428460,1.070908,-0.086457,-1.205310,0.235958,2.557097,1.662364
5515.482000000,0.428414,1.070908,-0.086434,-1.205303,0.200841,2.557064,1.764347
5515.487000000,0.428462,1.070908,-0.086462,-1.205315,0.235957,2.557095,1.662369
5515.516000000,0.428410,1.070922,-0.086445,-1.205286,0.200798,2.557066,1.767770
5515.522000000,0.428462,1.070908,-0.086457,-1.205310,0.235955,2.557094,1.662367
5515.549000000,0.428476,1.070921,-0.086508,-1.205321,0.201462,2.557105,1.768673
5515.555000000,0.428460,1.070906,-0.086457,-1.205310,0.235953,2.557096,1.662361
5515.584000000,0.428407,1.070903,-0.086442,-1.205302,0.200739,2.557065,1.772981
5515.589000000,0.428460,1.070903,-0.086460,-1.205307,0.235954,2.557094,1.662367
5515.618000000,0.428414,1.070919,-0.086441,-1.205285,0.200707,2.557062,1.775008
5515.623000000,0.428462,1.070903,-0.086457,-1.205307,0.235954,2.557095,1.662357
5515.652000000,0.428412,1.070910,-0.086425,-1.205293,0.200689,2.557067,1.776721
5515.657000000,0.428457,1.070906,-0.086455,-1.205310,0.235954,2.557094,1.662368
5515.686000000,0.428422,1.070900,-0.086429,-1.205299,0.200682,2.557061,1.778197
5515.691000000,0.428462,1.070908,-0.086462,-1.205310,0.235957,2.557095,1.662363
5515.720000000,0.428432,1.070915,-0.086433,-1.205282,0.200655,2.557064,1.779485
5515.726000000,0.428460,1.070905,-0.086457,-1.205310,0.235953,2.557093,1.662367
5515.754000000,0.428426,1.070908,-0.086418,-1.205289,0.200631,2.557067,1.780538
5515.760000000,0.428460,1.070903,-0.086460,-1.205312,0.235957,2.557097,1.662361
5515.788000000,0.428434,1.070899,-0.086428,-1.205298,0.200629,2.557064,1.781375
5515.794000000,0.428462,1.070903,-0.086457,-1.205310,0.235953,2.557094,1.662363
5515.822000000,0.428437,1.070914,-0.086430,-1.205282,0.200611,2.557062,1.782116
5515.828000000,0.428457,1.070908,-0.086457,-1.205307,0.235957,2.557100,1.662359
5515.856000000,0.428429,1.070907,-0.086416,-1.205290,0.200607,2.557068,1.782736
5515.862000000,0.428457,1.070911,-0.086460,-1.205315,0.235958,2.557095,1.662361
5515.890000000,0.428432,1.070899,-0.086425,-1.205298,0.200612,2.557063,1.783282
5515.895000000,0.428457,1.070906,-0.086460,-1.205312,0.235951,2.557095,1.662364
5515.924000000,0.428436,1.070915,-0.086431,-1.205283,0.200594,2.557065,1.783794
5515.930000000,0.428462,1.070908,-0.086457,-1.205307,0.235956,2.557094,1.662359
5515.958000000,0.428426,1.070909,-0.086419,-1.205290,0.200580,2.557068,1.784172
5515.963000000,0.428460,1.070911,-0.086457,-1.205310,0.235956,2.557097,1.662367
5515.993000000,0.428503,1.070918,-0.086493,-1.205316,0.201278,2.557107,1.782647
5515.997000000,0.428460,1.070903,-0.086460,-1.205310,0.235957,2.557096,1.662368
5516.027000000,0.428492,1.070911,-0.086480,-1.205324,0.201240,2.557110,1.782917
5516.032000000,0.428460,1.070908,-0.086457,-1.205310,0.235957,2.557096,1.662371
5516.061000000,0.428497,1.070901,-0.086487,-1.205333,0.201249,2.557103,1.783131
5516.065000000,0.428465,1.070911,-0.086460,-1.205315,0.235957,2.557094,1.662361
5516.095000000,0.428501,1.070918,-0.086491,-1.205317,0.201266,2.557105,1.783323
5516.099000000,0.428460,1.070908,-0.086460,-1.205315,0.235956,2.557094,1.662359
5516.129000000,0.428495,1.070910,-0.086482,-1.205326,0.201257,2.557112,1.783514
5516.133000000,0.428460,1.070911,-0.086460,-1.205305,0.235954,2.557096,1.662364
5516.163000000,0.428324,1.070853,-0.086544,-1.205296,0.193772,2.557084,1.792738
5516.168000000,0.428462,1.070908,-0.086460,-1.205310,0.235955,2.557097,1.662363
5516.197000000,0.428202,1.070813,-0.086649,-1.205264,0.182423,2.557117,1.810837
5516.202000000,0.428457,1.070900,-0.086460,-1.205310,0.235956,2.557099,1.662361
5516.231000000,0.428134,1.070772,-0.086692,-1.205254,0.170979,2.557142,1.834050
5516.235000000,0.428457,1.070908,-0.086455,-1.205312,0.235956,2.557098,1.662368
5516.265000000,0.428114,1.070738,-0.086730,-1.205251,0.159440,2.557157,1.862253
5516.269000000,0.428460,1.070908,-0.086457,-1.205305,0.235957,2.557095,1.662368
5516.299000000,0.428112,1.070733,-0.086758,-1.205232,0.147738,2.557180,1.894938
5516.303000000,0.428457,1.070908,-0.086460,-1.205310,0.235956,2.557099,1.662368
5516.333000000,0.428102,1.070711,-0.086765,-1.205235,0.135777,2.557202,1.929093
5516.337000000,0.428460,1.070906,-0.086457,-1.205310,0.235956,2.557095,1.662369
5516.367000000,0.428112,1.070691,-0.086784,-1.205244,0.123851,2.557215,1.964666
5516.371000000,0.428457,1.070908,-0.086457,-1.205312,0.235954,2.557099,1.662364
5516.402000000,0.428759,1.071017,-0.086379,-1.205434,0.148140,2.557074,1.890312
5516.405000000,0.428465,1.070908,-0.086457,-1.205312,0.235956,2.557095,1.662358
5516.435000000,0.429052,1.071177,-0.086247,-1.205488,0.167083,2.557071,1.823227
5516.438000000,0.428462,1.070906,-0.086460,-1.205310,0.235956,2.557094,1.662361
5516.469000000,0.428916,1.071164,-0.086177,-1.205433,0.178765,2.556991,1.769297
5516.473000000,0.428452,1.070908,-0.086460,-1.205312,0.235957,2.557095,1.662369
5516.503000000,0.428731,1.071102,-0.086268,-1.205364,0.186345,2.557005,1.725974
5516.506000000,0.428462,1.070906,-0.086455,-1.205312,0.235956,2.557095,1.662367
5516.537000000,0.428523,1.070993,-0.086365,-1.205320,0.191416,2.557041,1.693179
5516.540000000,0.428465,1.070908,-0.086452,-1.205305,0.235957,2.557099,1.662369
5516.571000000,0.428358,1.070890,-0.086466,-1.205283,0.194668,2.557064,1.668188
5516.571000000,0.428452,1.070911,-0.086460,-1.205312,0.235955,2.557100,1.662369
5516.601000000,0.428468,1.070906,-0.086457,-1.205310,0.235956,2.557100,1.662360
5516.606000000,0.428312,1.070831,-0.086582,-1.205270,0.197591,2.557109,1.647878
5516.632000000,0.428452,1.070908,-0.086460,-1.205307,0.235957,2.557100,1.662359
5516.639000000,0.428199,1.070791,-0.086543,-1.205222,0.198365,2.557113,1.638528
5516.665000000,0.428462,1.070908,-0.086460,-1.205312,0.235956,2.557096,1.662358
5516.673000000,0.428206,1.070768,-0.086554,-1.205222,0.199341,2.557122,1.633086
5516.700000000,0.428468,1.070908,-0.086455,-1.205313,0.235954,2.557093,1.662365
5516.707000000,0.428227,1.070785,-0.086531,-1.205201,0.199648,2.557115,1.633786
5516.734000000,0.428454,1.070908,-0.086462,-1.205315,0.235954,2.557099,1.662360
5516.741000000,0.428022,1.070720,-0.086591,-1.205180,0.189484,2.557112,1.645139
5516.768000000,0.428465,1.070906,-0.086455,-1.205307,0.235954,2.557096,1.662369
5516.775000000,0.427967,1.070691,-0.086631,-1.205164,0.180624,2.557118,1.656917
5516.803000000,0.428462,1.070908,-0.086455,-1.205310,0.235957,2.557095,1.662366
5516.809000000,0.427937,1.070691,-0.086635,-1.205134,0.171232,2.557118,1.673465
5516.836000000,0.428454,1.070911,-0.086462,-1.205312,0.235957,2.557099,1.662363
5516.843000000,0.427915,1.070673,-0.086620,-1.205132,0.161828,2.557119,1.692253
5516.870000000,0.428470,1.070911,-0.086455,-1.205312,0.235956,2.557096,1.662362
5516.877000000,0.427911,1.070658,-0.086624,-1.205124,0.152304,2.557113,1.713439
5516.904000000,0.428460,1.070908,-0.086460,-1.205310,0.235955,2.557096,1.662362
5516.911000000,0.427903,1.070667,-0.086617,-1.205098,0.142623,2.557106,1.736565
5516.938000000,0.428454,1.070908,-0.086457,-1.205310,0.235954,2.557095,1.662359
5516.946000000,0.427959,1.070643,-0.086670,-1.205142,0.133216,2.557143,1.760194
5516.971000000,0.428462,1.070906,-0.086455,-1.205315,0.235952,2.557093,1.662361
5516.980000000,0.427963,1.070654,-0.086678,-1.205118,0.123398,2.557154,1.786714
5517.006000000,0.428465,1.070906,-0.086460,-1.205310,0.235957,2.557100,1.662359
5517.014000000,0.427962,1.070639,-0.086680,-1.205129,0.113442,2.557169,1.814277
5517.040000000,0.428462,1.070906,-0.086460,-1.205315,0.235954,2.557094,1.662370
5517.048000000,0.427974,1.070625,-0.086697,-1.205136,0.103386,2.557174,1.843179
5517.074000000,0.428460,1.070906,-0.086460,-1.205312,0.235957,2.557096,1.662359
5517.083000000,0.427909,1.070629,-0.086636,-1.205087,0.092240,2.557112,1.875645
5517.107000000,0.428462,1.070911,-0.086457,-1.205310,0.235957,2.557093,1.662360
5517.117000000,0.427911,1.070614,-0.086645,-1.205088,0.081749,2.557099,1.907305
5517.141000000,0.428460,1.070908,-0.086457,-1.205315,0.235956,2.557093,1.662360
5517.151000000,0.427902,1.070624,-0.086639,-1.205059,0.070973,2.557079,1.940168
5517.176000000,0.428460,1.070908,-0.086455,-1.205310,0.235958,2.557094,1.662366
5517.185000000,0.427883,1.070612,-0.086621,-1.205054,0.060099,2.557060,1.973895
5517.209000000,0.428460,1.070911,-0.086460,-1.205312,0.235957,2.557098,1.662360
5517.219000000,0.427874,1.070599,-0.086622,-1.205048,0.049051,2.557033,2.008117
5517.243000000,0.428460,1.070903,-0.086460,-1.205307,0.235957,2.557094,1.662359
5517.253000000,0.427866,1.070610,-0.086618,-1.205020,0.037865,2.557007,2.043295
5517.277000000,0.428457,1.070908,-0.086457,-1.205310,0.235953,2.557096,1.662366
5517.288000000,0.427916,1.070585,-0.086668,-1.205080,0.026889,2.557118,2.078218
5517.311000000,0.428457,1.070911,-0.086457,-1.205310,0.235957,2.557093,1.662367
5517.322000000,0.427918,1.070594,-0.086681,-1.205064,0.015462,2.557131,2.114564
5517.344000000,0.428462,1.070913,-0.086455,-1.205306,0.235952,2.557099,1.662364
5517.356000000,0.427916,1.070579,-0.086684,-1.205078,0.003922,2.557163,2.151306
5517.378000000,0.428460,1.070906,-0.086457,-1.205312,0.235957,2.557093,1.662370
5517.391000000,0.427861,1.070585,-0.086645,-1.205007,-0.008849,2.557005,2.191397
5517.411000000,0.428462,1.070906,-0.086455,-1.205312,0.235954,2.557099,1.662367
5517.425000000,0.427845,1.070574,-0.086631,-1.205001,-0.020946,2.556982,2.229706
5517.445000000,0.428462,1.070913,-0.086452,-1.205305,0.235952,2.557093,1.662364
5517.459000000,0.427835,1.070561,-0.086631,-1.204992,-0.033292,2.556939,2.268808
5517.479000000,0.428457,1.070911,-0.086455,-1.205307,0.235953,2.557094,1.662368
5517.492000000,0.427888,1.070547,-0.086684,-1.205052,-0.044790,2.557112,2.305517
5517.512000000,0.428462,1.070908,-0.086460,-1.205310,0.235957,2.557100,1.662362
5517.527000000,0.427816,1.070553,-0.086622,-1.204973,-0.058372,2.556908,2.348104
5517.545000000,0.428462,1.070906,-0.086455,-1.205310,0.235952,2.557094,1.662361
5517.561000000,0.427810,1.070538,-0.086626,-1.204967,-0.071226,2.556870,2.388414
5517.579000000,0.428465,1.070913,-0.086462,-1.205310,0.235953,2.557097,1.662359
5517.596000000,0.427860,1.070531,-0.086674,-1.205024,-0.084036,2.557083,2.428971
5517.614000000,0.428462,1.070903,-0.086460,-1.205313,0.235954,2.557094,1.662368
5517.629000000,0.427787,1.070527,-0.086616,-1.204943,-0.097629,2.556840,2.471218
5517.647000000,0.428462,1.070908,-0.086460,-1.205307,0.235958,2.557099,1.662366
5517.663000000,0.427781,1.070513,-0.086616,-1.204934,-0.111096,2.556792,2.513393
5517.682000000,0.428460,1.070908,-0.086457,-1.205310,0.235956,2.557095,1.662359
5517.697000000,0.427770,1.070522,-0.086607,-1.204898,-0.124818,2.556728,2.556050
5517.715000000,0.428457,1.070906,-0.086457,-1.205305,0.235956,2.557096,1.662367
5517.732000000,0.427824,1.070489,-0.086667,-1.204984,-0.138466,2.556985,2.598899
5517.749000000,0.428462,1.070907,-0.086460,-1.205307,0.235957,2.557100,1.662367
5517.767000000,0.427750,1.070496,-0.086599,-1.204888,-0.153579,2.556700,2.645413
5517.783000000,0.428460,1.070911,-0.086455,-1.205305,0.235953,2.557099,1.662358
5517.801000000,0.429819,1.071606,-0.085961,-1.205821,-0.061155,2.557220,2.470380
5517.814000000,0.428465,1.070911,-0.086457,-1.205312,0.235954,2.557094,1.662370
5517.836000000,0.430809,1.072219,-0.085228,-1.205929,0.036837,2.556919,2.295422
5517.849000000,0.428462,1.070911,-0.086457,-1.205310,0.235957,2.557099,1.662370
5517.869000000,0.430491,1.072010,-0.085211,-1.205722,0.098433,2.556746,2.169073
5517.883000000,0.428460,1.070906,-0.086457,-1.205307,0.235956,2.557098,1.662364
5517.903000000,0.429684,1.071484,-0.085671,-1.205504,0.141995,2.556824,2.065025
5517.917000000,0.428462,1.070908,-0.086460,-1.205307,0.235957,2.557097,1.662368
5517.937000000,0.428594,1.070923,-0.086302,-1.205241,0.163494,2.556935,1.989773
5517.950000000,0.428457,1.070903,-0.086455,-1.205307,0.235957,2.557095,1.662367
5517.972000000,0.427659,1.070483,-0.086734,-1.205042,0.177211,2.556940,1.926653
5517.985000000,0.428462,1.070911,-0.086457,-1.205310,0.235954,2.557096,1.662369
5518.006000000,0.427161,1.070272,-0.087034,-1.204942,0.185651,2.557026,1.875567
5518.019000000,0.428462,1.070903,-0.086460,-1.205310,0.235958,2.557093,1.662363
5518.040000000,0.426984,1.070201,-0.087144,-1.204937,0.191027,2.557097,1.833847
5518.054000000,0.428460,1.070906,-0.086455,-1.205307,0.235951,2.557094,1.662360
5518.074000000,0.427071,1.070247,-0.087132,-1.204979,0.194528,2.557129,1.800224
5518.087000000,0.428454,1.070908,-0.086457,-1.205312,0.235956,2.557099,1.662358
5518.108000000,0.427310,1.070385,-0.087021,-1.205021,0.196708,2.557142,1.773998
5518.121000000,0.428462,1.070906,-0.086460,-1.205312,0.235955,2.557096,1.662367
5518.143000000,0.427689,1.070521,-0.086916,-1.205140,0.198856,2.557174,1.752142
5518.156000000,0.428460,1.070908,-0.086457,-1.205310,0.235956,2.557095,1.662366
5518.177000000,0.428005,1.070679,-0.086764,-1.205189,0.199804,2.557167,1.739053
5518.190000000,0.428457,1.070908,-0.086457,-1.205307,0.235952,2.557097,1.662359
5518.211000000,0.428260,1.070789,-0.086612,-1.205247,0.200352,2.557157,1.731993
5518.223000000,0.428462,1.070906,-0.086452,-1.205310,0.235956,2.557098,1.662365
5518.245000000,0.428465,1.070864,-0.086513,-1.205291,0.200742,2.557138,1.730622
5518.257000000,0.428462,1.070908,-0.086457,-1.205310,0.235957,2.557093,1.662369
5518.279000000,0.428602,1.070932,-0.086449,-1.205299,0.201004,2.557135,1.734782
5518.291000000,0.428462,1.070911,-0.086455,-1.205307,0.235956,2.557099,1.662365
5518.314000000,0.428598,1.070940,-0.086344,-1.205298,0.200493,2.557088,1.744239
5518.325000000,0.428462,1.070908,-0.086460,-1.205310,0.235955,2.557094,1.662368
5518.348000000,0.428613,1.070966,-0.086336,-1.205291,0.200600,2.557076,1.750555
5518.358000000,0.428468,1.070911,-0.086460,-1.205310,0.235957,2.557097,1.662369
5518.382000000,0.428584,1.070958,-0.086334,-1.205304,0.200666,2.557073,1.755910
5518.392000000,0.428462,1.070908,-0.086457,-1.205305,0.235957,2.557100,1.662370
5518.416000000,0.428551,1.070943,-0.086362,-1.205311,0.200712,2.557064,1.760529
5518.427000000,0.428462,1.070908,-0.086455,-1.205310,0.235957,2.557100,1.662361
5518.450000000,0.428513,1.070950,-0.086390,-1.205292,0.200714,2.557067,1.764490
5518.461000000,0.428462,1.070913,-0.086457,-1.205305,0.235958,2.557099,1.662369
5518.484000000,0.428465,1.070932,-0.086396,-1.205297,0.200706,2.557071,1.767818
5518.493000000,0.428465,1.070911,-0.086457,-1.205307,0.235958,2.557099,1.662363
5518.519000000,0.428512,1.070932,-0.086487,-1.205319,0.201403,2.557107,1.768848
5518.527000000,0.428462,1.070911,-0.086457,-1.205310,0.235952,2.557096,1.662368
5518.553000000,0.428482,1.070918,-0.086485,-1.205324,0.201357,2.557110,1.771228
5518.561000000,0.428462,1.070906,-0.086455,-1.205310,0.235956,2.557098,1.662368
5518.588000000,0.428477,1.070903,-0.086497,-1.205332,0.201358,2.557102,1.773231
5518.590000000,0.428460,1.070908,-0.086457,-1.205312,0.235956,2.557095,1.662368
5518.621000000,0.428477,1.070917,-0.086502,-1.205316,0.201362,2.557105,1.774942
5518.623000000,0.428465,1.070906,-0.086457,-1.205307,0.235958,2.557095,1.662368
5518.655000000,0.428472,1.070908,-0.086492,-1.205324,0.201345,2.557111,1.776427
5518.657000000,0.428457,1.070908,-0.086457,-1.205312,0.235955,2.557098,1.662361
5518.688000000,0.428408,1.070906,-0.086427,-1.205289,0.200638,2.557070,1.779478
5518.688000000,0.428457,1.070908,-0.086455,-1.205310,0.235958,2.557093,1.662361
5518.717000000,0.428462,1.070908,-0.086460,-1.205310,0.235956,2.557093,1.662361
5518.723000000,0.428490,1.070915,-0.086498,-1.205316,0.201329,2.557108,1.778696
5518.748000000,0.428457,1.070906,-0.086457,-1.205310,0.235958,2.557098,1.662360
5518.763000000,0.428323,1.070865,-0.086536,-1.205284,0.194349,2.557090,1.788620
5518.781000000,0.428462,1.070911,-0.086460,-1.205312,0.235955,2.557095,1.662359
5518.797000000,0.428128,1.070809,-0.086572,-1.205228,0.182650,2.557070,1.808940
5518.813000000,0.428460,1.070908,-0.086457,-1.205312,0.235959,2.557099,1.662360
5518.831000000,0.428125,1.070783,-0.086677,-1.205231,0.171523,2.557123,1.832000
5518.847000000,0.428462,1.070905,-0.086460,-1.205302,0.235954,2.557095,1.662361
5518.866000000,0.428030,1.070743,-0.086649,-1.205192,0.159056,2.557079,1.863862
5518.884000000,0.428462,1.070908,-0.086457,-1.205307,0.235957,2.557095,1.662361
5518.900000000,0.428003,1.070738,-0.086657,-1.205157,0.146997,2.557066,1.897891
5518.920000000,0.428462,1.070908,-0.086460,-1.205307,0.235957,2.557093,1.662360
5518.934000000,0.428645,1.070976,-0.086426,-1.205421,0.167088,2.557086,1.828680
5518.955000000,0.428462,1.070908,-0.086457,-1.205307,0.235957,2.557097,1.662366
5518.967000000,0.428759,1.071097,-0.086240,-1.205399,0.178521,2.557001,1.776867
5518.989000000,0.428465,1.070903,-0.086455,-1.205307,0.235956,2.557099,1.662368
5519.002000000,0.428821,1.071114,-0.086317,-1.205407,0.187239,2.557038,1.729385
5519.019000000,0.428457,1.070906,-0.086457,-1.205312,0.235955,2.557096,1.662368
5519.036000000,0.428711,1.071054,-0.086361,-1.205378,0.192318,2.557057,1.696277
5519.051000000,0.428462,1.070906,-0.086455,-1.205312,0.235956,2.557094,1.662363
5519.069000000,0.428517,1.070980,-0.086361,-1.205310,0.194852,2.557051,1.673383
5519.080000000,0.428457,1.070908,-0.086457,-1.205307,0.235957,2.557096,1.662368
5519.104000000,0.428483,1.070917,-0.086501,-1.205298,0.197757,2.557085,1.652563
5519.114000000,0.428460,1.070906,-0.086460,-1.205310,0.235953,2.557097,1.662367
5519.137000000,0.428345,1.070865,-0.086477,-1.205242,0.198495,2.557089,1.642741
5519.146000000,0.428460,1.070911,-0.086460,-1.205310,0.235957,2.557098,1.662370
5519.172000000,0.428377,1.070815,-0.086564,-1.205272,0.200127,2.557116,1.634904
5519.181000000,0.428457,1.070908,-0.086457,-1.205305,0.235956,2.557097,1.662369
5519.206000000,0.428380,1.070818,-0.086572,-1.205249,0.200791,2.557131,1.634935
5519.215000000,0.428457,1.070908,-0.086455,-1.205315,0.235952,2.557096,1.662363
5519.240000000,0.428329,1.070818,-0.086498,-1.205218,0.200497,2.557125,1.642202
5519.247000000,0.428462,1.070903,-0.086455,-1.205307,0.235957,2.557097,1.662361
5519.273000000,0.428350,1.070819,-0.086468,-1.205232,0.200754,2.557130,1.653147
5519.281000000,0.428462,1.070908,-0.086460,-1.205312,0.235953,2.557096,1.662360
5519.308000000,0.428465,1.070843,-0.086529,-1.205261,0.201592,2.557144,1.668120
5519.312000000,0.428457,1.070911,-0.086460,-1.205307,0.235956,2.557102,1.662358
5519.342000000,0.428482,1.070852,-0.086498,-1.205285,0.201696,2.557136,1.686092
5519.345000000,0.428460,1.070913,-0.086460,-1.205312,0.235951,2.557098,1.662358
5519.375000000,0.428460,1.070911,-0.086457,-1.205307,0.235957,2.557094,1.662359
5519.376000000,0.428498,1.070865,-0.086491,-1.205307,0.201721,2.557117,1.701274
5519.409000000,0.428413,1.070881,-0.086416,-1.205284,0.200557,2.557069,1.715922
5519.413000000,0.428462,1.070906,-0.086457,-1.205310,0.235952,2.557096,1.662369
5519.443000000,0.428344,1.070877,-0.086509,-1.205324,0.194586,2.557112,1.730593
5519.448000000,0.428462,1.070908,-0.086457,-1.205307,0.235954,2.557096,1.662359
5519.478000000,0.428528,1.070941,-0.086494,-1.205339,0.198651,2.557101,1.725357
5519.484000000,0.428462,1.070906,-0.086460,-1.205310,0.235958,2.557099,1.662364
5519.512000000,0.428556,1.070953,-0.086459,-1.205342,0.199989,2.557108,1.729392
5519.519000000,0.428462,1.070908,-0.086457,-1.205307,0.235956,2.557095,1.662367
5519.547000000,0.428501,1.070954,-0.086401,-1.205298,0.200187,2.557068,1.738912
5519.553000000,0.428460,1.070906,-0.086460,-1.205312,0.235954,2.557098,1.662369
5519.582000000,0.428548,1.070927,-0.086463,-1.205342,0.201289,2.557094,1.744092
5519.587000000,0.428460,1.070906,-0.086462,-1.205307,0.235955,2.557100,1.662366
5519.617000000,0.428452,1.070923,-0.086404,-1.205299,0.200848,2.557067,1.751922
5519.621000000,0.428462,1.070906,-0.086460,-1.205310,0.235957,2.557099,1.662373
5519.651000000,0.428436,1.070906,-0.086423,-1.205302,0.200960,2.557062,1.757033
5519.655000000,0.428465,1.070908,-0.086457,-1.205305,0.235957,2.557095,1.662367
5519.685000000,0.428425,1.070916,-0.086437,-1.205283,0.200976,2.557065,1.761370
5519.689000000,0.428462,1.070908,-0.086457,-1.205312,0.235953,2.557099,1.662367
5519.719000000,0.428407,1.070905,-0.086428,-1.205289,0.200951,2.557069,1.765103
5519.723000000,0.428462,1.070900,-0.086460,-1.205305,0.235956,2.557093,1.662367
5519.754000000,0.428410,1.070895,-0.086440,-1.205297,0.200926,2.557065,1.768255
5519.757000000,0.428457,1.070903,-0.086455,-1.205310,0.235956,2.557094,1.662368
5519.788000000,0.428472,1.070904,-0.086490,-1.205322,0.201541,2.557106,1.769218
5519.790000000,0.428460,1.070908,-0.086460,-1.205307,0.235958,2.557100,1.662364
5519.822000000,0.428480,1.070895,-0.086495,-1.205331,0.201511,2.557099,1.771506
5519.825000000,0.428460,1.070911,-0.086457,-1.205307,0.235958,2.557097,1.662367
5519.857000000,0.428413,1.070905,-0.086424,-1.205289,0.200796,2.557068,1.775349
5519.859000000,0.428462,1.070906,-0.086460,-1.205307,0.235956,2.557096,1.662369
5519.892000000,0.428493,1.070916,-0.086494,-1.205314,0.201450,2.557103,1.775226
5519.893000000,0.428460,1.070913,-0.086457,-1.205310,0.235957,2.557094,1.662357
5519.926000000,0.428491,1.070911,-0.086482,-1.205323,0.201413,2.557110,1.776663
5519.927000000,0.428460,1.070906,-0.086460,-1.205310,0.235956,2.557097,1.662362
5519.961000000,0.428435,1.070919,-0.086432,-1.205281,0.200698,2.557064,1.779736
5519.961000000,0.428460,1.070903,-0.086457,-1.205312,0.235957,2.557095,1.662367
5519.994000000,0.428504,1.070919,-0.086492,-1.205318,0.201369,2.557106,1.778862
5519.995000000,0.428462,1.070901,-0.086457,-1.205305,0.235953,2.557096,1.662368
5520.029000000,0.428434,1.070902,-0.086427,-1.205299,0.200655,2.557064,1.781553
5520.029000000,0.428460,1.070906,-0.086457,-1.205308,0.235952,2.557097,1.662368
5520.063000000,0.428437,1.070917,-0.086429,-1.205282,0.200631,2.557063,1.782268
5520.063000000,0.428462,1.070908,-0.086460,-1.205312,0.235954,2.557095,1.662369
5520.097000000,0.428429,1.070908,-0.086417,-1.205290,0.200621,2.557068,1.782867
5520.097000000,0.428465,1.070906,-0.086455,-1.205312,0.235954,2.557096,1.662358
5520.125000000,0.428462,1.070908,-0.086460,-1.205312,0.235957,2.557097,1.662368
5520.131000000,0.428242,1.070852,-0.086464,-1.205249,0.192965,2.557029,1.793089
5520.151000000,0.428457,1.070908,-0.086455,-1.205310,0.235955,2.557098,1.662370
5520.164000000,0.428165,1.070796,-0.086600,-1.205256,0.182366,2.557085,1.809783
5520.174000000,0.428462,1.070908,-0.086457,-1.205310,0.235953,2.557096,1.662370
5520.199000000,0.428462,1.070906,-0.086457,-1.205307,0.235958,2.557096,1.662362
5520.199000000,0.428029,1.070766,-0.086586,-1.205196,0.169980,2.557055,1.836187
5520.234000000,0.428056,1.070747,-0.086673,-1.205203,0.158402,2.557113,1.864622
5520.237000000,0.428460,1.070908,-0.086460,-1.205312,0.235955,2.557098,1.662362
5520.267000000,0.428039,1.070766,-0.086574,-1.205178,0.150523,2.557029,1.881759
5520.273000000,0.428462,1.070908,-0.086455,-1.205307,0.235953,2.557100,1.662360
5520.302000000,0.428641,1.070963,-0.086406,-1.205386,0.168226,2.557105,1.839248
5520.307000000,0.428462,1.070908,-0.086460,-1.205312,0.235956,2.557098,1.662368
5520.335000000,0.428769,1.071071,-0.086241,-1.205355,0.179452,2.557022,1.807843
5520.341000000,0.428460,1.070908,-0.086460,-1.205315,0.235958,2.557095,1.662360
5520.370000000,0.428746,1.071063,-0.086228,-1.205350,0.186979,2.557025,1.785400
5520.373000000,0.428465,1.070908,-0.086455,-1.205307,0.235956,2.557093,1.662367
5520.405000000,0.428713,1.071021,-0.086360,-1.205348,0.192549,2.557072,1.769241
5520.410000000,0.428462,1.070910,-0.086460,-1.205312,0.235956,2.557095,1.662358
5520.439000000,0.428579,1.070952,-0.086420,-1.205323,0.195571,2.557091,1.762684
5520.444000000,0.428462,1.070906,-0.086457,-1.205310,0.235957,2.557093,1.662355
5520.471000000,0.428462,1.070906,-0.086457,-1.205307,0.235957,2.557097,1.662364
5520.473000000,0.428413,1.070899,-0.086437,-1.205258,0.196935,2.557065,1.763938
5520.503000000,0.428462,1.070906,-0.086457,-1.205310,0.235958,2.557097,1.662368
5520.507000000,0.428392,1.070861,-0.086529,-1.205273,0.198574,2.557098,1.763903
5520.537000000,0.428464,1.070908,-0.086455,-1.205307,0.235956,2.557094,1.662367
5520.542000000,0.428049,1.070759,-0.086589,-1.205196,0.187392,2.557062,1.782383
5520.571000000,0.428460,1.070906,-0.086457,-1.205310,0.235958,2.557097,1.662368
5520.575000000,0.427986,1.070736,-0.086653,-1.205163,0.178582,2.557075,1.802494
5520.603000000,0.428457,1.070908,-0.086457,-1.205310,0.235954,2.557095,1.662364
5520.610000000,0.427932,1.070707,-0.086649,-1.205150,0.168854,2.557075,1.828417
5520.635000000,0.428473,1.070911,-0.086457,-1.205312,0.235953,2.557094,1.662371
5520.644000000,0.427919,1.070688,-0.086659,-1.205143,0.159204,2.557062,1.856270
5520.668000000,0.428457,1.070911,-0.086462,-1.205312,0.235955,2.557095,1.662367
5520.678000000,0.427906,1.070696,-0.086657,-1.205115,0.149361,2.557050,1.885098
5520.703000000,0.428462,1.070906,-0.086460,-1.205307,0.235957,2.557092,1.662354
5520.711000000,0.427960,1.070689,-0.086712,-1.205150,0.140363,2.557117,1.912257
5520.737000000,0.428465,1.070903,-0.086460,-1.205307,0.235957,2.557094,1.662369
5520.745000000,0.427946,1.070678,-0.086702,-1.205149,0.130312,2.557123,1.942959
5520.773000000,0.428454,1.070906,-0.086455,-1.205315,0.235954,2.557099,1.662370
5520.780000000,0.427897,1.070683,-0.086670,-1.205096,0.119420,2.557038,1.976487
5520.806000000,0.428462,1.070908,-0.086455,-1.205307,0.235956,2.557095,1.662366
5520.813000000,0.427961,1.070678,-0.086729,-1.205140,0.110152,2.557141,2.005857
5520.839000000,0.428465,1.070911,-0.086457,-1.205310,0.235954,2.557095,1.662368
5520.848000000,0.427887,1.070661,-0.086671,-1.205098,0.098727,2.557021,2.041628
5520.872000000,0.428457,1.070911,-0.086457,-1.205312,0.235954,2.557096,1.662365
5520.881000000,0.427952,1.070655,-0.086730,-1.205147,0.089260,2.557141,2.071778
5520.906000000,0.428465,1.070906,-0.086457,-1.205310,0.235954,2.557096,1.662367
5520.916000000,0.427877,1.070660,-0.086667,-1.205084,0.077565,2.557007,2.108899
5520.939000000,0.428457,1.070906,-0.086457,-1.205305,0.235957,2.557097,1.662361
5520.951000000,0.427950,1.070659,-0.086739,-1.205130,0.067164,2.557148,2.142754
5520.972000000,0.428465,1.070903,-0.086460,-1.205310,0.235952,2.557095,1.662363
5520.985000000,0.427935,1.070647,-0.086728,-1.205132,0.056107,2.557155,2.178195
5521.007000000,0.428460,1.070903,-0.086457,-1.205310,0.235958,2.557100,1.662370
5521.019000000,0.427944,1.070631,-0.086749,-1.205146,0.044978,2.557177,2.214030
5521.040000000,0.428457,1.070911,-0.086457,-1.205312,0.235958,2.557093,1.662357
5521.053000000,0.427954,1.070641,-0.086764,-1.205139,0.033738,2.557208,2.250410
5521.073000000,0.428465,1.070908,-0.086455,-1.205310,0.235952,2.557095,1.662360
5521.087000000,0.427952,1.070628,-0.086764,-1.205153,0.022317,2.557241,2.287082
5521.108000000,0.428457,1.070911,-0.086457,-1.205310,0.235955,2.557095,1.662365
5521.120000000,0.427891,1.070628,-0.086717,-1.205086,0.010351,2.557057,2.325314
5521.142000000,0.428465,1.070911,-0.086457,-1.205312,0.235958,2.557094,1.662369
5521.154000000,0.427892,1.070616,-0.086722,-1.205088,-0.001426,2.557036,2.363066
5521.175000000,0.428460,1.070906,-0.086455,-1.205305,0.235956,2.557096,1.662364
5521.189000000,0.427943,1.070614,-0.086761,-1.205141,-0.013037,2.557231,2.400806
5521.209000000,0.428462,1.070911,-0.086455,-1.205310,0.235952,2.557095,1.662366
5521.224000000,0.427881,1.070620,-0.086721,-1.205056,-0.026204,2.556997,2.442584
5521.241000000,0.428465,1.070906,-0.086455,-1.205310,0.235957,2.557094,1.662366
5521.259000000,0.427863,1.070607,-0.086707,-1.205050,-0.038645,2.556968,2.482271
5521.270000000,0.428462,1.070906,-0.086457,-1.205307,0.235958,2.557095,1.662368
5521.293000000,0.427924,1.070602,-0.086771,-1.205106,-0.050980,2.557190,2.522011
5521.305000000,0.428457,1.070908,-0.086457,-1.205307,0.235954,2.557095,1.662366
5521.326000000,0.427854,1.070603,-0.086720,-1.205019,-0.064141,2.556926,2.563540
5521.339000000,0.428462,1.070911,-0.086460,-1.205310,0.235957,2.557099,1.662361
5521.361000000,0.427913,1.070574,-0.086775,-1.205108,-0.076806,2.557189,2.604105
5521.373000000,0.428460,1.070908,-0.086457,-1.205307,0.235958,2.557095,1.662370
5521.395000000,0.427920,1.070581,-0.086792,-1.205101,-0.089886,2.557229,2.645662
5521.408000000,0.428462,1.070906,-0.086457,-1.205312,0.235953,2.557096,1.662358
5521.430000000,0.427852,1.070565,-0.086738,-1.205030,-0.104319,2.556948,2.690934
5521.442000000,0.428465,1.070911,-0.086455,-1.205307,0.235956,2.557096,1.662370
5521.464000000,0.427845,1.070574,-0.086733,-1.204996,-0.118044,2.556893,2.734093
5521.476000000,0.428455,1.070908,-0.086457,-1.205307,0.235959,2.557098,1.662359
5521.498000000,0.427821,1.070561,-0.086711,-1.204977,-0.132031,2.556821,2.778031
5521.510000000,0.428460,1.070903,-0.086452,-1.205312,0.235957,2.557099,1.662365
5521.532000000,0.427809,1.070546,-0.086706,-1.204961,-0.146217,2.556747,2.822510
5521.544000000,0.428462,1.070910,-0.086460,-1.205310,0.235958,2.557099,1.662363
5521.566000000,0.427798,1.070555,-0.086695,-1.204923,-0.160508,2.556669,2.867277
5521.578000000,0.428462,1.070911,-0.086462,-1.205307,0.235957,2.557097,1.662359
5521.600000000,0.427877,1.070570,-0.086669,-1.205032,-0.171453,2.556844,2.897493
5521.613000000,0.428460,1.070906,-0.086460,-1.205312,0.235956,2.557097,1.662356
5521.634000000,0.429776,1.071663,-0.086016,-1.205837,-0.085623,2.557147,2.741282
5521.645000000,0.428457,1.070911,-0.086460,-1.205312,0.235957,2.557098,1.662367
5521.668000000,0.428902,1.071318,-0.086100,-1.205270,-0.093810,2.556608,2.802350
5521.679000000,0.428457,1.070908,-0.086455,-1.205310,0.235951,2.557099,1.662359
5521.702000000,0.430442,1.071981,-0.085598,-1.205932,-0.002328,2.557061,2.661185
5521.713000000,0.428462,1.070911,-0.086455,-1.205312,0.235953,2.557093,1.662369
5521.736000000,0.430692,1.072085,-0.085256,-1.205811,0.073674,2.556868,2.540852
5521.744000000,0.428457,1.070903,-0.086457,-1.205312,0.235958,2.557096,1.662369
5521.770000000,0.430060,1.071687,-0.085406,-1.205661,0.125246,2.556820,2.397892
5521.779000000,0.428460,1.070908,-0.086457,-1.205307,0.235957,2.557096,1.662360
5521.804000000,0.429123,1.071199,-0.085922,-1.205406,0.159375,2.556784,2.252742
5521.813000000,0.428465,1.070906,-0.086455,-1.205312,0.235953,2.557097,1.662361
5521.837000000,0.428302,1.070776,-0.086453,-1.205221,0.182850,2.556927,2.150140
5521.847000000,0.428457,1.070900,-0.086457,-1.205310,0.235956,2.557097,1.662368
5521.872000000,0.427394,1.070410,-0.086875,-1.205038,0.191274,2.556914,2.062219
5521.881000000,0.428462,1.070903,-0.086460,-1.205312,0.235958,2.557098,1.662368
5521.906000000,0.426968,1.070254,-0.087151,-1.204962,0.195412,2.557005,1.987033
5521.915000000,0.428468,1.070908,-0.086462,-1.205312,0.235957,2.557095,1.662356
5521.941000000,0.426954,1.070223,-0.087276,-1.205021,0.198574,2.557138,1.916577
5521.948000000,0.428460,1.070906,-0.086459,-1.205307,0.235958,2.557095,1.662359
5521.974000000,0.427056,1.070309,-0.087157,-1.205025,0.199317,2.557104,1.861103
5521.982000000,0.428457,1.070906,-0.086455,-1.205307,0.235957,2.557101,1.662367
5522.008000000,0.427360,1.070461,-0.087011,-1.205067,0.200085,2.557118,1.809244
5522.015000000,0.428465,1.070906,-0.086460,-1.205312,0.235957,2.557096,1.662367
5522.043000000,0.427779,1.070597,-0.086883,-1.205180,0.201226,2.557157,1.761616
5522.050000000,0.428462,1.070906,-0.086457,-1.205307,0.235958,2.557096,1.662370
5522.076000000,0.428029,1.070722,-0.086659,-1.205200,0.200823,2.557121,1.728061
5522.084000000,0.428462,1.070905,-0.086457,-1.205307,0.235956,2.557097,1.662369
5522.110000000,0.428299,1.070838,-0.086520,-1.205226,0.200980,2.557114,1.698571
5522.118000000,0.428465,1.070906,-0.086457,-1.205310,0.235955,2.557099,1.662363
5522.145000000,0.428557,1.070892,-0.086476,-1.205301,0.201739,2.557124,1.672697
5522.151000000,0.428462,1.070906,-0.086455,-1.205308,0.235957,2.557095,1.662359
5522.179000000,0.428462,1.070906,-0.086457,-1.205315,0.235956,2.557095,1.662359
5522.180000000,0.428599,1.070936,-0.086341,-1.205279,0.201143,2.557110,1.656668
5522.213000000,0.428676,1.070944,-0.086369,-1.205299,0.200763,2.557105,1.644611
5522.214000000,0.428462,1.070908,-0.086457,-1.205312,0.235957,2.557097,1.662366
5522.248000000,0.428610,1.070916,-0.086361,-1.205282,0.195900,2.557138,1.644199
5522.249000000,0.428462,1.070908,-0.086462,-1.205307,0.235959,2.557097,1.662364
5522.283000000,0.428759,1.070954,-0.086378,-1.205300,0.198979,2.557134,1.639812
5522.283000000,0.428462,1.070908,-0.086455,-1.205310,0.235958,2.557097,1.662357
5522.317000000,0.428745,1.070941,-0.086366,-1.205306,0.200310,2.557135,1.643712
5522.318000000,0.428460,1.070906,-0.086460,-1.205312,0.235956,2.557101,1.662362
5522.351000000,0.428703,1.070914,-0.086395,-1.205309,0.201103,2.557128,1.653412
5522.351000000,0.428462,1.070906,-0.086455,-1.205307,0.235954,2.557095,1.662370
5522.384000000,0.428462,1.070911,-0.086457,-1.205305,0.235953,2.557099,1.662363
5522.385000000,0.428648,1.070912,-0.086433,-1.205288,0.201576,2.557136,1.668611
5522.418000000,0.428457,1.070908,-0.086457,-1.205312,0.235954,2.557096,1.662357
5522.419000000,0.428511,1.070873,-0.086450,-1.205280,0.199541,2.557105,1.687832
5522.452000000,0.428460,1.070911,-0.086460,-1.205310,0.235953,2.557098,1.662361
5522.453000000,0.428302,1.070808,-0.086588,-1.205275,0.188975,2.557108,1.704410
5522.479000000,0.428460,1.070908,-0.086460,-1.205310,0.235956,2.557095,1.662364
5522.490000000,0.428154,1.070798,-0.086592,-1.205214,0.177673,2.557094,1.727200
5522.515000000,0.428465,1.070911,-0.086460,-1.205307,0.235955,2.557098,1.662365
5522.524000000,0.428098,1.070772,-0.086601,-1.205205,0.167155,2.557096,1.751792
5522.548000000,0.428457,1.070906,-0.086455,-1.205310,0.235956,2.557099,1.662359
5522.558000000,0.428071,1.070750,-0.086612,-1.205195,0.156392,2.557083,1.779114
5522.581000000,0.428460,1.070911,-0.086457,-1.205312,0.235958,2.557095,1.662361
5522.592000000,0.428052,1.070755,-0.086614,-1.205166,0.145416,2.557074,1.807469
5522.614000000,0.428460,1.070903,-0.086457,-1.205312,0.235956,2.557100,1.662359
5522.625000000,0.428025,1.070738,-0.086599,-1.205159,0.134241,2.557064,1.838071
5522.647000000,0.428462,1.070911,-0.086460,-1.205305,0.235958,2.557095,1.662367
5522.659000000,0.428079,1.070731,-0.086655,-1.205187,0.123968,2.557127,1.867030
5522.681000000,0.428465,1.070911,-0.086457,-1.205312,0.235956,2.557098,1.662370
5522.693000000,0.428083,1.070713,-0.086668,-1.205195,0.112750,2.557130,1.900029
5522.712000000,0.428457,1.070911,-0.086460,-1.205307,0.235956,2.557098,1.662358
5522.728000000,0.428017,1.070715,-0.086614,-1.205144,0.100364,2.557059,1.936362
5522.746000000,0.428460,1.070906,-0.086460,-1.205312,0.235953,2.557095,1.662361
5522.762000000,0.428010,1.070699,-0.086615,-1.205140,0.088605,2.557035,1.972128
5522.780000000,0.428465,1.070911,-0.086462,-1.205310,0.235956,2.557096,1.662367
5522.796000000,0.428001,1.070707,-0.086614,-1.205110,0.076586,2.557011,2.009030
5522.814000000,0.428462,1.070906,-0.086460,-1.205312,0.235958,2.557099,1.662367
5522.829000000,0.428054,1.070698,-0.086668,-1.205148,0.065421,2.557110,2.043872
5522.847000000,0.428457,1.070911,-0.086457,-1.205310,0.235954,2.557097,1.662359
5522.864000000,0.427989,1.070680,-0.086618,-1.205108,0.052334,2.556991,2.084546
5522.881000000,0.428460,1.070911,-0.086457,-1.205312,0.235957,2.557096,1.662368
5522.898000000,0.427980,1.070689,-0.086617,-1.205078,0.039791,2.556959,2.123416
5522.916000000,0.428457,1.070906,-0.086455,-1.205312,0.235956,2.557095,1.662367
5522.932000000,0.427956,1.070676,-0.086599,-1.205067,0.026999,2.556925,2.163728
5522.950000000,0.428462,1.070908,-0.086457,-1.205305,0.235957,2.557100,1.662357
5522.966000000,0.427946,1.070661,-0.086600,-1.205058,0.014090,2.556885,2.204480
5522.984000000,0.428460,1.070906,-0.086460,-1.205310,0.235957,2.557098,1.662361
5522.999000000,0.427996,1.070647,-0.086650,-1.205110,0.002021,2.557032,2.243050
5523.019000000,0.428462,1.070908,-0.086455,-1.205310,0.235956,2.557096,1.662359
5523.033000000,0.428006,1.070653,-0.086669,-1.205105,-0.010972,2.557067,2.284312
5523.053000000,0.428457,1.070903,-0.086455,-1.205312,0.235954,2.557097,1.662361
5523.068000000,0.427941,1.070636,-0.086619,-1.205052,-0.025198,2.556881,2.329132
5523.086000000,0.428460,1.070911,-0.086456,-1.205310,0.235958,2.557098,1.662362
5523.104000000,0.429801,1.071541,-0.085821,-1.205701,0.059271,2.556995,2.157369
5523.120000000,0.428465,1.070911,-0.086457,-1.205307,0.235956,2.557093,1.662362
5523.138000000,0.430136,1.071749,-0.085569,-1.205716,0.115011,2.556932,2.025191
5523.153000000,0.428462,1.070908,-0.086457,-1.205312,0.235958,2.557095,1.662361
5523.172000000,0.429675,1.071547,-0.085752,-1.205583,0.148531,2.556884,1.918132
5523.186000000,0.428462,1.070903,-0.086460,-1.205307,0.235957,2.557098,1.662365
5523.206000000,0.428981,1.071200,-0.086146,-1.205422,0.168238,2.556923,1.841033
5523.221000000,0.428462,1.070908,-0.086457,-1.205307,0.235952,2.557098,1.662367
5523.240000000,0.428340,1.070899,-0.086511,-1.205259,0.180522,2.556991,1.781904
5523.254000000,0.428462,1.070908,-0.086455,-1.205307,0.235958,2.557094,1.662368
5523.274000000,0.427877,1.070658,-0.086762,-1.205168,0.188173,2.557059,1.738477
5523.288000000,0.428468,1.070906,-0.086457,-1.205307,0.235953,2.557098,1.662364
5523.308000000,0.427650,1.070520,-0.086915,-1.205127,0.193170,2.557103,1.703945
5523.321000000,0.428462,1.070911,-0.086458,-1.205310,0.235954,2.557094,1.662366
5523.343000000,0.427614,1.070501,-0.086959,-1.205101,0.196471,2.557141,1.677220
5523.355000000,0.428462,1.070903,-0.086457,-1.205307,0.235955,2.557100,1.662369
5523.376000000,0.427696,1.070524,-0.086908,-1.205124,0.198433,2.557161,1.657766
5523.388000000,0.428465,1.070906,-0.086457,-1.205312,0.235956,2.557097,1.662369
5523.410000000,0.427871,1.070583,-0.086829,-1.205164,0.199752,2.557158,1.644782
5523.422000000,0.428460,1.070908,-0.086460,-1.205305,0.235958,2.557096,1.662359
5523.444000000,0.428077,1.070682,-0.086732,-1.205186,0.200627,2.557160,1.637908
5523.455000000,0.428460,1.070906,-0.086455,-1.205305,0.235955,2.557093,1.662357
5523.477000000,0.428190,1.070760,-0.086570,-1.205189,0.200449,2.557140,1.638679
5523.488000000,0.428468,1.070911,-0.086455,-1.205307,0.235956,2.557097,1.662363
5523.512000000,0.428337,1.070820,-0.086473,-1.205227,0.200775,2.557135,1.643091
5523.522000000,0.428457,1.070906,-0.086457,-1.205307,0.235958,2.557094,1.662369
5523.547000000,0.428457,1.070872,-0.086411,-1.205250,0.200972,2.557127,1.653674
5523.556000000,0.428460,1.070903,-0.086457,-1.205312,0.235953,2.557099,1.662369
5523.582000000,0.428605,1.070911,-0.086453,-1.205287,0.201753,2.557135,1.667791
5523.589000000,0.428465,1.070906,-0.086455,-1.205310,0.235953,2.557096,1.662358
5523.616000000,0.428621,1.070918,-0.086421,-1.205310,0.201796,2.557127,1.685696
5523.622000000,0.428457,1.070908,-0.086462,-1.205310,0.235956,2.557098,1.662361
5523.651000000,0.428552,1.070934,-0.086367,-1.205284,0.201152,2.557084,1.703080
5523.656000000,0.428462,1.070906,-0.086455,-1.205305,0.235955,2.557099,1.662370
5523.685000000,0.428517,1.070933,-0.086366,-1.205299,0.201144,2.557080,1.715831
5523.690000000,0.428457,1.070908,-0.086457,-1.205310,0.235956,2.557096,1.662367
5523.719000000,0.428488,1.070926,-0.086390,-1.205310,0.201126,2.557067,1.726653
5523.724000000,0.428462,1.070908,-0.086457,-1.205305,0.235954,2.557095,1.662365
5523.753000000,0.428462,1.070942,-0.086412,-1.205295,0.201072,2.557065,1.735873
5523.757000000,0.428465,1.070906,-0.086455,-1.205307,0.235957,2.557099,1.662361
5523.788000000,0.428428,1.070931,-0.086411,-1.205301,0.201015,2.557067,1.743625
5523.788000000,0.428457,1.070908,-0.086460,-1.205312,0.235953,2.557098,1.662368
5523.821000000,0.428418,1.070918,-0.086431,-1.205309,0.200975,2.557063,1.750137
5523.823000000,0.428460,1.070906,-0.086455,-1.205310,0.235958,2.557096,1.662368
5523.854000000,0.428475,1.070914,-0.086495,-1.205341,0.201600,2.557093,1.753694
5523.858000000,0.428462,1.070911,-0.086460,-1.205305,0.235956,2.557095,1.662362
5523.888000000,0.428475,1.070927,-0.086500,-1.205323,0.201573,2.557096,1.758414
5523.892000000,0.428465,1.070908,-0.086460,-1.205312,0.235956,2.557095,1.662359
5523.923000000,0.428406,1.070907,-0.086437,-1.205303,0.200852,2.557059,1.764355
5523.925000000,0.428468,1.070906,-0.086452,-1.205312,0.235957,2.557095,1.662366
5523.958000000,0.428476,1.070914,-0.086489,-1.205328,0.201488,2.557105,1.766004
5523.959000000,0.428457,1.070903,-0.086457,-1.205310,0.235952,2.557099,1.662358
5523.992000000,0.428485,1.070903,-0.086492,-1.205335,0.201424,2.557097,1.768920
5523.993000000,0.428462,1.070908,-0.086457,-1.205310,0.235957,2.557093,1.662367
5524.026000000,0.428465,1.070906,-0.086457,-1.205312,0.235956,2.557097,1.662363
5524.028000000,0.428419,1.070910,-0.086420,-1.205292,0.200729,2.557066,1.773166
5524.055000000,0.428457,1.070906,-0.086457,-1.205312,0.235959,2.557098,1.662367
5524.062000000,0.428282,1.070867,-0.086441,-1.205258,0.195372,2.557024,1.781918
5524.087000000,0.428462,1.070908,-0.086460,-1.205307,0.235959,2.557099,1.662368
5524.096000000,0.428179,1.070814,-0.086583,-1.205254,0.184218,2.557088,1.800421
5524.121000000,0.428462,1.070906,-0.086455,-1.205310,0.235955,2.557096,1.662364
5524.131000000,0.428050,1.070783,-0.086588,-1.205191,0.171976,2.557048,1.827660
5524.148000000,0.428462,1.070905,-0.086460,-1.205307,0.235956,2.557101,1.662363
5524.164000000,0.428079,1.070761,-0.086665,-1.205207,0.161548,2.557110,1.854696
5524.180000000,0.428454,1.070908,-0.086457,-1.205310,0.235958,2.557101,1.662368
5524.198000000,0.428057,1.070735,-0.086675,-1.205205,0.149970,2.557129,1.888014
5524.215000000,0.428460,1.070906,-0.086455,-1.205310,0.235956,2.557094,1.662366
5524.233000000,0.427994,1.070728,-0.086647,-1.205151,0.137162,2.557060,1.925512
5524.248000000,0.428460,1.070908,-0.086457,-1.205310,0.235958,2.557095,1.662362
5524.266000000,0.428044,1.070718,-0.086703,-1.205179,0.126008,2.557136,1.958696
5524.280000000,0.428465,1.070911,-0.086457,-1.205307,0.235957,2.557097,1.662366
5524.300000000,0.428038,1.070702,-0.086706,-1.205186,0.113860,2.557158,1.995728
5524.313000000,0.428468,1.070903,-0.086455,-1.205310,0.235954,2.557095,1.662362
5524.335000000,0.428775,1.071043,-0.086313,-1.205412,0.141181,2.557037,1.920032
5524.348000000,0.428462,1.070911,-0.086457,-1.205312,0.235952,2.557096,1.662367
5524.369000000,0.429023,1.071203,-0.086105,-1.205445,0.162388,2.556982,1.852175
5524.382000000,0.428460,1.070906,-0.086457,-1.205310,0.235958,2.557097,1.662359
5524.403000000,0.429029,1.071202,-0.086197,-1.205447,0.176976,2.557023,1.794951
5524.418000000,0.428465,1.070908,-0.086457,-1.205302,0.235955,2.557095,1.662360
5524.437000000,0.428811,1.071105,-0.086294,-1.205401,0.185703,2.557036,1.752156
5524.445000000,0.428460,1.070908,-0.086460,-1.205312,0.235959,2.557096,1.662360
5524.471000000,0.428581,1.070984,-0.086428,-1.205350,0.191263,2.557047,1.718612
5524.480000000,0.428468,1.070911,-0.086457,-1.205307,0.235951,2.557098,1.662365
5524.505000000,0.428395,1.070898,-0.086542,-1.205288,0.194789,2.557077,1.693093
5524.513000000,0.428460,1.070913,-0.086460,-1.205312,0.235954,2.557098,1.662363
5524.539000000,0.428268,1.070820,-0.086598,-1.205261,0.197145,2.557104,1.674625
5524.548000000,0.428460,1.070906,-0.086460,-1.205315,0.235954,2.557099,1.662369
5524.573000000,0.428228,1.070771,-0.086639,-1.205252,0.198729,2.557117,1.662718
5524.582000000,0.428465,1.070909,-0.086452,-1.205310,0.235954,2.557098,1.662361
5524.607000000,0.428242,1.070774,-0.086645,-1.205233,0.199809,2.557135,1.656964
5524.615000000,0.428460,1.070908,-0.086455,-1.205310,0.235957,2.557098,1.662369
5524.641000000,0.428276,1.070774,-0.086609,-1.205242,0.200458,2.557146,1.657144
5524.649000000,0.428460,1.070908,-0.086457,-1.205307,0.235955,2.557097,1.662368
5524.675000000,0.428343,1.070784,-0.086583,-1.205258,0.200908,2.557141,1.662934
5524.683000000,0.428462,1.070906,-0.086460,-1.205310,0.235954,2.557094,1.662368
5524.709000000,0.428415,1.070825,-0.086555,-1.205252,0.201224,2.557147,1.674145
5524.719000000,0.428460,1.070906,-0.086460,-1.205310,0.235960,2.557097,1.662371
5524.744000000,0.428399,1.070831,-0.086455,-1.205251,0.200731,2.557116,1.692264
5524.753000000,0.428465,1.070908,-0.086460,-1.205307,0.235956,2.557097,1.662356
5524.778000000,0.428438,1.070872,-0.086434,-1.205254,0.200851,2.557100,1.706753
5524.787000000,0.428462,1.070908,-0.086457,-1.205315,0.235956,2.557097,1.662358
5524.813000000,0.428521,1.070881,-0.086479,-1.205318,0.201592,2.557111,1.717439
5524.822000000,0.428460,1.070908,-0.086457,-1.205310,0.235954,2.557098,1.662362
5524.846000000,0.428457,1.070900,-0.086410,-1.205299,0.200953,2.557075,1.729237
5524.855000000,0.428462,1.070903,-0.086457,-1.205312,0.235956,2.557099,1.662358
5524.877000000,0.428462,1.070903,-0.086460,-1.205312,0.235957,2.557100,1.662364
5524.881000000,0.428519,1.070925,-0.086466,-1.205332,0.201625,2.557108,1.736401
5524.911000000,0.428460,1.070906,-0.086457,-1.205310,0.235957,2.557095,1.662369
5524.915000000,0.428455,1.070909,-0.086477,-1.205325,0.199535,2.557075,1.746535
5524.946000000,0.428465,1.070911,-0.086455,-1.205310,0.235957,2.557096,1.662363
5524.949000000,0.428286,1.070862,-0.086605,-1.205290,0.188445,2.557109,1.769584
5524.981000000,0.428462,1.070911,-0.086455,-1.205310,0.235957,2.557096,1.662369
5524.983000000,0.428228,1.070830,-0.086632,-1.205285,0.178879,2.557124,1.796137
5525.015000000,0.428457,1.070908,-0.086460,-1.205310,0.235956,2.557093,1.662361
5525.017000000,0.428211,1.070803,-0.086665,-1.205288,0.168828,2.557128,1.824781
5525.040000000,0.428462,1.070906,-0.086460,-1.205307,0.235953,2.557100,1.662361
5525.050000000,0.428137,1.070793,-0.086623,-1.205248,0.158198,2.557078,1.856077
5525.065000000,0.428465,1.070903,-0.086457,-1.205307,0.235955,2.557097,1.662368
5525.085000000,0.428456,1.070885,-0.086516,-1.205383,0.161608,2.557076,1.850818
5525.099000000,0.428462,1.070906,-0.086460,-1.205305,0.235957,2.557099,1.662362
5525.119000000,0.428473,1.070975,-0.086405,-1.205275,0.162354,2.557029,1.851619
5525.122000000,0.428457,1.070907,-0.086460,-1.205307,0.235954,2.557096,1.662369
5525.147000000,0.428460,1.070906,-0.086460,-1.205305,0.235953,2.557096,1.662369
5525.153000000,0.428670,1.070967,-0.086444,-1.205464,0.164952,2.557084,1.838437
5525.177000000,0.428465,1.070908,-0.086460,-1.205312,0.235956,2.557099,1.662365
5525.189000000,0.428566,1.071006,-0.086342,-1.205323,0.166446,2.557018,1.831613
5525.208000000,0.428462,1.070906,-0.086455,-1.205307,0.235956,2.557094,1.662363
5525.223000000,0.428357,1.070885,-0.086476,-1.205304,0.155095,2.557024,1.856948
5525.241000000,0.428460,1.070906,-0.086457,-1.205307,0.235953,2.557097,1.662359
5525.256000000,0.428322,1.070837,-0.086573,-1.205309,0.145535,2.557087,1.880329
5525.273000000,0.428462,1.070906,-0.086457,-1.205310,0.235952,2.557093,1.662360
5525.290000000,0.428207,1.070813,-0.086541,-1.205248,0.133855,2.557027,1.913046
5525.303000000,0.428460,1.070906,-0.086462,-1.205310,0.235956,2.557100,1.662365
5525.325000000,0.428245,1.070794,-0.086609,-1.205279,0.123860,2.557110,1.941350
5525.335000000,0.428462,1.070908,-0.086457,-1.205310,0.235956,2.557097,1.662365
5525.358000000,0.428237,1.070771,-0.086626,-1.205283,0.112807,2.557115,1.973959
5525.368000000,0.428462,1.070908,-0.086455,-1.205310,0.235956,2.557099,1.662359
5525.393000000,0.428167,1.070770,-0.086577,-1.205228,0.100604,2.557029,2.010291
5525.402000000,0.428462,1.070908,-0.086455,-1.205305,0.235952,2.557100,1.662363
5525.427000000,0.428156,1.070752,-0.086584,-1.205223,0.088927,2.557007,2.045472
5525.434000000,0.428462,1.070911,-0.086455,-1.205310,0.235956,2.557098,1.662367
5525.461000000,0.428144,1.070760,-0.086582,-1.205194,0.077053,2.556978,2.082007
5525.465000000,0.428460,1.070908,-0.086457,-1.205307,0.235957,2.557100,1.662357
5525.496000000,0.429155,1.071132,-0.086223,-1.205587,0.111842,2.557087,2.010366
5525.499000000,0.428460,1.070907,-0.086457,-1.205312,0.235959,2.557097,1.662366
5525.529000000,0.428870,1.071133,-0.086124,-1.205367,0.114387,2.556904,2.009903
5525.532000000,0.428462,1.070908,-0.086455,-1.205310,0.235954,2.557099,1.662365
5525.564000000,0.429244,1.071258,-0.086067,-1.205568,0.137581,2.556960,1.935025
5525.567000000,0.428454,1.070908,-0.086460,-1.205307,0.235956,2.557098,1.662364
5525.598000000,0.428799,1.071068,-0.086305,-1.205394,0.130755,2.557033,1.954582
5525.602000000,0.428465,1.070906,-0.086452,-1.205312,0.235957,2.557095,1.662361
5525.632000000,0.428515,1.070921,-0.086488,-1.205329,0.119347,2.557073,1.988444
5525.636000000,0.428460,1.070911,-0.086460,-1.205312,0.235956,2.557096,1.662365
5525.668000000,0.428294,1.070820,-0.086530,-1.205260,0.106706,2.556992,2.026571
5525.671000000,0.428460,1.070903,-0.086457,-1.205305,0.235957,2.557097,1.662368
5525.702000000,0.429017,1.071135,-0.086195,-1.205515,0.137184,2.557001,1.943940
5525.702000000,0.428462,1.070908,-0.086462,-1.205310,0.235956,2.557098,1.662360
5525.736000000,0.428457,1.070903,-0.086457,-1.205307,0.235956,2.557095,1.662365
5525.738000000,0.429255,1.071278,-0.086108,-1.205537,0.161879,2.557017,1.864013
5525.771000000,0.429066,1.071219,-0.086164,-1.205482,0.176431,2.557006,1.803353
5525.772000000,0.428462,1.070908,-0.086455,-1.205312,0.235958,2.557094,1.662367
5525.805000000,0.428460,1.070903,-0.086457,-1.205310,0.235954,2.557094,1.662363
5525.806000000,0.428517,1.070918,-0.086556,-1.205343,0.164047,2.557126,1.836917
5525.839000000,0.428574,1.070983,-0.086413,-1.205334,0.176861,2.557051,1.790247
5525.840000000,0.428457,1.070908,-0.086457,-1.205310,0.235956,2.557096,1.662369
5525.872000000,0.428262,1.070823,-0.086616,-1.205277,0.166777,2.557094,1.817998
5525.873000000,0.428465,1.070906,-0.086457,-1.205310,0.235956,2.557098,1.662368
5525.908000000,0.428460,1.070906,-0.086462,-1.205310,0.235953,2.557096,1.662359
5525.908000000,0.428454,1.070903,-0.086459,-1.205308,0.179564,2.557050,1.776970
5525.942000000,0.428460,1.070906,-0.086460,-1.205310,0.235957,2.557094,1.662367
5525.942000000,0.428423,1.070916,-0.086421,-1.205237,0.184880,2.557076,1.758618
5525.976000000,0.428330,1.070792,-0.086637,-1.205334,0.178278,2.557140,1.777374
5525.976000000,0.428460,1.070913,-0.086457,-1.205312,0.235956,2.557097,1.662358
5525.999000000,0.428460,1.070906,-0.086457,-1.205307,0.235956,2.557095,1.662365
5526.012000000,0.428446,1.070885,-0.086438,-1.205298,0.187440,2.557076,1.753538
5526.043000000,0.428460,1.070908,-0.086455,-1.205310,0.235955,2.557098,1.662363
5526.046000000,0.428488,1.070907,-0.086475,-1.205285,0.191302,2.557084,1.741475
5526.078000000,0.428460,1.070906,-0.086462,-1.205307,0.235952,2.557095,1.662367
5526.080000000,0.428231,1.070804,-0.086596,-1.205252,0.180927,2.557105,1.756035
5526.112000000,0.428468,1.070906,-0.086452,-1.205312,0.235956,2.557093,1.662365
5526.115000000,0.428090,1.070770,-0.086611,-1.205184,0.170931,2.557078,1.776997
5526.145000000,0.428462,1.070911,-0.086459,-1.205315,0.235954,2.557097,1.662366
5526.149000000,0.428041,1.070737,-0.086622,-1.205176,0.161207,2.557085,1.800612
5526.180000000,0.428462,1.070905,-0.086455,-1.205310,0.235956,2.557101,1.662365
5526.183000000,0.428018,1.070715,-0.086632,-1.205165,0.151198,2.557074,1.826687
5526.212000000,0.428462,1.070906,-0.086462,-1.205305,0.235952,2.557098,1.662357
5526.218000000,0.428001,1.070720,-0.086632,-1.205137,0.140985,2.557062,1.853778
5526.241000000,0.428462,1.070911,-0.086455,-1.205305,0.235954,2.557099,1.662367
5526.251000000,0.427979,1.070705,-0.086617,-1.205132,0.130664,2.557054,1.882797
5526.276000000,0.428462,1.070908,-0.086455,-1.205307,0.235955,2.557095,1.662362
5526.285000000,0.427970,1.070691,-0.086621,-1.205125,0.120205,2.557036,1.912602
5526.311000000,0.428457,1.070906,-0.086460,-1.205307,0.235958,2.557096,1.662370
5526.319000000,0.427959,1.070699,-0.086618,-1.205097,0.109472,2.557018,1.943991
5526.343000000,0.428460,1.070911,-0.086457,-1.205310,0.235957,2.557096,1.662359
5526.354000000,0.428008,1.070674,-0.086667,-1.205149,0.099002,2.557098,1.975422
5526.376000000,0.428462,1.070908,-0.086455,-1.205305,0.235954,2.557099,1.662362
5526.389000000,0.427934,1.070678,-0.086608,-1.205087,0.087073,2.556998,2.011539
5526.410000000,0.428462,1.070911,-0.086460,-1.205310,0.235956,2.557096,1.662369
5526.430000000,0.427999,1.070674,-0.086678,-1.205123,0.074212,2.557105,2.051420
5526.443000000,0.428460,1.070906,-0.086455,-1.205305,0.235957,2.557095,1.662360
5526.464000000,0.427980,1.070655,-0.086685,-1.205126,0.062174,2.557129,2.088265
5526.478000000,0.428462,1.070908,-0.086457,-1.205315,0.235952,2.557099,1.662369
5526.498000000,0.427980,1.070633,-0.086707,-1.205136,0.049859,2.557148,2.126894
5526.509000000,0.428457,1.070906,-0.086457,-1.205312,0.235956,2.557098,1.662361
5526.532000000,0.427984,1.070637,-0.086726,-1.205128,0.037358,2.557176,2.166283
5526.539000000,0.428460,1.070908,-0.086457,-1.205312,0.235957,2.557098,1.662367
5526.566000000,0.427982,1.070621,-0.086731,-1.205139,0.024695,2.557211,2.206293
5526.575000000,0.428457,1.070911,-0.086455,-1.205312,0.235959,2.557098,1.662360
5526.600000000,0.427927,1.070625,-0.086696,-1.205069,0.010745,2.557047,2.250209
5526.611000000,0.428468,1.070906,-0.086460,-1.205307,0.235952,2.557099,1.662369
5526.634000000,0.429622,1.071376,-0.086008,-1.205695,0.084390,2.557162,2.087287
5526.646000000,0.428462,1.070906,-0.086460,-1.205310,0.235957,2.557096,1.662359
5526.670000000,0.429846,1.071570,-0.085764,-1.205642,0.127859,2.557017,1.981031
5526.681000000,0.428462,1.070906,-0.086460,-1.205312,0.235953,2.557094,1.662371
5526.704000000,0.429484,1.071424,-0.085894,-1.205545,0.155736,2.556963,1.891274
5526.714000000,0.428460,1.070911,-0.086455,-1.205305,0.235958,2.557095,1.662359
5526.738000000,0.428925,1.071162,-0.086205,-1.205419,0.172781,2.556977,1.819818
5526.750000000,0.428465,1.070911,-0.086457,-1.205310,0.235954,2.557095,1.662368
5526.772000000,0.428396,1.070923,-0.086499,-1.205281,0.183174,2.557023,1.770446
5526.780000000,0.428462,1.070911,-0.086455,-1.205312,0.235952,2.557098,1.662366
5526.806000000,0.428014,1.070727,-0.086705,-1.205210,0.189955,2.557076,1.730928
5526.816000000,0.428465,1.070908,-0.086459,-1.205310,0.235954,2.557093,1.662366
5526.840000000,0.427816,1.070608,-0.086831,-1.205174,0.194290,2.557105,1.700012
5526.847000000,0.428457,1.070908,-0.086457,-1.205305,0.235957,2.557096,1.662366
5526.874000000,0.427780,1.070589,-0.086876,-1.205146,0.197103,2.557137,1.676656
5526.879000000,0.428465,1.070908,-0.086449,-1.205310,0.235956,2.557098,1.662369
5526.908000000,0.427838,1.070600,-0.086832,-1.205160,0.198819,2.557154,1.660266
5526.912000000,0.428460,1.070906,-0.086457,-1.205310,0.235951,2.557094,1.662368
5526.942000000,0.427980,1.070640,-0.086769,-1.205191,0.199968,2.557151,1.650205
5526.946000000,0.428457,1.070906,-0.086457,-1.205307,0.235957,2.557096,1.662360
5526.977000000,0.428074,1.070713,-0.086610,-1.205183,0.200053,2.557143,1.647938
5526.982000000,0.428462,1.070906,-0.086457,-1.205307,0.235952,2.557095,1.662368
5527.010000000,0.428235,1.070767,-0.086540,-1.205218,0.200504,2.557135,1.649808
5527.017000000,0.428457,1.070906,-0.086460,-1.205305,0.235957,2.557097,1.662368
5527.043000000,0.428457,1.070906,-0.086457,-1.205305,0.235953,2.557098,1.662366
5527.046000000,0.428431,1.070831,-0.086528,-1.205263,0.201439,2.557149,1.655685
5527.071000000,0.428462,1.070911,-0.086460,-1.205310,0.235958,2.557099,1.662368
5527.074000000,0.428489,1.070851,-0.086484,-1.205277,0.200464,2.557117,1.669321
5527.100000000,0.428454,1.070906,-0.086457,-1.205310,0.235952,2.557097,1.662365
5527.115000000,0.428243,1.070814,-0.086519,-1.205236,0.188051,2.557108,1.686673
5527.142000000,0.428465,1.070911,-0.086457,-1.205310,0.235955,2.557098,1.662369
5527.149000000,0.428202,1.070799,-0.086546,-1.205233,0.178955,2.557099,1.699678
5527.177000000,0.428462,1.070906,-0.086457,-1.205312,0.235955,2.557099,1.662360
5527.183000000,0.428175,1.070803,-0.086555,-1.205201,0.168907,2.557101,1.718696
5527.211000000,0.428460,1.070908,-0.086457,-1.205310,0.235954,2.557100,1.662368
5527.216000000,0.428229,1.070792,-0.086616,-1.205224,0.159844,2.557135,1.738981
5527.244000000,0.428462,1.070911,-0.086457,-1.205310,0.235956,2.557098,1.662361
5527.251000000,0.428156,1.070768,-0.086555,-1.205192,0.148805,2.557094,1.766489
5527.278000000,0.428462,1.070908,-0.086460,-1.205310,0.235957,2.557094,1.662371
5527.285000000,0.428160,1.070778,-0.086562,-1.205169,0.138625,2.557090,1.792480
5527.312000000,0.428462,1.070908,-0.086452,-1.205312,0.235957,2.557099,1.662356
5527.319000000,0.428139,1.070763,-0.086542,-1.205163,0.128077,2.557082,1.821289
5527.346000000,0.428460,1.070911,-0.086460,-1.205307,0.235953,2.557095,1.662366
5527.353000000,0.428134,1.070750,-0.086545,-1.205157,0.117453,2.557065,1.851088
5527.381000000,0.428460,1.070911,-0.086457,-1.205307,0.235955,2.557095,1.662366
5527.387000000,0.428125,1.070759,-0.086539,-1.205129,0.106663,2.557048,1.882581
5527.413000000,0.428462,1.070911,-0.086455,-1.205305,0.235955,2.557093,1.662357
5527.421000000,0.428105,1.070745,-0.086521,-1.205124,0.095706,2.557034,1.915062
5527.447000000,0.428460,1.070906,-0.086460,-1.205307,0.235959,2.557098,1.662365
5527.454000000,0.428161,1.070739,-0.086575,-1.205158,0.085634,2.557116,1.945703
5527.481000000,0.428457,1.070910,-0.086460,-1.205310,0.235954,2.557096,1.662360
5527.490000000,0.428162,1.070733,-0.086579,-1.205159,0.073997,2.557127,1.981655
5527.514000000,0.428462,1.070908,-0.086455,-1.205310,0.235955,2.557099,1.662369
5527.524000000,0.428168,1.070717,-0.086598,-1.205169,0.062708,2.557140,2.016213
5527.548000000,0.428465,1.070908,-0.086460,-1.205310,0.235952,2.557099,1.662358
5527.557000000,0.428106,1.070712,-0.086551,-1.205120,0.050935,2.557030,2.052875
5527.582000000,0.428465,1.070911,-0.086460,-1.205312,0.235957,2.557097,1.662361
5527.592000000,0.428163,1.070710,-0.086600,-1.205163,0.039580,2.557157,2.088589
5527.615000000,0.428460,1.070908,-0.086457,-1.205307,0.235953,2.557096,1.662370
5527.626000000,0.428166,1.070692,-0.086613,-1.205172,0.027746,2.557165,2.126012
5527.647000000,0.428460,1.070903,-0.086452,-1.205312,0.235954,2.557095,1.662365
5527.660000000,0.428177,1.070700,-0.086631,-1.205165,0.015837,2.557196,2.163773
5527.682000000,0.428460,1.070908,-0.086460,-1.205307,0.235955,2.557097,1.662359
5527.694000000,0.428175,1.070685,-0.086634,-1.205177,0.003700,2.557228,2.202254
5527.715000000,0.428460,1.070911,-0.086457,-1.205307,0.235954,2.557094,1.662368
5527.728000000,0.428184,1.070668,-0.086651,-1.205191,-0.008639,2.557252,2.241500
5527.749000000,0.428465,1.070908,-0.086460,-1.205312,0.235952,2.557099,1.662365
5527.762000000,0.428195,1.070676,-0.086668,-1.205186,-0.021076,2.557286,2.281015
5527.784000000,0.428462,1.070908,-0.086460,-1.205307,0.235954,2.557095,1.662359
5527.796000000,0.428189,1.070658,-0.086674,-1.205196,-0.034068,2.557326,2.322211
5527.819000000,0.428462,1.070908,-0.086460,-1.205307,0.235953,2.557095,1.662360
5527.830000000,0.428200,1.070641,-0.086691,-1.205213,-0.047007,2.557358,2.363364
5527.853000000,0.428460,1.070908,-0.086457,-1.205310,0.235956,2.557099,1.662368
5527.863000000,0.428141,1.070640,-0.086642,-1.205145,-0.060339,2.557151,2.405136
5527.887000000,0.428460,1.070908,-0.086455,-1.205307,0.235955,2.557099,1.662356
5527.898000000,0.428198,1.070635,-0.086689,-1.205207,-0.073350,2.557373,2.446409
5527.920000000,0.428462,1.070908,-0.086460,-1.205312,0.235957,2.557098,1.662368
5527.932000000,0.428205,1.070614,-0.086707,-1.205221,-0.086850,2.557407,2.488917
5527.955000000,0.428465,1.070913,-0.086455,-1.205310,0.235953,2.557100,1.662366
5527.966000000,0.428218,1.070619,-0.086727,-1.205220,-0.100417,2.557458,2.531556
5527.987000000,0.428465,1.070911,-0.086457,-1.205310,0.235953,2.557097,1.662358
5528.000000000,0.428218,1.070603,-0.086732,-1.205235,-0.114257,2.557516,2.574959
5528.018000000,0.428462,1.070906,-0.086457,-1.205305,0.235953,2.557099,1.662359
5528.033000000,0.430062,1.071632,-0.085921,-1.205934,-0.028442,2.557438,2.411718
5528.052000000,0.428462,1.070908,-0.086460,-1.205307,0.235952,2.557098,1.662359
5528.068000000,0.429272,1.071321,-0.086106,-1.205511,-0.034876,2.557308,2.452705
5528.086000000,0.428462,1.070908,-0.086457,-1.205312,0.235956,2.557093,1.662368
5528.102000000,0.430560,1.071898,-0.085503,-1.205956,0.051387,2.557162,2.293665
5528.119000000,0.428457,1.070911,-0.086455,-1.205312,0.235957,2.557100,1.662362
5528.136000000,0.430501,1.071905,-0.085354,-1.205787,0.111283,2.556944,2.168897
5528.153000000,0.428452,1.070906,-0.086462,-1.205310,0.235953,2.557095,1.662364
5528.171000000,0.429823,1.071511,-0.085696,-1.205614,0.152912,2.556968,2.066395
5528.187000000,0.428460,1.070911,-0.086460,-1.205312,0.235956,2.557099,1.662364
5528.205000000,0.428806,1.071058,-0.086226,-1.205364,0.172932,2.556981,1.984180
5528.218000000,0.428465,1.070903,-0.086457,-1.205310,0.235953,2.557100,1.662370
5528.239000000,0.427968,1.070676,-0.086686,-1.205204,0.184385,2.557050,1.917052
5528.249000000,0.428462,1.070906,-0.086457,-1.205312,0.235957,2.557095,1.662367
5528.273000000,0.427452,1.070437,-0.086995,-1.205112,0.191302,2.557098,1.860978
5528.280000000,0.428462,1.070903,-0.086455,-1.205312,0.235958,2.557095,1.662362
5528.307000000,0.427244,1.070362,-0.087135,-1.205058,0.195477,2.557143,1.814096
5528.310000000,0.428460,1.070908,-0.086455,-1.205304,0.235956,2.557099,1.662369
5528.341000000,0.427267,1.070369,-0.087122,-1.205072,0.197981,2.557171,1.775222
5528.342000000,0.428462,1.070908,-0.086457,-1.205307,0.235956,2.557096,1.662360
5528.375000000,0.427464,1.070441,-0.087036,-1.205112,0.199528,2.557171,1.743539
5528.377000000,0.428465,1.070908,-0.086460,-1.205318,0.235957,2.557095,1.662359
5528.408000000,0.427660,1.070550,-0.086844,-1.205127,0.199832,2.557144,1.720943
5528.412000000,0.428460,1.070908,-0.086455,-1.205312,0.235950,2.557100,1.662365
5528.445000000,0.428039,1.070691,-0.086752,-1.205198,0.201139,2.557164,1.698837
5528.446000000,0.428460,1.070906,-0.086460,-1.205305,0.235956,2.557098,1.662365
5528.479000000,0.428275,1.070783,-0.086610,-1.205246,0.201418,2.557157,1.686504
5528.481000000,0.428468,1.070906,-0.086452,-1.205310,0.235956,2.557096,1.662363
5528.513000000,0.428468,1.070848,-0.086518,-1.205284,0.201596,2.557138,1.679916
5528.515000000,0.428460,1.070908,-0.086455,-1.205312,0.235956,2.557095,1.662363
5528.547000000,0.428599,1.070913,-0.086456,-1.205290,0.201729,2.557135,1.678886
5528.549000000,0.428460,1.070906,-0.086460,-1.205315,0.235956,2.557094,1.662366
5528.582000000,0.428596,1.070920,-0.086352,-1.205287,0.201084,2.557109,1.685375
5528.583000000,0.428454,1.070908,-0.086457,-1.205305,0.235954,2.557099,1.662363
5528.616000000,0.428621,1.070943,-0.086345,-1.205273,0.201076,2.557106,1.695320
5528.618000000,0.428462,1.070903,-0.086457,-1.205310,0.235957,2.557094,1.662365
5528.650000000,0.428598,1.070931,-0.086335,-1.205284,0.201087,2.557101,1.708856
5528.652000000,0.428465,1.070908,-0.086457,-1.205307,0.235958,2.557099,1.662368
5528.684000000,0.428565,1.070916,-0.086358,-1.205296,0.201098,2.557083,1.720731
5528.686000000,0.428457,1.070911,-0.086460,-1.205310,0.235957,2.557094,1.662360
5528.719000000,0.428460,1.070906,-0.086457,-1.205310,0.235956,2.557100,1.662362
5528.720000000,0.428584,1.070923,-0.086436,-1.205324,0.201749,2.557114,1.729249
5528.753000000,0.428454,1.070911,-0.086457,-1.205307,0.235957,2.557101,1.662365
5528.754000000,0.428368,1.070900,-0.086420,-1.205254,0.196912,2.557043,1.744655
5528.787000000,0.428460,1.070906,-0.086457,-1.205307,0.235953,2.557094,1.662367
5528.787000000,0.428182,1.070835,-0.086523,-1.205234,0.185725,2.557069,1.769117
5528.822000000,0.428457,1.070908,-0.086452,-1.205305,0.235957,2.557096,1.662362
5528.822000000,0.428389,1.070888,-0.086468,-1.205305,0.187745,2.557076,1.771464
5528.855000000,0.428512,1.070933,-0.086430,-1.205332,0.190283,2.557059,1.768308
5528.856000000,0.428462,1.070906,-0.086460,-1.205315,0.235958,2.557100,1.662369
5528.889000000,0.428462,1.070908,-0.086455,-1.205313,0.235959,2.557095,1.662365
5528.891000000,0.428561,1.070980,-0.086337,-1.205359,0.193262,2.557028,1.753838
5528.922000000,0.428457,1.070908,-0.086460,-1.205312,0.235954,2.557099,1.662368
5528.924000000,0.428405,1.070946,-0.086376,-1.205282,0.189022,2.557021,1.757579
5528.956000000,0.428452,1.070913,-0.086455,-1.205312,0.235957,2.557100,1.662361
5528.958000000,0.428246,1.070879,-0.086472,-1.205234,0.178429,2.557033,1.782706
5528.991000000,0.428465,1.070908,-0.086455,-1.205310,0.235958,2.557099,1.662369
5528.992000000,0.428152,1.070832,-0.086489,-1.205212,0.168114,2.557030,1.809749
5529.026000000,0.428457,1.070908,-0.086457,-1.205312,0.235957,2.557096,1.662367
5529.027000000,0.428175,1.070815,-0.086577,-1.205221,0.157791,2.557080,1.837265
5529.061000000,0.428146,1.070791,-0.086587,-1.205221,0.146932,2.557096,1.867823
5529.061000000,0.428460,1.070906,-0.086460,-1.205310,0.235952,2.557098,1.662359
5529.094000000,0.428592,1.070980,-0.086356,-1.205355,0.159656,2.557028,1.835921
5529.094000000,0.428462,1.070908,-0.086460,-1.205307,0.235958,2.557099,1.662361
5529.129000000,0.428457,1.070906,-0.086460,-1.205312,0.235957,2.557097,1.662368
5529.129000000,0.428834,1.071112,-0.086183,-1.205390,0.174402,2.557006,1.795299
5529.162000000,0.428460,1.070911,-0.086457,-1.205310,0.235953,2.557097,1.662364
5529.163000000,0.428836,1.071110,-0.086189,-1.205385,0.183780,2.557004,1.765853
5529.196000000,0.428555,1.070981,-0.086371,-1.205296,0.178864,2.557039,1.777733
5529.196000000,0.428462,1.070908,-0.086455,-1.205310,0.235955,2.557101,1.662358
5529.230000000,0.428457,1.070908,-0.086457,-1.205307,0.235958,2.557100,1.662358
5529.231000000,0.428686,1.070993,-0.086370,-1.205358,0.187186,2.557084,1.764079
5529.264000000,0.428465,1.070908,-0.086460,-1.205307,0.235955,2.557098,1.662359
5529.265000000,0.428469,1.070913,-0.086430,-1.205297,0.184178,2.557042,1.769315
5529.298000000,0.428468,1.070908,-0.086452,-1.205310,0.235956,2.557099,1.662362
5529.299000000,0.428260,1.070833,-0.086587,-1.205250,0.173390,2.557085,1.788201
5529.332000000,0.428454,1.070908,-0.086460,-1.205307,0.235953,2.557100,1.662365
5529.333000000,0.428141,1.070769,-0.086657,-1.205230,0.162371,2.557113,1.812323
5529.365000000,0.428465,1.070906,-0.086460,-1.205307,0.235957,2.557100,1.662361
5529.368000000,0.428091,1.070723,-0.086709,-1.205224,0.151207,2.557128,1.840989
5529.400000000,0.428465,1.070906,-0.086457,-1.205317,0.235958,2.557095,1.662365
5529.401000000,0.428575,1.070933,-0.086433,-1.205326,0.167220,2.557086,1.813577
5529.433000000,0.428457,1.070908,-0.086459,-1.205307,0.235955,2.557094,1.662359
5529.436000000,0.428233,1.070831,-0.086493,-1.205209,0.154998,2.557024,1.840022
5529.467000000,0.428465,1.070906,-0.086457,-1.205315,0.235956,2.557097,1.662362
5529.469000000,0.428218,1.070825,-0.086550,-1.205233,0.150172,2.557039,1.842416
5529.500000000,0.428454,1.070906,-0.086457,-1.205310,0.235957,2.557099,1.662358
5529.504000000,0.428188,1.070785,-0.086634,-1.205254,0.140680,2.557094,1.852740
5529.534000000,0.428462,1.070908,-0.086457,-1.205307,0.235951,2.557100,1.662361
5529.539000000,0.428106,1.070784,-0.086570,-1.205191,0.131065,2.557029,1.870968
5529.567000000,0.428462,1.070903,-0.086457,-1.205312,0.235956,2.557099,1.662368
5529.573000000,0.428114,1.070761,-0.086595,-1.205195,0.121862,2.557034,1.892467
5529.602000000,0.428460,1.070911,-0.086460,-1.205310,0.235953,2.557095,1.662368
5529.607000000,0.428101,1.070768,-0.086584,-1.205162,0.112256,2.557016,1.917195
5529.636000000,0.428462,1.070903,-0.086457,-1.205310,0.235955,2.557099,1.662361
5529.641000000,0.428084,1.070753,-0.086566,-1.205162,0.102677,2.557002,1.942581
5529.669000000,0.428468,1.070911,-0.086457,-1.205312,0.235952,2.557097,1.662366
5529.675000000,0.428079,1.070741,-0.086572,-1.205153,0.092861,2.556985,1.969588
5529.704000000,0.428462,1.070906,-0.086460,-1.205310,0.235955,2.557097,1.662358
5529.709000000,0.428070,1.070751,-0.086566,-1.205126,0.082871,2.556966,1.997934
5529.738000000,0.428462,1.070906,-0.086457,-1.205310,0.235955,2.557100,1.662371
5529.743000000,0.428050,1.070737,-0.086549,-1.205124,0.072752,2.556947,2.027265
5529.771000000,0.428462,1.070906,-0.086455,-1.205310,0.235955,2.557098,1.662357
5529.778000000,0.428116,1.070739,-0.086615,-1.205155,0.062922,2.557054,2.056841
5529.805000000,0.428462,1.070903,-0.086457,-1.205312,0.235955,2.557094,1.662362
5529.812000000,0.428100,1.070727,-0.086600,-1.205157,0.052581,2.557057,2.088188
5529.840000000,0.428462,1.070906,-0.086457,-1.205307,0.235953,2.557096,1.662365
5529.846000000,0.428111,1.070713,-0.086621,-1.205169,0.042218,2.557074,2.119606
5529.873000000,0.428462,1.070911,-0.086460,-1.205312,0.235958,2.557099,1.662368
5529.880000000,0.428120,1.070723,-0.086634,-1.205160,0.031728,2.557100,2.152149
5529.907000000,0.428468,1.070908,-0.086455,-1.205312,0.235953,2.557099,1.662365
5529.914000000,0.428118,1.070710,-0.086634,-1.205174,0.021043,2.557128,2.185042
5529.942000000,0.428462,1.070911,-0.086457,-1.205313,0.235953,2.557097,1.662361
5529.951000000,0.428125,1.070705,-0.086646,-1.205178,0.009555,2.557157,2.221051
5529.974000000,0.428457,1.070908,-0.086460,-1.205312,0.235956,2.557102,1.662363
5529.983000000,0.428060,1.070704,-0.086594,-1.205114,-0.001902,2.556987,2.256267
5530.008000000,0.428462,1.070908,-0.086460,-1.205310,0.235953,2.557101,1.662366
5530.017000000,0.428061,1.070689,-0.086604,-1.205116,-0.013317,2.556974,2.292217
5530.042000000,0.428465,1.070906,-0.086460,-1.205310,0.235957,2.557096,1.662369
5530.052000000,0.428052,1.070702,-0.086596,-1.205084,-0.024906,2.556928,2.328485
5530.076000000,0.428462,1.070911,-0.086460,-1.205305,0.235957,2.557094,1.662366
5530.086000000,0.428104,1.070674,-0.086646,-1.205160,-0.036272,2.557117,2.364686
5530.110000000,0.428460,1.070908,-0.086457,-1.205310,0.235957,2.557099,1.662362
5530.120000000,0.428106,1.070683,-0.086658,-1.205145,-0.048092,2.557134,2.401855
5530.143000000,0.428457,1.070908,-0.086460,-1.205312,0.235958,2.557099,1.662368
5530.155000000,0.428104,1.070668,-0.086661,-1.205162,-0.060044,2.557180,2.439515
5530.178000000,0.428465,1.070906,-0.086457,-1.205310,0.235953,2.557095,1.662360
5530.189000000,0.428051,1.070677,-0.086619,-1.205076,-0.073117,2.556943,2.480359
5530.212000000,0.428462,1.070911,-0.086457,-1.205310,0.235959,2.557099,1.662369
5530.223000000,0.428035,1.070666,-0.086604,-1.205070,-0.085546,2.556916,2.519205
5530.244000000,0.428465,1.070906,-0.086457,-1.205307,0.235953,2.557099,1.662359
5530.257000000,0.428024,1.070653,-0.086601,-1.205057,-0.098256,2.556855,2.559031
5530.279000000,0.428465,1.070908,-0.086457,-1.205305,0.235955,2.557096,1.662368
5530.291000000,0.428014,1.070662,-0.086595,-1.205022,-0.111191,2.556799,2.599343
5530.312000000,0.428452,1.070906,-0.086460,-1.205307,0.235958,2.557099,1.662368
5530.325000000,0.427990,1.070649,-0.086574,-1.205008,-0.124320,2.556740,2.640292
5530.346000000,0.428468,1.070908,-0.086457,-1.205310,0.235953,2.557100,1.662359
5530.359000000,0.427980,1.070636,-0.086570,-1.204994,-0.137555,2.556674,2.681491
5530.380000000,0.428468,1.070906,-0.086462,-1.205309,0.235958,2.557094,1.662360
5530.393000000,0.427970,1.070646,-0.086561,-1.204957,-0.151004,2.556607,2.723267
5530.415000000,0.428454,1.070906,-0.086460,-1.205310,0.235956,2.557096,1.662368
5530.427000000,0.427947,1.070633,-0.086539,-1.204940,-0.164650,2.556541,2.765540
5530.448000000,0.428465,1.070906,-0.086457,-1.205310,0.235954,2.557098,1.662367
5530.462000000,0.428018,1.070624,-0.086616,-1.205017,-0.178052,2.556855,2.807467
5530.482000000,0.428454,1.070911,-0.086462,-1.205310,0.235957,2.557094,1.662369
5530.496000000,0.428013,1.070608,-0.086620,-1.205029,-0.191924,2.556909,2.850463
5530.516000000,0.428462,1.070908,-0.086460,-1.205310,0.235956,2.557097,1.662368
5530.531000000,0.428025,1.070587,-0.086643,-1.205050,-0.205970,2.556972,2.893901
5530.547000000,0.428460,1.070903,-0.086457,-1.205312,0.235952,2.557099,1.662366
5530.564000000,0.428161,1.070721,-0.086524,-1.205085,-0.210697,2.556856,2.897302
5530.580000000,0.428454,1.070906,-0.086460,-1.205307,0.235958,2.557097,1.662360
5530.598000000,0.428265,1.070800,-0.086460,-1.205129,-0.213696,2.556862,2.897300
5530.614000000,0.428465,1.070911,-0.086455,-1.205312,0.235951,2.557099,1.662360
5530.632000000,0.428337,1.070843,-0.086431,-1.205160,-0.215993,2.556856,2.897300
5530.649000000,0.428462,1.070908,-0.086457,-1.205307,0.235954,2.557096,1.662361
5530.666000000,0.428386,1.070892,-0.086410,-1.205161,-0.217739,2.556851,2.897300
5530.682000000,0.428462,1.070908,-0.086457,-1.205310,0.235951,2.557095,1.662357
5530.701000000,0.428412,1.070909,-0.086386,-1.205176,-0.219065,2.556857,2.897300
5530.715000000,0.428462,1.070908,-0.086452,-1.205310,0.235956,2.557097,1.662359
5530.733000000,0.430066,1.071928,-0.085829,-1.205963,-0.130386,2.557141,2.738516
5530.744000000,0.428457,1.070906,-0.086462,-1.205312,0.235957,2.557095,1.662359
5530.768000000,0.429089,1.071395,-0.086086,-1.205412,-0.139466,2.557000,2.795701
5530.778000000,0.428460,1.070906,-0.086460,-1.205310,0.235956,2.557096,1.662364
5530.802000000,0.430507,1.072082,-0.085569,-1.206020,-0.044473,2.557092,2.641980
5530.812000000,0.428462,1.070906,-0.086452,-1.205310,0.235956,2.557097,1.662358
5530.836000000,0.430966,1.072258,-0.085219,-1.205935,0.045548,2.556969,2.502220
5530.843000000,0.428460,1.070911,-0.086457,-1.205312,0.235957,2.557099,1.662365
5530.870000000,0.430329,1.071796,-0.085352,-1.205682,0.107673,2.556949,2.394979
5530.877000000,0.428460,1.070903,-0.086460,-1.205310,0.235955,2.557094,1.662364
5530.904000000,0.429308,1.071177,-0.085863,-1.205425,0.148497,2.556938,2.282563
5530.911000000,0.428462,1.070908,-0.086460,-1.205307,0.235952,2.557094,1.662366
5530.938000000,0.428196,1.070683,-0.086350,-1.205154,0.173202,2.556779,2.158113
5530.945000000,0.428462,1.070906,-0.086460,-1.205310,0.235952,2.557099,1.662368
5530.972000000,0.427321,1.070302,-0.086960,-1.205031,0.184786,2.557013,2.045824
5530.980000000,0.428460,1.070900,-0.086460,-1.205305,0.235953,2.557100,1.662361
5531.008000000,0.426797,1.070143,-0.087248,-1.204899,0.190345,2.557026,1.956104
5531.014000000,0.428457,1.070906,-0.086460,-1.205310,0.235954,2.557094,1.662358
5531.043000000,0.426788,1.070116,-0.087369,-1.204960,0.195052,2.557155,1.885739
5531.047000000,0.428465,1.070903,-0.086457,-1.205312,0.235956,2.557101,1.662367
5531.075000000,0.426905,1.070215,-0.087235,-1.204973,0.196673,2.557125,1.830953
5531.081000000,0.428460,1.070911,-0.086457,-1.205307,0.235958,2.557097,1.662364
5531.109000000,0.427244,1.070388,-0.087075,-1.205025,0.198217,2.557145,1.782397
5531.115000000,0.428462,1.070903,-0.086457,-1.205310,0.235957,2.557096,1.662370
5531.135000000,0.427719,1.070563,-0.086907,-1.205146,0.199968,2.557179,1.738309
5531.150000000,0.428462,1.070908,-0.086455,-1.205310,0.235956,2.557095,1.662367
5531.180000000,0.428076,1.070701,-0.086728,-1.205219,0.200580,2.557153,1.706409
5531.184000000,0.428462,1.070908,-0.086457,-1.205310,0.235956,2.557099,1.662370
5531.214000000,0.428365,1.070833,-0.086583,-1.205253,0.201025,2.557142,1.680710
5531.217000000,0.428462,1.070908,-0.086460,-1.205307,0.235957,2.557096,1.662365
5531.248000000,0.428556,1.070904,-0.086465,-1.205294,0.201271,2.557135,1.661079
5531.250000000,0.428462,1.070900,-0.086460,-1.205307,0.235955,2.557099,1.662361
5531.282000000,0.428679,1.070938,-0.086409,-1.205320,0.201476,2.557118,1.647260
5531.284000000,0.428457,1.070911,-0.086460,-1.205307,0.235952,2.557097,1.662367
5531.316000000,0.428657,1.070960,-0.086308,-1.205289,0.200960,2.557110,1.640796
5531.318000000,0.428460,1.070903,-0.086457,-1.205312,0.235956,2.557100,1.662367
5531.350000000,0.428728,1.070958,-0.086375,-1.205317,0.201719,2.557125,1.636602
5531.353000000,0.428462,1.070903,-0.086455,-1.205307,0.235957,2.557095,1.662365
5531.385000000,0.428636,1.070947,-0.086337,-1.205274,0.201124,2.557110,1.641512
5531.386000000,0.428462,1.070911,-0.086457,-1.205307,0.235956,2.557099,1.662365
5531.418000000,0.428584,1.070920,-0.086347,-1.205274,0.201162,2.557117,1.649946
5531.421000000,0.428460,1.070908,-0.086449,-1.205305,0.235958,2.557099,1.662365
5531.453000000,0.428545,1.070893,-0.086381,-1.205273,0.201177,2.557117,1.663648
5531.453000000,0.428465,1.070903,-0.086457,-1.205313,0.235956,2.557097,1.662363
5531.488000000,0.428462,1.070906,-0.086460,-1.205307,0.235956,2.557100,1.662359
5531.488000000,0.428566,1.070887,-0.086456,-1.205294,0.201852,2.557137,1.680347
5531.521000000,0.428460,1.070911,-0.086457,-1.205310,0.235955,2.557096,1.662365
5531.523000000,0.428348,1.070857,-0.086432,-1.205236,0.196895,2.557062,1.702402
5531.556000000,0.428460,1.070906,-0.086455,-1.205312,0.235956,2.557095,1.662369
5531.557000000,0.428156,1.070803,-0.086529,-1.205223,0.185866,2.557080,1.722430
5531.590000000,0.428462,1.070906,-0.086455,-1.205307,0.235953,2.557101,1.662371
5531.592000000,0.428141,1.070787,-0.086639,-1.205225,0.175659,2.557114,1.745607
5531.623000000,0.428462,1.070906,-0.086457,-1.205310,0.235956,2.557098,1.662359
5531.627000000,0.428031,1.070752,-0.086605,-1.205196,0.163894,2.557077,1.775057
5531.658000000,0.428462,1.070911,-0.086460,-1.205307,0.235957,2.557101,1.662366
5531.662000000,0.428008,1.070755,-0.086618,-1.205167,0.152754,2.557070,1.804139
5531.691000000,0.428468,1.070908,-0.086455,-1.205307,0.235952,2.557098,1.662365
5531.696000000,0.428047,1.070727,-0.086674,-1.205206,0.141710,2.557117,1.834470
5531.723000000,0.428465,1.070908,-0.086457,-1.205312,0.235958,2.557097,1.662361
5531.729000000,0.427978,1.070717,-0.086629,-1.205163,0.129974,2.557058,1.867597
5531.757000000,0.428460,1.070908,-0.086457,-1.205305,0.235955,2.557101,1.662357
5531.766000000,0.428037,1.070722,-0.086689,-1.205182,0.117960,2.557125,1.902633
5531.791000000,0.428462,1.070908,-0.086460,-1.205310,0.235955,2.557100,1.662367
5531.801000000,0.427963,1.070696,-0.086645,-1.205146,0.104875,2.557046,1.940901
5531.825000000,0.428462,1.070908,-0.086460,-1.205305,0.235959,2.557098,1.662360
5531.834000000,0.428782,1.071034,-0.086307,-1.205446,0.134057,2.557040,1.865752
5531.857000000,0.428462,1.070908,-0.086455,-1.205310,0.235958,2.557098,1.662365
5531.869000000,0.429146,1.071224,-0.086148,-1.205483,0.158896,2.557058,1.804321
5531.890000000,0.428460,1.070903,-0.086460,-1.205314,0.235956,2.557100,1.662363
5531.903000000,0.429078,1.071194,-0.086166,-1.205455,0.174036,2.557027,1.761526
5531.923000000,0.428460,1.070908,-0.086460,-1.205307,0.235956,2.557097,1.662368
5531.937000000,0.428857,1.071107,-0.086287,-1.205385,0.183796,2.557041,1.729978
5531.957000000,0.428457,1.070906,-0.086457,-1.205315,0.235952,2.557096,1.662357
5531.971000000,0.428587,1.070977,-0.086408,-1.205331,0.190000,2.557061,1.707773
5531.990000000,0.428465,1.070906,-0.086455,-1.205307,0.235957,2.557098,1.662362
5532.005000000,0.428381,1.070860,-0.086536,-1.205293,0.193938,2.557081,1.693584
5532.024000000,0.428454,1.070908,-0.086455,-1.205310,0.235956,2.557098,1.662370
5532.039000000,0.428256,1.070804,-0.086621,-1.205245,0.196599,2.557112,1.686333
5532.059000000,0.428460,1.070908,-0.086460,-1.205310,0.235958,2.557094,1.662360
5532.073000000,0.428191,1.070759,-0.086642,-1.205235,0.198312,2.557133,1.685551
5532.091000000,0.428457,1.070908,-0.086460,-1.205310,0.235957,2.557097,1.662368
5532.107000000,0.428202,1.070741,-0.086651,-1.205239,0.199434,2.557136,1.690792
5532.125000000,0.428462,1.070908,-0.086460,-1.205312,0.235957,2.557100,1.662363
5532.140000000,0.428180,1.070752,-0.086570,-1.205214,0.199501,2.557123,1.703120
5532.157000000,0.428462,1.070908,-0.086460,-1.205310,0.235954,2.557101,1.662359
5532.175000000,0.428306,1.070788,-0.086586,-1.205257,0.200682,2.557144,1.714108
5532.191000000,0.428468,1.070908,-0.086460,-1.205307,0.235951,2.557099,1.662365
5532.209000000,0.428372,1.070815,-0.086558,-1.205287,0.201018,2.557126,1.724579
5532.224000000,0.428462,1.070906,-0.086455,-1.205307,0.235958,2.557096,1.662362
5532.243000000,0.428429,1.070869,-0.086530,-1.205290,0.201235,2.557118,1.733562
5532.257000000,0.428462,1.070911,-0.086460,-1.205312,0.235955,2.557095,1.662359
5532.277000000,0.428465,1.070893,-0.086496,-1.205314,0.201348,2.557117,1.741275
5532.292000000,0.428462,1.070903,-0.086460,-1.205310,0.235956,2.557100,1.662370
5532.311000000,0.428496,1.070906,-0.086486,-1.205333,0.201374,2.557102,1.747912
5532.325000000,0.428460,1.070903,-0.086460,-1.205315,0.235955,2.557097,1.662365
5532.346000000,0.428441,1.070928,-0.086408,-1.205301,0.200740,2.557070,1.755430
5532.359000000,0.428460,1.070908,-0.086460,-1.205307,0.235956,2.557100,1.662371
5532.380000000,0.428453,1.070925,-0.086415,-1.205313,0.200756,2.557064,1.760094
5532.392000000,0.428457,1.070908,-0.086460,-1.205315,0.235955,2.557095,1.662369
5532.415000000,0.428514,1.070935,-0.086467,-1.205338,0.201409,2.557103,1.762378
5532.424000000,0.428460,1.070906,-0.086455,-1.205312,0.235954,2.557098,1.662370
5532.448000000,0.428442,1.070930,-0.086407,-1.205305,0.200738,2.557064,1.767465
5532.460000000,0.428460,1.070906,-0.086457,-1.205310,0.235952,2.557101,1.662367
5532.483000000,0.428511,1.070934,-0.086482,-1.205328,0.201414,2.557098,1.768597
5532.494000000,0.428462,1.070911,-0.086455,-1.205310,0.235957,2.557096,1.662366
5532.517000000,0.428499,1.070922,-0.086476,-1.205332,0.201393,2.557107,1.771051
5532.528000000,0.428462,1.070905,-0.086457,-1.205310,0.235953,2.557099,1.662367
5532.551000000,0.428498,1.070908,-0.086484,-1.205336,0.201347,2.557099,1.773189
5532.561000000,0.428460,1.070908,-0.086457,-1.205314,0.235953,2.557099,1.662367
5532.587000000,0.428495,1.070904,-0.086486,-1.205334,0.201330,2.557101,1.775018
5532.596000000,0.428454,1.070908,-0.086456,-1.205310,0.235953,2.557098,1.662367
5532.621000000,0.428499,1.070918,-0.086493,-1.205319,0.201353,2.557107,1.776401
5532.629000000,0.428460,1.070906,-0.086457,-1.205310,0.235956,2.557096,1.662370
5532.656000000,0.428426,1.070899,-0.086429,-1.205299,0.200646,2.557066,1.779487
5532.664000000,0.428462,1.070908,-0.086455,-1.205312,0.235956,2.557099,1.662367
5532.690000000,0.428429,1.070915,-0.086431,-1.205283,0.200628,2.557065,1.780518
5532.695000000,0.428460,1.070906,-0.086457,-1.205307,0.235957,2.557098,1.662360
5532.725000000,0.428494,1.070899,-0.086487,-1.205332,0.201296,2.557103,1.779586
5532.728000000,0.428468,1.070903,-0.086457,-1.205305,0.235959,2.557096,1.662367
5532.759000000,0.428499,1.070916,-0.086491,-1.205315,0.201306,2.557105,1.780323
5532.762000000,0.428462,1.070906,-0.086455,-1.205312,0.235952,2.557097,1.662362
5532.793000000,0.428494,1.070908,-0.086480,-1.205323,0.201292,2.557112,1.780979
5532.797000000,0.428460,1.070906,-0.086465,-1.205312,0.235958,2.557096,1.662361
5532.828000000,0.428437,1.070914,-0.086432,-1.205282,0.200599,2.557066,1.783385
5532.831000000,0.428462,1.070908,-0.086460,-1.205307,0.235956,2.557098,1.662361
5532.862000000,0.428428,1.070907,-0.086419,-1.205289,0.200585,2.557070,1.783832
5532.865000000,0.428465,1.070906,-0.086455,-1.205307,0.235956,2.557095,1.662370
5532.897000000,0.428506,1.070916,-0.086493,-1.205315,0.201283,2.557108,1.782357
5532.898000000,0.428462,1.070908,-0.086460,-1.205307,0.235956,2.557100,1.662366
5532.931000000,0.428496,1.070909,-0.086480,-1.205322,0.201243,2.557112,1.782674
5532.932000000,0.428460,1.070906,-0.086457,-1.205312,0.235955,2.557100,1.662359
5532.965000000,0.428501,1.070899,-0.086486,-1.205331,0.201252,2.557105,1.782921
5532.966000000,0.428462,1.070908,-0.086455,-1.205307,0.235953,2.557095,1.662370
5533.000000000,0.428428,1.070908,-0.086417,-1.205289,0.200573,2.557070,1.784979
5533.000000000,0.428465,1.070911,-0.086460,-1.205310,0.235958,2.557099,1.662368
5533.034000000,0.428460,1.070908,-0.086457,-1.205312,0.235955,2.557098,1.662358
5533.034000000,0.428432,1.070900,-0.086425,-1.205296,0.200582,2.557063,1.785185
5533.067000000,0.428438,1.070917,-0.086432,-1.205280,0.200571,2.557067,1.785397
5533.067000000,0.428462,1.070906,-0.086457,-1.205310,0.235952,2.557099,1.662361
5533.101000000,0.428292,1.070859,-0.086544,-1.205266,0.192208,2.557079,1.796091
5533.101000000,0.428462,1.070906,-0.086457,-1.205307,0.235952,2.557096,1.662362
5533.135000000,0.428475,1.070904,-0.086496,-1.205333,0.196256,2.557114,1.784955
5533.135000000,0.428460,1.070908,-0.086457,-1.205310,0.235955,2.557100,1.662366
5533.169000000,0.428462,1.070908,-0.086462,-1.205307,0.235957,2.557098,1.662367
5533.170000000,0.428481,1.070940,-0.086403,-1.205291,0.197532,2.557059,1.780245
5533.203000000,0.428462,1.070908,-0.086457,-1.205307,0.235957,2.557098,1.662358
5533.204000000,0.428490,1.070936,-0.086373,-1.205297,0.198663,2.557059,1.777834
5533.237000000,0.428346,1.070874,-0.086527,-1.205281,0.189988,2.557101,1.786033
5533.237000000,0.428460,1.070906,-0.086460,-1.205310,0.235955,2.557095,1.662359
5533.271000000,0.428460,1.070911,-0.086460,-1.205307,0.235954,2.557100,1.662358
5533.272000000,0.428296,1.070861,-0.086538,-1.205268,0.182754,2.557092,1.797814
5533.305000000,0.428460,1.070911,-0.086460,-1.205307,0.235954,2.557099,1.662367
5533.305000000,0.428486,1.070950,-0.086367,-1.205275,0.188881,2.557066,1.778524
5533.339000000,0.428381,1.070865,-0.086539,-1.205289,0.178524,2.557126,1.806434
5533.339000000,0.428460,1.070908,-0.086457,-1.205312,0.235953,2.557095,1.662358
5533.373000000,0.428443,1.070876,-0.086554,-1.205340,0.175287,2.557147,1.803126
5533.374000000,0.428460,1.070903,-0.086455,-1.205307,0.235951,2.557100,1.662371
5533.407000000,0.428702,1.071004,-0.086374,-1.205360,0.185454,2.557083,1.776186
5533.408000000,0.428462,1.070903,-0.086457,-1.205307,0.235955,2.557095,1.662361
5533.442000000,0.428698,1.071019,-0.086274,-1.205340,0.190875,2.557041,1.760503
5533.442000000,0.428462,1.070906,-0.086460,-1.205310,0.235955,2.557097,1.662372
5533.477000000,0.428460,1.070908,-0.086462,-1.205307,0.235956,2.557097,1.662362
5533.477000000,0.428719,1.071006,-0.086352,-1.205349,0.195339,2.557091,1.749376
5533.510000000,0.428546,1.070957,-0.086329,-1.205287,0.196205,2.557049,1.749730
5533.510000000,0.428462,1.070906,-0.086457,-1.205310,0.235956,2.557096,1.662359
5533.543000000,0.428460,1.070911,-0.086460,-1.205307,0.235956,2.557100,1.662359
5533.544000000,0.428400,1.070890,-0.086483,-1.205284,0.190405,2.557092,1.757680
5533.577000000,0.428462,1.070908,-0.086457,-1.205312,0.235958,2.557100,1.662356
5533.579000000,0.428519,1.070895,-0.086471,-1.205316,0.194584,2.557096,1.753513
5533.611000000,0.428460,1.070906,-0.086457,-1.205305,0.235956,2.557098,1.662367
5533.612000000,0.428236,1.070825,-0.086514,-1.205243,0.184619,2.557063,1.768752
5533.645000000,0.428460,1.070908,-0.086457,-1.205305,0.235957,2.557096,1.662365
5533.647000000,0.428213,1.070794,-0.086626,-1.205252,0.175996,2.557126,1.785967
5533.678000000,0.428462,1.070911,-0.086457,-1.205307,0.235957,2.557099,1.662369
5533.680000000,0.428105,1.070769,-0.086581,-1.205198,0.166123,2.557081,1.811012
5533.712000000,0.428457,1.070908,-0.086455,-1.205307,0.235953,2.557095,1.662358
5533.714000000,0.428094,1.070745,-0.086603,-1.205198,0.156470,2.557077,1.836731
5533.745000000,0.428462,1.070908,-0.086460,-1.205307,0.235956,2.557098,1.662362
5533.749000000,0.428136,1.070744,-0.086648,-1.205217,0.146914,2.557139,1.863700
5533.779000000,0.428462,1.070903,-0.086457,-1.205307,0.235956,2.557093,1.662359
5533.782000000,0.428062,1.070735,-0.086593,-1.205170,0.136489,2.557067,1.893596
5533.813000000,0.428460,1.070906,-0.086460,-1.205305,0.235958,2.557093,1.662368
5533.816000000,0.428061,1.070720,-0.086606,-1.205172,0.126245,2.557060,1.923499
5533.847000000,0.428465,1.070908,-0.086455,-1.205310,0.235957,2.557097,1.662359
5533.851000000,0.428109,1.070721,-0.086646,-1.205198,0.116167,2.557140,1.953890
5533.882000000,0.428457,1.070906,-0.086460,-1.205312,0.235958,2.557100,1.662370
5533.885000000,0.428109,1.070704,-0.086657,-1.205205,0.105631,2.557139,1.986085
5533.915000000,0.428462,1.070906,-0.086454,-1.205307,0.235956,2.557099,1.662360
5533.920000000,0.428042,1.070707,-0.086605,-1.205151,0.093945,2.557050,2.022080
5533.949000000,0.428457,1.070903,-0.086457,-1.205310,0.235959,2.557098,1.662368
