yuan18844-afk/dissertation/catkin_ws/src/franka_digital_twin/analysis/data/real_slow2_20250728_065133.csv
time,panda_joint1,panda_joint2,panda_joint3,panda_joint4,panda_joint5,panda_joint6,panda_joint7
5403.948000000,0.392926,1.068331,-0.045376,-1.229278,0.009454,2.385169,1.460242
5403.959000000,0.392730,1.068182,-0.045507,-1.229171,-0.090098,2.385134,1.399739
5403.981000000,0.392926,1.068328,-0.045376,-1.229280,0.009451,2.385164,1.460240
5403.993000000,0.392709,1.068172,-0.045478,-1.229168,-0.099852,2.385129,1.402735
5404.013000000,0.392926,1.068333,-0.045376,-1.229285,0.009451,2.385168,1.460242
5404.028000000,0.392700,1.068160,-0.045468,-1.229165,-0.109723,2.385120,1.405826
5404.047000000,0.392926,1.068328,-0.045376,-1.229285,0.009452,2.385167,1.460236
5404.062000000,0.392768,1.068164,-0.045551,-1.229189,-0.119332,2.385146,1.407270
5404.081000000,0.392926,1.068331,-0.045376,-1.229288,0.009453,2.385167,1.460233
5404.097000000,0.392697,1.068166,-0.045464,-1.229141,-0.130218,2.385107,1.411970
5404.114000000,0.392924,1.068328,-0.045371,-1.229280,0.009449,2.385167,1.460240
5404.131000000,0.392675,1.068156,-0.045437,-1.229137,-0.140582,2.385098,1.414939
5404.147000000,0.392926,1.068326,-0.045376,-1.229280,0.009452,2.385166,1.460240
5404.166000000,0.392756,1.068159,-0.045542,-1.229160,-0.150672,2.385126,1.416000
5404.181000000,0.392926,1.068330,-0.045376,-1.229283,0.009450,2.385166,1.460233
5404.201000000,0.392676,1.068140,-0.045447,-1.229134,-0.162102,2.385087,1.420093
5404.213000000,0.392924,1.068325,-0.045368,-1.229283,0.009452,2.385170,1.460242
5404.236000000,0.393737,1.068668,-0.045307,-1.229530,-0.113222,2.385344,1.436557
5404.247000000,0.392924,1.068325,-0.045373,-1.229283,0.009452,2.385167,1.460233
5404.270000000,0.393917,1.068820,-0.045001,-1.229537,-0.077422,2.385210,1.461487
5404.282000000,0.392924,1.068328,-0.045373,-1.229285,0.009448,2.385164,1.460239
5404.304000000,0.393706,1.068715,-0.045036,-1.229448,-0.055997,2.385150,1.481154
5404.316000000,0.392926,1.068323,-0.045373,-1.229285,0.009453,2.385166,1.460239
5404.338000000,0.393328,1.068505,-0.045173,-1.229356,-0.042668,2.385126,1.496176
5404.349000000,0.392926,1.068328,-0.045376,-1.229283,0.009454,2.385168,1.460236
5404.373000000,0.392878,1.068311,-0.045265,-1.229214,-0.035445,2.385086,1.510320
5404.382000000,0.392924,1.068325,-0.045376,-1.229285,0.009448,2.385169,1.460244
5404.407000000,0.392610,1.068167,-0.045407,-1.229165,-0.030592,2.385112,1.520019
5404.417000000,0.392924,1.068331,-0.045376,-1.229283,0.009448,2.385167,1.460234
5404.441000000,0.392466,1.068088,-0.045508,-1.229147,-0.027449,2.385122,1.527792
5404.451000000,0.392921,1.068328,-0.045376,-1.229280,0.009453,2.385167,1.460239
5404.474000000,0.392499,1.068072,-0.045646,-1.229181,-0.024982,2.385165,1.532023
5404.485000000,0.392924,1.068326,-0.045376,-1.229283,0.009454,2.385170,1.460237
5404.508000000,0.392531,1.068112,-0.045646,-1.229181,-0.023744,2.385171,1.537181
5404.518000000,0.392926,1.068328,-0.045371,-1.229283,0.009451,2.385168,1.460232
5404.542000000,0.392597,1.068152,-0.045600,-1.229212,-0.023031,2.385181,1.541271
5404.550000000,0.392924,1.068328,-0.045376,-1.229288,0.009448,2.385166,1.460240
5404.577000000,0.392622,1.068217,-0.045458,-1.229193,-0.023226,2.385134,1.546669
5404.584000000,0.392924,1.068331,-0.045376,-1.229283,0.009450,2.385164,1.460234
5404.610000000,0.392801,1.068265,-0.045515,-1.229259,-0.022309,2.385170,1.547861
5404.616000000,0.392929,1.068328,-0.045371,-1.229288,0.009452,2.385167,1.460234
5404.645000000,0.392799,1.068294,-0.045364,-1.229255,-0.022821,2.385129,1.552271
5404.652000000,0.392926,1.068328,-0.045371,-1.229285,0.009451,2.385163,1.460243
5404.680000000,0.392942,1.068331,-0.045424,-1.229303,-0.022122,2.385169,1.552795
5404.683000000,0.392918,1.068330,-0.045373,-1.229283,0.009452,2.385164,1.460239
5404.713000000,0.392899,1.068350,-0.045299,-1.229271,-0.022733,2.385126,1.556291
5404.718000000,0.392924,1.068330,-0.045376,-1.229283,0.009452,2.385165,1.460235
5404.746000000,0.392930,1.068331,-0.045373,-1.229285,0.009453,2.385166,1.460231
5404.748000000,0.393015,1.068365,-0.045404,-1.229307,-0.022059,2.385161,1.556100
5404.772000000,0.392918,1.068323,-0.045376,-1.229283,0.009454,2.385168,1.460240
5404.783000000,0.392865,1.068333,-0.045271,-1.229241,-0.025279,2.385086,1.561362
5404.804000000,0.392926,1.068331,-0.045376,-1.229283,0.009452,2.385169,1.460234
5404.816000000,0.392853,1.068257,-0.045456,-1.229257,-0.034649,2.385146,1.569870
5404.834000000,0.392924,1.068326,-0.045376,-1.229283,0.009453,2.385165,1.460235
5404.851000000,0.392723,1.068240,-0.045356,-1.229191,-0.044555,2.385101,1.582146
5404.870000000,0.392926,1.068325,-0.045376,-1.229278,0.009452,2.385168,1.460244
5404.885000000,0.392711,1.068215,-0.045375,-1.229191,-0.053928,2.385095,1.593438
5404.905000000,0.392927,1.068331,-0.045371,-1.229285,0.009451,2.385168,1.460233
5404.920000000,0.392693,1.068222,-0.045362,-1.229161,-0.063582,2.385080,1.605597
5404.938000000,0.392924,1.068333,-0.045378,-1.229285,0.009453,2.385165,1.460240
5404.953000000,0.392671,1.068209,-0.045337,-1.229158,-0.073313,2.385070,1.618397
5404.974000000,0.392931,1.068328,-0.045378,-1.229280,0.009450,2.385168,1.460239
5404.987000000,0.392663,1.068197,-0.045331,-1.229152,-0.083176,2.385055,1.631856
5405.010000000,0.392931,1.068330,-0.045376,-1.229280,0.009449,2.385164,1.460241
5405.021000000,0.392654,1.068208,-0.045316,-1.229126,-0.093162,2.385037,1.645910
5405.044000000,0.392926,1.068328,-0.045376,-1.229285,0.009451,2.385167,1.460239
5405.056000000,0.392633,1.068197,-0.045289,-1.229122,-0.103266,2.385023,1.660518
5405.079000000,0.392926,1.068326,-0.045376,-1.229280,0.009454,2.385168,1.460237
5405.089000000,0.392626,1.068186,-0.045281,-1.229116,-0.113549,2.385005,1.675713
5405.114000000,0.392924,1.068328,-0.045379,-1.229285,0.009452,2.385165,1.460233
5405.129000000,0.392616,1.068197,-0.045266,-1.229089,-0.124018,2.384983,1.691463
5405.143000000,0.392926,1.068336,-0.045373,-1.229285,0.009448,2.385169,1.460243
5405.156000000,0.392691,1.068190,-0.045360,-1.229131,-0.133586,2.385061,1.705430
5405.178000000,0.392929,1.068328,-0.045373,-1.229283,0.009452,2.385169,1.460234
5405.192000000,0.392688,1.068180,-0.045356,-1.229136,-0.144114,2.385073,1.721956
5405.213000000,0.392926,1.068328,-0.045376,-1.229280,0.009449,2.385167,1.460238
5405.225000000,0.392625,1.068187,-0.045277,-1.229075,-0.155694,2.384975,1.741149
5405.247000000,0.392926,1.068331,-0.045376,-1.229288,0.009453,2.385163,1.460239
5405.266000000,0.392699,1.068163,-0.045367,-1.229135,-0.168258,2.385069,1.760661
5405.282000000,0.392926,1.068328,-0.045373,-1.229283,0.009455,2.385167,1.460240
5405.301000000,0.392610,1.068163,-0.045271,-1.229070,-0.181068,2.384964,1.781646
5405.315000000,0.392926,1.068325,-0.045373,-1.229288,0.009451,2.385169,1.460237
5405.335000000,0.393573,1.068746,-0.045264,-1.229636,-0.127658,2.385118,1.688445
5405.349000000,0.392931,1.068325,-0.045376,-1.229283,0.009449,2.385169,1.460242
5405.369000000,0.393702,1.068966,-0.045019,-1.229643,-0.088466,2.385025,1.612869
5405.382000000,0.392916,1.068326,-0.045376,-1.229283,0.009453,2.385167,1.460240
5405.403000000,0.393525,1.068837,-0.045065,-1.229538,-0.064625,2.385017,1.560484
5405.416000000,0.392926,1.068326,-0.045376,-1.229283,0.009454,2.385169,1.460245
5405.437000000,0.393226,1.068613,-0.045209,-1.229389,-0.049379,2.385046,1.517395
5405.449000000,0.392926,1.068328,-0.045376,-1.229278,0.009450,2.385168,1.460242
5405.471000000,0.392941,1.068361,-0.045358,-1.229272,-0.039677,2.385097,1.488366
5405.481000000,0.392926,1.068326,-0.045373,-1.229285,0.009453,2.385166,1.460237
5405.505000000,0.392733,1.068164,-0.045490,-1.229190,-0.033403,2.385125,1.463627
5405.516000000,0.392926,1.068325,-0.045378,-1.229283,0.009449,2.385166,1.460239
5405.539000000,0.392623,1.068071,-0.045575,-1.229129,-0.029089,2.385166,1.443201
5405.550000000,0.392926,1.068333,-0.045373,-1.229283,0.009453,2.385167,1.460239
5405.573000000,0.392584,1.068022,-0.045593,-1.229122,-0.026305,2.385190,1.429716
5405.583000000,0.392920,1.068323,-0.045376,-1.229280,0.009450,2.385167,1.460239
5405.608000000,0.392539,1.068045,-0.045492,-1.229091,-0.025048,2.385178,1.419479
5405.617000000,0.392931,1.068330,-0.045373,-1.229283,0.009452,2.385168,1.460242
5405.643000000,0.392686,1.068079,-0.045563,-1.229171,-0.023116,2.385192,1.407423
5405.651000000,0.392926,1.068327,-0.045376,-1.229283,0.009450,2.385166,1.460243
5405.677000000,0.392774,1.068160,-0.045531,-1.229191,-0.022254,2.385191,1.399314
5405.684000000,0.392924,1.068328,-0.045373,-1.229283,0.009453,2.385169,1.460236
5405.711000000,0.392843,1.068217,-0.045478,-1.229232,-0.021718,2.385189,1.392589
5405.718000000,0.392924,1.068321,-0.045373,-1.229283,0.009450,2.385167,1.460234
5405.745000000,0.392914,1.068263,-0.045449,-1.229268,-0.021300,2.385176,1.387161
5405.752000000,0.392921,1.068333,-0.045376,-1.229283,0.009453,2.385165,1.460235
5405.779000000,0.392970,1.068319,-0.045430,-1.229275,-0.020992,2.385171,1.382825
5405.785000000,0.392929,1.068328,-0.045373,-1.229280,0.009449,2.385168,1.460232
5405.813000000,0.392991,1.068339,-0.045402,-1.229295,-0.020823,2.385170,1.379335
5405.818000000,0.392921,1.068328,-0.045373,-1.229283,0.009452,2.385169,1.460240
5405.846000000,0.392926,1.068336,-0.045376,-1.229285,0.009450,2.385163,1.460235
5405.847000000,0.393012,1.068345,-0.045400,-1.229310,-0.020668,2.385160,1.376588
5405.881000000,0.392967,1.068350,-0.045383,-1.229269,-0.022475,2.385129,1.375706
5405.882000000,0.392918,1.068326,-0.045373,-1.229283,0.009449,2.385166,1.460235
5405.912000000,0.392924,1.068326,-0.045373,-1.229288,0.009450,2.385168,1.460242
5405.915000000,0.392994,1.068312,-0.045471,-1.229275,-0.027287,2.385256,1.386313
5405.947000000,0.392921,1.068328,-0.045376,-1.229285,0.009451,2.385167,1.460236
5405.952000000,0.392908,1.068329,-0.045278,-1.229252,-0.027764,2.385087,1.397609
5405.977000000,0.392926,1.068331,-0.045376,-1.229285,0.009451,2.385165,1.460233
5405.991000000,0.392847,1.068274,-0.045494,-1.229257,-0.038119,2.385130,1.383948
5406.019000000,0.392924,1.068328,-0.045376,-1.229280,0.009452,2.385167,1.460235
5406.026000000,0.392702,1.068240,-0.045419,-1.229223,-0.047870,2.385112,1.375331
5406.054000000,0.392924,1.068328,-0.045378,-1.229283,0.009450,2.385166,1.460240
5406.060000000,0.392670,1.068242,-0.045428,-1.229196,-0.057215,2.385104,1.366403
5406.089000000,0.392931,1.068326,-0.045376,-1.229285,0.009454,2.385165,1.460236
5406.094000000,0.392635,1.068227,-0.045407,-1.229191,-0.066709,2.385101,1.358138
5406.122000000,0.392926,1.068323,-0.045376,-1.229280,0.009449,2.385168,1.460234
5406.128000000,0.392619,1.068212,-0.045401,-1.229188,-0.076338,2.385094,1.350408
5406.157000000,0.392921,1.068336,-0.045376,-1.229285,0.009452,2.385167,1.460243
5406.165000000,0.392692,1.068221,-0.045497,-1.229199,-0.086219,2.385103,1.340650
5406.191000000,0.392926,1.068330,-0.045373,-1.229285,0.009450,2.385168,1.460238
5406.199000000,0.392689,1.068207,-0.045506,-1.229203,-0.096103,2.385108,1.333602
5406.225000000,0.392930,1.068330,-0.045378,-1.229288,0.009447,2.385166,1.460240
5406.233000000,0.392703,1.068192,-0.045531,-1.229211,-0.106083,2.385103,1.326687
5406.260000000,0.392921,1.068328,-0.045376,-1.229283,0.009450,2.385167,1.460235
5406.266000000,0.392631,1.068186,-0.045440,-1.229180,-0.116411,2.385086,1.321618
5406.295000000,0.392918,1.068330,-0.045373,-1.229285,0.009452,2.385168,1.460236
5406.301000000,0.392701,1.068190,-0.045525,-1.229202,-0.126312,2.385102,1.312730
5406.329000000,0.392924,1.068331,-0.045378,-1.229285,0.009450,2.385168,1.460232
5406.335000000,0.393505,1.068586,-0.045199,-1.229400,-0.090852,2.385331,1.361213
5406.363000000,0.392926,1.068330,-0.045373,-1.229285,0.009454,2.385167,1.460240
5406.370000000,0.393779,1.068675,-0.045058,-1.229471,-0.063346,2.385217,1.406523
5406.397000000,0.392924,1.068328,-0.045376,-1.229280,0.009452,2.385166,1.460239
5406.404000000,0.393613,1.068612,-0.045075,-1.229406,-0.047091,2.385156,1.438220
5406.430000000,0.392924,1.068328,-0.045373,-1.229288,0.009452,2.385168,1.460239
5406.438000000,0.393307,1.068462,-0.045196,-1.229347,-0.037222,2.385139,1.463493
5406.465000000,0.392924,1.068330,-0.045376,-1.229285,0.009452,2.385169,1.460236
5406.472000000,0.393004,1.068315,-0.045353,-1.229292,-0.031324,2.385127,1.482763
5406.499000000,0.392921,1.068331,-0.045378,-1.229283,0.009452,2.385168,1.460239
5406.507000000,0.392779,1.068232,-0.045490,-1.229236,-0.027613,2.385138,1.498059
5406.532000000,0.392924,1.068331,-0.045373,-1.229285,0.009452,2.385168,1.460237
5406.541000000,0.392552,1.068165,-0.045472,-1.229192,-0.025857,2.385122,1.512099
5406.567000000,0.392926,1.068328,-0.045373,-1.229285,0.009450,2.385165,1.460233
5406.575000000,0.392469,1.068164,-0.045483,-1.229151,-0.025268,2.385101,1.522556
5406.600000000,0.392926,1.068328,-0.045378,-1.229280,0.009453,2.385168,1.460233
5406.609000000,0.392291,1.068069,-0.045540,-1.229110,-0.035509,2.385107,1.542264
5406.634000000,0.392921,1.068333,-0.045373,-1.229285,0.009450,2.385167,1.460239
5406.643000000,0.392243,1.068035,-0.045558,-1.229091,-0.043586,2.385094,1.560823
5406.667000000,0.392926,1.068331,-0.045376,-1.229285,0.009454,2.385168,1.460239
5406.677000000,0.392213,1.068037,-0.045556,-1.229062,-0.052424,2.385082,1.580519
5406.702000000,0.392924,1.068333,-0.045379,-1.229280,0.009452,2.385168,1.460239
5406.710000000,0.392280,1.068027,-0.045653,-1.229098,-0.060349,2.385126,1.598344
5406.729000000,0.392926,1.068326,-0.045373,-1.229280,0.009453,2.385168,1.460238
5406.745000000,0.392463,1.068066,-0.045708,-1.229293,-0.060577,2.385119,1.600077
5406.762000000,0.392926,1.068333,-0.045373,-1.229283,0.009450,2.385167,1.460243
5406.779000000,0.392680,1.068308,-0.045517,-1.229316,-0.046621,2.385083,1.558403
5406.799000000,0.392924,1.068333,-0.045378,-1.229286,0.009455,2.385166,1.460238
5406.813000000,0.392812,1.068398,-0.045454,-1.229348,-0.037905,2.385077,1.522668
5406.834000000,0.392924,1.068326,-0.045376,-1.229285,0.009452,2.385168,1.460239
5406.847000000,0.392795,1.068404,-0.045385,-1.229237,-0.036577,2.385134,1.509560
5406.868000000,0.392926,1.068328,-0.045376,-1.229278,0.009455,2.385166,1.460236
5406.882000000,0.392650,1.068258,-0.045384,-1.229179,-0.047486,2.385070,1.528837
5406.902000000,0.392926,1.068331,-0.045376,-1.229285,0.009451,2.385167,1.460239
5406.918000000,0.392597,1.068226,-0.045397,-1.229140,-0.056713,2.385076,1.534337
5406.935000000,0.392924,1.068323,-0.045371,-1.229283,0.009451,2.385165,1.460239
5406.952000000,0.392555,1.068198,-0.045382,-1.229129,-0.066031,2.385069,1.540668
5406.970000000,0.392924,1.068328,-0.045376,-1.229280,0.009449,2.385168,1.460240
5406.985000000,0.392618,1.068187,-0.045477,-1.229157,-0.074560,2.385110,1.545736
5407.005000000,0.392926,1.068330,-0.045376,-1.229290,0.009454,2.385170,1.460238
5407.020000000,0.392539,1.068189,-0.045385,-1.229101,-0.084867,2.385055,1.555112
5407.038000000,0.392921,1.068330,-0.045373,-1.229285,0.009450,2.385169,1.460232
5407.054000000,0.392527,1.068177,-0.045371,-1.229102,-0.094406,2.385052,1.563093
5407.071000000,0.392926,1.068328,-0.045378,-1.229285,0.009450,2.385168,1.460240
5407.089000000,0.392607,1.068179,-0.045472,-1.229126,-0.103870,2.385096,1.570214
5407.105000000,0.392926,1.068326,-0.045376,-1.229285,0.009449,2.385166,1.460242
5407.123000000,0.392601,1.068167,-0.045468,-1.229131,-0.113801,2.385104,1.579204
5407.137000000,0.392921,1.068328,-0.045378,-1.229285,0.009450,2.385168,1.460236
5407.167000000,0.392537,1.068156,-0.045391,-1.229096,-0.127044,2.385046,1.592706
5407.171000000,0.392924,1.068331,-0.045376,-1.229288,0.009453,2.385168,1.460236
5407.199000000,0.392600,1.068142,-0.045482,-1.229130,-0.137117,2.385098,1.601095
5407.202000000,0.392929,1.068326,-0.045376,-1.229283,0.009450,2.385167,1.460236
5407.234000000,0.392926,1.068330,-0.045371,-1.229285,0.009453,2.385168,1.460238
5407.234000000,0.392517,1.068141,-0.045386,-1.229077,-0.149215,2.385034,1.613763
5407.268000000,0.393392,1.068607,-0.045376,-1.229516,-0.107454,2.385176,1.564764
5407.268000000,0.392924,1.068333,-0.045373,-1.229280,0.009449,2.385168,1.460240
5407.302000000,0.393474,1.068801,-0.045039,-1.229487,-0.077539,2.385050,1.528537
5407.302000000,0.392926,1.068331,-0.045371,-1.229283,0.009449,2.385168,1.460240
5407.334000000,0.392924,1.068333,-0.045376,-1.229283,0.009451,2.385169,1.460235
5407.337000000,0.393446,1.068716,-0.045139,-1.229479,-0.056083,2.385077,1.497180
5407.367000000,0.392924,1.068333,-0.045376,-1.229285,0.009453,2.385167,1.460240
5407.370000000,0.393223,1.068558,-0.045247,-1.229367,-0.043533,2.385091,1.475785
5407.400000000,0.392924,1.068328,-0.045376,-1.229285,0.009448,2.385167,1.460242
5407.403000000,0.392709,1.068244,-0.045365,-1.229135,-0.056101,2.385118,1.491453
5407.434000000,0.392926,1.068330,-0.045373,-1.229280,0.009450,2.385166,1.460236
5407.438000000,0.392575,1.068136,-0.045426,-1.229120,-0.061794,2.385087,1.491272
5407.467000000,0.392926,1.068331,-0.045373,-1.229283,0.009453,2.385163,1.460239
5407.471000000,0.392508,1.068094,-0.045449,-1.229089,-0.070511,2.385095,1.494289
5407.499000000,0.392929,1.068323,-0.045374,-1.229288,0.009450,2.385167,1.460240
5407.506000000,0.392659,1.068132,-0.045588,-1.229152,-0.074915,2.385217,1.494725
5407.531000000,0.392921,1.068331,-0.045373,-1.229280,0.009453,2.385170,1.460235
5407.539000000,0.392968,1.068353,-0.045299,-1.229275,-0.055088,2.385143,1.481411
5407.564000000,0.392924,1.068331,-0.045376,-1.229283,0.009452,2.385168,1.460237
5407.573000000,0.393070,1.068428,-0.045200,-1.229300,-0.043081,2.385115,1.475086
5407.598000000,0.392929,1.068326,-0.045373,-1.229285,0.009451,2.385169,1.460242
5407.607000000,0.393056,1.068435,-0.045201,-1.229274,-0.035571,2.385116,1.473085
5407.632000000,0.392921,1.068331,-0.045376,-1.229280,0.009448,2.385169,1.460243
5407.642000000,0.393064,1.068371,-0.045340,-1.229307,-0.029929,2.385146,1.472265
5407.666000000,0.392921,1.068331,-0.045376,-1.229285,0.009450,2.385163,1.460245
5407.676000000,0.392991,1.068337,-0.045395,-1.229271,-0.026759,2.385157,1.475287
5407.700000000,0.392926,1.068326,-0.045378,-1.229280,0.009453,2.385167,1.460232
5407.710000000,0.392883,1.068282,-0.045405,-1.229243,-0.025748,2.385148,1.480811
5407.733000000,0.392921,1.068331,-0.045376,-1.229280,0.009453,2.385168,1.460232
5407.745000000,0.392751,1.068212,-0.045463,-1.229235,-0.031495,2.385147,1.490987
5407.767000000,0.392921,1.068328,-0.045376,-1.229288,0.009453,2.385166,1.460236
5407.779000000,0.392746,1.068261,-0.045357,-1.229214,-0.028480,2.385112,1.485282
5407.800000000,0.392924,1.068328,-0.045376,-1.229280,0.009451,2.385167,1.460234
5407.814000000,0.392828,1.068230,-0.045558,-1.229277,-0.031680,2.385170,1.484233
5407.834000000,0.392926,1.068330,-0.045373,-1.229283,0.009455,2.385169,1.460242
5407.847000000,0.392799,1.068300,-0.045365,-1.229228,-0.028610,2.385115,1.481490
5407.869000000,0.392926,1.068326,-0.045373,-1.229285,0.009453,2.385168,1.460237
5407.881000000,0.392668,1.068215,-0.045420,-1.229193,-0.037841,2.385120,1.488223
5407.902000000,0.392926,1.068336,-0.045378,-1.229280,0.009450,2.385168,1.460240
5407.915000000,0.392613,1.068178,-0.045432,-1.229174,-0.046014,2.385113,1.494820
5407.936000000,0.392927,1.068328,-0.045373,-1.229285,0.009454,2.385167,1.460235
5407.950000000,0.392657,1.068166,-0.045526,-1.229191,-0.054312,2.385145,1.500948
5407.965000000,0.392921,1.068328,-0.045376,-1.229280,0.009450,2.385169,1.460240
5407.984000000,0.392902,1.068252,-0.045525,-1.229317,-0.049780,2.385170,1.496159
5407.999000000,0.392924,1.068325,-0.045376,-1.229288,0.009453,2.385168,1.460241
5408.018000000,0.393070,1.068413,-0.045386,-1.229334,-0.039042,2.385149,1.484540
5408.032000000,0.392926,1.068328,-0.045373,-1.229288,0.009449,2.385168,1.460235
5408.052000000,0.393100,1.068437,-0.045331,-1.229347,-0.032381,2.385145,1.477052
5408.067000000,0.392924,1.068325,-0.045376,-1.229283,0.009449,2.385169,1.460239
5408.087000000,0.392989,1.068380,-0.045322,-1.229290,-0.032099,2.385103,1.475565
5408.101000000,0.392924,1.068330,-0.045376,-1.229285,0.009451,2.385168,1.460237
5408.120000000,0.392856,1.068281,-0.045457,-1.229239,-0.041988,2.385134,1.483107
5408.134000000,0.392929,1.068328,-0.045373,-1.229283,0.009452,2.385168,1.460237
5408.154000000,0.392792,1.068228,-0.045488,-1.229225,-0.050643,2.385142,1.490332
5408.167000000,0.392921,1.068328,-0.045376,-1.229283,0.009452,2.385166,1.460235
5408.188000000,0.392777,1.068195,-0.045529,-1.229224,-0.059701,2.385143,1.498458
5408.200000000,0.392929,1.068330,-0.045373,-1.229288,0.009449,2.385167,1.460242
5408.222000000,0.392780,1.068196,-0.045558,-1.229208,-0.068923,2.385150,1.507194
5408.235000000,0.392927,1.068330,-0.045376,-1.229283,0.009450,2.385168,1.460240
5408.258000000,0.392787,1.068186,-0.045581,-1.229208,-0.078848,2.385156,1.517010
5408.269000000,0.392921,1.068325,-0.045373,-1.229280,0.009452,2.385168,1.460235
5408.292000000,0.392785,1.068173,-0.045589,-1.229213,-0.088562,2.385166,1.526899
5408.303000000,0.392924,1.068330,-0.045373,-1.229285,0.009447,2.385167,1.460242
5408.326000000,0.392799,1.068158,-0.045612,-1.229222,-0.098458,2.385167,1.537220
5408.338000000,0.392929,1.068328,-0.045373,-1.229280,0.009453,2.385167,1.460233
5408.360000000,0.392817,1.068167,-0.045636,-1.229212,-0.108435,2.385176,1.547832
5408.371000000,0.392924,1.068328,-0.045378,-1.229280,0.009455,2.385165,1.460242
5408.395000000,0.392741,1.068149,-0.045544,-1.229184,-0.119560,2.385124,1.560822
5408.405000000,0.392924,1.068328,-0.045376,-1.229285,0.009450,2.385169,1.460239
5408.429000000,0.392733,1.068160,-0.045532,-1.229158,-0.130268,2.385106,1.572320
5408.439000000,0.392926,1.068330,-0.045376,-1.229283,0.009450,2.385169,1.460232
5408.463000000,0.392712,1.068149,-0.045503,-1.229153,-0.141028,2.385092,1.583924
5408.472000000,0.392924,1.068330,-0.045373,-1.229288,0.009450,2.385168,1.460235
5408.497000000,0.392702,1.068137,-0.045492,-1.229147,-0.152028,2.385074,1.595761
5408.507000000,0.392931,1.068328,-0.045376,-1.229280,0.009448,2.385169,1.460243
5408.531000000,0.392691,1.068148,-0.045476,-1.229120,-0.163158,2.385051,1.607688
5408.541000000,0.392929,1.068328,-0.045376,-1.229283,0.009451,2.385168,1.460236
5408.565000000,0.392670,1.068138,-0.045446,-1.229114,-0.174358,2.385034,1.619615
5408.576000000,0.392921,1.068331,-0.045378,-1.229280,0.009454,2.385169,1.460243
5408.599000000,0.392660,1.068126,-0.045434,-1.229109,-0.185748,2.385013,1.631617
5408.610000000,0.392924,1.068330,-0.045376,-1.229283,0.009455,2.385167,1.460238
5408.633000000,0.392648,1.068136,-0.045417,-1.229081,-0.197349,2.384987,1.643669
5408.644000000,0.392921,1.068333,-0.045376,-1.229283,0.009454,2.385169,1.460240
5408.667000000,0.392626,1.068126,-0.045386,-1.229073,-0.209031,2.384965,1.655624
5408.678000000,0.392926,1.068331,-0.045376,-1.229288,0.009451,2.385170,1.460240
5408.701000000,0.393710,1.068753,-0.045350,-1.229679,-0.151236,2.385189,1.595186
5408.711000000,0.392924,1.068327,-0.045371,-1.229283,0.009454,2.385164,1.460238
5408.734000000,0.393841,1.069042,-0.044892,-1.229640,-0.104837,2.385017,1.550401
5408.745000000,0.392918,1.068327,-0.045378,-1.229283,0.009452,2.385168,1.460234
5408.769000000,0.393719,1.068918,-0.044987,-1.229557,-0.072787,2.385045,1.515611
5408.779000000,0.392926,1.068327,-0.045373,-1.229283,0.009450,2.385169,1.460242
5408.802000000,0.393273,1.068643,-0.045033,-1.229365,-0.055208,2.385023,1.496507
5408.813000000,0.392926,1.068328,-0.045378,-1.229280,0.009452,2.385169,1.460238
5408.836000000,0.392905,1.068346,-0.045235,-1.229233,-0.043283,2.385061,1.481752
5408.845000000,0.392929,1.068333,-0.045373,-1.229288,0.009452,2.385167,1.460237
5408.872000000,0.392693,1.068130,-0.045499,-1.229161,-0.034902,2.385138,1.469730
5408.879000000,0.392926,1.068328,-0.045378,-1.229283,0.009453,2.385168,1.460244
5408.905000000,0.392536,1.067996,-0.045610,-1.229118,-0.029964,2.385165,1.462958
5408.913000000,0.392926,1.068328,-0.045376,-1.229283,0.009451,2.385170,1.460234
5408.939000000,0.392482,1.067973,-0.045656,-1.229089,-0.026795,2.385183,1.458688
5408.946000000,0.392926,1.068330,-0.045376,-1.229280,0.009450,2.385167,1.460240
5408.974000000,0.392423,1.067981,-0.045546,-1.229086,-0.025369,2.385176,1.458015
5408.982000000,0.392921,1.068333,-0.045373,-1.229283,0.009454,2.385166,1.460237
5409.008000000,0.392507,1.068060,-0.045514,-1.229103,-0.024046,2.385177,1.457184
5409.017000000,0.392924,1.068330,-0.045373,-1.229285,0.009455,2.385166,1.460240
5409.044000000,0.392691,1.068122,-0.045560,-1.229197,-0.022566,2.385190,1.455916
5409.050000000,0.392924,1.068325,-0.045376,-1.229280,0.009453,2.385168,1.460243
5409.077000000,0.392800,1.068214,-0.045516,-1.229222,-0.022021,2.385186,1.457395
5409.083000000,0.392926,1.068326,-0.045376,-1.229285,0.009453,2.385167,1.460232
5409.112000000,0.392802,1.068265,-0.045361,-1.229234,-0.022339,2.385159,1.461620
5409.118000000,0.392926,1.068330,-0.045373,-1.229280,0.009451,2.385168,1.460238
5409.145000000,0.392950,1.068308,-0.045430,-1.229294,-0.021515,2.385171,1.463081
5409.152000000,0.392924,1.068328,-0.045376,-1.229280,0.009455,2.385168,1.460238
5409.180000000,0.392907,1.068348,-0.045295,-1.229264,-0.022033,2.385150,1.468978
5409.185000000,0.392924,1.068331,-0.045376,-1.229283,0.009452,2.385169,1.460235
5409.214000000,0.392936,1.068354,-0.045294,-1.229279,-0.021971,2.385146,1.473818
5409.217000000,0.392921,1.068328,-0.045373,-1.229285,0.009450,2.385169,1.460239
5409.249000000,0.393022,1.068365,-0.045386,-1.229311,-0.021329,2.385172,1.477874
5409.253000000,0.392926,1.068328,-0.045371,-1.229280,0.009452,2.385167,1.460242
5409.284000000,0.392942,1.068369,-0.045295,-1.229263,-0.021970,2.385142,1.486140
5409.286000000,0.392929,1.068330,-0.045376,-1.229283,0.009450,2.385168,1.460235
5409.318000000,0.392924,1.068354,-0.045289,-1.229268,-0.021995,2.385146,1.493241
5409.320000000,0.392926,1.068331,-0.045379,-1.229288,0.009452,2.385167,1.460239
5409.353000000,0.393008,1.068350,-0.045415,-1.229295,-0.021377,2.385171,1.499598
5409.353000000,0.392929,1.068330,-0.045376,-1.229288,0.009450,2.385169,1.460238
5409.387000000,0.392988,1.068335,-0.045409,-1.229300,-0.021466,2.385178,1.508222
5409.388000000,0.392921,1.068327,-0.045376,-1.229283,0.009453,2.385167,1.460240
5409.421000000,0.392982,1.068320,-0.045420,-1.229307,-0.021517,2.385170,1.516854
5409.422000000,0.392926,1.068327,-0.045371,-1.229283,0.009455,2.385167,1.460239
5409.455000000,0.392921,1.068326,-0.045376,-1.229285,0.009454,2.385166,1.460242
5409.456000000,0.392883,1.068328,-0.045313,-1.229261,-0.022217,2.385140,1.526041
5409.489000000,0.392926,1.068327,-0.045376,-1.229288,0.009454,2.385168,1.460239
5409.489000000,0.392846,1.068290,-0.045400,-1.229243,-0.026669,2.385146,1.534930
5409.523000000,0.392926,1.068328,-0.045376,-1.229280,0.009449,2.385165,1.460234
5409.524000000,0.392682,1.068230,-0.045383,-1.229173,-0.037690,2.385117,1.552711
5409.557000000,0.392720,1.068202,-0.045501,-1.229194,-0.046486,2.385156,1.566456
5409.558000000,0.392924,1.068330,-0.045371,-1.229285,0.009450,2.385168,1.460240
5409.592000000,0.392926,1.068328,-0.045376,-1.229283,0.009451,2.385168,1.460240
5409.592000000,0.392849,1.068301,-0.045372,-1.229292,-0.042548,2.385115,1.559230
5409.625000000,0.392924,1.068333,-0.045378,-1.229280,0.009453,2.385168,1.460236
5409.626000000,0.392784,1.068333,-0.045283,-1.229190,-0.046628,2.385095,1.569691
5409.660000000,0.392711,1.068256,-0.045310,-1.229172,-0.057050,2.385097,1.593608
5409.660000000,0.392918,1.068326,-0.045376,-1.229283,0.009453,2.385166,1.460236
5409.693000000,0.392924,1.068333,-0.045371,-1.229280,0.009450,2.385167,1.460243
5409.694000000,0.393049,1.068382,-0.045392,-1.229377,-0.047046,2.385129,1.574391
5409.726000000,0.392929,1.068325,-0.045373,-1.229285,0.009450,2.385165,1.460239
5409.728000000,0.392945,1.068368,-0.045348,-1.229267,-0.051818,2.385146,1.588989
5409.761000000,0.392926,1.068330,-0.045373,-1.229285,0.009451,2.385168,1.460235
5409.762000000,0.392888,1.068273,-0.045431,-1.229260,-0.062074,2.385155,1.613890
5409.795000000,0.392926,1.068330,-0.045373,-1.229283,0.009450,2.385170,1.460235
5409.796000000,0.392864,1.068250,-0.045474,-1.229233,-0.072238,2.385171,1.638284
5409.829000000,0.392926,1.068331,-0.045378,-1.229283,0.009452,2.385169,1.460243
5409.830000000,0.392844,1.068220,-0.045493,-1.229234,-0.082764,2.385188,1.663344
5409.862000000,0.392926,1.068330,-0.045373,-1.229285,0.009450,2.385169,1.460235
5409.865000000,0.392848,1.068196,-0.045522,-1.229241,-0.093432,2.385195,1.688878
5409.896000000,0.392929,1.068325,-0.045376,-1.229285,0.009452,2.385166,1.460238
5409.899000000,0.392765,1.068197,-0.045432,-1.229185,-0.105333,2.385121,1.717469
5409.929000000,0.392927,1.068330,-0.045376,-1.229283,0.009450,2.385167,1.460240
5409.934000000,0.392839,1.068191,-0.045534,-1.229216,-0.116502,2.385196,1.743433
5409.963000000,0.392926,1.068330,-0.045373,-1.229285,0.009451,2.385167,1.460240
5409.968000000,0.393248,1.068554,-0.045312,-1.229536,-0.087019,2.385035,1.658386
5409.997000000,0.392926,1.068326,-0.045376,-1.229288,0.009450,2.385168,1.460238
5410.002000000,0.393352,1.068744,-0.045144,-1.229493,-0.065025,2.385030,1.603914
5410.030000000,0.392929,1.068328,-0.045371,-1.229288,0.009451,2.385167,1.460242
5410.037000000,0.393346,1.068679,-0.045241,-1.229499,-0.049313,2.385080,1.555920
5410.064000000,0.392924,1.068323,-0.045376,-1.229285,0.009450,2.385167,1.460234
5410.071000000,0.393171,1.068562,-0.045302,-1.229397,-0.039879,2.385085,1.517062
5410.097000000,0.392924,1.068328,-0.045376,-1.229288,0.009454,2.385167,1.460243
5410.105000000,0.392993,1.068405,-0.045378,-1.229320,-0.033778,2.385121,1.486421
5410.131000000,0.392926,1.068328,-0.045373,-1.229285,0.009450,2.385169,1.460234
5410.139000000,0.392873,1.068270,-0.045458,-1.229266,-0.029628,2.385141,1.462578
5410.165000000,0.392921,1.068325,-0.045378,-1.229285,0.009452,2.385167,1.460239
5410.172000000,0.392716,1.068191,-0.045399,-1.229190,-0.027527,2.385149,1.445680
5410.200000000,0.392924,1.068328,-0.045378,-1.229283,0.009449,2.385168,1.460238
5410.207000000,0.392755,1.068155,-0.045501,-1.229195,-0.025075,2.385173,1.428757
5410.233000000,0.392924,1.068333,-0.045378,-1.229285,0.009454,2.385169,1.460236
5410.241000000,0.392668,1.068066,-0.045623,-1.229159,-0.032933,2.385271,1.425106
5410.267000000,0.392924,1.068330,-0.045373,-1.229285,0.009455,2.385168,1.460239
5410.275000000,0.392813,1.068130,-0.045514,-1.229167,-0.028674,2.385227,1.435943
5410.302000000,0.392921,1.068328,-0.045376,-1.229285,0.009454,2.385168,1.460235
5410.309000000,0.392698,1.068068,-0.045551,-1.229151,-0.036942,2.385213,1.442504
5410.335000000,0.392926,1.068331,-0.045376,-1.229283,0.009451,2.385166,1.460239
5410.342000000,0.392579,1.068047,-0.045490,-1.229101,-0.045060,2.385198,1.446907
5410.370000000,0.392926,1.068328,-0.045373,-1.229283,0.009448,2.385170,1.460235
5410.377000000,0.392655,1.068042,-0.045625,-1.229127,-0.052810,2.385221,1.449042
5410.402000000,0.392921,1.068323,-0.045378,-1.229280,0.009453,2.385168,1.460238
5410.411000000,0.392629,1.068030,-0.045604,-1.229125,-0.061123,2.385225,1.453419
5410.431000000,0.392924,1.068326,-0.045373,-1.229278,0.009452,2.385168,1.460242
5410.445000000,0.392840,1.068080,-0.045693,-1.229242,-0.062229,2.385339,1.457564
5410.466000000,0.392926,1.068331,-0.045376,-1.229280,0.009451,2.385168,1.460238
5410.479000000,0.393124,1.068287,-0.045443,-1.229261,-0.047667,2.385263,1.468887
5410.501000000,0.392921,1.068326,-0.045378,-1.229278,0.009452,2.385166,1.460242
5410.513000000,0.393150,1.068342,-0.045308,-1.229264,-0.040213,2.385194,1.484507
5410.535000000,0.392926,1.068328,-0.045376,-1.229283,0.009452,2.385169,1.460234
5410.547000000,0.392955,1.068220,-0.045454,-1.229239,-0.050110,2.385188,1.499163
5410.568000000,0.392926,1.068333,-0.045378,-1.229283,0.009450,2.385169,1.460239
5410.581000000,0.392888,1.068203,-0.045511,-1.229202,-0.058004,2.385197,1.509821
5410.602000000,0.392916,1.068333,-0.045378,-1.229280,0.009450,2.385168,1.460233
5410.615000000,0.392852,1.068173,-0.045538,-1.229208,-0.066693,2.385206,1.521627
5410.637000000,0.392926,1.068330,-0.045376,-1.229283,0.009450,2.385168,1.460234
5410.649000000,0.392852,1.068156,-0.045567,-1.229211,-0.075413,2.385205,1.533882
5410.671000000,0.392924,1.068328,-0.045376,-1.229285,0.009453,2.385169,1.460235
5410.683000000,0.392862,1.068164,-0.045591,-1.229200,-0.084315,2.385212,1.546638
5410.705000000,0.392918,1.068328,-0.045376,-1.229285,0.009448,2.385166,1.460237
5410.717000000,0.392860,1.068151,-0.045597,-1.229210,-0.093451,2.385222,1.559877
5410.739000000,0.392929,1.068331,-0.045373,-1.229283,0.009452,2.385167,1.460238
5410.751000000,0.392874,1.068138,-0.045620,-1.229218,-0.102693,2.385223,1.573472
5410.773000000,0.392929,1.068328,-0.045373,-1.229285,0.009454,2.385169,1.460234
5410.785000000,0.392891,1.068149,-0.045641,-1.229209,-0.112054,2.385232,1.587388
5410.807000000,0.392924,1.068330,-0.045376,-1.229285,0.009448,2.385168,1.460243
5410.819000000,0.392892,1.068137,-0.045646,-1.229219,-0.121653,2.385243,1.601682
5410.841000000,0.392924,1.068323,-0.045373,-1.229285,0.009450,2.385169,1.460237
5410.852000000,0.392820,1.068137,-0.045552,-1.229173,-0.131690,2.385175,1.617498
5410.875000000,0.392924,1.068333,-0.045373,-1.229285,0.009451,2.385168,1.460243
5410.887000000,0.392912,1.068139,-0.045666,-1.229210,-0.141189,2.385243,1.631018
5410.909000000,0.392926,1.068331,-0.045376,-1.229280,0.009449,2.385168,1.460237
5410.921000000,0.392904,1.068129,-0.045656,-1.229214,-0.151257,2.385250,1.646102
5410.943000000,0.392926,1.068333,-0.045376,-1.229284,0.009453,2.385170,1.460235
5410.955000000,0.392830,1.068128,-0.045564,-1.229165,-0.161776,2.385168,1.662647
5410.976000000,0.392921,1.068330,-0.045376,-1.229283,0.009450,2.385167,1.460238
5410.989000000,0.392922,1.068129,-0.045678,-1.229206,-0.171760,2.385251,1.676856
5411.009000000,0.392929,1.068328,-0.045378,-1.229285,0.009451,2.385168,1.460242
5411.024000000,0.392835,1.068115,-0.045570,-1.229164,-0.183220,2.385154,1.694719
5411.043000000,0.392926,1.068330,-0.045376,-1.229283,0.009449,2.385168,1.460236
5411.057000000,0.392916,1.068106,-0.045673,-1.229213,-0.193009,2.385246,1.708465
5411.077000000,0.392926,1.068328,-0.045376,-1.229285,0.009452,2.385168,1.460240
5411.092000000,0.392831,1.068113,-0.045563,-1.229152,-0.204801,2.385140,1.726697
5411.111000000,0.392926,1.068333,-0.045373,-1.229288,0.009454,2.385167,1.460238
5411.126000000,0.392827,1.068099,-0.045559,-1.229150,-0.215976,2.385121,1.743068
5411.144000000,0.392921,1.068325,-0.045377,-1.229280,0.009450,2.385170,1.460240
5411.160000000,0.392817,1.068111,-0.045541,-1.229121,-0.227264,2.385090,1.759560
5411.178000000,0.392929,1.068331,-0.045373,-1.229283,0.009448,2.385168,1.460239
5411.194000000,0.392795,1.068100,-0.045511,-1.229113,-0.238782,2.385063,1.776271
5411.212000000,0.392931,1.068323,-0.045376,-1.229285,0.009453,2.385168,1.460236
5411.228000000,0.392785,1.068088,-0.045500,-1.229106,-0.250541,2.385035,1.793233
5411.246000000,0.392918,1.068330,-0.045378,-1.229280,0.009453,2.385167,1.460240
5411.262000000,0.392774,1.068099,-0.045482,-1.229075,-0.262429,2.384999,1.810346
5411.278000000,0.392918,1.068331,-0.045376,-1.229283,0.009451,2.385168,1.460239
5411.296000000,0.392752,1.068088,-0.045451,-1.229066,-0.274516,2.384968,1.827675
5411.309000000,0.392929,1.068333,-0.045371,-1.229278,0.009452,2.385168,1.460236
5411.329000000,0.392825,1.068077,-0.045550,-1.229117,-0.285803,2.385103,1.843025
5411.344000000,0.392934,1.068320,-0.045373,-1.229283,0.009454,2.385166,1.460244
5411.363000000,0.392840,1.068062,-0.045570,-1.229131,-0.297939,2.385120,1.860576
5411.371000000,0.392921,1.068328,-0.045371,-1.229285,0.009453,2.385168,1.460233
5411.398000000,0.392760,1.068070,-0.045460,-1.229061,-0.311322,2.384968,1.880684
5411.401000000,0.392931,1.068328,-0.045373,-1.229283,0.009454,2.385168,1.460240
5411.432000000,0.392752,1.068056,-0.045447,-1.229054,-0.324217,2.384934,1.899135
5411.432000000,0.392927,1.068328,-0.045376,-1.229285,0.009450,2.385168,1.460233
5411.466000000,0.393990,1.068986,-0.045372,-1.229907,-0.244981,2.385178,1.793559
5411.469000000,0.392910,1.068334,-0.045381,-1.229280,0.009454,2.385168,1.460241
5411.500000000,0.393480,1.068814,-0.045143,-1.229441,-0.243011,2.385029,1.801248
5411.506000000,0.392937,1.068331,-0.045368,-1.229283,0.009450,2.385168,1.460242
5411.534000000,0.394139,1.069214,-0.045062,-1.229909,-0.175216,2.385058,1.713071
5411.542000000,0.392932,1.068326,-0.045371,-1.229283,0.009454,2.385169,1.460241
5411.568000000,0.394063,1.069260,-0.044822,-1.229776,-0.119759,2.384953,1.640314
5411.577000000,0.392918,1.068330,-0.045378,-1.229283,0.009448,2.385168,1.460236
5411.602000000,0.393646,1.068947,-0.044916,-1.229528,-0.083583,2.384949,1.585567
5411.612000000,0.392936,1.068328,-0.045376,-1.229285,0.009454,2.385167,1.460233
5411.637000000,0.393187,1.068483,-0.045258,-1.229348,-0.059776,2.385046,1.540979
5411.646000000,0.392916,1.068326,-0.045376,-1.229285,0.009452,2.385169,1.460242
5411.671000000,0.392731,1.068129,-0.045491,-1.229146,-0.045966,2.385094,1.508216
5411.681000000,0.392921,1.068333,-0.045376,-1.229285,0.009450,2.385167,1.460232
5411.705000000,0.392416,1.067882,-0.045649,-1.229042,-0.037251,2.385149,1.481261
5411.715000000,0.392932,1.068325,-0.045376,-1.229283,0.009451,2.385168,1.460242
5411.739000000,0.392279,1.067769,-0.045746,-1.229003,-0.031568,2.385185,1.458873
5411.748000000,0.392921,1.068333,-0.045376,-1.229283,0.009453,2.385167,1.460236
5411.773000000,0.392287,1.067787,-0.045768,-1.228995,-0.027898,2.385209,1.443624
5411.779000000,0.392931,1.068328,-0.045378,-1.229283,0.009452,2.385168,1.460236
5411.806000000,0.392926,1.068323,-0.045376,-1.229280,0.009451,2.385167,1.460233
5411.807000000,0.392366,1.067855,-0.045715,-1.229045,-0.025482,2.385217,1.430571
5411.841000000,0.392508,1.067959,-0.045656,-1.229112,-0.023880,2.385205,1.419266
5411.844000000,0.392924,1.068328,-0.045378,-1.229283,0.009450,2.385170,1.460234
5411.875000000,0.392665,1.068096,-0.045587,-1.229159,-0.022776,2.385197,1.409354
5411.879000000,0.392926,1.068331,-0.045373,-1.229280,0.009454,2.385169,1.460240
5411.909000000,0.392791,1.068197,-0.045504,-1.229220,-0.022084,2.385193,1.401011
5411.914000000,0.392926,1.068330,-0.045376,-1.229288,0.009454,2.385169,1.460234
5411.942000000,0.392814,1.068280,-0.045341,-1.229228,-0.022208,2.385170,1.396077
5411.949000000,0.392924,1.068328,-0.045376,-1.229288,0.009451,2.385168,1.460240
5411.977000000,0.392989,1.068346,-0.045420,-1.229286,-0.021189,2.385169,1.388465
5411.983000000,0.392927,1.068328,-0.045376,-1.229283,0.009451,2.385169,1.460234
5412.011000000,0.393025,1.068371,-0.045384,-1.229312,-0.020967,2.385167,1.383817
5412.018000000,0.392924,1.068328,-0.045378,-1.229283,0.009452,2.385166,1.460232
5412.046000000,0.392969,1.068392,-0.045280,-1.229276,-0.021403,2.385149,1.381550
5412.053000000,0.392926,1.068326,-0.045376,-1.229285,0.009449,2.385168,1.460238
5412.080000000,0.392960,1.068383,-0.045269,-1.229285,-0.021265,2.385152,1.378457
5412.086000000,0.392934,1.068330,-0.045376,-1.229283,0.009455,2.385169,1.460233
5412.114000000,0.392955,1.068364,-0.045286,-1.229290,-0.021156,2.385151,1.376115
5412.122000000,0.392918,1.068333,-0.045378,-1.229280,0.009452,2.385169,1.460238
5412.148000000,0.392943,1.068368,-0.045298,-1.229266,-0.021088,2.385151,1.374514
5412.154000000,0.392929,1.068328,-0.045376,-1.229283,0.009455,2.385168,1.460242
5412.182000000,0.392917,1.068347,-0.045295,-1.229268,-0.021026,2.385157,1.373606
5412.188000000,0.392924,1.068331,-0.045376,-1.229285,0.009451,2.385166,1.460237
5412.216000000,0.392908,1.068328,-0.045313,-1.229271,-0.020976,2.385156,1.373402
5412.223000000,0.392918,1.068331,-0.045376,-1.229280,0.009453,2.385167,1.460238
5412.250000000,0.392900,1.068336,-0.045321,-1.229251,-0.020956,2.385155,1.373895
5412.257000000,0.392926,1.068323,-0.045376,-1.229288,0.009452,2.385167,1.460236
5412.284000000,0.392883,1.068324,-0.045312,-1.229258,-0.020932,2.385159,1.375038
5412.292000000,0.392921,1.068330,-0.045373,-1.229280,0.009453,2.385167,1.460238
5412.318000000,0.392885,1.068312,-0.045324,-1.229266,-0.020916,2.385158,1.376846
5412.325000000,0.392929,1.068328,-0.045378,-1.229283,0.009450,2.385169,1.460236
5412.352000000,0.392887,1.068328,-0.045327,-1.229248,-0.020924,2.385156,1.379313
5412.360000000,0.392926,1.068326,-0.045376,-1.229280,0.009450,2.385168,1.460242
5412.386000000,0.392975,1.068328,-0.045436,-1.229283,-0.020275,2.385165,1.380578
5412.390000000,0.392924,1.068328,-0.045376,-1.229280,0.009450,2.385169,1.460234
5412.420000000,0.392888,1.068314,-0.045324,-1.229265,-0.020936,2.385158,1.386115
5412.422000000,0.392924,1.068328,-0.045376,-1.229280,0.009454,2.385165,1.460243
5412.452000000,0.392926,1.068326,-0.045376,-1.229288,0.009452,2.385167,1.460242
5412.453000000,0.392973,1.068315,-0.045426,-1.229298,-0.020335,2.385163,1.388614
5412.488000000,0.392924,1.068330,-0.045373,-1.229285,0.009452,2.385168,1.460240
5412.488000000,0.392794,1.068293,-0.045306,-1.229224,-0.024834,2.385107,1.394393
5412.522000000,0.392689,1.068226,-0.045387,-1.229214,-0.034452,2.385113,1.393954
5412.522000000,0.392926,1.068328,-0.045378,-1.229288,0.009452,2.385167,1.460243
5412.556000000,0.392873,1.068300,-0.045382,-1.229223,-0.033982,2.385225,1.409857
5412.557000000,0.392926,1.068327,-0.045371,-1.229285,0.009452,2.385170,1.460242
5412.589000000,0.393103,1.068353,-0.045382,-1.229287,-0.028938,2.385211,1.435202
5412.591000000,0.392926,1.068328,-0.045376,-1.229283,0.009453,2.385169,1.460231
5412.624000000,0.393056,1.068357,-0.045233,-1.229282,-0.026625,2.385163,1.460886
5412.626000000,0.392926,1.068328,-0.045378,-1.229283,0.009452,2.385169,1.460235
5412.658000000,0.393117,1.068357,-0.045341,-1.229322,-0.024219,2.385167,1.477336
5412.661000000,0.392924,1.068330,-0.045373,-1.229280,0.009451,2.385168,1.460237
5412.692000000,0.392973,1.068360,-0.045257,-1.229275,-0.023730,2.385137,1.494135
5412.695000000,0.392926,1.068326,-0.045376,-1.229283,0.009454,2.385168,1.460240
5412.726000000,0.392921,1.068340,-0.045299,-1.229280,-0.023068,2.385130,1.506234
5412.728000000,0.392927,1.068328,-0.045376,-1.229290,0.009454,2.385169,1.460237
5412.762000000,0.392876,1.068345,-0.045329,-1.229260,-0.022702,2.385125,1.516144
5412.762000000,0.392924,1.068325,-0.045373,-1.229280,0.009451,2.385166,1.460235
5412.795000000,0.392920,1.068320,-0.045446,-1.229312,-0.021870,2.385155,1.522614
5412.796000000,0.392926,1.068330,-0.045376,-1.229283,0.009452,2.385168,1.460232
5412.830000000,0.392816,1.068326,-0.045346,-1.229262,-0.022422,2.385128,1.531224
5412.830000000,0.392924,1.068326,-0.045376,-1.229288,0.009450,2.385168,1.460240
5412.864000000,0.392819,1.068315,-0.045359,-1.229271,-0.022397,2.385127,1.536763
5412.866000000,0.392921,1.068326,-0.045373,-1.229283,0.009453,2.385166,1.460237
5412.899000000,0.392746,1.068256,-0.045454,-1.229238,-0.030064,2.385137,1.547118
5412.900000000,0.392926,1.068326,-0.045376,-1.229285,0.009453,2.385167,1.460237
5412.933000000,0.392678,1.068186,-0.045527,-1.229224,-0.040560,2.385144,1.561548
5412.934000000,0.392921,1.068326,-0.045376,-1.229285,0.009452,2.385167,1.460235
5412.967000000,0.392653,1.068167,-0.045576,-1.229201,-0.051111,2.385155,1.576666
5412.969000000,0.392924,1.068328,-0.045373,-1.229283,0.009449,2.385167,1.460236
5413.002000000,0.392869,1.068322,-0.045402,-1.229318,-0.041183,2.385127,1.562578
5413.002000000,0.392926,1.068328,-0.045376,-1.229283,0.009449,2.385167,1.460238
5413.036000000,0.392924,1.068333,-0.045373,-1.229283,0.009451,2.385167,1.460238
5413.036000000,0.393050,1.068419,-0.045399,-1.229367,-0.033641,2.385156,1.549213
5413.070000000,0.392921,1.068327,-0.045373,-1.229278,0.009452,2.385167,1.460242
5413.071000000,0.393071,1.068425,-0.045370,-1.229364,-0.029547,2.385145,1.541251
5413.103000000,0.392921,1.068330,-0.045373,-1.229283,0.009454,2.385168,1.460236
5413.106000000,0.392818,1.068319,-0.045351,-1.229240,-0.039658,2.385120,1.551637
5413.137000000,0.392926,1.068330,-0.045376,-1.229278,0.009450,2.385167,1.460239
5413.140000000,0.392778,1.068260,-0.045394,-1.229240,-0.047317,2.385117,1.559602
5413.171000000,0.392924,1.068330,-0.045376,-1.229280,0.009451,2.385168,1.460238
5413.174000000,0.392745,1.068261,-0.045384,-1.229200,-0.055945,2.385106,1.569070
5413.205000000,0.392924,1.068326,-0.045376,-1.229285,0.009452,2.385168,1.460237
5413.209000000,0.392810,1.068233,-0.045474,-1.229252,-0.064111,2.385146,1.577672
5413.239000000,0.392926,1.068328,-0.045376,-1.229283,0.009450,2.385169,1.460240
5413.243000000,0.392809,1.068246,-0.045476,-1.229226,-0.072815,2.385146,1.588403
5413.271000000,0.392913,1.068323,-0.045373,-1.229278,0.009450,2.385170,1.460239
5413.277000000,0.392812,1.068231,-0.045485,-1.229241,-0.081558,2.385159,1.599676
5413.305000000,0.392918,1.068320,-0.045378,-1.229280,0.009453,2.385168,1.460234
5413.311000000,0.392826,1.068220,-0.045505,-1.229247,-0.090443,2.385160,1.611549
5413.340000000,0.392913,1.068320,-0.045378,-1.229283,0.009451,2.385171,1.460238
5413.345000000,0.392844,1.068231,-0.045525,-1.229238,-0.099429,2.385172,1.623940
5413.374000000,0.392913,1.068326,-0.045378,-1.229290,0.009451,2.385167,1.460241
5413.378000000,0.392770,1.068230,-0.045432,-1.229192,-0.108942,2.385103,1.638190
5413.408000000,0.392908,1.068325,-0.045381,-1.229283,0.009451,2.385171,1.460236
5413.413000000,0.392855,1.068209,-0.045536,-1.229252,-0.117869,2.385177,1.650265
5413.441000000,0.392896,1.068320,-0.045390,-1.229288,0.009452,2.385169,1.460242
5413.447000000,0.392858,1.068224,-0.045535,-1.229231,-0.127297,2.385174,1.664123
5413.475000000,0.392888,1.068330,-0.045389,-1.229298,0.009455,2.385169,1.460243
5413.480000000,0.392787,1.068223,-0.045447,-1.229186,-0.137139,2.385096,1.679639
5413.510000000,0.392896,1.068354,-0.045387,-1.229304,0.009453,2.385171,1.460235
5413.515000000,0.392872,1.068201,-0.045553,-1.229249,-0.146434,2.385186,1.693001
5413.542000000,0.392901,1.068362,-0.045390,-1.229307,0.009450,2.385170,1.460234
5413.549000000,0.392874,1.068216,-0.045552,-1.229227,-0.156242,2.385182,1.708063
5413.574000000,0.392886,1.068349,-0.045395,-1.229296,0.009452,2.385170,1.460240
5413.583000000,0.392879,1.068202,-0.045561,-1.229243,-0.166126,2.385203,1.723453
5413.608000000,0.392909,1.068327,-0.045376,-1.229298,0.009456,2.385169,1.460242
5413.616000000,0.392805,1.068204,-0.045465,-1.229187,-0.176536,2.385101,1.740503
5413.642000000,0.392958,1.068335,-0.045351,-1.229293,0.009458,2.385168,1.460235
5413.653000000,0.392895,1.068187,-0.045577,-1.229250,-0.186993,2.385210,1.756371
5413.676000000,0.392936,1.068372,-0.045364,-1.229327,0.009454,2.385162,1.460236
5413.687000000,0.392901,1.068198,-0.045584,-1.229233,-0.197433,2.385213,1.772991
5413.709000000,0.392860,1.068383,-0.045403,-1.229348,0.009455,2.385155,1.460238
5413.722000000,0.392822,1.068180,-0.045490,-1.229193,-0.209119,2.385102,1.792324
5413.743000000,0.392909,1.068385,-0.045363,-1.229365,0.009460,2.385157,1.460237
5413.757000000,0.392899,1.068178,-0.045586,-1.229239,-0.219802,2.385227,1.808713
5413.777000000,0.393062,1.068428,-0.045256,-1.229381,0.009456,2.385153,1.460237
5413.790000000,0.392813,1.068177,-0.045477,-1.229174,-0.231348,2.385085,1.827946
5413.810000000,0.393226,1.068475,-0.045139,-1.229419,0.009461,2.385139,1.460248
5413.825000000,0.392904,1.068173,-0.045594,-1.229223,-0.242442,2.385220,1.845232
5413.845000000,0.393253,1.068483,-0.045140,-1.229423,0.009467,2.385139,1.460248
5413.859000000,0.392901,1.068161,-0.045592,-1.229230,-0.254002,2.385237,1.864110
5413.879000000,0.393199,1.068480,-0.045163,-1.229420,0.009471,2.385140,1.460250
5413.894000000,0.392834,1.068169,-0.045503,-1.229157,-0.266734,2.385086,1.885758
5413.912000000,0.393274,1.068481,-0.045114,-1.229428,0.009475,2.385134,1.460260
5413.928000000,0.392916,1.068158,-0.045611,-1.229214,-0.277889,2.385240,1.903489
5413.946000000,0.393263,1.068488,-0.045102,-1.229431,0.009484,2.385133,1.460282
5413.962000000,0.392833,1.068145,-0.045502,-1.229158,-0.291078,2.385074,1.926239
5413.981000000,0.393197,1.068452,-0.045129,-1.229416,0.009504,2.385137,1.460300
5413.996000000,0.392827,1.068156,-0.045487,-1.229127,-0.303681,2.385035,1.947435
5414.015000000,0.393170,1.068376,-0.045145,-1.229381,0.009518,2.385137,1.460318
5414.029000000,0.392805,1.068144,-0.045454,-1.229115,-0.316577,2.384995,1.969322
5414.048000000,0.393117,1.067968,-0.044837,-1.229015,0.009547,2.385358,1.462630
5414.065000000,0.392798,1.068132,-0.045440,-1.229105,-0.329519,2.384955,1.991756
5414.082000000,0.393229,1.067618,-0.044382,-1.227517,0.009590,2.385963,1.470594
5414.100000000,0.392781,1.068124,-0.045416,-1.229086,-0.343732,2.384906,2.016556
5414.116000000,0.393082,1.066314,-0.043379,-1.225471,0.009828,2.386886,1.485638
5414.134000000,0.393998,1.069281,-0.045056,-1.229628,-0.250584,2.385304,1.857716
5414.150000000,0.393104,1.064140,-0.042528,-1.223391,0.010334,2.387773,1.505987
5414.168000000,0.394159,1.069607,-0.044044,-1.228753,-0.175718,2.385524,1.761058
5414.184000000,0.393078,1.060808,-0.041618,-1.221508,0.011000,2.387937,1.528863
5414.202000000,0.393976,1.068930,-0.043436,-1.227490,-0.120863,2.386060,1.686913
5414.218000000,0.392998,1.056528,-0.040862,-1.219996,0.012568,2.387923,1.552131
5414.236000000,0.393345,1.067156,-0.042752,-1.225782,-0.085508,2.386379,1.638640
5414.251000000,0.392804,1.051709,-0.040489,-1.218854,0.016360,2.387893,1.574516
5414.270000000,0.392824,1.064437,-0.042224,-1.224207,-0.063032,2.386680,1.609885
5414.286000000,0.392257,1.046767,-0.040510,-1.217925,0.022575,2.387833,1.593468
5414.304000000,0.392472,1.060861,-0.041750,-1.222747,-0.047187,2.386865,1.594499
5414.318000000,0.391122,1.041441,-0.040540,-1.217418,0.030163,2.387526,1.609808
5414.339000000,0.392322,1.056466,-0.041430,-1.221388,-0.033534,2.387058,1.581728
5414.353000000,0.389494,1.035626,-0.040570,-1.217321,0.038024,2.386962,1.622537
5414.373000000,0.392044,1.051588,-0.041043,-1.220254,-0.022560,2.387065,1.575417
5414.386000000,0.387467,1.029376,-0.040622,-1.217462,0.046445,2.386464,1.631501
5414.407000000,0.391523,1.046224,-0.040669,-1.219405,-0.012469,2.386909,1.572537
5414.420000000,0.384972,1.023395,-0.040670,-1.217438,0.054831,2.386001,1.638634
5414.440000000,0.390561,1.040593,-0.040237,-1.218839,-0.003838,2.386612,1.573075
5414.454000000,0.381996,1.017576,-0.040686,-1.217420,0.063069,2.385720,1.643127
5414.475000000,0.389231,1.034357,-0.040074,-1.218445,0.006285,2.386347,1.571610
5414.488000000,0.378825,1.011726,-0.040701,-1.217439,0.070622,2.385421,1.645263
5414.509000000,0.387322,1.028219,-0.039887,-1.218079,0.015245,2.386084,1.573298
5414.522000000,0.375202,1.005568,-0.040701,-1.217541,0.078128,2.384739,1.646784
5414.543000000,0.384869,1.022014,-0.039772,-1.217826,0.023743,2.385800,1.576650
5414.556000000,0.371206,0.999466,-0.040724,-1.217545,0.084945,2.382774,1.648426
5414.577000000,0.381929,1.015782,-0.039739,-1.217676,0.031880,2.385258,1.581688
5414.589000000,0.366765,0.993360,-0.040707,-1.217586,0.091005,2.378632,1.649643
5414.611000000,0.378504,1.009552,-0.039747,-1.217555,0.039559,2.384008,1.588535
5414.623000000,0.361988,0.987168,-0.040736,-1.217544,0.096747,2.371957,1.650997
5414.645000000,0.374598,1.003266,-0.039763,-1.217481,0.046639,2.381513,1.597293
5414.657000000,0.356796,0.980473,-0.040733,-1.217618,0.102091,2.363669,1.652910
5414.679000000,0.370296,0.996950,-0.039830,-1.217425,0.053270,2.377404,1.607898
5414.692000000,0.351356,0.973563,-0.040753,-1.217748,0.106234,2.352936,1.656183
5414.713000000,0.365582,0.990528,-0.039887,-1.217448,0.059386,2.371446,1.620397
5414.725000000,0.345410,0.966722,-0.040734,-1.217778,0.108849,2.339762,1.661069
5414.747000000,0.360469,0.983922,-0.039947,-1.217521,0.064668,2.363507,1.635118
5414.758000000,0.339411,0.959582,-0.040729,-1.217738,0.109956,2.324159,1.666454
5414.781000000,0.354983,0.977160,-0.039989,-1.217574,0.068816,2.353381,1.652273
5414.792000000,0.333359,0.951616,-0.040737,-1.217811,0.110226,2.307344,1.673402
5414.815000000,0.349187,0.970195,-0.040069,-1.217657,0.071858,2.341043,1.671794
5414.825000000,0.327048,0.943472,-0.040712,-1.217760,0.110331,2.288847,1.681980
5414.849000000,0.343139,0.962935,-0.040165,-1.217786,0.073991,2.326832,1.691606
5414.860000000,0.320232,0.934919,-0.040740,-1.217750,0.110427,2.269942,1.689126
5414.883000000,0.336881,0.955361,-0.040254,-1.217908,0.075433,2.310999,1.709692
5414.891000000,0.313128,0.925561,-0.040724,-1.217848,0.110514,2.250475,1.695318
5414.916000000,0.330372,0.947404,-0.040285,-1.218060,0.076469,2.293782,1.725987
5414.926000000,0.305664,0.916132,-0.040690,-1.217783,0.110604,2.231501,1.699788
5414.951000000,0.323585,0.938974,-0.040277,-1.218232,0.077253,2.275751,1.739994
5414.960000000,0.297908,0.906584,-0.040686,-1.217813,0.110787,2.213680,1.701973
5414.985000000,0.316519,0.930138,-0.040247,-1.218338,0.077873,2.257491,1.751786
5414.994000000,0.289525,0.896475,-0.040655,-1.217873,0.111177,2.197385,1.702841
5415.019000000,0.309112,0.920884,-0.040170,-1.218447,0.078460,2.239459,1.760897
5415.028000000,0.281195,0.886880,-0.040670,-1.217852,0.111287,2.183447,1.702903
5415.053000000,0.301326,0.911274,-0.040092,-1.218498,0.078951,2.222367,1.767845
5415.063000000,0.272634,0.876977,-0.040642,-1.217840,0.111343,2.171307,1.702917
5415.088000000,0.292885,0.901163,-0.039924,-1.218421,0.078811,2.206149,1.774780
5415.097000000,0.263610,0.867028,-0.040717,-1.217826,0.111354,2.161873,1.702916
5415.121000000,0.284823,0.891455,-0.040060,-1.218423,0.079800,2.192585,1.776694
5415.131000000,0.254541,0.857579,-0.040707,-1.217828,0.111363,2.154819,1.702920
5415.156000000,0.275723,0.881083,-0.039937,-1.218267,0.079504,2.180157,1.781268
5415.163000000,0.245339,0.847947,-0.040682,-1.217893,0.111363,2.148692,1.702916
5415.190000000,0.266711,0.871008,-0.039963,-1.218155,0.079765,2.170076,1.783353
5415.198000000,0.235626,0.838688,-0.040649,-1.217849,0.111364,2.141956,1.702912
5415.224000000,0.257453,0.860967,-0.039999,-1.218028,0.079980,2.161163,1.784901
5415.232000000,0.226105,0.829820,-0.040639,-1.217843,0.111377,2.134287,1.702895
5415.259000000,0.247795,0.850776,-0.040222,-1.217871,0.080756,2.152600,1.784394
5415.265000000,0.216419,0.820945,-0.040626,-1.217923,0.111360,2.126412,1.702879
5415.293000000,0.238136,0.841067,-0.040304,-1.217711,0.080930,2.144390,1.785125
5415.299000000,0.206446,0.812758,-0.040556,-1.217885,0.111360,2.117046,1.702842
5415.327000000,0.231305,0.834222,-0.043047,-1.215701,0.080690,2.143306,1.790639
5415.333000000,0.196676,0.805112,-0.040528,-1.217865,0.111354,2.106657,1.702746
5415.361000000,0.227994,0.830964,-0.045044,-1.213980,0.072126,2.144108,1.806867
5415.367000000,0.186683,0.797663,-0.040600,-1.217907,0.111358,2.095543,1.702461
5415.396000000,0.226149,0.829246,-0.045876,-1.213115,0.062028,2.144416,1.828341
5415.401000000,0.176546,0.790484,-0.040608,-1.217924,0.111345,2.085470,1.702364
5415.430000000,0.225258,0.828392,-0.046322,-1.212697,0.052169,2.144653,1.850157
5415.433000000,0.166170,0.783889,-0.040681,-1.217912,0.111350,2.076603,1.702333
5415.465000000,0.224929,0.827929,-0.046778,-1.212518,0.042413,2.144913,1.872961
5415.466000000,0.155342,0.777783,-0.040826,-1.217869,0.111353,2.070155,1.702318
5415.499000000,0.215193,0.820934,-0.038097,-1.217451,0.052962,2.120705,1.833784
5415.500000000,0.144426,0.771637,-0.040853,-1.217875,0.111351,2.065462,1.702311
5415.533000000,0.208622,0.816069,-0.040842,-1.216356,0.046581,2.119416,1.854768
5415.534000000,0.132924,0.765540,-0.041124,-1.217898,0.111356,2.061807,1.702304
5415.567000000,0.205317,0.813756,-0.042693,-1.215174,0.036342,2.119788,1.878830
5415.568000000,0.121060,0.760001,-0.041209,-1.217866,0.111356,2.060056,1.702300
5415.601000000,0.193523,0.805818,-0.035658,-1.219335,0.053128,2.099714,1.822075
5415.602000000,0.108652,0.754889,-0.041360,-1.217879,0.111357,2.059969,1.702293
5415.635000000,0.176214,0.794639,-0.033192,-1.221108,0.063156,2.085189,1.783903
5415.636000000,0.095993,0.749999,-0.041405,-1.217901,0.111358,2.059968,1.702292
5415.669000000,0.156366,0.782493,-0.034081,-1.220784,0.070087,2.076048,1.754209
5415.671000000,0.082917,0.745413,-0.041459,-1.217953,0.111360,2.059964,1.702278
5415.703000000,0.135890,0.770771,-0.036406,-1.219464,0.074427,2.070485,1.728923
5415.704000000,0.070002,0.741381,-0.041465,-1.217989,0.111358,2.059961,1.702275
5415.738000000,0.056328,0.737783,-0.041583,-1.218033,0.111356,2.059959,1.702268
5415.738000000,0.115270,0.759917,-0.038835,-1.217936,0.076772,2.066945,1.711359
5415.771000000,0.042387,0.734993,-0.041645,-1.218016,0.111358,2.059956,1.702263
5415.772000000,0.097500,0.751239,-0.041988,-1.216588,0.079155,2.065181,1.697383
5415.805000000,0.028047,0.732944,-0.041786,-1.218036,0.111355,2.059938,1.702263
5415.805000000,0.089554,0.747280,-0.048460,-1.213873,0.080129,2.066763,1.701423
5415.840000000,0.013615,0.731636,-0.041885,-1.218043,0.111353,2.059928,1.702256
5415.841000000,0.086286,0.745557,-0.050180,-1.213372,0.071844,2.066945,1.708998
5415.874000000,-0.001274,0.730967,-0.042139,-1.218040,0.111350,2.059915,1.702261
5415.876000000,0.085181,0.745079,-0.050573,-1.213023,0.064128,2.067155,1.720337
5415.908000000,-0.016110,0.730864,-0.042196,-1.218076,0.111343,2.059906,1.702250
5415.910000000,0.084880,0.744917,-0.050734,-1.212955,0.056389,2.067253,1.731929
5415.942000000,-0.031276,0.730914,-0.042482,-1.218578,0.111331,2.059902,1.701995
5415.944000000,0.084938,0.744851,-0.051036,-1.212972,0.049241,2.067407,1.742683
5415.976000000,-0.046346,0.730912,-0.042735,-1.219689,0.111330,2.059905,1.701438
5415.977000000,0.084846,0.744809,-0.051034,-1.212953,0.041028,2.067473,1.757146
5416.010000000,-0.061414,0.730921,-0.042862,-1.220755,0.111315,2.059909,1.701020
5416.011000000,0.084664,0.744797,-0.050854,-1.212877,0.031978,2.067455,1.774429
5416.043000000,-0.076453,0.730933,-0.042962,-1.221546,0.111304,2.059917,1.699908
5416.046000000,0.084632,0.744778,-0.050844,-1.212875,0.023458,2.067490,1.790733
5416.070000000,-0.090995,0.730925,-0.042988,-1.221809,0.111288,2.059923,1.697738
5416.080000000,0.084611,0.744768,-0.050835,-1.212864,0.014619,2.067505,1.808268
5416.106000000,-0.105432,0.730863,-0.043026,-1.221729,0.111268,2.059937,1.694916
5416.114000000,0.084569,0.744776,-0.050784,-1.212836,0.005574,2.067501,1.826708
5416.141000000,-0.119108,0.730840,-0.042938,-1.221614,0.111252,2.059957,1.691477
5416.149000000,0.084736,0.744755,-0.051029,-1.212909,-0.003218,2.067621,1.844909
5416.175000000,-0.132556,0.730840,-0.042946,-1.221464,0.111249,2.059965,1.686712
5416.183000000,0.084739,0.744763,-0.051039,-1.212898,-0.012499,2.067641,1.864753
5416.210000000,-0.145264,0.730788,-0.042909,-1.221396,0.111244,2.059982,1.681898
5416.217000000,0.084745,0.744752,-0.051063,-1.212913,-0.022020,2.067672,1.884988
5416.243000000,-0.157788,0.730791,-0.043032,-1.221269,0.111239,2.060002,1.678612
5416.251000000,0.084786,0.744745,-0.051127,-1.212927,-0.031589,2.067702,1.905881
5416.278000000,-0.169776,0.730791,-0.043155,-1.221174,0.111222,2.060023,1.676731
5416.285000000,0.084820,0.744754,-0.051169,-1.212931,-0.041429,2.067733,1.927226
5416.311000000,-0.181801,0.730800,-0.043517,-1.221061,0.111231,2.060052,1.675050
5416.319000000,0.084828,0.744745,-0.051186,-1.212948,-0.051553,2.067762,1.949306
5416.345000000,-0.193639,0.730871,-0.043639,-1.221165,0.111235,2.060034,1.673595
5416.353000000,0.084873,0.744739,-0.051251,-1.212965,-0.061690,2.067792,1.971479
5416.379000000,-0.205474,0.730964,-0.043801,-1.221600,0.111220,2.060030,1.672838
5416.388000000,0.084909,0.744749,-0.051294,-1.212971,-0.072073,2.067824,1.994134
5416.413000000,-0.217261,0.731094,-0.043839,-1.222419,0.111242,2.060028,1.672600
5416.422000000,0.084740,0.744746,-0.051064,-1.212901,-0.083729,2.067649,2.019568
5416.446000000,-0.228986,0.731384,-0.043939,-1.223652,0.111236,2.060018,1.672592
5416.456000000,0.084726,0.744761,-0.051029,-1.212878,-0.094801,2.067612,2.043424
5416.480000000,-0.240553,0.731764,-0.044174,-1.225520,0.111238,2.060002,1.672591
5416.490000000,0.084684,0.744758,-0.050961,-1.212864,-0.106165,2.067565,2.067997
5416.515000000,-0.251912,0.732468,-0.044454,-1.227713,0.111235,2.059976,1.672575
5416.524000000,0.084674,0.744755,-0.050943,-1.212855,-0.117822,2.067522,2.092939
5416.548000000,-0.263274,0.733621,-0.044981,-1.229988,0.111227,2.059971,1.672585
5416.558000000,0.084635,0.744770,-0.050881,-1.212822,-0.129695,2.067456,2.118223
5416.582000000,-0.274252,0.735305,-0.045601,-1.232605,0.111218,2.059970,1.672581
5416.592000000,0.084591,0.744766,-0.050816,-1.212807,-0.141809,2.067403,2.143838
5416.617000000,-0.285077,0.737710,-0.046610,-1.235201,0.111213,2.059973,1.672571
5416.626000000,0.084576,0.744763,-0.050795,-1.212795,-0.154254,2.067350,2.169967
5416.650000000,-0.295590,0.740704,-0.047721,-1.238024,0.111201,2.059970,1.672553
5416.659000000,0.084536,0.744779,-0.050730,-1.212758,-0.166942,2.067273,2.196372
5416.684000000,-0.305851,0.744452,-0.049091,-1.240720,0.111176,2.059974,1.672330
5416.694000000,0.084489,0.744774,-0.050662,-1.212740,-0.179912,2.067209,2.223150
5416.717000000,-0.315855,0.749019,-0.050749,-1.242818,0.111069,2.059982,1.671601
5416.728000000,0.084473,0.744771,-0.050637,-1.212725,-0.193242,2.067145,2.250441
5416.751000000,-0.325254,0.754473,-0.052406,-1.244036,0.110753,2.059988,1.668526
5416.762000000,0.084430,0.744785,-0.050569,-1.212688,-0.206854,2.067054,2.278020
5416.786000000,-0.334210,0.760859,-0.053769,-1.244479,0.110684,2.059996,1.661706
5416.795000000,0.084382,0.744781,-0.050496,-1.212668,-0.220794,2.066979,2.306058
5416.819000000,-0.342799,0.768186,-0.054585,-1.244494,0.110666,2.060040,1.652226
5416.829000000,0.084570,0.744762,-0.050765,-1.212783,-0.234003,2.067317,2.332115
5416.852000000,-0.350771,0.776248,-0.054889,-1.244423,0.110659,2.060315,1.641821
5416.864000000,0.084374,0.744786,-0.050486,-1.212648,-0.249435,2.066922,2.362526
5416.886000000,-0.357874,0.784262,-0.054906,-1.244381,0.110661,2.060863,1.633206
5416.898000000,0.084331,0.744783,-0.050413,-1.212628,-0.264429,2.066842,2.391655
5416.919000000,-0.364124,0.792597,-0.054887,-1.244288,0.110658,2.061189,1.626909
5416.932000000,0.084311,0.744780,-0.050377,-1.212606,-0.279922,2.066753,2.421579
5416.953000000,-0.369252,0.801467,-0.054847,-1.244159,0.110656,2.061232,1.621095
5416.966000000,0.084266,0.744794,-0.050297,-1.212561,-0.295748,2.066630,2.451774
5416.987000000,-0.373218,0.810028,-0.054833,-1.243773,0.110666,2.061269,1.616858
5417.000000000,0.084215,0.744786,-0.050211,-1.212533,-0.311952,2.066412,2.482457
5417.020000000,-0.376225,0.818792,-0.054851,-1.243060,0.110664,2.061368,1.614042
5417.035000000,0.050231,0.751327,-0.025269,-1.215354,-0.221032,2.069210,2.299033
5417.053000000,-0.378509,0.827938,-0.054851,-1.242173,0.110668,2.061761,1.611803
5417.070000000,-0.016891,0.766472,-0.011371,-1.219985,-0.122833,2.069225,2.104201
5417.086000000,-0.380223,0.836688,-0.054854,-1.240912,0.110681,2.062018,1.609718
5417.104000000,-0.094920,0.785505,-0.015722,-1.224887,-0.052759,2.068455,1.992639
5417.117000000,-0.381699,0.845660,-0.054857,-1.239488,0.110683,2.062195,1.607896
5417.138000000,-0.175803,0.805565,-0.027910,-1.229444,-0.008191,2.067230,1.896545
5417.147000000,-0.383050,0.854892,-0.054868,-1.238461,0.110691,2.062718,1.605576
5417.171000000,-0.251349,0.823856,-0.040781,-1.233140,0.021766,2.065843,1.828312
5417.179000000,-0.384183,0.863658,-0.054865,-1.237757,0.110694,2.063777,1.602769
5417.205000000,-0.316143,0.840219,-0.056944,-1.236346,0.046706,2.064896,1.767828
5417.209000000,-0.385101,0.872755,-0.054866,-1.237163,0.110692,2.065588,1.600452
5417.239000000,-0.364272,0.853620,-0.070327,-1.238805,0.062751,2.064454,1.730777
5417.240000000,-0.385975,0.882336,-0.054864,-1.236744,0.110697,2.068560,1.598356
5417.271000000,-0.386703,0.891532,-0.054866,-1.236265,0.110696,2.073618,1.595925
5417.274000000,-0.396967,0.864992,-0.079138,-1.240315,0.071862,2.064787,1.712406
5417.304000000,-0.387340,0.901335,-0.054869,-1.235466,0.110694,2.081398,1.593065
5417.309000000,-0.412559,0.873422,-0.083100,-1.241187,0.075867,2.065572,1.708800
5417.337000000,-0.387963,0.911701,-0.054888,-1.233919,0.110695,2.091758,1.588838
5417.344000000,-0.417557,0.876949,-0.087405,-1.244176,0.069065,2.064526,1.731291
5417.373000000,-0.388483,0.922010,-0.054887,-1.231527,0.110694,2.105504,1.582625
5417.377000000,-0.419927,0.878443,-0.088134,-1.244562,0.062369,2.064283,1.737928
5417.408000000,-0.389051,0.933195,-0.054888,-1.228550,0.110689,2.121602,1.575180
5417.413000000,-0.420804,0.878963,-0.088732,-1.244923,0.055304,2.064073,1.744751
5417.442000000,-0.389641,0.944557,-0.054880,-1.224300,0.110697,2.139792,1.566980
5417.448000000,-0.421115,0.879165,-0.089072,-1.245086,0.048857,2.064049,1.749422
5417.475000000,-0.390351,0.956639,-0.054897,-1.219505,0.110695,2.160348,1.558660
5417.481000000,-0.421303,0.879264,-0.089202,-1.245135,0.041993,2.063973,1.754423
5417.510000000,-0.391263,0.968863,-0.054894,-1.213677,0.110692,2.182333,1.551371
5417.516000000,-0.421418,0.879299,-0.089259,-1.245176,0.034929,2.063928,1.758286
5417.543000000,-0.392301,0.981780,-0.054960,-1.206345,0.110688,2.203925,1.543723
5417.550000000,-0.421453,0.879322,-0.089340,-1.245202,0.027852,2.063889,1.760815
5417.575000000,-0.393674,0.994957,-0.054991,-1.198477,0.110694,2.224128,1.536113
5417.585000000,-0.421618,0.879350,-0.089213,-1.245137,0.019872,2.063752,1.763596
5417.611000000,-0.395374,1.008163,-0.055058,-1.189999,0.110690,2.242110,1.528888
5417.620000000,-0.421511,0.879359,-0.089402,-1.245228,0.012864,2.063829,1.761868
5417.644000000,-0.397381,1.021334,-0.055174,-1.180637,0.110688,2.256589,1.521597
5417.653000000,-0.421555,0.879361,-0.089391,-1.245236,0.005273,2.063807,1.760398
5417.679000000,-0.399493,1.034661,-0.055416,-1.170680,0.110684,2.266663,1.516209
5417.688000000,-0.421540,0.879362,-0.089446,-1.245254,-0.002218,2.063797,1.757454
5417.712000000,-0.401680,1.047612,-0.055850,-1.159769,0.110681,2.272445,1.511296
5417.721000000,-0.421549,0.879373,-0.089454,-1.245271,-0.009893,2.063804,1.753182
5417.745000000,-0.403918,1.060415,-0.056290,-1.148034,0.110683,2.273833,1.505810
5417.756000000,-0.421530,0.879364,-0.089502,-1.245284,-0.017526,2.063797,1.747451
5417.780000000,-0.406272,1.072943,-0.056544,-1.136020,0.110677,2.273804,1.499054
5417.790000000,-0.421506,0.879377,-0.089541,-1.245296,-0.025194,2.063805,1.740286
5417.813000000,-0.408699,1.085381,-0.056827,-1.123473,0.110677,2.273778,1.491576
5417.824000000,-0.421506,0.879366,-0.089561,-1.245313,-0.033034,2.063805,1.731746
5417.847000000,-0.411266,1.097670,-0.057030,-1.111203,0.110676,2.273777,1.483089
5417.858000000,-0.421473,0.879381,-0.089607,-1.245319,-0.040785,2.063816,1.721675
5417.882000000,-0.413731,1.109152,-0.057256,-1.099002,0.110666,2.273773,1.475161
5417.892000000,-0.421488,0.879368,-0.089603,-1.245339,-0.048704,2.063822,1.710174
5417.916000000,-0.416373,1.121211,-0.057722,-1.086707,0.110667,2.273778,1.466405
5417.926000000,-0.421445,0.879379,-0.089662,-1.245348,-0.056542,2.063830,1.697104
5417.949000000,-0.418878,1.132135,-0.058278,-1.074482,0.110658,2.273779,1.457505
5417.960000000,-0.421456,0.879372,-0.089659,-1.245368,-0.064511,2.063840,1.682516
5417.983000000,-0.421432,1.143177,-0.058928,-1.063177,0.110657,2.273778,1.448375
5417.993000000,-0.421566,0.879381,-0.089525,-1.245290,-0.072759,2.063727,1.668448
5418.017000000,-0.423790,1.153126,-0.059761,-1.052430,0.110656,2.273774,1.439561
5418.028000000,-0.421459,0.879376,-0.089659,-1.245372,-0.080517,2.063826,1.649721
5418.052000000,-0.425964,1.162673,-0.060866,-1.042928,0.110649,2.273775,1.432540
5418.062000000,-0.421442,0.879369,-0.089698,-1.245381,-0.088432,2.063825,1.632143
5418.085000000,-0.427900,1.171416,-0.062303,-1.034918,0.110642,2.273776,1.426284
5418.096000000,-0.421415,0.879378,-0.089734,-1.245391,-0.096351,2.063838,1.613660
5418.119000000,-0.429510,1.179084,-0.063959,-1.027418,0.110639,2.273780,1.420635
5418.130000000,-0.421407,0.879365,-0.089762,-1.245413,-0.104358,2.063843,1.594429
5418.153000000,-0.430815,1.186437,-0.065685,-1.020414,0.110621,2.273785,1.414855
5418.164000000,-0.421371,0.879379,-0.089804,-1.245415,-0.112246,2.063858,1.574918
5418.187000000,-0.431785,1.193311,-0.067500,-1.014253,0.110615,2.273789,1.409062
5418.198000000,-0.421378,0.879371,-0.089805,-1.245431,-0.120251,2.063872,1.554815
5418.221000000,-0.432386,1.199193,-0.069435,-1.008760,0.110611,2.273786,1.403649
5418.232000000,-0.421486,0.879378,-0.089664,-1.245359,-0.128517,2.063777,1.536424
5418.255000000,-0.432779,1.204622,-0.070993,-1.003464,0.110612,2.273781,1.399748
5418.266000000,-0.421378,0.879375,-0.089797,-1.245433,-0.136224,2.063863,1.514193
5418.289000000,-0.433117,1.209824,-0.072019,-0.998342,0.110611,2.273779,1.396945
5418.301000000,-0.421476,0.879391,-0.089674,-1.245355,-0.144919,2.063772,1.494447
5418.323000000,-0.433396,1.214619,-0.072709,-0.994296,0.110613,2.273780,1.393581
5418.335000000,-0.426143,0.945554,-0.085278,-1.152015,-0.060899,2.124885,1.456979
5418.357000000,-0.433601,1.219107,-0.073199,-0.991286,0.110613,2.273779,1.389860
5418.368000000,-0.428587,1.015209,-0.081577,-1.087158,-0.000321,2.177901,1.415635
5418.391000000,-0.433731,1.223474,-0.073615,-0.988649,0.110614,2.273783,1.385432
5418.403000000,-0.430042,1.081833,-0.078274,-1.048646,0.033005,2.213183,1.397757
5418.425000000,-0.433839,1.227495,-0.073917,-0.986851,0.110618,2.273783,1.380964
5418.437000000,-0.430800,1.136326,-0.076243,-1.029521,0.053137,2.233635,1.374487
5418.459000000,-0.433899,1.231336,-0.074010,-0.985812,0.110614,2.273792,1.375833
5418.471000000,-0.431421,1.179310,-0.074968,-1.019781,0.064371,2.245818,1.356696
5418.493000000,-0.433891,1.235104,-0.074005,-0.985403,0.110613,2.273805,1.370050
5418.504000000,-0.431934,1.210124,-0.074373,-1.014450,0.071687,2.253143,1.341339
5418.527000000,-0.433850,1.238635,-0.074005,-0.985408,0.110611,2.273819,1.365086
5418.539000000,-0.432647,1.232267,-0.073869,-1.010172,0.075447,2.258176,1.333716
5418.561000000,-0.433841,1.241903,-0.074002,-0.985405,0.110607,2.273831,1.362843
5418.573000000,-0.433193,1.245100,-0.073747,-1.006601,0.077717,2.261496,1.329948
5418.595000000,-0.433807,1.244684,-0.074005,-0.985405,0.110606,2.273859,1.362587
5418.607000000,-0.433608,1.251679,-0.073761,-1.002893,0.079104,2.264052,1.330242
5418.629000000,-0.433774,1.246695,-0.074016,-0.985390,0.110600,2.273917,1.362588
5418.642000000,-0.433810,1.254126,-0.073962,-0.999016,0.080515,2.266256,1.331867
5418.663000000,-0.433780,1.247890,-0.074079,-0.985406,0.110602,2.273934,1.362587
5418.676000000,-0.433967,1.253987,-0.074024,-0.995442,0.080875,2.268056,1.336634
5418.697000000,-0.433786,1.248286,-0.074423,-0.985423,0.110597,2.273933,1.362593
5418.710000000,-0.433987,1.252635,-0.074142,-0.992325,0.081104,2.269551,1.341956
5418.731000000,-0.433795,1.248120,-0.075328,-0.985352,0.110595,2.273931,1.362590
5418.744000000,-0.433904,1.250908,-0.074352,-0.989801,0.081150,2.270778,1.347313
5418.765000000,-0.433821,1.247644,-0.077284,-0.985162,0.110598,2.273929,1.362593
5418.778000000,-0.433734,1.249223,-0.074831,-0.987922,0.081012,2.271720,1.352397
5418.798000000,-0.433903,1.246974,-0.080784,-0.985090,0.110592,2.273920,1.362596
5418.812000000,-0.433407,1.247839,-0.075940,-0.986572,0.080918,2.272417,1.356973
5418.832000000,-0.434115,1.246058,-0.086231,-0.985149,0.110597,2.273905,1.362598
5418.846000000,-0.433001,1.246735,-0.077947,-0.985719,0.080725,2.272907,1.360992
5418.865000000,-0.434481,1.245124,-0.093433,-0.985337,0.110592,2.273897,1.362610
5418.880000000,-0.432510,1.245904,-0.081251,-0.985267,0.080591,2.273243,1.364245
5418.900000000,-0.434937,1.244065,-0.102473,-0.986076,0.110583,2.273879,1.362632
5418.914000000,-0.432923,1.245206,-0.084010,-0.985015,0.077312,2.273393,1.368661
5418.933000000,-0.435473,1.242696,-0.113440,-0.987928,0.110570,2.273837,1.362642
5418.946000000,-0.432791,1.244709,-0.086907,-0.985217,0.074314,2.273453,1.374817
5418.966000000,-0.435801,1.241277,-0.125408,-0.990588,0.110533,2.273798,1.362647
5418.983000000,-0.432806,1.244151,-0.092074,-0.985710,0.072038,2.273471,1.377798
5418.999000000,-0.435922,1.240104,-0.137954,-0.993459,0.110391,2.273794,1.362656
5419.018000000,-0.432009,1.243619,-0.097918,-0.986783,0.071866,2.273613,1.378904
5419.033000000,-0.435898,1.239097,-0.149616,-0.996674,0.110377,2.273791,1.362758
5419.053000000,-0.429775,1.242357,-0.112337,-0.989582,0.074416,2.273627,1.377635
5419.067000000,-0.435909,1.238101,-0.159448,-1.000421,0.110373,2.273800,1.363059
5419.087000000,-0.432399,1.241540,-0.119252,-0.990767,0.070048,2.273584,1.376894
5419.101000000,-0.435853,1.237237,-0.167518,-1.004310,0.110374,2.273801,1.363220
5419.121000000,-0.435387,1.241394,-0.119773,-0.990584,0.060316,2.273609,1.383458
5419.134000000,-0.435767,1.236652,-0.173130,-1.007759,0.110382,2.273804,1.363334
5419.155000000,-0.436594,1.241279,-0.120403,-0.990622,0.051117,2.273598,1.392214
5419.168000000,-0.435686,1.235969,-0.176171,-1.011458,0.110379,2.273814,1.363444
5419.188000000,-0.437090,1.241240,-0.120760,-0.990670,0.042533,2.273630,1.400175
5419.201000000,-0.435629,1.234899,-0.176987,-1.015935,0.110389,2.273816,1.363728
5419.223000000,-0.437460,1.241220,-0.120776,-0.990610,0.032146,2.273583,1.412179
5419.234000000,-0.435345,1.233604,-0.176645,-1.021221,0.110398,2.273810,1.364102
5419.257000000,-0.437613,1.241197,-0.120817,-0.990613,0.022444,2.273572,1.422180
5419.268000000,-0.434611,1.231995,-0.176028,-1.027776,0.110391,2.273813,1.364305
5419.291000000,-0.437693,1.241188,-0.120846,-0.990607,0.012503,2.273556,1.431949
5419.302000000,-0.433636,1.230048,-0.175166,-1.035186,0.110397,2.273818,1.364312
5419.324000000,-0.437659,1.241183,-0.120974,-0.990656,0.003309,2.273592,1.439399
5419.335000000,-0.432414,1.227206,-0.174351,-1.044470,0.110384,2.273829,1.364338
5419.360000000,-0.437671,1.241188,-0.121009,-0.990651,-0.007248,2.273597,1.448547
5419.370000000,-0.430734,1.223209,-0.174097,-1.055545,0.110385,2.273844,1.364555
5419.394000000,-0.437693,1.241171,-0.121020,-0.990665,-0.017519,2.273605,1.456679
5419.404000000,-0.428744,1.217830,-0.174096,-1.068397,0.110380,2.273862,1.364779
5419.429000000,-0.437785,1.241163,-0.120905,-0.990608,-0.028915,2.273538,1.466054
5419.438000000,-0.426451,1.210400,-0.174099,-1.083508,0.110365,2.273872,1.364803
5419.463000000,-0.437794,1.241156,-0.120909,-0.990606,-0.039687,2.273521,1.472961
5419.472000000,-0.424013,1.201419,-0.174099,-1.100656,0.110371,2.273895,1.364827
5419.497000000,-0.437826,1.241154,-0.120873,-0.990589,-0.050711,2.273498,1.479154
5419.506000000,-0.421383,1.190392,-0.174091,-1.120203,0.110379,2.273899,1.365122
5419.531000000,-0.437838,1.241145,-0.120865,-0.990582,-0.061880,2.273476,1.484520
5419.539000000,-0.418716,1.177047,-0.174073,-1.142847,0.110377,2.273882,1.365667
5419.564000000,-0.437767,1.241142,-0.120981,-0.990636,-0.072163,2.273538,1.487176
5419.574000000,-0.415941,1.161291,-0.174076,-1.169028,0.110384,2.273882,1.366038
5419.599000000,-0.437850,1.241133,-0.120869,-0.990580,-0.084258,2.273458,1.492197
5419.608000000,-0.413313,1.143643,-0.174067,-1.198359,0.110393,2.273901,1.366128
5419.632000000,-0.437777,1.241129,-0.120987,-0.990636,-0.094859,2.273526,1.492952
5419.642000000,-0.410757,1.123311,-0.173974,-1.230630,0.110379,2.273901,1.366134
5419.667000000,-0.437855,1.241125,-0.120877,-0.990583,-0.107205,2.273443,1.495749
5419.676000000,-0.408226,1.101483,-0.173769,-1.265370,0.110387,2.273880,1.366127
5419.701000000,-0.426331,1.206205,-0.137135,-1.066216,-0.047173,2.278174,1.443818
5419.710000000,-0.405698,1.078335,-0.173402,-1.302392,0.110392,2.273923,1.366130
5419.735000000,-0.418442,1.172001,-0.148734,-1.135845,-0.003417,2.276457,1.428593
5419.744000000,-0.402947,1.053463,-0.172911,-1.341765,0.110379,2.273917,1.366131
5419.769000000,-0.413600,1.141411,-0.156897,-1.194365,0.027106,2.275252,1.420882
5419.778000000,-0.399869,1.027291,-0.172341,-1.382981,0.110399,2.273990,1.366128
5419.803000000,-0.410413,1.112370,-0.162641,-1.246453,0.047001,2.274461,1.418005
5419.812000000,-0.396525,1.000093,-0.171587,-1.425522,0.110388,2.273949,1.366111
5419.836000000,-0.407837,1.084626,-0.166545,-1.293582,0.060465,2.274168,1.417140
5419.845000000,-0.392989,0.971976,-0.170395,-1.468510,0.110380,2.274110,1.366068
5419.870000000,-0.405280,1.055889,-0.169058,-1.340288,0.069462,2.273917,1.419601
5419.880000000,-0.389225,0.943614,-0.168872,-1.511376,0.110393,2.274320,1.365927
5419.904000000,-0.402438,1.027080,-0.170354,-1.385537,0.075447,2.273854,1.422548
5419.913000000,-0.385177,0.914930,-0.167284,-1.553562,0.110386,2.274478,1.365860
5419.939000000,-0.399120,0.997106,-0.170567,-1.431463,0.079033,2.273875,1.427128
5419.947000000,-0.381037,0.886646,-0.165880,-1.594859,0.110397,2.274777,1.365568
5419.972000000,-0.395392,0.968820,-0.170185,-1.473996,0.082324,2.274045,1.427625
5419.982000000,-0.376955,0.858911,-0.164931,-1.634903,0.110393,2.274963,1.365393
5420.006000000,-0.391154,0.939609,-0.169262,-1.517215,0.084336,2.274233,1.428265
5420.016000000,-0.372628,0.831798,-0.164583,-1.673469,0.110388,2.275225,1.365348
5420.041000000,-0.386503,0.909709,-0.168009,-1.560773,0.085235,2.274378,1.428264
5420.050000000,-0.368400,0.805565,-0.164551,-1.710840,0.110382,2.275291,1.365131
5420.074000000,-0.381742,0.882020,-0.167029,-1.600624,0.086780,2.274656,1.422544
5420.084000000,-0.364408,0.780261,-0.164556,-1.746543,0.110374,2.275558,1.364853
5420.109000000,-0.376730,0.853172,-0.166082,-1.641685,0.087010,2.274818,1.416300
5420.117000000,-0.360791,0.755754,-0.164563,-1.780340,0.110369,2.275776,1.364490
5420.143000000,-0.371953,0.825813,-0.165363,-1.680350,0.087600,2.275012,1.404811
5420.151000000,-0.357723,0.732385,-0.164580,-1.812919,0.110371,2.275793,1.364406
5420.177000000,-0.367455,0.799432,-0.164828,-1.717243,0.088093,2.275234,1.389497
5420.185000000,-0.355149,0.709905,-0.164578,-1.844368,0.110362,2.275858,1.364389
5420.212000000,-0.363169,0.773094,-0.164437,-1.754028,0.089167,2.275484,1.370543
5420.218000000,-0.353035,0.688397,-0.164599,-1.874707,0.110364,2.275894,1.364352
5420.246000000,-0.359580,0.748426,-0.164136,-1.788289,0.089723,2.275610,1.356430
5420.252000000,-0.351555,0.667563,-0.164610,-1.904495,0.110364,2.275893,1.364292
5420.280000000,-0.356543,0.724835,-0.163929,-1.821113,0.090225,2.275772,1.344470
5420.285000000,-0.350720,0.647458,-0.164613,-1.933817,0.110362,2.275874,1.363769
5420.314000000,-0.354131,0.702043,-0.163760,-1.853115,0.090565,2.275879,1.334435
5420.317000000,-0.350431,0.628465,-0.164621,-1.963023,0.110361,2.275865,1.362786
5420.348000000,-0.352303,0.680075,-0.163682,-1.884380,0.090891,2.275952,1.325778
5420.350000000,-0.350480,0.611327,-0.164662,-1.991809,0.110341,2.275856,1.362287
5420.382000000,-0.351071,0.659143,-0.163675,-1.914853,0.091232,2.276075,1.318192
5420.384000000,-0.350688,0.595679,-0.164845,-2.020212,0.110283,2.275839,1.361703
5420.414000000,-0.350907,0.581264,-0.165148,-2.047741,0.109987,2.275842,1.361129
5420.416000000,-0.350421,0.639312,-0.163743,-1.944878,0.091441,2.276184,1.311783
5420.449000000,-0.351317,0.569192,-0.165897,-2.073475,0.109937,2.275832,1.360776
5420.449000000,-0.350552,0.626672,-0.163886,-1.963830,0.088475,2.274277,1.311662
5420.481000000,-0.351871,0.558618,-0.166862,-2.097329,0.109921,2.275827,1.360522
5420.483000000,-0.351002,0.628071,-0.164266,-1.958647,0.083016,2.274998,1.312073
5420.514000000,-0.352368,0.549885,-0.167905,-2.119034,0.109841,2.275840,1.360318
5420.517000000,-0.351126,0.627410,-0.164358,-1.959650,0.077704,2.274753,1.303649
5420.547000000,-0.352639,0.543055,-0.168993,-2.138143,0.109743,2.275847,1.360180
5420.551000000,-0.351225,0.627472,-0.164369,-1.959377,0.072528,2.274728,1.290966
5420.581000000,-0.352625,0.537745,-0.169801,-2.154438,0.109666,2.275848,1.360117
5420.585000000,-0.351262,0.627426,-0.164382,-1.959420,0.067304,2.274667,1.274814
5420.614000000,-0.352567,0.533680,-0.170036,-2.167522,0.109432,2.275862,1.359922
5420.620000000,-0.351160,0.627425,-0.164492,-1.959481,0.062418,2.274675,1.255859
5420.648000000,-0.352474,0.530975,-0.170030,-2.177939,0.109351,2.275858,1.359760
5420.655000000,-0.351285,0.627423,-0.164389,-1.959397,0.056616,2.274607,1.239084
5420.682000000,-0.352333,0.529637,-0.170027,-2.186154,0.109342,2.275867,1.359760
5420.690000000,-0.351168,0.627406,-0.164517,-1.959477,0.051796,2.274617,1.217439
5420.716000000,-0.352311,0.529264,-0.170030,-2.192368,0.109339,2.275875,1.359724
5420.723000000,-0.351309,0.627403,-0.164395,-1.959398,0.046273,2.274553,1.199565
5420.750000000,-0.352403,0.529443,-0.170061,-2.197496,0.109341,2.275878,1.359652
5420.757000000,-0.351304,0.627412,-0.164400,-1.959395,0.041088,2.274544,1.178845
5420.783000000,-0.352645,0.529697,-0.170130,-2.202424,0.109342,2.275877,1.359292
5420.791000000,-0.351350,0.627406,-0.164358,-1.959377,0.035924,2.274508,1.157773
5420.817000000,-0.352838,0.529881,-0.170512,-2.207624,0.109342,2.275883,1.358924
5420.826000000,-0.351367,0.627403,-0.164349,-1.959367,0.030792,2.274494,1.136422
5420.850000000,-0.352962,0.530142,-0.171366,-2.212712,0.109343,2.275917,1.358772
5420.860000000,-0.351378,0.627415,-0.164336,-1.959351,0.025707,2.274486,1.114601
5420.884000000,-0.353089,0.530497,-0.172802,-2.218080,0.109346,2.275971,1.358658
5420.893000000,-0.351423,0.627409,-0.164295,-1.959334,0.020674,2.274455,1.092441
5420.918000000,-0.353235,0.531003,-0.174817,-2.223549,0.109344,2.276224,1.358489
5420.928000000,-0.351441,0.627406,-0.164284,-1.959323,0.015681,2.274445,1.069919
5420.948000000,-0.353568,0.531931,-0.176990,-2.229058,0.109346,2.277050,1.357585
5420.962000000,-0.351326,0.627412,-0.164391,-1.959390,0.011077,2.274477,1.045123
5420.982000000,-0.353960,0.533324,-0.179253,-2.234897,0.109344,2.278989,1.355870
5420.995000000,-0.351466,0.627410,-0.164264,-1.959308,0.005962,2.274421,1.023929
5421.015000000,-0.354300,0.534973,-0.181633,-2.240670,0.109341,2.283148,1.353626
5421.030000000,-0.351303,0.627417,-0.164414,-1.959387,0.001519,2.274473,0.998541
5421.049000000,-0.354642,0.536897,-0.184016,-2.246549,0.109329,2.291352,1.350037
5421.064000000,-0.351314,0.627413,-0.164414,-1.959391,-0.003212,2.274467,0.974982
5421.082000000,-0.355025,0.539348,-0.186191,-2.251692,0.109298,2.303825,1.344491
5421.097000000,-0.351444,0.627413,-0.164288,-1.959315,-0.008172,2.274413,0.953426
5421.115000000,-0.355498,0.542639,-0.187865,-2.255583,0.109294,2.319849,1.336587
5421.132000000,-0.351281,0.627423,-0.164434,-1.959393,-0.012463,2.274466,0.928023
5421.148000000,-0.356229,0.546647,-0.188869,-2.258657,0.109296,2.338545,1.326099
5421.166000000,-0.351288,0.627419,-0.164437,-1.959398,-0.017007,2.274462,0.904281
5421.183000000,-0.357084,0.551292,-0.189273,-2.260452,0.109300,2.358938,1.316380
5421.199000000,-0.351418,0.627419,-0.164309,-1.959322,-0.021809,2.274405,0.882753
5421.217000000,-0.357923,0.556663,-0.189301,-2.260797,0.109302,2.380262,1.307690
5421.234000000,-0.351256,0.627430,-0.164453,-1.959398,-0.025945,2.274462,0.857319
5421.251000000,-0.358470,0.562517,-0.189290,-2.260497,0.109307,2.402410,1.299520
5421.270000000,-0.347465,0.597626,-0.168545,-2.035851,0.015837,2.317176,0.978193
5421.284000000,-0.358621,0.568466,-0.189272,-2.259710,0.109307,2.425563,1.291209
5421.303000000,-0.348772,0.577556,-0.173898,-2.111345,0.042690,2.347412,1.072986
5421.318000000,-0.358658,0.574625,-0.189284,-2.258521,0.109322,2.448967,1.283350
5421.337000000,-0.352574,0.573153,-0.179501,-2.164981,0.060337,2.374120,1.147916
5421.353000000,-0.358757,0.580753,-0.189282,-2.258009,0.109318,2.472906,1.279355
5421.371000000,-0.356638,0.576328,-0.184218,-2.200863,0.071723,2.399045,1.190758
5421.385000000,-0.358807,0.586898,-0.189268,-2.258067,0.109318,2.496238,1.277990
5421.405000000,-0.359620,0.581591,-0.187541,-2.224034,0.077914,2.423762,1.230031
5421.419000000,-0.358759,0.592808,-0.189262,-2.258107,0.109317,2.517550,1.277774
5421.439000000,-0.361233,0.586677,-0.189517,-2.238565,0.081638,2.448414,1.258141
5421.453000000,-0.358708,0.598371,-0.189045,-2.258147,0.109318,2.537073,1.277787
5421.473000000,-0.361775,0.591139,-0.190392,-2.247207,0.083183,2.471963,1.281756
5421.488000000,-0.358595,0.603576,-0.188648,-2.258089,0.109320,2.553799,1.277778
5421.507000000,-0.361573,0.595134,-0.190514,-2.252053,0.083715,2.494467,1.300249
5421.522000000,-0.358411,0.608513,-0.188024,-2.258080,0.109318,2.567400,1.277770
5421.541000000,-0.360976,0.598921,-0.190170,-2.254672,0.083640,2.515214,1.314788
5421.557000000,-0.358233,0.613121,-0.186980,-2.258042,0.109314,2.578022,1.277770
5421.575000000,-0.360313,0.602661,-0.189509,-2.256024,0.083150,2.533423,1.324167
5421.590000000,-0.357843,0.616936,-0.185690,-2.257951,0.109317,2.586159,1.277776
5421.610000000,-0.359545,0.606620,-0.188674,-2.256790,0.083152,2.549532,1.325813
5421.624000000,-0.357270,0.619948,-0.184190,-2.257937,0.109320,2.592046,1.277774
5421.645000000,-0.359071,0.610569,-0.187523,-2.257113,0.081795,2.562791,1.324540
5421.659000000,-0.356671,0.622313,-0.182425,-2.257965,0.109318,2.595027,1.277773
5421.679000000,-0.358537,0.614172,-0.186282,-2.257400,0.081186,2.573023,1.315413
5421.692000000,-0.356118,0.624016,-0.180443,-2.257981,0.109316,2.595751,1.277769
5421.714000000,-0.357866,0.617490,-0.184859,-2.257707,0.081243,2.580709,1.298243
5421.726000000,-0.355836,0.625193,-0.178289,-2.258042,0.109321,2.595750,1.277765
5421.747000000,-0.357471,0.620128,-0.183164,-2.257840,0.080109,2.585601,1.280707
5421.760000000,-0.355734,0.626016,-0.176021,-2.258032,0.109322,2.595751,1.277766
5421.782000000,-0.356861,0.622383,-0.181239,-2.258093,0.080383,2.589072,1.259643
5421.794000000,-0.355734,0.626591,-0.173835,-2.258183,0.109331,2.595750,1.277775
5421.816000000,-0.356486,0.624042,-0.179120,-2.258224,0.080010,2.591242,1.244176
5421.827000000,-0.355730,0.627200,-0.171993,-2.258454,0.109330,2.595751,1.277766
5421.850000000,-0.356156,0.625283,-0.176960,-2.258354,0.079776,2.592715,1.230902
5421.862000000,-0.355740,0.628035,-0.170702,-2.258640,0.109331,2.595747,1.277772
5421.884000000,-0.355854,0.626214,-0.174935,-2.258484,0.079646,2.593685,1.219712
5421.896000000,-0.355727,0.629420,-0.169989,-2.258793,0.109330,2.595753,1.277766
5421.918000000,-0.355582,0.627068,-0.173180,-2.258572,0.079527,2.594368,1.210285
5421.930000000,-0.355754,0.631318,-0.169829,-2.258811,0.109330,2.595761,1.277773
5421.953000000,-0.355429,0.628073,-0.171745,-2.258529,0.078829,2.594823,1.203928
5421.965000000,-0.355999,0.633617,-0.169902,-2.258854,0.109329,2.595766,1.277776
5421.987000000,-0.355277,0.629353,-0.170828,-2.258497,0.078788,2.595165,1.197404
5421.997000000,-0.356400,0.636414,-0.170104,-2.258861,0.109330,2.595797,1.277774
5422.022000000,-0.355293,0.631028,-0.170275,-2.258450,0.078746,2.595423,1.191903
5422.028000000,-0.356788,0.639228,-0.170410,-2.258819,0.109329,2.595918,1.277776
5422.056000000,-0.355378,0.633203,-0.170096,-2.258478,0.079441,2.595680,1.185196
5422.060000000,-0.357021,0.641536,-0.170578,-2.258861,0.109326,2.595953,1.277770
5422.090000000,-0.355737,0.635596,-0.170100,-2.258504,0.079392,2.595808,1.181339
5422.094000000,-0.356870,0.642095,-0.170476,-2.258844,0.109330,2.595919,1.277788
5422.124000000,-0.356097,0.637971,-0.170233,-2.258678,0.079482,2.595856,1.177936
5422.129000000,-0.356625,0.641594,-0.170472,-2.258566,0.109330,2.595939,1.277800
5422.158000000,-0.356413,0.639833,-0.170364,-2.258929,0.079488,2.595788,1.175136
5422.163000000,-0.356667,0.641497,-0.170532,-2.258092,0.109333,2.595954,1.277801
5422.192000000,-0.356568,0.641012,-0.170486,-2.259023,0.079537,2.595719,1.172972
5422.197000000,-0.356683,0.641571,-0.170545,-2.258088,0.109326,2.595945,1.277804
5422.226000000,-0.356685,0.641611,-0.170545,-2.258914,0.079526,2.595688,1.170994
5422.232000000,-0.356607,0.641483,-0.170524,-2.257937,0.109330,2.595946,1.277805
5422.260000000,-0.356692,0.641846,-0.170592,-2.258738,0.079580,2.595712,1.169458
5422.267000000,-0.356550,0.641469,-0.170516,-2.257796,0.109328,2.595944,1.277817
5422.295000000,-0.356902,0.641819,-0.170697,-2.258527,0.074089,2.595648,1.169974
5422.300000000,-0.356536,0.641417,-0.170516,-2.257701,0.109328,2.595947,1.277818
5422.330000000,-0.356985,0.641762,-0.170864,-2.258582,0.064888,2.595644,1.160332
5422.334000000,-0.356554,0.641267,-0.170535,-2.257688,0.109331,2.595946,1.277815
5422.364000000,-0.357041,0.641761,-0.170924,-2.258586,0.055517,2.595627,1.147653
5422.369000000,-0.356579,0.641225,-0.170553,-2.257694,0.109330,2.595947,1.277813
5422.398000000,-0.357064,0.641754,-0.170971,-2.258595,0.046028,2.595599,1.130271
5422.402000000,-0.356577,0.641211,-0.170577,-2.257672,0.109328,2.595949,1.277816
5422.433000000,-0.357173,0.641753,-0.170958,-2.258545,0.035571,2.595546,1.109235
5422.436000000,-0.356553,0.641237,-0.170562,-2.257698,0.109332,2.595944,1.277814
5422.468000000,-0.357211,0.641757,-0.170968,-2.258539,0.025717,2.595521,1.082826
5422.470000000,-0.356600,0.641237,-0.170580,-2.257714,0.109331,2.595942,1.277823
5422.502000000,-0.356316,0.641864,-0.170139,-2.258477,0.045433,2.595782,1.126555
5422.504000000,-0.356608,0.641226,-0.170631,-2.257712,0.109335,2.595938,1.277824
5422.536000000,-0.356102,0.641728,-0.170009,-2.258183,0.058041,2.595809,1.173485
5422.538000000,-0.356594,0.641233,-0.170625,-2.257725,0.109334,2.595940,1.277824
5422.570000000,-0.356207,0.641520,-0.170179,-2.257948,0.066146,2.595838,1.217173
5422.572000000,-0.356583,0.641227,-0.170614,-2.257716,0.109334,2.595941,1.277829
5422.604000000,-0.356473,0.641325,-0.170423,-2.257805,0.071104,2.595851,1.249086
5422.605000000,-0.356591,0.641226,-0.170622,-2.257718,0.109329,2.595937,1.277827
5422.639000000,-0.356601,0.641214,-0.170671,-2.257783,0.074732,2.595917,1.275018
5422.640000000,-0.356597,0.641231,-0.170625,-2.257721,0.109334,2.595936,1.277834
5422.673000000,-0.356716,0.641167,-0.170810,-2.257743,0.076425,2.595933,1.295792
5422.673000000,-0.356577,0.641226,-0.170614,-2.257716,0.109332,2.595940,1.277832
5422.706000000,-0.356596,0.641229,-0.170622,-2.257721,0.109332,2.595940,1.277837
5422.710000000,-0.356884,0.641150,-0.170816,-2.257663,0.076750,2.595880,1.314493
5422.740000000,-0.356594,0.641231,-0.170625,-2.257729,0.109334,2.595940,1.277838
5422.744000000,-0.356878,0.641170,-0.170835,-2.257655,0.076889,2.595869,1.324863
5422.775000000,-0.356599,0.641226,-0.170622,-2.257718,0.109334,2.595941,1.277835
5422.778000000,-0.357078,0.641124,-0.170974,-2.257607,0.068942,2.595840,1.336717
5422.807000000,-0.356607,0.641229,-0.170622,-2.257726,0.109332,2.595938,1.277830
5422.812000000,-0.357143,0.641126,-0.171044,-2.257597,0.060518,2.595830,1.343512
5422.841000000,-0.356599,0.641226,-0.170628,-2.257723,0.109332,2.595938,1.277828
5422.847000000,-0.357091,0.641131,-0.171101,-2.257660,0.052390,2.595857,1.342978
5422.874000000,-0.356596,0.641231,-0.170622,-2.257725,0.109333,2.595940,1.277836
5422.881000000,-0.357131,0.641125,-0.171113,-2.257663,0.043740,2.595836,1.338656
5422.909000000,-0.356592,0.641229,-0.170622,-2.257716,0.109333,2.595940,1.277826
5422.915000000,-0.357113,0.641133,-0.171155,-2.257678,0.035106,2.595836,1.328837
5422.943000000,-0.356586,0.641229,-0.170620,-2.257716,0.109334,2.595936,1.277833
5422.949000000,-0.357140,0.641130,-0.171165,-2.257693,0.026336,2.595819,1.313707
5422.976000000,-0.356575,0.641229,-0.170617,-2.257713,0.109333,2.595938,1.277837
5422.983000000,-0.357115,0.641140,-0.171197,-2.257702,0.017605,2.595825,1.295750
5423.009000000,-0.356572,0.641234,-0.170607,-2.257710,0.109334,2.595940,1.277831
5423.018000000,-0.357226,0.641127,-0.171161,-2.257642,0.007818,2.595762,1.276561
5423.043000000,-0.356575,0.641229,-0.170611,-2.257715,0.109333,2.595940,1.277832
5423.053000000,-0.357231,0.641135,-0.171165,-2.257643,-0.001167,2.595750,1.254100
5423.078000000,-0.356580,0.641231,-0.170609,-2.257721,0.109332,2.595940,1.277831
5423.087000000,-0.357141,0.641143,-0.171221,-2.257700,-0.009899,2.595787,1.227486
5423.112000000,-0.356588,0.641226,-0.170614,-2.257723,0.109333,2.595939,1.277836
5423.122000000,-0.357242,0.641141,-0.171190,-2.257626,-0.019927,2.595742,1.203015
5423.146000000,-0.356596,0.641226,-0.170622,-2.257723,0.109333,2.595938,1.277838
5423.156000000,-0.357261,0.641126,-0.171189,-2.257631,-0.029121,2.595721,1.175105
5423.179000000,-0.356594,0.641229,-0.170620,-2.257718,0.109333,2.595940,1.277837
5423.190000000,-0.357270,0.641143,-0.171195,-2.257610,-0.038403,2.595719,1.146469
5423.212000000,-0.356594,0.641229,-0.170617,-2.257716,0.109333,2.595938,1.277839
5423.224000000,-0.357306,0.641133,-0.171183,-2.257595,-0.047688,2.595700,1.116549
5423.247000000,-0.356586,0.641234,-0.170616,-2.257716,0.109333,2.595937,1.277831
5423.258000000,-0.357304,0.641142,-0.171188,-2.257581,-0.056917,2.595699,1.086023
5423.280000000,-0.356586,0.641229,-0.170614,-2.257716,0.109331,2.595940,1.277832
5423.292000000,-0.357338,0.641131,-0.171173,-2.257566,-0.066106,2.595680,1.054764
5423.314000000,-0.356583,0.641229,-0.170616,-2.257723,0.109332,2.595940,1.277833
5423.326000000,-0.357339,0.641140,-0.171178,-2.257550,-0.075324,2.595679,1.022671
5423.348000000,-0.356585,0.641229,-0.170614,-2.257713,0.109332,2.595939,1.277829
5423.360000000,-0.357371,0.641128,-0.171160,-2.257535,-0.084451,2.595661,0.990314
5423.383000000,-0.356585,0.641231,-0.170617,-2.257718,0.109333,2.595940,1.277830
5423.394000000,-0.357370,0.641138,-0.171163,-2.257517,-0.093563,2.595661,0.957409
5423.416000000,-0.356591,0.641234,-0.170617,-2.257721,0.109333,2.595941,1.277830
5423.428000000,-0.357404,0.641125,-0.171146,-2.257502,-0.102657,2.595642,0.924194
5423.450000000,-0.356594,0.641229,-0.170617,-2.257716,0.109333,2.595940,1.277832
5423.463000000,-0.357401,0.641135,-0.171146,-2.257484,-0.111695,2.595644,0.890751
5423.487000000,-0.356588,0.641229,-0.170617,-2.257715,0.109333,2.595938,1.277836
5423.496000000,-0.357434,0.641122,-0.171127,-2.257468,-0.120697,2.595625,0.857117
5423.520000000,-0.356583,0.641226,-0.170614,-2.257718,0.109332,2.595941,1.277831
5423.530000000,-0.357434,0.641131,-0.171128,-2.257449,-0.129722,2.595625,0.823168
5423.553000000,-0.356586,0.641226,-0.170617,-2.257716,0.109334,2.595940,1.277831
5423.563000000,-0.357358,0.641128,-0.171170,-2.257505,-0.137787,2.595660,0.788682
5423.588000000,-0.356588,0.641226,-0.170617,-2.257721,0.109330,2.595937,1.277840
5423.598000000,-0.357451,0.641117,-0.171113,-2.257433,-0.147323,2.595614,0.755183
5423.621000000,-0.356591,0.641226,-0.170619,-2.257716,0.109332,2.595937,1.277839
5423.632000000,-0.357468,0.641113,-0.171102,-2.257419,-0.156213,2.595599,0.720985
5423.655000000,-0.356588,0.641229,-0.170617,-2.257723,0.109334,2.595938,1.277837
5423.666000000,-0.357485,0.641119,-0.171082,-2.257398,-0.165077,2.595584,0.687051
5423.690000000,-0.356591,0.641226,-0.170620,-2.257716,0.109332,2.595940,1.277830
5423.700000000,-0.357503,0.641108,-0.171070,-2.257381,-0.173906,2.595571,0.653080
5423.724000000,-0.356591,0.641231,-0.170614,-2.257716,0.109333,2.595941,1.277830
5423.733000000,-0.354958,0.641657,-0.168740,-2.258399,-0.095654,2.596274,0.795740
5423.758000000,-0.356591,0.641226,-0.170611,-2.257718,0.109328,2.595939,1.277836
5423.768000000,-0.356060,0.641514,-0.169905,-2.257546,-0.089250,2.595813,0.799593
5423.792000000,-0.356588,0.641229,-0.170617,-2.257718,0.109334,2.595938,1.277829
5423.802000000,-0.354935,0.641543,-0.168949,-2.258093,-0.035272,2.596300,0.931037
5423.826000000,-0.356594,0.641226,-0.170619,-2.257721,0.109333,2.595935,1.277829
5423.836000000,-0.355001,0.641513,-0.169157,-2.257837,0.010583,2.596177,1.037847
5423.859000000,-0.356591,0.641229,-0.170622,-2.257723,0.109335,2.595938,1.277835
5423.871000000,-0.355901,0.641298,-0.169936,-2.257596,0.041266,2.596012,1.114360
5423.893000000,-0.356591,0.641226,-0.170616,-2.257713,0.109331,2.595941,1.277840
5423.905000000,-0.356710,0.641121,-0.170658,-2.257517,0.062439,2.595961,1.171586
5423.927000000,-0.356588,0.641229,-0.170611,-2.257721,0.109334,2.595938,1.277841
5423.938000000,-0.357194,0.641040,-0.171219,-2.257553,0.076471,2.595973,1.210524
5423.961000000,-0.356594,0.641229,-0.170622,-2.257718,0.109335,2.595939,1.277832
5423.973000000,-0.357650,0.641006,-0.171525,-2.257485,0.081321,2.595910,1.249087
5423.995000000,-0.356578,0.641229,-0.170612,-2.257723,0.109332,2.595939,1.277837
5424.007000000,-0.357753,0.641019,-0.171587,-2.257526,0.082306,2.595894,1.274009
5424.029000000,-0.356570,0.641226,-0.170609,-2.257721,0.109332,2.595937,1.277838
5424.042000000,-0.357498,0.641080,-0.171476,-2.257654,0.082891,2.595931,1.293435
5424.063000000,-0.356618,0.641229,-0.170636,-2.257716,0.109334,2.595939,1.277834
5424.076000000,-0.357223,0.641147,-0.171266,-2.257700,0.082384,2.595926,1.308872
5424.097000000,-0.356586,0.641257,-0.170626,-2.257731,0.109334,2.595935,1.277837
5424.110000000,-0.356997,0.641192,-0.171031,-2.257736,0.081735,2.595911,1.318707
5424.131000000,-0.356559,0.641215,-0.170600,-2.257698,0.109333,2.595944,1.277838
5424.145000000,-0.356880,0.641230,-0.170817,-2.257693,0.080482,2.595853,1.324594
5424.165000000,-0.356588,0.641220,-0.170603,-2.257723,0.109332,2.595940,1.277840
5424.179000000,-0.356742,0.641246,-0.170696,-2.257703,0.079939,2.595848,1.322792
5424.199000000,-0.356575,0.641239,-0.170619,-2.257731,0.109333,2.595940,1.277835
5424.213000000,-0.356694,0.641252,-0.170650,-2.257689,0.078436,2.595824,1.316275
5424.233000000,-0.356574,0.641215,-0.170611,-2.257703,0.109333,2.595941,1.277838
5424.247000000,-0.356731,0.641227,-0.170629,-2.257726,0.074525,2.595836,1.306519
5424.266000000,-0.356596,0.641226,-0.170614,-2.257719,0.109334,2.595940,1.277836
5424.281000000,-0.356657,0.641260,-0.170597,-2.257680,0.074780,2.595825,1.291848
5424.301000000,-0.356581,0.641236,-0.170611,-2.257718,0.109333,2.595939,1.277832
5424.316000000,-0.356727,0.641216,-0.170781,-2.257699,0.066202,2.595864,1.285255
5424.335000000,-0.356590,0.641226,-0.170620,-2.257708,0.109333,2.595940,1.277830
5424.350000000,-0.356792,0.641194,-0.170818,-2.257696,0.058036,2.595838,1.274707
5424.368000000,-0.356588,0.641231,-0.170611,-2.257729,0.109335,2.595937,1.277837
5424.385000000,-0.356900,0.641195,-0.170814,-2.257639,0.048668,2.595793,1.260562
5424.402000000,-0.356586,0.641229,-0.170617,-2.257723,0.109333,2.595939,1.277837
5424.419000000,-0.356908,0.641204,-0.170842,-2.257643,0.039904,2.595783,1.240262
5424.436000000,-0.356605,0.641224,-0.170625,-2.257719,0.109335,2.595937,1.277829
5424.453000000,-0.356952,0.641199,-0.170835,-2.257626,0.030963,2.595762,1.219029
5424.470000000,-0.356586,0.641229,-0.170616,-2.257726,0.109335,2.595940,1.277835
5424.487000000,-0.356956,0.641207,-0.170850,-2.257618,0.021996,2.595754,1.195273
5424.503000000,-0.356604,0.641229,-0.170625,-2.257716,0.109333,2.595940,1.277837
5424.521000000,-0.356995,0.641197,-0.170842,-2.257606,0.012998,2.595730,1.169762
5424.538000000,-0.356605,0.641231,-0.170622,-2.257723,0.109334,2.595940,1.277835
5424.555000000,-0.356997,0.641208,-0.170852,-2.257592,0.003957,2.595730,1.143036
5424.572000000,-0.356599,0.641229,-0.170622,-2.257723,0.109333,2.595937,1.277842
5424.589000000,-0.357034,0.641196,-0.170840,-2.257580,-0.005043,2.595706,1.115056
5424.607000000,-0.356599,0.641226,-0.170633,-2.257721,0.109333,2.595934,1.277828
5424.623000000,-0.357036,0.641207,-0.170849,-2.257564,-0.014104,2.595706,1.085959
5424.640000000,-0.356583,0.641228,-0.170621,-2.257723,0.109332,2.595940,1.277832
5424.657000000,-0.357071,0.641195,-0.170835,-2.257552,-0.023104,2.595687,1.055962
5424.674000000,-0.356596,0.641223,-0.170625,-2.257725,0.109334,2.595936,1.277829
