yuan18844-afk/dissertation/catkin_ws/src/franka_digital_twin/analysis/data/real_static2_20250728_063951.csv
time,panda_joint1,panda_joint2,panda_joint3,panda_joint4,panda_joint5,panda_joint6,panda_joint7
0.000000000,0.598468,1.065765,-0.390735,-1.174752,0.251982,2.260356,2.005762
4710.194000000,0.598513,1.065860,-0.390635,-1.174752,0.284418,2.260333,1.930881
4710.208000000,0.598478,1.065795,-0.390739,-1.174741,0.252356,2.260361,2.009257
4710.227000000,0.598519,1.065857,-0.390638,-1.174747,0.284419,2.260333,1.930881
4710.243000000,0.598408,1.065785,-0.390618,-1.174711,0.251913,2.260281,2.014108
4710.251000000,0.598508,1.065852,-0.390635,-1.174752,0.284416,2.260334,1.930880
4710.277000000,0.598429,1.065820,-0.390612,-1.174703,0.252028,2.260277,2.016709
4710.285000000,0.598506,1.065857,-0.390633,-1.174752,0.284417,2.260331,1.930882
4710.312000000,0.598440,1.065832,-0.390587,-1.174715,0.252097,2.260281,2.018943
4710.321000000,0.598522,1.065855,-0.390635,-1.174751,0.284417,2.260332,1.930877
4710.346000000,0.598547,1.065866,-0.390697,-1.174767,0.252804,2.260357,2.019192
4710.355000000,0.598511,1.065857,-0.390633,-1.174755,0.284416,2.260333,1.930881
4710.381000000,0.598471,1.065846,-0.390580,-1.174732,0.252164,2.260274,2.022561
4710.389000000,0.598513,1.065852,-0.390635,-1.174750,0.284416,2.260333,1.930882
4710.416000000,0.598562,1.065874,-0.390677,-1.174779,0.252808,2.260364,2.022286
4710.424000000,0.598513,1.065857,-0.390638,-1.174747,0.284415,2.260333,1.930875
4710.450000000,0.598569,1.065865,-0.390679,-1.174788,0.252788,2.260354,2.023463
4710.455000000,0.598508,1.065855,-0.390635,-1.174752,0.284417,2.260332,1.930880
4710.481000000,0.598516,1.065855,-0.390633,-1.174747,0.284418,2.260333,1.930883
4710.484000000,0.598571,1.065882,-0.390686,-1.174771,0.252819,2.260358,2.024415
4710.519000000,0.598493,1.065825,-0.390651,-1.174751,0.249073,2.260326,2.028432
4710.519000000,0.598524,1.065855,-0.390633,-1.174747,0.284417,2.260330,1.930876
4710.552000000,0.598552,1.065827,-0.390750,-1.174796,0.246431,2.260369,2.024816
4710.556000000,0.598513,1.065860,-0.390633,-1.174747,0.284415,2.260332,1.930876
4710.586000000,0.598587,1.065902,-0.390704,-1.174791,0.248933,2.260357,2.011010
4710.591000000,0.598513,1.065857,-0.390638,-1.174746,0.284417,2.260332,1.930880
4710.620000000,0.598595,1.065916,-0.390671,-1.174795,0.250451,2.260358,2.000007
4710.626000000,0.598511,1.065857,-0.390638,-1.174749,0.284416,2.260332,1.930880
4710.654000000,0.598599,1.065904,-0.390670,-1.174798,0.251434,2.260347,1.991369
4710.659000000,0.598513,1.065857,-0.390635,-1.174750,0.284418,2.260333,1.930882
4710.689000000,0.598593,1.065909,-0.390679,-1.174775,0.252086,2.260351,1.984863
4710.694000000,0.598516,1.065857,-0.390633,-1.174748,0.284417,2.260331,1.930882
4710.722000000,0.598579,1.065886,-0.390674,-1.174773,0.252460,2.260360,1.980371
4710.728000000,0.598513,1.065860,-0.390632,-1.174750,0.284417,2.260334,1.930876
4710.756000000,0.598574,1.065861,-0.390683,-1.174776,0.252712,2.260354,1.977729
4710.762000000,0.598511,1.065855,-0.390641,-1.174745,0.284417,2.260332,1.930872
4710.790000000,0.598570,1.065868,-0.390695,-1.174755,0.252898,2.260360,1.976852
4710.796000000,0.598513,1.065852,-0.390633,-1.174747,0.284416,2.260332,1.930881
4710.824000000,0.598560,1.065854,-0.390687,-1.174758,0.252965,2.260369,1.977725
4710.830000000,0.598513,1.065857,-0.390638,-1.174750,0.284418,2.260332,1.930880
4710.858000000,0.598562,1.065840,-0.390693,-1.174766,0.253006,2.260361,1.980255
4710.864000000,0.598506,1.065855,-0.390632,-1.174744,0.284416,2.260332,1.930870
4710.891000000,0.598519,1.065857,-0.390633,-1.174748,0.284416,2.260333,1.930880
4710.899000000,0.598563,1.065857,-0.390698,-1.174750,0.253063,2.260366,1.984386
4710.928000000,0.598384,1.065758,-0.390584,-1.174684,0.246329,2.260260,1.996941
4710.931000000,0.598508,1.065857,-0.390628,-1.174746,0.284416,2.260330,1.930880
4710.962000000,0.598554,1.065845,-0.390723,-1.174780,0.248539,2.260372,1.987057
4710.965000000,0.598508,1.065857,-0.390635,-1.174748,0.284416,2.260333,1.930880
4710.996000000,0.598577,1.065877,-0.390694,-1.174796,0.250365,2.260351,1.976306
4710.999000000,0.598516,1.065857,-0.390635,-1.174745,0.284416,2.260332,1.930879
4711.029000000,0.598497,1.065880,-0.390574,-1.174744,0.250842,2.260282,1.969887
4711.032000000,0.598513,1.065852,-0.390633,-1.174752,0.284416,2.260331,1.930873
4711.064000000,0.598580,1.065901,-0.390672,-1.174783,0.252218,2.260355,1.961783
4711.066000000,0.598511,1.065857,-0.390635,-1.174748,0.284418,2.260332,1.930879
4711.098000000,0.598579,1.065881,-0.390678,-1.174786,0.252641,2.260347,1.957557
4711.099000000,0.598516,1.065860,-0.390638,-1.174748,0.284415,2.260334,1.930874
4711.132000000,0.598576,1.065888,-0.390689,-1.174764,0.252948,2.260353,1.955117
4711.133000000,0.598513,1.065857,-0.390635,-1.174747,0.284416,2.260333,1.930877
4711.166000000,0.598464,1.065783,-0.390706,-1.174733,0.244762,2.260338,1.961122
4711.167000000,0.598513,1.065857,-0.390635,-1.174748,0.284417,2.260333,1.930879
4711.199000000,0.598329,1.065704,-0.390661,-1.174665,0.234014,2.260287,1.971840
4711.202000000,0.598516,1.065857,-0.390633,-1.174747,0.284416,2.260331,1.930882
4711.234000000,0.598376,1.065685,-0.390786,-1.174687,0.223710,2.260348,1.981365
4711.235000000,0.598513,1.065855,-0.390635,-1.174750,0.284416,2.260333,1.930881
4711.268000000,0.598615,1.065889,-0.390735,-1.174781,0.234448,2.260403,1.969898
4711.269000000,0.598513,1.065857,-0.390635,-1.174750,0.284416,2.260332,1.930871
4711.302000000,0.598516,1.065855,-0.390633,-1.174748,0.284417,2.260333,1.930883
4711.303000000,0.598589,1.065959,-0.390533,-1.174740,0.240753,2.260281,1.964828
4711.335000000,0.598511,1.065855,-0.390635,-1.174745,0.284417,2.260332,1.930882
4711.336000000,0.598685,1.065983,-0.390628,-1.174794,0.245584,2.260349,1.960311
4711.368000000,0.598519,1.065857,-0.390635,-1.174747,0.284418,2.260333,1.930876
4711.370000000,0.598488,1.065830,-0.390612,-1.174728,0.236474,2.260294,1.969791
4711.402000000,0.598513,1.065855,-0.390641,-1.174745,0.284416,2.260333,1.930882
4711.405000000,0.598406,1.065786,-0.390614,-1.174671,0.228436,2.260265,1.981239
4711.436000000,0.598516,1.065857,-0.390638,-1.174750,0.284417,2.260332,1.930879
4711.439000000,0.598380,1.065760,-0.390605,-1.174669,0.220153,2.260263,1.993017
4711.470000000,0.598511,1.065855,-0.390633,-1.174750,0.284417,2.260331,1.930873
4711.473000000,0.598371,1.065745,-0.390599,-1.174661,0.211784,2.260242,2.006290
4711.505000000,0.598511,1.065857,-0.390635,-1.174746,0.284416,2.260332,1.930870
4711.507000000,0.598361,1.065754,-0.390588,-1.174636,0.203241,2.260226,2.021124
4711.538000000,0.598516,1.065857,-0.390635,-1.174746,0.284417,2.260331,1.930883
4711.541000000,0.598344,1.065742,-0.390562,-1.174631,0.194559,2.260212,2.037475
4711.570000000,0.598516,1.065855,-0.390632,-1.174744,0.284419,2.260333,1.930881
4711.576000000,0.598428,1.065759,-0.390671,-1.174669,0.186194,2.260299,2.054176
4711.604000000,0.598511,1.065857,-0.390638,-1.174745,0.284417,2.260330,1.930877
4711.610000000,0.598418,1.065747,-0.390652,-1.174669,0.177265,2.260304,2.073665
4711.638000000,0.598511,1.065857,-0.390635,-1.174750,0.284417,2.260333,1.930879
4711.644000000,0.598437,1.065736,-0.390681,-1.174684,0.168322,2.260318,2.094669
4711.663000000,0.598513,1.065855,-0.390630,-1.174745,0.284417,2.260332,1.930873
4711.679000000,0.598715,1.065925,-0.390796,-1.174846,0.173894,2.260441,2.091783
4711.699000000,0.598513,1.065855,-0.390630,-1.174745,0.284416,2.260333,1.930882
4711.713000000,0.598908,1.066223,-0.390500,-1.174912,0.202353,2.260320,2.046162
4711.734000000,0.598522,1.065857,-0.390635,-1.174749,0.284417,2.260333,1.930881
4711.747000000,0.598732,1.066160,-0.390359,-1.174792,0.211737,2.260236,2.031440
4711.769000000,0.598513,1.065852,-0.390638,-1.174752,0.284417,2.260334,1.930881
4711.781000000,0.598589,1.065895,-0.390592,-1.174793,0.200627,2.260275,2.049857
4711.803000000,0.598511,1.065855,-0.390638,-1.174747,0.284417,2.260333,1.930876
4711.814000000,0.598502,1.065841,-0.390639,-1.174740,0.192342,2.260290,2.050872
4711.838000000,0.598516,1.065855,-0.390635,-1.174747,0.284416,2.260333,1.930883
4711.849000000,0.598475,1.065795,-0.390680,-1.174746,0.183171,2.260315,2.054417
4711.872000000,0.598513,1.065855,-0.390635,-1.174752,0.284417,2.260332,1.930871
4711.883000000,0.598476,1.065770,-0.390709,-1.174753,0.174016,2.260323,2.059712
4711.905000000,0.598516,1.065852,-0.390635,-1.174749,0.284417,2.260335,1.930883
4711.917000000,0.598484,1.065779,-0.390736,-1.174742,0.164690,2.260343,2.066883
4711.940000000,0.598516,1.065857,-0.390635,-1.174750,0.284416,2.260329,1.930880
4711.951000000,0.598492,1.065767,-0.390744,-1.174753,0.155203,2.260367,2.075883
4711.970000000,0.598511,1.065855,-0.390635,-1.174750,0.284417,2.260333,1.930881
4711.988000000,0.598422,1.065744,-0.390657,-1.174700,0.144121,2.260252,2.089404
4712.005000000,0.598516,1.065855,-0.390635,-1.174752,0.284415,2.260330,1.930881
4712.022000000,0.598507,1.065747,-0.390758,-1.174758,0.134961,2.260372,2.100333
4712.039000000,0.598516,1.065860,-0.390633,-1.174748,0.284416,2.260332,1.930879
4712.055000000,0.598516,1.065758,-0.390773,-1.174745,0.124846,2.260385,2.115044
4712.073000000,0.598516,1.065852,-0.390632,-1.174746,0.284416,2.260331,1.930880
4712.089000000,0.598528,1.065748,-0.390782,-1.174757,0.114655,2.260416,2.131536
4712.104000000,0.598513,1.065857,-0.390633,-1.174752,0.284416,2.260332,1.930879
4712.123000000,0.598547,1.065736,-0.390803,-1.174771,0.104285,2.260434,2.149934
4712.141000000,0.598513,1.065855,-0.390638,-1.174749,0.284415,2.260333,1.930882
4712.158000000,0.598468,1.065732,-0.390700,-1.174697,0.092833,2.260294,2.172556
4712.175000000,0.598511,1.065857,-0.390633,-1.174750,0.284416,2.260331,1.930875
4712.192000000,0.598469,1.065716,-0.390695,-1.174694,0.081950,2.260269,2.195065
4712.210000000,0.598513,1.065857,-0.390635,-1.174749,0.284417,2.260333,1.930873
4712.226000000,0.598459,1.065724,-0.390680,-1.174662,0.070769,2.260228,2.219736
4712.244000000,0.598511,1.065855,-0.390635,-1.174750,0.284416,2.260331,1.930876
4712.259000000,0.598541,1.065729,-0.390780,-1.174724,0.060507,2.260397,2.243616
4712.277000000,0.598513,1.065857,-0.390630,-1.174750,0.284416,2.260332,1.930880
4712.294000000,0.598456,1.065702,-0.390671,-1.174658,0.048276,2.260199,2.273090
4712.312000000,0.598513,1.065857,-0.390633,-1.174746,0.284417,2.260333,1.930882
4712.327000000,0.598543,1.065703,-0.390775,-1.174732,0.037605,2.260395,2.298972
4712.346000000,0.598516,1.065857,-0.390635,-1.174750,0.284417,2.260335,1.930876
4712.362000000,0.598453,1.065699,-0.390663,-1.174644,0.025026,2.260178,2.330652
4712.380000000,0.598508,1.065855,-0.390632,-1.174748,0.284417,2.260332,1.930880
4712.396000000,0.598446,1.065683,-0.390653,-1.174635,0.013004,2.260132,2.361051
4712.413000000,0.598511,1.065855,-0.390638,-1.174747,0.284417,2.260336,1.930880
4712.430000000,0.598434,1.065690,-0.390638,-1.174602,0.000674,2.260074,2.392701
4712.446000000,0.598511,1.065860,-0.390635,-1.174750,0.284417,2.260333,1.930875
4712.463000000,0.598517,1.065692,-0.390743,-1.174678,-0.010714,2.260308,2.422224
4712.481000000,0.598508,1.065855,-0.390635,-1.174747,0.284417,2.260333,1.930881
4712.498000000,0.598429,1.065666,-0.390633,-1.174600,-0.024170,2.260041,2.457276
4712.515000000,0.598513,1.065855,-0.390633,-1.174752,0.284416,2.260332,1.930875
4712.532000000,0.598418,1.065673,-0.390617,-1.174565,-0.037148,2.259976,2.491202
4712.549000000,0.598516,1.065855,-0.390628,-1.174750,0.284417,2.260334,1.930873
4712.566000000,0.598395,1.065662,-0.390584,-1.174545,-0.050282,2.259909,2.525725
4712.583000000,0.598516,1.065857,-0.390641,-1.174747,0.284418,2.260332,1.930882
4712.600000000,0.598381,1.065645,-0.390565,-1.174529,-0.063670,2.259833,2.560821
4712.616000000,0.598513,1.065857,-0.390638,-1.174750,0.284418,2.260329,1.930871
4712.634000000,0.599409,1.066830,-0.390588,-1.175237,0.021932,2.260335,2.400973
4712.651000000,0.598516,1.065857,-0.390629,-1.174750,0.284416,2.260331,1.930881
4712.668000000,0.599612,1.067235,-0.390150,-1.175308,0.098651,2.260215,2.275652
4712.685000000,0.598513,1.065852,-0.390635,-1.174746,0.284416,2.260333,1.930882
4712.703000000,0.599318,1.066962,-0.389947,-1.175099,0.154215,2.259924,2.177455
4712.718000000,0.598511,1.065855,-0.390633,-1.174745,0.284417,2.260332,1.930876
4712.736000000,0.599036,1.066450,-0.390252,-1.174962,0.188638,2.260101,2.107586
4712.751000000,0.598511,1.065852,-0.390635,-1.174752,0.284415,2.260334,1.930883
4712.771000000,0.598515,1.065883,-0.390411,-1.174685,0.211002,2.260057,2.051745
4712.785000000,0.598516,1.065855,-0.390633,-1.174746,0.284418,2.260333,1.930877
4712.805000000,0.598177,1.065449,-0.390645,-1.174545,0.224922,2.260133,2.010300
4712.819000000,0.598511,1.065855,-0.390638,-1.174745,0.284417,2.260334,1.930883
4712.839000000,0.597982,1.065224,-0.390823,-1.174451,0.234115,2.260225,1.976331
4712.853000000,0.598511,1.065855,-0.390635,-1.174752,0.284416,2.260331,1.930875
4712.874000000,0.597993,1.065140,-0.391005,-1.174496,0.241043,2.260347,1.952368
4712.887000000,0.598513,1.065860,-0.390633,-1.174750,0.284416,2.260333,1.930879
4712.908000000,0.598016,1.065200,-0.391014,-1.174505,0.245131,2.260372,1.934465
4712.921000000,0.598513,1.065852,-0.390637,-1.174747,0.284416,2.260332,1.930874
4712.942000000,0.598094,1.065312,-0.390958,-1.174559,0.247829,2.260385,1.919600
4712.956000000,0.598513,1.065857,-0.390638,-1.174745,0.284418,2.260331,1.930877
4712.976000000,0.598212,1.065452,-0.390896,-1.174625,0.249646,2.260373,1.907269
4712.989000000,0.598522,1.065855,-0.390633,-1.174748,0.284418,2.260334,1.930881
4713.010000000,0.598332,1.065618,-0.390830,-1.174663,0.250944,2.260366,1.897089
4713.024000000,0.598511,1.065857,-0.390635,-1.174746,0.284417,2.260331,1.930876
4713.044000000,0.598433,1.065738,-0.390752,-1.174715,0.251795,2.260362,1.888902
4713.057000000,0.598513,1.065857,-0.390633,-1.174747,0.284416,2.260334,1.930874
4713.078000000,0.598518,1.065821,-0.390705,-1.174757,0.252386,2.260343,1.882503
4713.092000000,0.598511,1.065857,-0.390637,-1.174750,0.284418,2.260332,1.930875
4713.112000000,0.598577,1.065899,-0.390676,-1.174762,0.252851,2.260340,1.877733
4713.125000000,0.598513,1.065857,-0.390635,-1.174749,0.284416,2.260332,1.930874
4713.146000000,0.598605,1.065924,-0.390647,-1.174779,0.253131,2.260342,1.874570
4713.160000000,0.598513,1.065860,-0.390638,-1.174750,0.284415,2.260331,1.930874
4713.180000000,0.598622,1.065923,-0.390646,-1.174792,0.253339,2.260331,1.872900
4713.188000000,0.598516,1.065857,-0.390633,-1.174752,0.284416,2.260333,1.930882
4713.214000000,0.598623,1.065935,-0.390655,-1.174775,0.253529,2.260335,1.872651
4713.218000000,0.598513,1.065857,-0.390635,-1.174750,0.284417,2.260331,1.930875
4713.249000000,0.598526,1.065889,-0.390546,-1.174740,0.252989,2.260298,1.875590
4713.250000000,0.598513,1.065857,-0.390638,-1.174755,0.284417,2.260333,1.930881
4713.282000000,0.598519,1.065855,-0.390631,-1.174750,0.284417,2.260334,1.930874
4713.283000000,0.598517,1.065889,-0.390560,-1.174721,0.253054,2.260298,1.878200
4713.315000000,0.598506,1.065857,-0.390638,-1.174750,0.284418,2.260333,1.930881
4713.316000000,0.598516,1.065847,-0.390631,-1.174740,0.250842,2.260286,1.881321
4713.349000000,0.598513,1.065857,-0.390635,-1.174749,0.284418,2.260332,1.930882
4713.351000000,0.598347,1.065737,-0.390602,-1.174688,0.240075,2.260260,1.886158
4713.383000000,0.598513,1.065855,-0.390633,-1.174747,0.284415,2.260333,1.930875
4713.384000000,0.598400,1.065725,-0.390726,-1.174725,0.232237,2.260299,1.887101
4713.417000000,0.598513,1.065855,-0.390633,-1.174752,0.284417,2.260332,1.930875
4713.417000000,0.598388,1.065725,-0.390745,-1.174706,0.223160,2.260304,1.891406
4713.450000000,0.598519,1.065855,-0.390635,-1.174750,0.284417,2.260332,1.930873
4713.454000000,0.598513,1.065839,-0.390691,-1.174696,0.224430,2.260392,1.906107
4713.484000000,0.598513,1.065855,-0.390633,-1.174745,0.284417,2.260334,1.930876
4713.488000000,0.598576,1.065879,-0.390568,-1.174764,0.228420,2.260277,1.916294
4713.511000000,0.598511,1.065860,-0.390633,-1.174748,0.284416,2.260332,1.930882
4713.522000000,0.598504,1.065792,-0.390686,-1.174751,0.217813,2.260314,1.922017
4713.546000000,0.598516,1.065855,-0.390635,-1.174750,0.284417,2.260330,1.930875
4713.557000000,0.598383,1.065755,-0.390599,-1.174688,0.207977,2.260258,1.929633
4713.579000000,0.598511,1.065857,-0.390635,-1.174740,0.284418,2.260333,1.930874
4713.592000000,0.598453,1.065756,-0.390726,-1.174721,0.198771,2.260315,1.935781
4713.613000000,0.598513,1.065857,-0.390633,-1.174745,0.284416,2.260333,1.930882
4713.627000000,0.598362,1.065716,-0.390627,-1.174679,0.188095,2.260248,1.946833
4713.647000000,0.598516,1.065852,-0.390635,-1.174744,0.284416,2.260332,1.930879
4713.661000000,0.598354,1.065721,-0.390623,-1.174654,0.178018,2.260231,1.957464
4713.680000000,0.598511,1.065852,-0.390641,-1.174742,0.284417,2.260334,1.930875
4713.696000000,0.598426,1.065710,-0.390713,-1.174708,0.168038,2.260299,1.968192
4713.713000000,0.598511,1.065857,-0.390633,-1.174750,0.284417,2.260334,1.930881
4713.730000000,0.598437,1.065720,-0.390737,-1.174697,0.157670,2.260314,1.981578
4713.747000000,0.598516,1.065857,-0.390635,-1.174750,0.284416,2.260331,1.930876
4713.764000000,0.598448,1.065711,-0.390748,-1.174706,0.147163,2.260336,1.996309
4713.781000000,0.598513,1.065857,-0.390635,-1.174752,0.284416,2.260333,1.930874
4713.797000000,0.598372,1.065695,-0.390649,-1.174649,0.136149,2.260242,2.013643
4713.815000000,0.598516,1.065855,-0.390633,-1.174750,0.284417,2.260332,1.930879
4713.832000000,0.598459,1.065710,-0.390756,-1.174692,0.125529,2.260335,2.030037
4713.847000000,0.598513,1.065857,-0.390635,-1.174749,0.284416,2.260332,1.930875
4713.866000000,0.598469,1.065702,-0.390765,-1.174700,0.114525,2.260361,2.048982
4713.879000000,0.598508,1.065857,-0.390633,-1.174750,0.284417,2.260331,1.930875
4713.902000000,0.598401,1.065693,-0.390679,-1.174634,0.102359,2.260241,2.071745
4713.911000000,0.598516,1.065860,-0.390638,-1.174744,0.284417,2.260331,1.930874
4713.937000000,0.599188,1.066410,-0.390652,-1.174989,0.156257,2.260508,2.031059
4713.941000000,0.598516,1.065857,-0.390635,-1.174750,0.284417,2.260331,1.930872
4713.970000000,0.598513,1.065857,-0.390635,-1.174747,0.284416,2.260332,1.930884
4713.975000000,0.599226,1.066533,-0.390362,-1.174998,0.192903,2.260360,2.009262
4714.002000000,0.598508,1.065857,-0.390635,-1.174742,0.284415,2.260332,1.930880
4714.014000000,0.598778,1.066156,-0.390282,-1.174828,0.208247,2.260168,2.009492
4714.043000000,0.598516,1.065855,-0.390633,-1.174752,0.284415,2.260334,1.930880
4714.047000000,0.598528,1.065812,-0.390665,-1.174757,0.195021,2.260293,2.028226
4714.078000000,0.598516,1.065855,-0.390635,-1.174750,0.284417,2.260332,1.930877
4714.081000000,0.598397,1.065701,-0.390695,-1.174716,0.187146,2.260294,2.034247
4714.111000000,0.598511,1.065855,-0.390630,-1.174750,0.284417,2.260333,1.930878
4714.116000000,0.598280,1.065645,-0.390662,-1.174644,0.176982,2.260204,2.045060
4714.135000000,0.598516,1.065857,-0.390638,-1.174745,0.284416,2.260333,1.930879
4714.152000000,0.598257,1.065624,-0.390670,-1.174631,0.167157,2.260196,2.056225
4714.162000000,0.598513,1.065855,-0.390632,-1.174745,0.284418,2.260333,1.930881
4714.188000000,0.598587,1.065889,-0.390732,-1.174755,0.179156,2.260328,2.044684
4714.199000000,0.598511,1.065852,-0.390637,-1.174745,0.284418,2.260332,1.930870
4714.221000000,0.598845,1.066156,-0.390561,-1.174869,0.206283,2.260339,2.016581
4714.235000000,0.598513,1.065857,-0.390633,-1.174752,0.284417,2.260334,1.930878
4714.256000000,0.598541,1.065987,-0.390364,-1.174715,0.208642,2.260142,2.020756
4714.269000000,0.598511,1.065857,-0.390638,-1.174747,0.284417,2.260335,1.930882
4714.290000000,0.598390,1.065792,-0.390513,-1.174664,0.197631,2.260179,2.039476
4714.304000000,0.598513,1.065855,-0.390632,-1.174750,0.284418,2.260333,1.930883
4714.324000000,0.598303,1.065701,-0.390539,-1.174629,0.187838,2.260153,2.056704
4714.338000000,0.598511,1.065855,-0.390635,-1.174752,0.284416,2.260332,1.930882
4714.358000000,0.598258,1.065673,-0.390553,-1.174591,0.177673,2.260131,2.075733
4714.372000000,0.598513,1.065855,-0.390633,-1.174747,0.284416,2.260333,1.930880
4714.392000000,0.598221,1.065644,-0.390536,-1.174574,0.167362,2.260111,2.096378
4714.406000000,0.598519,1.065852,-0.390635,-1.174750,0.284415,2.260332,1.930885
4714.426000000,0.598203,1.065620,-0.390532,-1.174564,0.156855,2.260082,2.118733
4714.441000000,0.598511,1.065857,-0.390633,-1.174750,0.284416,2.260332,1.930873
4714.460000000,0.598189,1.065624,-0.390522,-1.174534,0.146201,2.260050,2.142798
4714.475000000,0.598511,1.065857,-0.390633,-1.174745,0.284416,2.260334,1.930882
4714.495000000,0.598261,1.065611,-0.390612,-1.174600,0.135698,2.260175,2.167723
4714.508000000,0.598516,1.065857,-0.390638,-1.174745,0.284417,2.260334,1.930878
4714.529000000,0.598269,1.065620,-0.390634,-1.174590,0.124779,2.260197,2.194670
4714.543000000,0.598513,1.065857,-0.390638,-1.174748,0.284416,2.260332,1.930880
4714.563000000,0.598279,1.065609,-0.390646,-1.174604,0.113709,2.260233,2.222604
4714.578000000,0.598519,1.065855,-0.390635,-1.174750,0.284417,2.260332,1.930880
4714.597000000,0.598295,1.065594,-0.390669,-1.174622,0.102426,2.260257,2.251626
4714.612000000,0.598519,1.065857,-0.390635,-1.174745,0.284417,2.260330,1.930879
4714.632000000,0.598213,1.065589,-0.390570,-1.174544,0.089922,2.260084,2.284422
4714.646000000,0.598513,1.065855,-0.390635,-1.174747,0.284415,2.260334,1.930877
4714.666000000,0.598204,1.065573,-0.390558,-1.174535,0.077963,2.260036,2.315656
4714.679000000,0.598508,1.065855,-0.390635,-1.174749,0.284416,2.260332,1.930880
4714.702000000,0.598280,1.065582,-0.390646,-1.174596,0.066062,2.260229,2.347449
4714.712000000,0.598513,1.065855,-0.390638,-1.174747,0.284416,2.260332,1.930875
4714.736000000,0.599177,1.066514,-0.390519,-1.175056,0.138783,2.260382,2.236564
4714.746000000,0.598519,1.065852,-0.390635,-1.174747,0.284416,2.260334,1.930871
4714.769000000,0.599167,1.066616,-0.390247,-1.175043,0.178077,2.260226,2.164936
4714.779000000,0.598516,1.065855,-0.390635,-1.174752,0.284416,2.260335,1.930875
4714.803000000,0.598999,1.066417,-0.390294,-1.174970,0.205728,2.260181,2.104637
4714.814000000,0.598511,1.065855,-0.390636,-1.174744,0.284418,2.260332,1.930883
4714.837000000,0.598743,1.066128,-0.390461,-1.174843,0.223165,2.260204,2.056016
4714.848000000,0.598513,1.065855,-0.390633,-1.174747,0.284415,2.260334,1.930876
4714.871000000,0.598482,1.065829,-0.390612,-1.174742,0.234038,2.260238,2.015609
4714.882000000,0.598516,1.065860,-0.390635,-1.174750,0.284416,2.260333,1.930880
4714.905000000,0.598309,1.065608,-0.390762,-1.174677,0.240838,2.260281,1.981644
4714.915000000,0.598513,1.065860,-0.390637,-1.174747,0.284418,2.260333,1.930883
4714.942000000,0.598130,1.065489,-0.390750,-1.174570,0.244973,2.260257,1.957048
4714.948000000,0.598519,1.065857,-0.390635,-1.174750,0.284417,2.260332,1.930873
4714.976000000,0.598111,1.065462,-0.390767,-1.174573,0.247862,2.260295,1.936284
4714.981000000,0.598508,1.065855,-0.390635,-1.174745,0.284418,2.260333,1.930879
4715.011000000,0.598242,1.065522,-0.390880,-1.174629,0.250322,2.260362,1.916506
4715.012000000,0.598510,1.065860,-0.390632,-1.174752,0.284416,2.260333,1.930882
4715.044000000,0.598221,1.065576,-0.390734,-1.174606,0.250833,2.260315,1.904500
4715.046000000,0.598516,1.065855,-0.390630,-1.174747,0.284416,2.260335,1.930873
4715.079000000,0.598384,1.065660,-0.390792,-1.174700,0.252257,2.260360,1.890624
4715.079000000,0.598513,1.065857,-0.390638,-1.174747,0.284417,2.260334,1.930875
4715.114000000,0.598368,1.065736,-0.390628,-1.174672,0.252174,2.260320,1.882472
4715.117000000,0.598511,1.065852,-0.390638,-1.174749,0.284416,2.260332,1.930874
4715.150000000,0.598522,1.065855,-0.390633,-1.174750,0.284416,2.260332,1.930876
4715.150000000,0.598524,1.065823,-0.390717,-1.174734,0.253201,2.260352,1.872758
4715.183000000,0.598513,1.065857,-0.390638,-1.174750,0.284417,2.260337,1.930879
4715.184000000,0.598479,1.065837,-0.390574,-1.174721,0.252797,2.260308,1.868166
4715.218000000,0.598429,1.065831,-0.390514,-1.174685,0.249600,2.260255,1.866192
4715.218000000,0.598508,1.065857,-0.390638,-1.174752,0.284416,2.260332,1.930876
4715.252000000,0.598491,1.065849,-0.390600,-1.174680,0.245952,2.260369,1.876213
4715.253000000,0.598513,1.065855,-0.390638,-1.174747,0.284416,2.260331,1.930875
4715.287000000,0.598654,1.065912,-0.390662,-1.174741,0.249318,2.260385,1.895282
4715.319000000,0.598516,1.065857,-0.390633,-1.174747,0.284417,2.260332,1.930883
4715.323000000,0.598587,1.065905,-0.390530,-1.174703,0.250231,2.260318,1.917952
4715.354000000,0.598519,1.065860,-0.390633,-1.174745,0.284417,2.260332,1.930873
4715.355000000,0.598560,1.065838,-0.390581,-1.174755,0.247674,2.260284,1.932882
4715.389000000,0.598477,1.065784,-0.390680,-1.174724,0.237787,2.260313,1.943604
4715.389000000,0.598513,1.065857,-0.390635,-1.174745,0.284417,2.260334,1.930879
4715.423000000,0.598506,1.065857,-0.390638,-1.174749,0.284415,2.260332,1.930880
4715.423000000,0.598599,1.065879,-0.390703,-1.174778,0.239935,2.260376,1.945812
4715.456000000,0.598516,1.065857,-0.390635,-1.174750,0.284416,2.260335,1.930882
4715.457000000,0.598565,1.065875,-0.390602,-1.174773,0.240086,2.260294,1.951088
4715.490000000,0.598426,1.065787,-0.390595,-1.174712,0.229650,2.260264,1.967293
4715.491000000,0.598513,1.065860,-0.390638,-1.174746,0.284417,2.260335,1.930876
4715.524000000,0.598516,1.065857,-0.390633,-1.174747,0.284419,2.260332,1.930881
4715.524000000,0.598586,1.065932,-0.390600,-1.174762,0.235266,2.260301,1.962962
4715.556000000,0.598516,1.065857,-0.390633,-1.174747,0.284416,2.260335,1.930879
4715.558000000,0.598619,1.065993,-0.390508,-1.174777,0.241991,2.260281,1.955618
4715.589000000,0.598503,1.065855,-0.390638,-1.174748,0.284417,2.260333,1.930882
4715.593000000,0.598575,1.065929,-0.390569,-1.174768,0.240098,2.260270,1.955723
4715.622000000,0.598514,1.065857,-0.390635,-1.174747,0.284417,2.260333,1.930882
4715.627000000,0.598491,1.065826,-0.390661,-1.174749,0.230187,2.260308,1.965047
4715.654000000,0.598519,1.065855,-0.390638,-1.174749,0.284417,2.260333,1.930875
4715.662000000,0.598375,1.065771,-0.390608,-1.174679,0.219794,2.260238,1.977479
4715.688000000,0.598513,1.065855,-0.390633,-1.174747,0.284416,2.260333,1.930876
4715.695000000,0.598430,1.065759,-0.390722,-1.174713,0.210726,2.260309,1.987664
4715.722000000,0.598519,1.065852,-0.390635,-1.174745,0.284417,2.260332,1.930881
4715.729000000,0.598424,1.065740,-0.390737,-1.174715,0.200659,2.260329,2.001334
4715.755000000,0.598508,1.065857,-0.390632,-1.174750,0.284418,2.260332,1.930883
4715.763000000,0.598436,1.065721,-0.390763,-1.174727,0.190496,2.260338,2.016473
4715.789000000,0.598508,1.065857,-0.390638,-1.174750,0.284417,2.260331,1.930883
4715.797000000,0.598449,1.065731,-0.390790,-1.174718,0.180168,2.260357,2.033145
4715.822000000,0.598516,1.065857,-0.390633,-1.174749,0.284417,2.260333,1.930877
4715.831000000,0.598459,1.065720,-0.390801,-1.174727,0.169578,2.260381,2.051431
4715.858000000,0.598513,1.065857,-0.390633,-1.174750,0.284415,2.260334,1.930880
4715.866000000,0.598391,1.065711,-0.390719,-1.174663,0.157916,2.260273,2.073554
4715.890000000,0.598522,1.065857,-0.390635,-1.174750,0.284416,2.260333,1.930881
4715.900000000,0.598374,1.065699,-0.390690,-1.174650,0.146684,2.260250,2.095286
4715.922000000,0.598513,1.065855,-0.390635,-1.174749,0.284417,2.260332,1.930872
4715.934000000,0.598966,1.066175,-0.390733,-1.174941,0.178950,2.260470,2.058709
4715.957000000,0.598511,1.065855,-0.390633,-1.174744,0.284416,2.260333,1.930874
4715.969000000,0.599041,1.066351,-0.390494,-1.174945,0.205946,2.260352,2.028120
4715.989000000,0.598510,1.065863,-0.390638,-1.174752,0.284417,2.260334,1.930883
4716.003000000,0.598938,1.066264,-0.390457,-1.174907,0.222618,2.260316,2.008306
4716.023000000,0.598522,1.065857,-0.390633,-1.174750,0.284416,2.260331,1.930879
4716.037000000,0.598680,1.066080,-0.390422,-1.174777,0.232977,2.260212,1.996816
4716.054000000,0.598516,1.065857,-0.390633,-1.174752,0.284417,2.260333,1.930880
4716.070000000,0.598606,1.065922,-0.390626,-1.174772,0.240172,2.260310,1.987660
4716.088000000,0.598516,1.065857,-0.390638,-1.174747,0.284416,2.260329,1.930880
4716.104000000,0.598470,1.065776,-0.390699,-1.174731,0.244553,2.260334,1.983701
4716.123000000,0.598519,1.065860,-0.390635,-1.174747,0.284416,2.260333,1.930873
4716.139000000,0.598313,1.065682,-0.390667,-1.174646,0.246959,2.260275,1.984364
4716.153000000,0.598510,1.065855,-0.390635,-1.174747,0.284418,2.260333,1.930880
4716.173000000,0.598274,1.065643,-0.390682,-1.174640,0.248819,2.260294,1.985954
4716.186000000,0.598513,1.065852,-0.390638,-1.174752,0.284417,2.260334,1.930877
4716.207000000,0.598284,1.065639,-0.390693,-1.174652,0.250058,2.260299,1.989702
4716.219000000,0.598513,1.065857,-0.390633,-1.174744,0.284416,2.260331,1.930874
4716.244000000,0.598396,1.065693,-0.390779,-1.174708,0.251513,2.260381,1.993696
4716.253000000,0.598511,1.065857,-0.390635,-1.174747,0.284417,2.260334,1.930877
4716.277000000,0.598356,1.065730,-0.390658,-1.174667,0.251406,2.260293,2.000848
4716.285000000,0.598511,1.065857,-0.390638,-1.174747,0.284419,2.260332,1.930874
4716.310000000,0.598480,1.065789,-0.390740,-1.174735,0.252382,2.260368,2.003528
4716.321000000,0.598511,1.065855,-0.390638,-1.174745,0.284415,2.260332,1.930875
4716.344000000,0.598509,1.065822,-0.390707,-1.174755,0.252561,2.260369,2.007471
4716.355000000,0.598511,1.065855,-0.390641,-1.174742,0.284419,2.260333,1.930871
4716.379000000,0.598457,1.065846,-0.390594,-1.174707,0.252040,2.260277,2.012646
4716.389000000,0.598511,1.065860,-0.390635,-1.174750,0.284418,2.260332,1.930878
4716.414000000,0.598560,1.065863,-0.390684,-1.174782,0.252746,2.260353,2.013870
4716.423000000,0.598516,1.065857,-0.390638,-1.174752,0.284416,2.260331,1.930883
4716.449000000,0.598479,1.065871,-0.390563,-1.174724,0.252150,2.260277,2.018058
4716.457000000,0.598511,1.065857,-0.390633,-1.174750,0.284417,2.260333,1.930883
4716.484000000,0.598576,1.065895,-0.390681,-1.174774,0.252834,2.260353,2.018467
4716.490000000,0.598511,1.065857,-0.390635,-1.174750,0.284416,2.260334,1.930876
4716.519000000,0.598571,1.065887,-0.390670,-1.174780,0.252819,2.260361,2.020215
4716.525000000,0.598513,1.065847,-0.390633,-1.174747,0.284417,2.260334,1.930875
4716.554000000,0.598488,1.065876,-0.390576,-1.174720,0.252172,2.260271,2.023462
4716.560000000,0.598513,1.065863,-0.390641,-1.174746,0.284416,2.260332,1.930874
4716.586000000,0.598570,1.065885,-0.390686,-1.174770,0.252832,2.260357,2.022928
4716.592000000,0.598513,1.065857,-0.390633,-1.174748,0.284417,2.260335,1.930875
4716.620000000,0.598513,1.065860,-0.390635,-1.174752,0.284417,2.260333,1.930881
4716.621000000,0.598479,1.065851,-0.390578,-1.174729,0.252163,2.260275,2.025733
4716.651000000,0.598511,1.065860,-0.390638,-1.174747,0.284417,2.260330,1.930878
4716.663000000,0.598363,1.065780,-0.390562,-1.174673,0.245090,2.260221,2.033237
4716.695000000,0.598285,1.065706,-0.390590,-1.174645,0.234568,2.260220,2.045028
4716.695000000,0.598513,1.065855,-0.390633,-1.174749,0.284416,2.260333,1.930884
4716.728000000,0.598513,1.065857,-0.390633,-1.174752,0.284416,2.260334,1.930874
4716.729000000,0.598449,1.065825,-0.390606,-1.174728,0.238814,2.260263,2.032016
4716.763000000,0.598370,1.065804,-0.390532,-1.174659,0.233314,2.260204,2.041537
4716.763000000,0.598511,1.065855,-0.390635,-1.174750,0.284417,2.260332,1.930873
4716.796000000,0.598516,1.065857,-0.390633,-1.174744,0.284418,2.260332,1.930879
4716.797000000,0.598523,1.065916,-0.390535,-1.174754,0.240202,2.260244,2.022870
4716.831000000,0.598513,1.065855,-0.390637,-1.174746,0.284418,2.260332,1.930880
4716.831000000,0.598409,1.065828,-0.390504,-1.174684,0.233473,2.260204,2.035690
4716.865000000,0.598552,1.065942,-0.390535,-1.174758,0.240353,2.260234,2.015373
4716.865000000,0.598513,1.065855,-0.390638,-1.174750,0.284416,2.260332,1.930883
4716.899000000,0.598516,1.065857,-0.390633,-1.174752,0.284416,2.260332,1.930881
4716.899000000,0.598556,1.065967,-0.390500,-1.174767,0.245022,2.260241,1.993694
4716.933000000,0.598516,1.065855,-0.390635,-1.174745,0.284417,2.260334,1.930875
4716.933000000,0.598401,1.065831,-0.390502,-1.174694,0.237104,2.260202,2.000059
4716.966000000,0.598516,1.065855,-0.390633,-1.174748,0.284416,2.260333,1.930876
4716.967000000,0.598532,1.065925,-0.390552,-1.174734,0.243210,2.260261,1.986531
                                                                                 4717.000000000,0.598513,1.065855,-0.390635,-1.174744,0.284418,2.260333,1.930879
4717.002000000,0.598536,1.065931,-0.390519,-1.174741,0.246940,2.260267,1.976079
4717.034000000,0.598511,1.065857,-0.390635,-1.174742,0.284416,2.260332,1.930874
4717.035000000,0.598366,1.065785,-0.390523,-1.174680,0.237823,2.260202,1.978792
4717.067000000,0.598513,1.065860,-0.390635,-1.174742,0.284416,2.260333,1.930881
4717.068000000,0.598434,1.065763,-0.390687,-1.174722,0.231330,2.260308,1.979919
4717.101000000,0.598516,1.065860,-0.390631,-1.174747,0.284417,2.260332,1.930882
4717.103000000,0.598310,1.065736,-0.390552,-1.174644,0.222241,2.260214,1.986933
4717.135000000,0.598511,1.065855,-0.390632,-1.174745,0.284416,2.260332,1.930876
4717.137000000,0.598417,1.065747,-0.390694,-1.174708,0.215294,2.260317,1.991457
4717.169000000,0.598511,1.065857,-0.390633,-1.174746,0.284416,2.260331,1.930881
4717.170000000,0.598402,1.065730,-0.390671,-1.174701,0.206911,2.260292,1.999799
4717.202000000,0.598513,1.065857,-0.390635,-1.174748,0.284419,2.260333,1.930882
4717.205000000,0.598330,1.065727,-0.390580,-1.174644,0.197924,2.260228,2.011437
4717.236000000,0.598516,1.065855,-0.390633,-1.174747,0.284417,2.260333,1.930877
4717.239000000,0.598342,1.065713,-0.390594,-1.174655,0.189542,2.260224,2.022813
4717.270000000,0.598516,1.065852,-0.390635,-1.174747,0.284416,2.260333,1.930875
4717.273000000,0.598331,1.065724,-0.390575,-1.174624,0.180855,2.260201,2.035911
4717.302000000,0.598516,1.065855,-0.390638,-1.174747,0.284417,2.260332,1.930882
4717.307000000,0.598317,1.065712,-0.390549,-1.174621,0.172088,2.260188,2.050542
4717.334000000,0.598513,1.065855,-0.390635,-1.174750,0.284418,2.260333,1.930880
4717.341000000,0.598312,1.065700,-0.390544,-1.174614,0.163192,2.260166,2.066778
4717.368000000,0.598511,1.065857,-0.390635,-1.174748,0.284417,2.260332,1.930879
4717.375000000,0.598304,1.065711,-0.390530,-1.174587,0.154216,2.260142,2.084592
4717.403000000,0.598513,1.065857,-0.390633,-1.174750,0.284416,2.260332,1.930881
4717.409000000,0.598381,1.065701,-0.390620,-1.174656,0.145453,2.260254,2.102962
4717.437000000,0.598516,1.065860,-0.390635,-1.174745,0.284418,2.260331,1.930876
4717.445000000,0.598283,1.065698,-0.390497,-1.174569,0.135329,2.260108,2.126478
4717.471000000,0.598513,1.065857,-0.390635,-1.174750,0.284415,2.260334,1.930874
4717.478000000,0.598384,1.065704,-0.390621,-1.174647,0.127071,2.260269,2.146058
4717.506000000,0.598511,1.065857,-0.390633,-1.174745,0.284417,2.260332,1.930873
4717.513000000,0.598292,1.065696,-0.390509,-1.174558,0.116554,2.260090,2.171414
4717.540000000,0.598513,1.065852,-0.390633,-1.174743,0.284416,2.260332,1.930872
4717.546000000,0.598290,1.065687,-0.390504,-1.174563,0.106937,2.260094,2.195705
4717.573000000,0.598513,1.065857,-0.390638,-1.174744,0.284416,2.260332,1.930882
4717.581000000,0.598280,1.065674,-0.390491,-1.174553,0.096982,2.260051,2.221288
4717.607000000,0.598508,1.065860,-0.390638,-1.174743,0.284416,2.260333,1.930878
4717.615000000,0.598270,1.065685,-0.390479,-1.174525,0.086877,2.260014,2.247699
4717.640000000,0.598516,1.065855,-0.390638,-1.174747,0.284416,2.260332,1.930876
4717.649000000,0.598251,1.065674,-0.390451,-1.174516,0.076639,2.259978,2.274656
4717.674000000,0.598516,1.065857,-0.390635,-1.174745,0.284416,2.260332,1.930872
4717.683000000,0.598242,1.065661,-0.390442,-1.174507,0.066279,2.259935,2.302135
4717.709000000,0.598522,1.065855,-0.390633,-1.174747,0.284416,2.260333,1.930880
4717.718000000,0.598231,1.065672,-0.390429,-1.174478,0.055750,2.259889,2.330477
4717.742000000,0.598519,1.065857,-0.390635,-1.174749,0.284415,2.260335,1.930877
4717.751000000,0.598211,1.065661,-0.390400,-1.174467,0.045089,2.259847,2.359080
4717.775000000,0.598511,1.065863,-0.390633,-1.174745,0.284418,2.260332,1.930880
4717.785000000,0.598201,1.065648,-0.390390,-1.174457,0.034227,2.259796,2.388533
4717.809000000,0.598513,1.065857,-0.390637,-1.174750,0.284416,2.260332,1.930876
4717.819000000,0.598188,1.065657,-0.390376,-1.174425,0.023155,2.259742,2.418545
4717.843000000,0.598516,1.065855,-0.390633,-1.174746,0.284417,2.260332,1.930883
4717.853000000,0.598167,1.065646,-0.390347,-1.174413,0.011946,2.259692,2.449057
4717.877000000,0.598511,1.065855,-0.390638,-1.174752,0.284416,2.260333,1.930876
4717.887000000,0.598156,1.065633,-0.390335,-1.174401,0.000587,2.259633,2.479889
4717.911000000,0.598513,1.065860,-0.390641,-1.174746,0.284417,2.260332,1.930881
4717.921000000,0.598143,1.065642,-0.390320,-1.174368,-0.011017,2.259571,2.511397
4717.944000000,0.598516,1.065852,-0.390635,-1.174748,0.284417,2.260332,1.930872
4717.955000000,0.598122,1.065631,-0.390289,-1.174353,-0.022754,2.259513,2.543298
4717.979000000,0.598511,1.065860,-0.390635,-1.174749,0.284416,2.260333,1.930876
4717.989000000,0.598110,1.065617,-0.390276,-1.174340,-0.034672,2.259446,2.575648
4718.013000000,0.598513,1.065855,-0.390641,-1.174752,0.284417,2.260333,1.930880
4718.023000000,0.598097,1.065626,-0.390260,-1.174305,-0.046824,2.259376,2.608624
4718.046000000,0.598519,1.065860,-0.390633,-1.174745,0.284417,2.260333,1.930879
4718.058000000,0.598184,1.065609,-0.390366,-1.174415,-0.058784,2.259689,2.641101
4718.079000000,0.598517,1.065855,-0.390632,-1.174752,0.284416,2.260330,1.930883
4718.091000000,0.598082,1.065599,-0.390243,-1.174300,-0.071514,2.259316,2.675441
4718.111000000,0.598508,1.065860,-0.390635,-1.174747,0.284415,2.260332,1.930874
4718.125000000,0.598079,1.065607,-0.390238,-1.174274,-0.084218,2.259270,2.709711
4718.142000000,0.598522,1.065857,-0.390635,-1.174745,0.284416,2.260331,1.930882
4718.159000000,0.598056,1.065596,-0.390201,-1.174253,-0.097086,2.259188,2.744396
4718.173000000,0.598511,1.065860,-0.390641,-1.174747,0.284416,2.260332,1.930880
4718.193000000,0.598043,1.065582,-0.390182,-1.174236,-0.110136,2.259104,2.779519
4718.209000000,0.598511,1.065857,-0.390638,-1.174750,0.284416,2.260332,1.930877
4718.227000000,0.598030,1.065591,-0.390162,-1.174198,-0.123343,2.259017,2.815048
4718.246000000,0.598516,1.065855,-0.390630,-1.174752,0.284415,2.260331,1.930882
4718.262000000,0.598126,1.065572,-0.390281,-1.174323,-0.136440,2.259410,2.850340
4718.280000000,0.598513,1.065857,-0.390635,-1.174747,0.284416,2.260331,1.930880
4718.295000000,0.598019,1.065566,-0.390143,-1.174194,-0.150014,2.258954,2.886673
4718.310000000,0.598516,1.065857,-0.390633,-1.174750,0.284418,2.260332,1.930875
4718.327000000,0.598131,1.065660,-0.390193,-1.174298,-0.156749,2.259186,2.897310
4718.340000000,0.598513,1.065855,-0.390633,-1.174743,0.284415,2.260332,1.930874
4718.364000000,0.598171,1.065736,-0.390153,-1.174334,-0.159696,2.259161,2.897300
4718.372000000,0.598511,1.065860,-0.390635,-1.174745,0.284417,2.260333,1.930880
4718.398000000,0.598199,1.065798,-0.390142,-1.174339,-0.162364,2.259157,2.897300
4718.404000000,0.598516,1.065860,-0.390638,-1.174747,0.284417,2.260332,1.930872
4718.432000000,0.598214,1.065827,-0.390121,-1.174356,-0.164168,2.259164,2.897300
4718.436000000,0.598513,1.065855,-0.390635,-1.174752,0.284417,2.260332,1.930872
4718.466000000,0.598232,1.065841,-0.390121,-1.174373,-0.165659,2.259162,2.897300
4718.471000000,0.598516,1.065855,-0.390635,-1.174747,0.284417,2.260333,1.930878
4718.499000000,0.598242,1.065873,-0.390116,-1.174364,-0.166694,2.259155,2.897300
4718.504000000,0.598511,1.065857,-0.390635,-1.174747,0.284417,2.260333,1.930884
4718.533000000,0.599112,1.066977,-0.390197,-1.175053,-0.076249,2.259728,2.744909
4718.539000000,0.598513,1.065857,-0.390635,-1.174747,0.284416,2.260332,1.930873
4718.567000000,0.599482,1.067490,-0.389889,-1.175260,0.017969,2.259783,2.598682
4718.572000000,0.598516,1.065857,-0.390638,-1.174752,0.284416,2.260332,1.930876
4718.602000000,0.599506,1.067360,-0.389771,-1.175192,0.102403,2.259742,2.467337
4718.607000000,0.598513,1.065863,-0.390641,-1.174744,0.284417,2.260333,1.930881
4718.637000000,0.599123,1.066705,-0.389892,-1.174921,0.160716,2.259764,2.363546
4718.643000000,0.598509,1.065855,-0.390633,-1.174752,0.284416,2.260332,1.930880
4718.671000000,0.598656,1.065905,-0.390353,-1.174695,0.193111,2.260012,2.274342
4718.677000000,0.598519,1.065860,-0.390635,-1.174744,0.284416,2.260333,1.930875
4718.706000000,0.598112,1.065271,-0.390588,-1.174438,0.213132,2.259962,2.200791
4718.711000000,0.598513,1.065855,-0.390632,-1.174750,0.284417,2.260330,1.930877
4718.741000000,0.597909,1.064950,-0.390942,-1.174391,0.226885,2.260227,2.134121
4718.745000000,0.598516,1.065857,-0.390636,-1.174750,0.284416,2.260334,1.930883
4718.775000000,0.597799,1.064845,-0.391085,-1.174375,0.235220,2.260307,2.079985
4718.779000000,0.598516,1.065855,-0.390635,-1.174747,0.284417,2.260332,1.930883
4718.809000000,0.597818,1.064930,-0.391115,-1.174399,0.240876,2.260353,2.038348
4718.812000000,0.598513,1.065855,-0.390633,-1.174749,0.284417,2.260332,1.930878
4718.842000000,0.597834,1.065083,-0.390963,-1.174411,0.244028,2.260296,2.005062
4718.845000000,0.598513,1.065857,-0.390633,-1.174752,0.284417,2.260334,1.930880
4718.876000000,0.597977,1.065285,-0.390860,-1.174500,0.246676,2.260311,1.977518
4718.880000000,0.598511,1.065855,-0.390635,-1.174747,0.284415,2.260333,1.930875
4718.910000000,0.598142,1.065483,-0.390771,-1.174588,0.248502,2.260308,1.953362
4718.913000000,0.598513,1.065857,-0.390638,-1.174746,0.284416,2.260333,1.930882
4718.944000000,0.598289,1.065675,-0.390685,-1.174637,0.249782,2.260301,1.933558
4718.947000000,0.598516,1.065857,-0.390633,-1.174745,0.284417,2.260331,1.930883
4718.978000000,0.598398,1.065800,-0.390601,-1.174689,0.250700,2.260300,1.917183
4718.982000000,0.598513,1.065860,-0.390633,-1.174747,0.284416,2.260331,1.930873
4719.013000000,0.598575,1.065909,-0.390674,-1.174761,0.252037,2.260339,1.901522
4719.015000000,0.598508,1.065857,-0.390633,-1.174752,0.284416,2.260333,1.930879
4719.047000000,0.598617,1.065945,-0.390635,-1.174782,0.252494,2.260339,1.890323
4719.049000000,0.598513,1.065857,-0.390638,-1.174747,0.284417,2.260331,1.930871
4719.081000000,0.598641,1.065947,-0.390629,-1.174797,0.252845,2.260328,1.881031
4719.083000000,0.598516,1.065855,-0.390633,-1.174750,0.284417,2.260332,1.930879
4719.115000000,0.598643,1.065957,-0.390640,-1.174779,0.253154,2.260331,1.873394
4719.116000000,0.598508,1.065857,-0.390638,-1.174747,0.284416,2.260334,1.930880
4719.149000000,0.598627,1.065932,-0.390639,-1.174780,0.253339,2.260339,1.867367
4719.151000000,0.598516,1.065857,-0.390633,-1.174747,0.284416,2.260333,1.930884
4719.184000000,0.598614,1.065899,-0.390656,-1.174781,0.253492,2.260334,1.862845
4719.184000000,0.598519,1.065860,-0.390635,-1.174747,0.284416,2.260332,1.930882
4719.217000000,0.598599,1.065896,-0.390676,-1.174759,0.253654,2.260340,1.859760
4719.218000000,0.598511,1.065855,-0.390635,-1.174752,0.284418,2.260332,1.930873
4719.251000000,0.598580,1.065873,-0.390676,-1.174760,0.253726,2.260349,1.858138
4719.251000000,0.598513,1.065857,-0.390633,-1.174747,0.284417,2.260332,1.930874
4719.285000000,0.598572,1.065851,-0.390687,-1.174767,0.253790,2.260342,1.857892
4719.286000000,0.598513,1.065855,-0.390631,-1.174745,0.284415,2.260334,1.930879
4719.318000000,0.598478,1.065830,-0.390580,-1.174719,0.253228,2.260311,1.860626
4719.320000000,0.598513,1.065857,-0.390635,-1.174747,0.284418,2.260332,1.930879
4719.353000000,0.598558,1.065853,-0.390688,-1.174754,0.253889,2.260355,1.861430
4719.354000000,0.598511,1.065852,-0.390635,-1.174750,0.284416,2.260333,1.930877
4719.387000000,0.598561,1.065842,-0.390693,-1.174765,0.253900,2.260346,1.865181
4719.388000000,0.598516,1.065855,-0.390635,-1.174750,0.284415,2.260333,1.930872
4719.422000000,0.598511,1.065860,-0.390635,-1.174750,0.284416,2.260331,1.930873
4719.422000000,0.598470,1.065838,-0.390574,-1.174711,0.253282,2.260315,1.872067
4719.455000000,0.598519,1.065860,-0.390632,-1.174750,0.284416,2.260334,1.930877
4719.455000000,0.598464,1.065798,-0.390635,-1.174738,0.249827,2.260288,1.875727
4719.489000000,0.598516,1.065855,-0.390631,-1.174752,0.284419,2.260333,1.930881
4719.489000000,0.598474,1.065778,-0.390791,-1.174728,0.241737,2.260423,1.880001
4719.523000000,0.598508,1.065855,-0.390643,-1.174755,0.284416,2.260334,1.930885
4719.523000000,0.598590,1.065874,-0.390712,-1.174729,0.245751,2.260405,1.903777
4719.555000000,0.598522,1.065860,-0.390630,-1.174748,0.284418,2.260334,1.930874
4719.558000000,0.598463,1.065826,-0.390498,-1.174709,0.244517,2.260245,1.919192
4719.590000000,0.598511,1.065860,-0.390631,-1.174750,0.284416,2.260333,1.930872
4719.592000000,0.598386,1.065773,-0.390583,-1.174674,0.234258,2.260262,1.928627
4719.624000000,0.598513,1.065857,-0.390635,-1.174748,0.284417,2.260334,1.930873
4719.626000000,0.598325,1.065732,-0.390571,-1.174658,0.224741,2.260249,1.938622
4719.657000000,0.598516,1.065855,-0.390633,-1.174746,0.284417,2.260333,1.930875
4719.661000000,0.598385,1.065734,-0.390690,-1.174685,0.215355,2.260302,1.948778
4719.688000000,0.598516,1.065857,-0.390630,-1.174752,0.284418,2.260334,1.930883
4719.694000000,0.598297,1.065709,-0.390600,-1.174630,0.205109,2.260232,1.963032
4719.716000000,0.598511,1.065857,-0.390632,-1.174750,0.284416,2.260333,1.930883
4719.728000000,0.598278,1.065696,-0.390579,-1.174621,0.194949,2.260221,1.977422
4719.745000000,0.598516,1.065855,-0.390633,-1.174749,0.284417,2.260333,1.930882
4719.763000000,0.598357,1.065710,-0.390684,-1.174655,0.185020,2.260289,1.991969
4719.773000000,0.598511,1.065857,-0.390638,-1.174754,0.284416,2.260331,1.930872
4719.797000000,0.598362,1.065699,-0.390691,-1.174662,0.174616,2.260309,2.009164
4719.805000000,0.598511,1.065857,-0.390633,-1.174750,0.284416,2.260333,1.930882
4719.832000000,0.598292,1.065689,-0.390610,-1.174601,0.163070,2.260213,2.030091
4719.842000000,0.598513,1.065857,-0.390635,-1.174750,0.284417,2.260332,1.930880
4719.867000000,0.598275,1.065678,-0.390581,-1.174589,0.152061,2.260192,2.050431
4719.877000000,0.598513,1.065855,-0.390638,-1.174747,0.284418,2.260332,1.930875
4719.900000000,0.598808,1.066148,-0.390528,-1.174818,0.185292,2.260321,2.025597
4719.913000000,0.598513,1.065855,-0.390633,-1.174746,0.284417,2.260331,1.930879
4719.934000000,0.598892,1.066290,-0.390346,-1.174835,0.209793,2.260242,2.010448
4719.945000000,0.598506,1.065857,-0.390638,-1.174747,0.284417,2.260334,1.930877
4719.967000000,0.598896,1.066224,-0.390451,-1.174859,0.225213,2.260305,2.003245
4719.977000000,0.598519,1.065855,-0.390633,-1.174746,0.284416,2.260334,1.930874
4720.001000000,0.598745,1.066061,-0.390518,-1.174815,0.235056,2.260313,2.003264
4720.014000000,0.598519,1.065857,-0.390633,-1.174747,0.284417,2.260333,1.930872
4720.036000000,0.598509,1.065889,-0.390521,-1.174707,0.240921,2.260238,2.006698
4720.049000000,0.598503,1.065855,-0.390633,-1.174746,0.284418,2.260330,1.930880
4720.070000000,0.598377,1.065760,-0.390584,-1.174676,0.244980,2.260253,2.008857
4720.082000000,0.598516,1.065857,-0.390633,-1.174747,0.284416,2.260332,1.930869
4720.105000000,0.598393,1.065704,-0.390765,-1.174704,0.248254,2.260347,2.009764
4720.118000000,0.598508,1.065855,-0.390635,-1.174750,0.284416,2.260331,1.930879
4720.138000000,0.598277,1.065664,-0.390684,-1.174646,0.249186,2.260274,2.013787
4720.152000000,0.598508,1.065855,-0.390638,-1.174750,0.284414,2.260332,1.930883
4720.173000000,0.598365,1.065671,-0.390790,-1.174720,0.250916,2.260360,2.014471
4720.186000000,0.598524,1.065857,-0.390635,-1.174745,0.284417,2.260332,1.930883
4720.208000000,0.598302,1.065700,-0.390663,-1.174670,0.250975,2.260287,2.018318
4720.220000000,0.598513,1.065857,-0.390632,-1.174742,0.284416,2.260333,1.930880
4720.242000000,0.598347,1.065732,-0.390651,-1.174692,0.251420,2.260282,2.020202
4720.254000000,0.598508,1.065857,-0.390635,-1.174752,0.284416,2.260330,1.930881
4720.277000000,0.598474,1.065797,-0.390726,-1.174749,0.252340,2.260369,2.020217
4720.288000000,0.598516,1.065860,-0.390635,-1.174745,0.284418,2.260331,1.930879
4720.311000000,0.598514,1.065821,-0.390707,-1.174770,0.252493,2.260356,2.021663
4720.322000000,0.598508,1.065855,-0.390635,-1.174746,0.284417,2.260335,1.930877
4720.345000000,0.598545,1.065866,-0.390697,-1.174762,0.252636,2.260357,2.022850
4720.356000000,0.598513,1.065855,-0.390635,-1.174742,0.284418,2.260332,1.930882
4720.380000000,0.598477,1.065853,-0.390574,-1.174729,0.252042,2.260273,2.025627
4720.389000000,0.598516,1.065860,-0.390635,-1.174747,0.284418,2.260332,1.930880
4720.414000000,0.598491,1.065877,-0.390573,-1.174716,0.252072,2.260269,2.026520
4720.423000000,0.598506,1.065852,-0.390638,-1.174745,0.284419,2.260332,1.930881
4720.447000000,0.598581,1.065893,-0.390678,-1.174769,0.252759,2.260355,2.025539
4720.457000000,0.598511,1.065855,-0.390635,-1.174750,0.284416,2.260333,1.930880
4720.482000000,0.598492,1.065861,-0.390567,-1.174730,0.252114,2.260271,2.027927
4720.491000000,0.598516,1.065855,-0.390638,-1.174747,0.284416,2.260332,1.930879
4720.516000000,0.598492,1.065872,-0.390576,-1.174715,0.252109,2.260271,2.028495
4720.524000000,0.598508,1.065860,-0.390633,-1.174750,0.284418,2.260333,1.930875
4720.550000000,0.598480,1.065861,-0.390566,-1.174719,0.252106,2.260277,2.028973
4720.558000000,0.598513,1.065855,-0.390635,-1.174746,0.284416,2.260331,1.930873
4720.584000000,0.598480,1.065848,-0.390577,-1.174727,0.252114,2.260274,2.029339
4720.592000000,0.598516,1.065855,-0.390633,-1.174748,0.284416,2.260333,1.930882
4720.618000000,0.598479,1.065860,-0.390584,-1.174712,0.252104,2.260273,2.029690
4720.625000000,0.598511,1.065860,-0.390633,-1.174747,0.284417,2.260332,1.930876
4720.652000000,0.598469,1.065852,-0.390572,-1.174717,0.252102,2.260279,2.029969
4720.659000000,0.598516,1.065857,-0.390630,-1.174752,0.284416,2.260337,1.930873
4720.687000000,0.598560,1.065871,-0.390692,-1.174764,0.252765,2.260362,2.028498
4720.693000000,0.598511,1.065855,-0.390635,-1.174747,0.284417,2.260333,1.930879
4720.721000000,0.598556,1.065865,-0.390682,-1.174771,0.252744,2.260369,2.028732
4720.727000000,0.598513,1.065860,-0.390635,-1.174750,0.284416,2.260334,1.930875
4720.756000000,0.598476,1.065858,-0.390586,-1.174712,0.252094,2.260276,2.030619
4720.760000000,0.598516,1.065855,-0.390636,-1.174747,0.284414,2.260333,1.930873
4720.790000000,0.598469,1.065853,-0.390573,-1.174717,0.252087,2.260281,2.030773
4720.795000000,0.598511,1.065855,-0.390635,-1.174742,0.284415,2.260332,1.930872
4720.824000000,0.598475,1.065844,-0.390582,-1.174725,0.252094,2.260277,2.030865
4720.829000000,0.598513,1.065855,-0.390633,-1.174750,0.284418,2.260333,1.930875
4720.858000000,0.598477,1.065859,-0.390585,-1.174711,0.252085,2.260275,2.030981
4720.863000000,0.598513,1.065855,-0.390635,-1.174745,0.284416,2.260334,1.930881
4720.892000000,0.598470,1.065853,-0.390572,-1.174716,0.252084,2.260281,2.031063
4720.896000000,0.598506,1.065860,-0.390635,-1.174747,0.284418,2.260336,1.930874
4720.928000000,0.598562,1.065873,-0.390691,-1.174763,0.252750,2.260363,2.029422
4720.929000000,0.598516,1.065852,-0.390635,-1.174747,0.284417,2.260332,1.930879
4720.961000000,0.598558,1.065866,-0.390681,-1.174770,0.252730,2.260370,2.029514
4720.963000000,0.598516,1.065857,-0.390633,-1.174745,0.284417,2.260333,1.930871
4720.996000000,0.598478,1.065859,-0.390586,-1.174710,0.252082,2.260276,2.031274
4720.999000000,0.598511,1.065855,-0.390632,-1.174752,0.284416,2.260335,1.930883
4721.029000000,0.598563,1.065872,-0.390691,-1.174764,0.252746,2.260364,2.029602
4721.032000000,0.598513,1.065855,-0.390633,-1.174745,0.284416,2.260331,1.930872
4721.063000000,0.598558,1.065866,-0.390679,-1.174771,0.252720,2.260369,2.029638
4721.066000000,0.598511,1.065855,-0.390635,-1.174747,0.284416,2.260331,1.930873
4721.097000000,0.598562,1.065855,-0.390684,-1.174780,0.252711,2.260359,2.029674
4721.099000000,0.598511,1.065857,-0.390630,-1.174747,0.284417,2.260333,1.930872
4721.132000000,0.598470,1.065852,-0.390570,-1.174716,0.252078,2.260280,2.031398
4721.132000000,0.598511,1.065860,-0.390633,-1.174752,0.284415,2.260331,1.930880
4721.166000000,0.598474,1.065843,-0.390578,-1.174726,0.252086,2.260276,2.031419
4721.167000000,0.598522,1.065863,-0.390638,-1.174743,0.284417,2.260334,1.930876
4721.201000000,0.598422,1.065764,-0.390672,-1.174725,0.243289,2.260321,2.038215
4721.202000000,0.598524,1.065842,-0.390638,-1.174737,0.284414,2.260338,1.930873
4721.234000000,0.598458,1.065851,-0.390585,-1.174727,0.247387,2.260270,2.022571
4721.235000000,0.598522,1.065831,-0.390638,-1.174733,0.284417,2.260335,1.930879
4721.269000000,0.598580,1.065908,-0.390682,-1.174780,0.249940,2.260348,2.007770
4721.269000000,0.598503,1.065850,-0.390637,-1.174752,0.284418,2.260336,1.930876
4721.303000000,0.598510,1.065852,-0.390635,-1.174752,0.284415,2.260334,1.930882
4721.304000000,0.598501,1.065882,-0.390557,-1.174737,0.250494,2.260268,1.999043
4721.336000000,0.598513,1.065844,-0.390632,-1.174739,0.284417,2.260334,1.930881
4721.339000000,0.598573,1.065890,-0.390648,-1.174769,0.251680,2.260347,1.989779
4721.369000000,0.598508,1.065839,-0.390643,-1.174739,0.284416,2.260335,1.930872
4721.373000000,0.598461,1.065767,-0.390698,-1.174733,0.241622,2.260333,1.996108
4721.403000000,0.598511,1.065852,-0.390635,-1.174760,0.284416,2.260335,1.930873
4721.408000000,0.598356,1.065731,-0.390620,-1.174666,0.232962,2.260274,2.004118
4721.436000000,0.598524,1.065853,-0.390635,-1.174747,0.284416,2.260335,1.930881
4721.441000000,0.598441,1.065729,-0.390747,-1.174720,0.225267,2.260366,2.010529
4721.471000000,0.598478,1.065839,-0.390656,-1.174744,0.284416,2.260335,1.930880
4721.475000000,0.598433,1.065712,-0.390736,-1.174716,0.216600,2.260351,2.020470
4721.505000000,0.598474,1.065847,-0.390652,-1.174747,0.284415,2.260334,1.930877
4721.508000000,0.598451,1.065727,-0.390766,-1.174708,0.208063,2.260373,2.031867
4721.539000000,0.598534,1.065858,-0.390620,-1.174760,0.284413,2.260334,1.930873
4721.544000000,0.598375,1.065695,-0.390666,-1.174671,0.198410,2.260282,2.047070
4721.572000000,0.598547,1.065855,-0.390622,-1.174755,0.284416,2.260335,1.930874
4721.578000000,0.598384,1.065709,-0.390676,-1.174651,0.189521,2.260279,2.061866
4721.607000000,0.598512,1.065847,-0.390633,-1.174749,0.284417,2.260334,1.930881
4721.612000000,0.598365,1.065697,-0.390643,-1.174643,0.180279,2.260259,2.078470
4721.640000000,0.598525,1.065857,-0.390627,-1.174768,0.284418,2.260335,1.930881
4721.646000000,0.598362,1.065685,-0.390638,-1.174637,0.170982,2.260235,2.096692
4721.674000000,0.598517,1.065878,-0.390625,-1.174778,0.284419,2.260334,1.930876
4721.680000000,0.598353,1.065695,-0.390624,-1.174610,0.161566,2.260210,2.116601
4721.707000000,0.598481,1.065871,-0.390635,-1.174781,0.284419,2.260331,1.930880
4721.714000000,0.598336,1.065684,-0.390597,-1.174602,0.151997,2.260188,2.138248
4721.741000000,0.598562,1.065868,-0.390609,-1.174752,0.284412,2.260327,1.930875
4721.748000000,0.598330,1.065671,-0.390590,-1.174595,0.142315,2.260158,2.161347
4721.775000000,0.598694,1.065878,-0.390585,-1.174757,0.284411,2.260322,1.930871
4721.783000000,0.598404,1.065686,-0.390676,-1.174645,0.132875,2.260299,2.184434
4721.809000000,0.598747,1.065855,-0.390568,-1.174721,0.284415,2.260322,1.930880
4721.817000000,0.598408,1.065670,-0.390683,-1.174654,0.122943,2.260296,2.209596
4721.843000000,0.598757,1.065839,-0.390566,-1.174699,0.284416,2.260328,1.930874
4721.852000000,0.598326,1.065667,-0.390586,-1.174579,0.111997,2.260144,2.238015
4721.876000000,0.598817,1.065834,-0.390535,-1.174657,0.284411,2.260333,1.930882
4721.886000000,0.598327,1.065652,-0.390587,-1.174582,0.101689,2.260121,2.264620
4721.910000000,0.598970,1.065841,-0.390323,-1.174577,0.284416,2.260333,1.930881
4721.921000000,0.598401,1.065664,-0.390674,-1.174638,0.091404,2.260298,2.292074
4721.944000000,0.599150,1.065839,-0.390298,-1.174535,0.284415,2.260340,1.930877
4721.955000000,0.598408,1.065648,-0.390685,-1.174651,0.080724,2.260304,2.320754
4721.977000000,0.599138,1.065850,-0.390283,-1.174534,0.284416,2.260343,1.930869
4721.990000000,0.598323,1.065645,-0.390585,-1.174567,0.068932,2.260106,2.352430
4722.011000000,0.599131,1.065870,-0.390274,-1.174544,0.284422,2.260343,1.930868
4722.024000000,0.598319,1.065629,-0.390582,-1.174564,0.057669,2.260069,2.382704
4722.045000000,0.599145,1.065857,-0.390268,-1.174515,0.284424,2.260356,1.930865
4722.058000000,0.598307,1.065638,-0.390567,-1.174532,0.046196,2.260014,2.413971
4722.078000000,0.599020,1.065876,-0.390325,-1.174554,0.284430,2.260358,1.930868
4722.092000000,0.598286,1.065626,-0.390537,-1.174517,0.034540,2.259961,2.445739
4722.112000000,0.598761,1.065933,-0.390320,-1.174608,0.284458,2.260353,1.930872
4722.126000000,0.598274,1.065611,-0.390525,-1.174505,0.022658,2.259902,2.478104
4722.146000000,0.598772,1.065991,-0.390286,-1.174668,0.284471,2.260336,1.930872
4722.160000000,0.598261,1.065620,-0.390510,-1.174472,0.010640,2.259838,2.510949
4722.179000000,0.598799,1.066020,-0.390252,-1.174708,0.284487,2.260334,1.930873
4722.193000000,0.598239,1.065609,-0.390478,-1.174455,-0.001590,2.259776,2.544344
4722.213000000,0.598812,1.066039,-0.390174,-1.174795,0.284493,2.260334,1.930869
4722.228000000,0.598226,1.065593,-0.390465,-1.174441,-0.014058,2.259707,2.578453
4722.248000000,0.598875,1.066073,-0.390067,-1.174744,0.284521,2.260362,1.930877
4722.261000000,0.598312,1.065591,-0.390569,-1.174535,-0.025598,2.259999,2.610065
4722.282000000,0.598820,1.066159,-0.389744,-1.174157,0.284581,2.261360,1.930851
4722.296000000,0.598214,1.065590,-0.390450,-1.174423,-0.039186,2.259665,2.647042
4722.314000000,0.598646,1.066181,-0.389681,-1.173517,0.284711,2.263664,1.930785
4722.330000000,0.598204,1.065573,-0.390437,-1.174411,-0.052231,2.259596,2.682521
4722.349000000,0.598037,1.066171,-0.389796,-1.172822,0.284874,2.267360,1.930712
4722.365000000,0.598192,1.065581,-0.390418,-1.174373,-0.065441,2.259515,2.718480
4722.383000000,0.596778,1.066203,-0.389822,-1.171850,0.284961,2.272176,1.930660
4722.398000000,0.598168,1.065569,-0.390383,-1.174350,-0.078892,2.259432,2.754931
4722.417000000,0.595235,1.066272,-0.389749,-1.170959,0.285071,2.277099,1.930649
4722.433000000,0.598264,1.065571,-0.390509,-1.174447,-0.092263,2.259788,2.791419
4722.450000000,0.593305,1.066324,-0.389487,-1.170137,0.285101,2.282987,1.930627
4722.468000000,0.598274,1.065559,-0.390524,-1.174467,-0.105999,2.259863,2.828665
4722.484000000,0.591323,1.066453,-0.388954,-1.169303,0.285107,2.289216,1.930628
4722.502000000,0.598197,1.067460,-0.389572,-1.173843,-0.014887,2.267622,2.662627
4722.519000000,0.589311,1.066768,-0.388039,-1.168470,0.285113,2.295058,1.930626
4722.536000000,0.597075,1.068414,-0.388386,-1.172583,0.077451,2.274761,2.501253
4722.552000000,0.587059,1.067132,-0.385621,-1.167489,0.285139,2.298636,1.930636
4722.571000000,0.595063,1.068261,-0.387603,-1.171170,0.144842,2.281777,2.383480
4722.586000000,0.584994,1.067568,-0.380711,-1.166405,0.285400,2.298962,1.930651
4722.605000000,0.592347,1.067596,-0.386730,-1.169693,0.184002,2.287539,2.280497
4722.620000000,0.583261,1.068037,-0.372733,-1.165797,0.287474,2.298854,1.930692
4722.639000000,0.589087,1.066816,-0.384790,-1.168217,0.207910,2.291478,2.193582
4722.654000000,0.581436,1.069047,-0.361569,-1.165848,0.294379,2.298544,1.930704
4722.675000000,0.585426,1.066127,-0.380735,-1.166959,0.224596,2.294253,2.118526
4722.687000000,0.579064,1.070688,-0.347133,-1.165876,0.307268,2.297980,1.930759
4722.709000000,0.582033,1.065820,-0.374375,-1.166174,0.237998,2.295915,2.070240
4722.724000000,0.576350,1.072971,-0.329946,-1.165874,0.326142,2.297722,1.930883
4722.743000000,0.578709,1.066106,-0.365035,-1.165604,0.252026,2.296914,2.026884
4722.757000000,0.573369,1.076348,-0.309451,-1.165847,0.350150,2.297796,1.930841
4722.777000000,0.575596,1.067107,-0.352797,-1.165237,0.268142,2.297534,1.995190
4722.790000000,0.571444,1.079990,-0.293917,-1.165812,0.367336,2.297978,1.930514
4722.811000000,0.572672,1.068996,-0.337705,-1.164933,0.286830,2.297967,1.969928
4722.823000000,0.570713,1.083529,-0.282533,-1.165639,0.376978,2.298708,1.930383
4722.845000000,0.570838,1.071887,-0.322287,-1.164826,0.304818,2.298276,1.948298
4722.856000000,0.570986,1.086233,-0.275168,-1.165514,0.378849,2.298844,1.930380
4722.879000000,0.570274,1.075590,-0.308145,-1.164868,0.319163,2.298585,1.932748
4722.890000000,0.572152,1.088232,-0.271330,-1.165510,0.378825,2.298829,1.930363
4722.913000000,0.570885,1.079617,-0.296255,-1.165111,0.328917,2.298676,1.923766
4722.923000000,0.573866,1.089187,-0.270826,-1.165498,0.378804,2.298824,1.930263
4722.947000000,0.572379,1.083511,-0.287021,-1.165523,0.335333,2.298617,1.920037
4722.957000000,0.575224,1.089262,-0.271736,-1.165386,0.378808,2.298817,1.930117
4722.981000000,0.574458,1.086856,-0.280705,-1.166011,0.339490,2.298445,1.920497
4722.990000000,0.575757,1.088984,-0.273508,-1.164359,0.378824,2.298788,1.930102
4723.015000000,0.576518,1.089395,-0.276748,-1.166294,0.342298,2.298244,1.924089
4723.023000000,0.575354,1.088836,-0.276335,-1.162010,0.378833,2.298609,1.930100
4723.049000000,0.578150,1.091066,-0.274797,-1.166008,0.344031,2.298024,1.930474
4723.057000000,0.574035,1.088833,-0.279648,-1.158939,0.378843,2.298204,1.930088
4723.082000000,0.578958,1.091983,-0.274449,-1.164831,0.344517,2.297739,1.940550
4723.091000000,0.571899,1.088778,-0.283109,-1.155774,0.378854,2.297627,1.930094
4723.117000000,0.579026,1.092330,-0.275682,-1.162777,0.345943,2.297462,1.949588
4723.123000000,0.568920,1.088833,-0.285950,-1.152338,0.378862,2.296843,1.930095
4723.151000000,0.577929,1.092116,-0.277651,-1.160126,0.346400,2.297108,1.961404
4723.156000000,0.565117,1.088851,-0.287229,-1.149606,0.378872,2.296201,1.930092
4723.185000000,0.575707,1.091523,-0.279914,-1.157104,0.346701,2.296702,1.972345
4723.189000000,0.560656,1.088831,-0.287045,-1.147095,0.378894,2.295659,1.930097
4723.219000000,0.572395,1.090720,-0.281906,-1.153996,0.346927,2.296333,1.981471
4723.222000000,0.555907,1.088889,-0.286174,-1.144254,0.378889,2.295482,1.930102
4723.253000000,0.568142,1.089860,-0.283242,-1.150943,0.347008,2.296041,1.989364
4723.255000000,0.551409,1.088898,-0.284400,-1.141200,0.378886,2.295438,1.930100
4723.287000000,0.563274,1.089151,-0.283905,-1.147893,0.347063,2.295847,1.995954
4723.288000000,0.547257,1.088895,-0.282221,-1.137301,0.378873,2.295457,1.930105
4723.321000000,0.558107,1.088728,-0.283874,-1.144699,0.347117,2.295736,2.001592
4723.322000000,0.543730,1.088963,-0.280532,-1.132698,0.378879,2.295470,1.930114
4723.355000000,0.553019,1.088583,-0.283329,-1.141230,0.347074,2.295664,2.006414
4723.356000000,0.540921,1.088900,-0.279905,-1.129147,0.378894,2.295462,1.930126
4723.389000000,0.548438,1.088604,-0.282680,-1.137622,0.347030,2.295603,2.010462
4723.390000000,0.538483,1.088885,-0.280103,-1.126890,0.378881,2.295464,1.930129
4723.422000000,0.536675,1.089016,-0.280410,-1.126832,0.378877,2.295459,1.930130
4723.424000000,0.544363,1.088609,-0.282043,-1.134095,0.346314,2.295536,2.015761
4723.456000000,0.535605,1.089154,-0.280590,-1.127204,0.378872,2.295461,1.930134
4723.457000000,0.542082,1.087969,-0.282686,-1.132903,0.343567,2.295731,2.019728
4723.489000000,0.535266,1.089336,-0.280555,-1.127579,0.378852,2.295461,1.930135
4723.492000000,0.540998,1.087312,-0.283421,-1.132864,0.333207,2.295863,2.032986
4723.523000000,0.535305,1.089201,-0.280566,-1.127528,0.378849,2.295511,1.930136
4723.525000000,0.540437,1.087017,-0.283732,-1.132776,0.323403,2.295958,2.047775
4723.557000000,0.535461,1.089008,-0.280544,-1.127410,0.378841,2.295559,1.930126
4723.559000000,0.540169,1.086857,-0.283916,-1.132752,0.313360,2.296013,2.064635
4723.589000000,0.535515,1.088914,-0.280544,-1.127354,0.378840,2.295652,1.930129
4723.594000000,0.539939,1.086777,-0.283903,-1.132679,0.302186,2.295985,2.085754
4723.622000000,0.535499,1.088895,-0.280588,-1.127293,0.378830,2.295781,1.930133
4723.628000000,0.539857,1.086723,-0.283943,-1.132667,0.291491,2.295989,2.106788
4723.656000000,0.535546,1.088833,-0.280591,-1.127149,0.378821,2.295790,1.930130
4723.662000000,0.539804,1.086711,-0.283954,-1.132633,0.280629,2.295984,2.129704
4723.689000000,0.535571,1.088633,-0.280594,-1.127040,0.378815,2.295792,1.930131
4723.696000000,0.539759,1.086687,-0.283939,-1.132620,0.269594,2.295978,2.154481
4723.722000000,0.535536,1.088457,-0.280699,-1.126899,0.378812,2.295809,1.930128
4723.731000000,0.539824,1.086688,-0.284049,-1.132653,0.258710,2.296086,2.180224
4723.756000000,0.535503,1.088364,-0.280727,-1.126881,0.378813,2.295811,1.930129
4723.766000000,0.539736,1.086656,-0.283964,-1.132610,0.246462,2.295976,2.211134
4723.790000000,0.535559,1.088398,-0.280692,-1.126914,0.378810,2.295810,1.930136
4723.800000000,0.539719,1.086661,-0.283955,-1.132580,0.234689,2.295947,2.240990
4723.822000000,0.535628,1.088433,-0.280669,-1.126939,0.378810,2.295803,1.930129
4723.833000000,0.539372,1.087680,-0.282587,-1.131116,0.268623,2.295872,2.159249
4723.856000000,0.535642,1.088411,-0.280668,-1.126918,0.378810,2.295803,1.930134
4723.868000000,0.538891,1.087582,-0.282587,-1.130799,0.263376,2.295924,2.177180
4723.889000000,0.535609,1.088380,-0.280678,-1.126895,0.378810,2.295805,1.930132
4723.902000000,0.538452,1.088179,-0.281791,-1.129756,0.291087,2.295857,2.095375
4723.919000000,0.535568,1.088404,-0.280693,-1.126918,0.378813,2.295803,1.930133
4723.937000000,0.537723,1.088428,-0.281266,-1.128790,0.310355,2.295808,2.050480
4723.949000000,0.535546,1.088412,-0.280704,-1.126920,0.378807,2.295804,1.930133
4723.971000000,0.536863,1.088420,-0.280938,-1.128067,0.322882,2.295725,2.015573
4723.979000000,0.535571,1.088399,-0.280701,-1.126905,0.378809,2.295806,1.930138
4724.006000000,0.536283,1.088327,-0.281029,-1.127645,0.331741,2.295780,1.984429
4724.016000000,0.535587,1.088388,-0.280699,-1.126905,0.378811,2.295807,1.930129
4724.040000000,0.535787,1.088211,-0.281055,-1.127352,0.336906,2.295809,1.960985
4724.045000000,0.535593,1.088397,-0.280688,-1.126915,0.378809,2.295805,1.930135
4724.074000000,0.535473,1.088122,-0.281098,-1.127168,0.340201,2.295823,1.941792
4724.074000000,0.535604,1.088403,-0.280685,-1.126907,0.378807,2.295807,1.930134
4724.104000000,0.535601,1.088385,-0.280685,-1.126902,0.378809,2.295810,1.930128
4724.114000000,0.535294,1.088107,-0.281105,-1.127018,0.342750,2.295847,1.923666
4724.138000000,0.535588,1.088393,-0.280687,-1.126902,0.378805,2.295805,1.930134
4724.150000000,0.535118,1.088062,-0.280934,-1.126932,0.341399,2.295787,1.914788
4724.175000000,0.535590,1.088393,-0.280690,-1.126902,0.378804,2.295802,1.930138
4724.182000000,0.535107,1.087993,-0.281140,-1.126958,0.331852,2.295836,1.913275
4724.212000000,0.535583,1.088395,-0.280693,-1.126910,0.378808,2.295804,1.930130
4724.217000000,0.534967,1.087960,-0.281031,-1.126895,0.321967,2.295815,1.916204
4724.243000000,0.535574,1.088387,-0.280696,-1.126905,0.378810,2.295809,1.930130
4724.251000000,0.534956,1.087931,-0.281058,-1.126897,0.312605,2.295814,1.919941
4724.275000000,0.535579,1.088387,-0.280699,-1.126902,0.378811,2.295806,1.930138
4724.285000000,0.534937,1.087934,-0.281044,-1.126867,0.303047,2.295808,1.925966
4724.313000000,0.535577,1.088393,-0.280699,-1.126907,0.378810,2.295806,1.930137
4724.320000000,0.535009,1.087918,-0.281142,-1.126912,0.293721,2.295843,1.932731
4724.349000000,0.535574,1.088387,-0.280699,-1.126905,0.378808,2.295811,1.930131
4724.358000000,0.535010,1.087921,-0.281147,-1.126900,0.282877,2.295861,1.944401
4724.383000000,0.535574,1.088385,-0.280699,-1.126902,0.378808,2.295808,1.930137
4724.394000000,0.534936,1.087908,-0.281064,-1.126849,0.271836,2.295808,1.959401
4724.418000000,0.535578,1.088390,-0.280696,-1.126913,0.378809,2.295808,1.930133
4724.427000000,0.534919,1.087894,-0.281041,-1.126841,0.261254,2.295805,1.974655
4724.447000000,0.535571,1.088393,-0.280701,-1.126913,0.378808,2.295810,1.930136
4724.461000000,0.534912,1.087878,-0.281032,-1.126835,0.250542,2.295788,1.991921
4724.479000000,0.535576,1.088382,-0.280699,-1.126902,0.378807,2.295806,1.930138
4724.495000000,0.534902,1.087886,-0.281018,-1.126807,0.239664,2.295770,2.011195
4724.512000000,0.535566,1.088390,-0.280699,-1.126907,0.378808,2.295810,1.930128
4724.528000000,0.534980,1.087889,-0.281118,-1.126843,0.229618,2.295842,2.030065
4724.544000000,0.535571,1.088390,-0.280701,-1.126905,0.378809,2.295806,1.930131
4724.564000000,0.534994,1.087887,-0.281135,-1.126842,0.218105,2.295858,2.054373
4724.580000000,0.535574,1.088390,-0.280696,-1.126905,0.378805,2.295809,1.930137
4724.599000000,0.534916,1.087858,-0.281040,-1.126802,0.205893,2.295767,2.081988
4724.614000000,0.535576,1.088385,-0.280704,-1.126902,0.378809,2.295808,1.930128
4724.633000000,0.534905,1.087865,-0.281027,-1.126773,0.194115,2.295738,2.109447
4724.649000000,0.535576,1.088387,-0.280696,-1.126907,0.378807,2.295809,1.930130
4724.666000000,0.534983,1.087867,-0.281125,-1.126816,0.183273,2.295843,2.136001
4724.684000000,0.535573,1.088387,-0.280699,-1.126902,0.378809,2.295807,1.930130
4724.701000000,0.534904,1.087840,-0.281028,-1.126772,0.170482,2.295719,2.168354
4724.718000000,0.535571,1.088385,-0.280699,-1.126905,0.378807,2.295808,1.930131
4724.736000000,0.535890,1.088573,-0.280804,-1.127058,0.230683,2.295886,2.103220
4724.752000000,0.535574,1.088387,-0.280701,-1.126902,0.378809,2.295806,1.930129
4724.770000000,0.536100,1.088792,-0.280418,-1.127079,0.274637,2.295717,2.058382
4724.786000000,0.535574,1.088393,-0.280693,-1.126910,0.378810,2.295809,1.930136
4724.803000000,0.536074,1.088724,-0.280484,-1.127068,0.301206,2.295740,2.030341
4724.820000000,0.535576,1.088390,-0.280696,-1.126905,0.378808,2.295806,1.930130
4724.838000000,0.535730,1.088533,-0.280466,-1.126932,0.317639,2.295683,2.015698
4724.854000000,0.535574,1.088387,-0.280699,-1.126897,0.378807,2.295805,1.930139
4724.874000000,0.535554,1.088351,-0.280712,-1.126892,0.328682,2.295747,2.005867
4724.889000000,0.535576,1.088390,-0.280699,-1.126905,0.378812,2.295806,1.930131
4724.907000000,0.535365,1.088205,-0.280822,-1.126848,0.334942,2.295790,2.003558
4724.923000000,0.535571,1.088393,-0.280699,-1.126905,0.378810,2.295808,1.930139
4724.941000000,0.535268,1.088120,-0.280900,-1.126834,0.339133,2.295805,2.005037
4724.957000000,0.535568,1.088390,-0.280699,-1.126902,0.378807,2.295811,1.930139
4724.976000000,0.535145,1.088102,-0.280809,-1.126778,0.341168,2.295777,2.009660
4724.991000000,0.535576,1.088390,-0.280701,-1.126902,0.378807,2.295811,1.930137
4725.010000000,0.535178,1.088120,-0.280813,-1.126799,0.342795,2.295779,2.012497
4725.025000000,0.535574,1.088393,-0.280699,-1.126913,0.378807,2.295808,1.930136
4725.044000000,0.535245,1.088188,-0.280790,-1.126804,0.343856,2.295780,2.015241
4725.060000000,0.535574,1.088390,-0.280701,-1.126910,0.378811,2.295806,1.930128
4725.078000000,0.535314,1.088242,-0.280737,-1.126834,0.344503,2.295782,2.017748
4725.094000000,0.535568,1.088387,-0.280701,-1.126900,0.378806,2.295809,1.930133
4725.112000000,0.535396,1.088292,-0.280708,-1.126864,0.344927,2.295771,2.020044
4725.128000000,0.535571,1.088393,-0.280696,-1.126905,0.378811,2.295811,1.930137
4725.146000000,0.535464,1.088357,-0.280678,-1.126863,0.345171,2.295765,2.022099
4725.162000000,0.535574,1.088390,-0.280701,-1.126902,0.378808,2.295811,1.930134
4725.180000000,0.535505,1.088385,-0.280637,-1.126881,0.345315,2.295768,2.023893
4725.196000000,0.535568,1.088387,-0.280701,-1.126905,0.378806,2.295811,1.930139
4725.214000000,0.535544,1.088398,-0.280632,-1.126896,0.345409,2.295760,2.025461
4725.230000000,0.535613,1.088387,-0.280659,-1.126905,0.378822,2.295803,1.930151
4725.248000000,0.535563,1.088422,-0.280625,-1.126884,0.345449,2.295756,2.026789
4725.263000000,0.535792,1.088382,-0.280618,-1.126883,0.378820,2.295805,1.930155
4725.283000000,0.535664,1.088416,-0.280722,-1.126944,0.346127,2.295811,2.026250
4725.298000000,0.535863,1.088379,-0.280535,-1.126886,0.378814,2.295812,1.930145
4725.317000000,0.535699,1.088428,-0.280716,-1.126925,0.346171,2.295816,2.027219
4725.331000000,0.535764,1.088390,-0.280585,-1.126917,0.378809,2.295813,1.930138
4725.350000000,0.535659,1.088408,-0.280578,-1.126879,0.345493,2.295760,2.029781
4725.365000000,0.535522,1.088385,-0.280752,-1.126920,0.378810,2.295816,1.930146
4725.385000000,0.535785,1.088394,-0.280665,-1.126934,0.346129,2.295818,2.028818
4725.400000000,0.535382,1.088403,-0.280776,-1.126928,0.378812,2.295810,1.930144
4725.419000000,0.535707,1.088368,-0.280651,-1.126897,0.342580,2.295780,2.032588
4725.433000000,0.535418,1.088393,-0.280771,-1.126902,0.378809,2.295817,1.930144
4725.453000000,0.535747,1.088367,-0.280735,-1.126933,0.339987,2.295841,2.029292
4725.469000000,0.535420,1.088374,-0.280777,-1.126886,0.378809,2.295820,1.930144
4725.486000000,0.535571,1.088354,-0.280584,-1.126853,0.336395,2.295749,2.032696
4725.500000000,0.535452,1.088364,-0.280771,-1.126881,0.378808,2.295824,1.930141
4725.522000000,0.535476,1.088287,-0.280668,-1.126838,0.325304,2.295767,2.052186
4725.532000000,0.535544,1.088329,-0.280735,-1.126859,0.378813,2.295816,1.930146
4725.556000000,0.535652,1.088379,-0.280640,-1.126924,0.330191,2.295756,2.036690
4725.563000000,0.535714,1.088303,-0.280698,-1.126833,0.378813,2.295813,1.930145
4725.590000000,0.535707,1.088473,-0.280578,-1.126914,0.336159,2.295731,2.002894
4725.594000000,0.535783,1.088304,-0.280683,-1.126846,0.378807,2.295822,1.930149
4725.625000000,0.535803,1.088466,-0.280688,-1.126958,0.340651,2.295777,1.971300
4725.629000000,0.535701,1.088312,-0.280704,-1.126852,0.378807,2.295827,1.930139
4725.659000000,0.535796,1.088445,-0.280712,-1.126917,0.342994,2.295788,1.946260
4725.665000000,0.535636,1.088356,-0.280721,-1.126893,0.378809,2.295820,1.930137
4725.693000000,0.535764,1.088388,-0.280722,-1.126899,0.344421,2.295808,1.925924
4725.699000000,0.535552,1.088385,-0.280752,-1.126913,0.378806,2.295821,1.930138
4725.727000000,0.535731,1.088338,-0.280751,-1.126893,0.345363,2.295808,1.909033
4725.732000000,0.535482,1.088383,-0.280747,-1.126913,0.378813,2.295818,1.930139
4725.762000000,0.535584,1.088314,-0.280647,-1.126838,0.345347,2.295806,1.897339
4725.765000000,0.535538,1.088401,-0.280703,-1.126916,0.378819,2.295811,1.930141
4725.795000000,0.535623,1.088320,-0.280778,-1.126877,0.346359,2.295833,1.885908
4725.798000000,0.535659,1.088404,-0.280663,-1.126898,0.378820,2.295809,1.930138
4725.830000000,0.535511,1.088324,-0.280682,-1.126839,0.345967,2.295809,1.879929
4725.832000000,0.535787,1.088383,-0.280565,-1.126893,0.378822,2.295801,1.930146
4725.864000000,0.535509,1.088330,-0.280652,-1.126855,0.346129,2.295815,1.874945
4725.866000000,0.535800,1.088423,-0.280482,-1.126955,0.378819,2.295777,1.930148
4725.897000000,0.535815,1.088514,-0.280480,-1.126993,0.378818,2.295772,1.930141
4725.897000000,0.535635,1.088354,-0.280722,-1.126909,0.346874,2.295824,1.870692
4725.931000000,0.535559,1.088290,-0.280718,-1.126905,0.338747,2.295774,1.874223
4725.932000000,0.535765,1.088535,-0.280519,-1.127047,0.378808,2.295762,1.930145
4725.965000000,0.535743,1.088384,-0.280739,-1.126913,0.340818,2.295865,1.887039
4725.967000000,0.535612,1.088462,-0.280605,-1.127058,0.378812,2.295780,1.930147
4726.000000000,0.535598,1.088339,-0.280551,-1.126904,0.334863,2.295753,1.899787
4726.002000000,0.535441,1.088430,-0.280791,-1.127049,0.378814,2.295784,1.930145
4726.033000000,0.535849,1.088442,-0.280674,-1.126996,0.340319,2.295839,1.901606
4726.036000000,0.535367,1.088469,-0.280785,-1.127054,0.378812,2.295786,1.930139
4726.067000000,0.535737,1.088417,-0.280660,-1.126981,0.334075,2.295778,1.913361
4726.069000000,0.535497,1.088537,-0.280686,-1.127107,0.378811,2.295762,1.930150
4726.102000000,0.535763,1.088484,-0.280563,-1.127002,0.339246,2.295792,1.914180
4726.103000000,0.535600,1.088530,-0.280682,-1.127093,0.378807,2.295780,1.930159
4726.135000000,0.535811,1.088523,-0.280666,-1.127069,0.342810,2.295798,1.915786
4726.137000000,0.535605,1.088462,-0.280681,-1.127053,0.378807,2.295782,1.930159
4726.169000000,0.535747,1.088552,-0.280697,-1.127073,0.344638,2.295794,1.922275
4726.171000000,0.535547,1.088464,-0.280723,-1.127073,0.378806,2.295788,1.930170
4726.203000000,0.535673,1.088539,-0.280707,-1.127086,0.345637,2.295792,1.931510
4726.205000000,0.535369,1.088448,-0.280789,-1.127035,0.378811,2.295797,1.930170
4726.237000000,0.535627,1.088511,-0.280745,-1.127098,0.346230,2.295786,1.943105
4726.238000000,0.535280,1.088301,-0.281005,-1.126944,0.378815,2.295821,1.930179
4726.273000000,0.535054,1.088109,-0.281126,-1.126707,0.378822,2.295839,1.930199
4726.273000000,0.535568,1.088490,-0.280780,-1.127084,0.346550,2.295790,1.957379
4726.306000000,0.534845,1.087720,-0.281380,-1.126634,0.378815,2.295889,1.930205
4726.309000000,0.535388,1.088447,-0.280714,-1.127007,0.345403,2.295742,1.972151
4726.340000000,0.534545,1.087276,-0.281678,-1.126314,0.378822,2.295976,1.930207
4726.341000000,0.535309,1.088353,-0.280917,-1.127031,0.336159,2.295792,1.988721
4726.373000000,0.534234,1.086737,-0.281937,-1.125974,0.378828,2.296049,1.930229
4726.375000000,0.535250,1.088309,-0.280939,-1.127018,0.327828,2.295786,2.006233
4726.406000000,0.534032,1.086205,-0.282033,-1.125737,0.378829,2.296086,1.930242
4726.409000000,0.535246,1.088311,-0.280983,-1.127006,0.319073,2.295806,2.025939
4726.439000000,0.534001,1.085751,-0.282213,-1.125453,0.378828,2.296140,1.930242
4726.443000000,0.535242,1.088296,-0.280989,-1.127016,0.310198,2.295821,2.047488
4726.473000000,0.534023,1.085377,-0.282208,-1.125414,0.378826,2.296141,1.930244
4726.477000000,0.535255,1.088283,-0.281012,-1.127027,0.301242,2.295821,2.069926
4726.506000000,0.534116,1.085175,-0.282163,-1.125347,0.378824,2.296136,1.930240
4726.511000000,0.535267,1.088297,-0.281034,-1.127016,0.292170,2.295838,2.093094
4726.539000000,0.534310,1.085268,-0.281994,-1.125421,0.378825,2.296090,1.930242
4726.546000000,0.535189,1.088270,-0.280939,-1.126986,0.281983,2.295749,2.119870
4726.573000000,0.534752,1.085637,-0.281541,-1.125710,0.378823,2.296015,1.930236
4726.580000000,0.535195,1.088284,-0.280946,-1.126966,0.272578,2.295739,2.144930
4726.606000000,0.535267,1.086255,-0.281085,-1.126131,0.378808,2.295882,1.930211
4726.614000000,0.535173,1.088273,-0.280915,-1.126961,0.262842,2.295717,2.171243
4726.634000000,0.535549,1.086912,-0.280774,-1.126541,0.378799,2.295804,1.930191
4726.649000000,0.535256,1.088284,-0.281022,-1.126999,0.253372,2.295820,2.197552
4726.674000000,0.535720,1.087394,-0.280658,-1.126773,0.378799,2.295772,1.930179
4726.683000000,0.535247,1.088273,-0.281011,-1.127004,0.243429,2.295831,2.225394
4726.707000000,0.535717,1.087677,-0.280665,-1.126742,0.378798,2.295776,1.930171
4726.717000000,0.535261,1.088261,-0.281038,-1.127020,0.233385,2.295846,2.253689
4726.740000000,0.535607,1.087753,-0.280703,-1.126762,0.378800,2.295771,1.930175
4726.751000000,0.535183,1.088253,-0.280948,-1.126963,0.222876,2.295702,2.283385
4726.774000000,0.535544,1.087805,-0.280701,-1.126790,0.378801,2.295762,1.930166
4726.785000000,0.535268,1.088263,-0.281044,-1.127021,0.212902,2.295874,2.311944
4726.807000000,0.535542,1.087846,-0.280714,-1.126809,0.378798,2.295757,1.930176
4726.823000000,0.535183,1.088244,-0.280949,-1.126960,0.200807,2.295680,2.346426
4726.839000000,0.535518,1.087861,-0.280726,-1.126824,0.378798,2.295752,1.930168
4726.856000000,0.535178,1.088254,-0.280949,-1.126936,0.189873,2.295654,2.377448
4726.873000000,0.535482,1.087856,-0.280740,-1.126812,0.378797,2.295760,1.930176
4726.890000000,0.535154,1.088241,-0.280920,-1.126925,0.178643,2.295612,2.409699
4726.906000000,0.535447,1.087846,-0.280753,-1.126799,0.378797,2.295764,1.930167
4726.924000000,0.535142,1.088228,-0.280913,-1.126917,0.167252,2.295561,2.442398
4726.940000000,0.535383,1.087838,-0.280796,-1.126799,0.378799,2.295765,1.930171
4726.958000000,0.535130,1.088238,-0.280900,-1.126887,0.155724,2.295509,2.475461
4726.973000000,0.535294,1.087838,-0.280939,-1.126817,0.378799,2.295765,1.930175
4726.992000000,0.535107,1.088227,-0.280872,-1.126875,0.144036,2.295460,2.508998
4727.007000000,0.535174,1.087870,-0.280941,-1.126841,0.378798,2.295764,1.930169
4727.026000000,0.535095,1.088214,-0.280863,-1.126865,0.132149,2.295402,2.543064
4727.041000000,0.535151,1.087857,-0.280962,-1.126828,0.378798,2.295772,1.930174
4727.059000000,0.535173,1.088208,-0.280954,-1.126942,0.121185,2.295640,2.574690
4727.073000000,0.535164,1.087870,-0.280956,-1.126841,0.378803,2.295768,1.930168
4727.093000000,0.535181,1.088219,-0.280972,-1.126938,0.109307,2.295671,2.608850
4727.108000000,0.535186,1.087857,-0.280950,-1.126839,0.378805,2.295770,1.930165
4727.128000000,0.535099,1.088198,-0.280879,-1.126867,0.096195,2.295396,2.646213
4727.141000000,0.535185,1.087857,-0.280938,-1.126849,0.378812,2.295766,1.930174
4727.162000000,0.535092,1.088208,-0.280869,-1.126836,0.083734,2.295340,2.681681
4727.175000000,0.535192,1.087894,-0.280923,-1.126863,0.378813,2.295765,1.930179
4727.196000000,0.535069,1.088197,-0.280837,-1.126819,0.071046,2.295273,2.717860
4727.207000000,0.535215,1.087894,-0.280903,-1.126854,0.378820,2.295766,1.930184
4727.230000000,0.535056,1.088183,-0.280825,-1.126805,0.058149,2.295197,2.754654
4727.242000000,0.535224,1.087857,-0.280905,-1.126839,0.378824,2.295769,1.930188
4727.264000000,0.535043,1.088193,-0.280809,-1.126769,0.045142,2.295119,2.791716
4727.277000000,0.535243,1.087852,-0.280894,-1.126836,0.378828,2.295768,1.930193
4727.298000000,0.535019,1.088182,-0.280776,-1.126750,0.031938,2.295043,2.829326
4727.311000000,0.535258,1.087849,-0.280888,-1.126825,0.378825,2.295776,1.930195
4727.332000000,0.535005,1.088168,-0.280762,-1.126734,0.018530,2.294958,2.867395
4727.345000000,0.535234,1.087829,-0.280904,-1.126804,0.378824,2.295786,1.930187
4727.367000000,0.535097,1.088199,-0.280837,-1.126814,0.007010,2.295188,2.897576
4727.377000000,0.535203,1.087757,-0.280934,-1.126763,0.378825,2.295799,1.930192
4727.402000000,0.536377,1.089273,-0.280602,-1.127365,0.098788,2.295509,2.740741
4727.412000000,0.535178,1.087712,-0.280955,-1.126728,0.378831,2.295804,1.930187
4727.436000000,0.536753,1.089601,-0.279997,-1.127411,0.188692,2.295305,2.591158
4727.447000000,0.535126,1.087701,-0.281019,-1.126717,0.378826,2.295811,1.930187
4727.470000000,0.536506,1.089179,-0.280004,-1.127244,0.249229,2.295292,2.473814
4727.481000000,0.535027,1.087645,-0.281129,-1.126693,0.378829,2.295825,1.930189
4727.504000000,0.535888,1.088518,-0.280242,-1.126939,0.289950,2.295250,2.377767
4727.514000000,0.534893,1.087571,-0.281239,-1.126651,0.378829,2.295838,1.930189
4727.539000000,0.535240,1.087780,-0.280808,-1.126757,0.312189,2.295531,2.283048
4727.547000000,0.534894,1.087026,-0.282236,-1.126044,0.378807,2.296483,1.930212
4727.573000000,0.534671,1.087277,-0.281254,-1.126537,0.324683,2.295662,2.203934
4727.582000000,0.535191,1.086642,-0.285455,-1.123007,0.378816,2.297859,1.930281
4727.608000000,0.534336,1.087002,-0.281890,-1.126136,0.331826,2.295908,2.134811
4727.612000000,0.535139,1.084810,-0.289187,-1.118723,0.378828,2.297829,1.930285
4727.642000000,0.534495,1.087127,-0.283351,-1.124965,0.336738,2.296445,2.082607
4727.645000000,0.535141,1.082225,-0.293101,-1.113898,0.378832,2.296907,1.930287
4727.675000000,0.534882,1.087157,-0.285438,-1.123114,0.340648,2.296773,2.036657
4727.680000000,0.534799,1.078557,-0.296161,-1.109217,0.378835,2.295175,1.930295
4727.710000000,0.535182,1.086697,-0.287972,-1.120345,0.342522,2.296413,2.003709
4727.711000000,0.534563,1.075172,-0.299152,-1.104291,0.378839,2.293539,1.930336
4727.743000000,0.535301,1.085334,-0.290727,-1.116927,0.343795,2.295525,1.974900
4727.745000000,0.534315,1.071185,-0.302252,-1.100317,0.378841,2.291872,1.930422
4727.777000000,0.535242,1.083067,-0.293633,-1.112936,0.344654,2.294404,1.950458
4727.778000000,0.534306,1.067325,-0.305493,-1.097179,0.378835,2.290449,1.930478
4727.811000000,0.535091,1.079840,-0.296687,-1.108841,0.345153,2.293156,1.930773
4727.813000000,0.534227,1.062678,-0.308793,-1.094780,0.378835,2.289228,1.930510
4727.845000000,0.534850,1.075725,-0.299905,-1.104756,0.344830,2.291863,1.915796
4727.847000000,0.534278,1.057612,-0.312284,-1.093298,0.378825,2.288440,1.930534
4727.879000000,0.534823,1.071263,-0.303270,-1.101436,0.345693,2.290805,1.901416
4727.882000000,0.534317,1.051828,-0.316255,-1.093006,0.378824,2.287943,1.930569
4727.913000000,0.534778,1.066139,-0.306752,-1.098663,0.345757,2.289884,1.891443
4727.916000000,0.534281,1.045732,-0.321065,-1.093031,0.378822,2.287771,1.930687
4727.948000000,0.534761,1.060408,-0.310498,-1.096607,0.345138,2.289123,1.886032
4727.950000000,0.534361,1.039451,-0.326754,-1.092958,0.378822,2.287627,1.930947
4727.982000000,0.534921,1.054573,-0.314680,-1.095309,0.345126,2.288610,1.882283
4727.984000000,0.534641,1.031938,-0.333155,-1.093011,0.378822,2.287322,1.931151
4728.017000000,0.535286,1.048350,-0.319783,-1.094534,0.345725,2.288181,1.880128
4728.018000000,0.534881,1.023591,-0.339972,-1.093008,0.378817,2.285607,1.931389
4728.052000000,0.535486,1.041690,-0.325257,-1.094113,0.344981,2.287477,1.884916
4728.052000000,0.534096,1.015502,-0.345216,-1.092024,0.378871,2.283166,1.931511
4728.085000000,0.535676,1.034980,-0.330904,-1.093856,0.345565,2.286340,1.889365
4728.086000000,0.532398,1.010937,-0.345820,-1.089302,0.378861,2.283348,1.931530
4728.119000000,0.535051,1.027814,-0.335792,-1.092910,0.345409,2.285200,1.899292
4728.120000000,0.532337,1.009139,-0.346635,-1.088128,0.378818,2.283368,1.931536
4728.153000000,0.533860,1.020977,-0.339657,-1.091197,0.345305,2.284630,1.912942
4728.154000000,0.532221,1.007826,-0.347474,-1.087682,0.378807,2.283398,1.931543
4728.188000000,0.531937,1.006146,-0.348145,-1.087354,0.378807,2.283401,1.931539
4728.188000000,0.532528,1.014838,-0.342693,-1.089271,0.344542,2.284433,1.932205
4728.221000000,0.531816,1.003524,-0.349030,-1.086452,0.378807,2.283438,1.931534
4728.221000000,0.531276,1.010283,-0.344473,-1.087581,0.340211,2.284821,1.947520
4728.254000000,0.531796,1.000825,-0.349688,-1.085249,0.378815,2.283584,1.931532
4728.257000000,0.530444,1.008002,-0.345135,-1.086592,0.329291,2.285308,1.961220
4728.289000000,0.531950,0.999574,-0.349898,-1.084666,0.378831,2.283604,1.931540
4728.291000000,0.530071,1.006880,-0.345507,-1.086136,0.318861,2.285572,1.977900
4728.323000000,0.532135,0.999984,-0.349622,-1.084804,0.378832,2.283528,1.931536
4728.325000000,0.529890,1.006339,-0.345705,-1.085892,0.308157,2.285766,1.998276
4728.356000000,0.532401,1.000824,-0.349248,-1.085307,0.378823,2.283455,1.931534
4728.359000000,0.529798,1.006045,-0.345805,-1.085781,0.297261,2.285908,2.019417
4728.391000000,0.532548,1.001306,-0.349081,-1.085609,0.378820,2.283437,1.931519
4728.393000000,0.529766,1.005883,-0.345882,-1.085731,0.286215,2.286005,2.042998
4728.424000000,0.532394,1.001443,-0.349165,-1.085659,0.378821,2.283445,1.931503
4728.427000000,0.529756,1.005813,-0.345938,-1.085688,0.274989,2.286093,2.067587
4728.458000000,0.532210,1.001455,-0.349275,-1.085664,0.378822,2.283450,1.931500
4728.461000000,0.529750,1.005754,-0.345964,-1.085678,0.263584,2.286165,2.093788
4728.492000000,0.532185,1.001482,-0.349260,-1.085662,0.378823,2.283454,1.931503
4728.495000000,0.529761,1.005714,-0.346004,-1.085681,0.252015,2.286216,2.120957
4728.524000000,0.532251,1.001522,-0.349227,-1.085665,0.378811,2.283458,1.931495
4728.530000000,0.529655,1.005688,-0.345875,-1.085610,0.239198,2.286151,2.152325
4728.558000000,0.532215,1.001572,-0.349245,-1.085673,0.378807,2.283471,1.931482
4728.564000000,0.529645,1.005663,-0.345868,-1.085600,0.226983,2.286143,2.182539
4728.592000000,0.532148,1.001633,-0.349292,-1.085667,0.378800,2.283488,1.931469
4728.598000000,0.529628,1.005663,-0.345850,-1.085569,0.214507,2.286126,2.213875
4728.626000000,0.532155,1.001641,-0.349295,-1.085662,0.378797,2.283492,1.931475
4728.632000000,0.529599,1.005646,-0.345812,-1.085554,0.201806,2.286106,2.246101
4728.660000000,0.532150,1.001672,-0.349296,-1.085675,0.378795,2.283493,1.931472
4728.666000000,0.529585,1.005628,-0.345799,-1.085544,0.188978,2.286075,2.278998
4728.694000000,0.532109,1.001679,-0.349316,-1.085670,0.378793,2.283502,1.931474
4728.700000000,0.529567,1.005633,-0.345780,-1.085513,0.175899,2.286038,2.312812
4728.728000000,0.532040,1.001666,-0.349353,-1.085649,0.378795,2.283505,1.931470
4728.735000000,0.531139,1.005931,-0.346774,-1.086311,0.237203,2.285217,2.215997
4728.761000000,0.531997,1.001666,-0.349378,-1.085660,0.378793,2.283508,1.931472
4728.769000000,0.531684,1.005259,-0.347200,-1.086387,0.278942,2.284343,2.150918
4728.798000000,0.531982,1.001690,-0.349382,-1.085673,0.378793,2.283510,1.931463
4728.803000000,0.531844,1.004156,-0.347816,-1.086179,0.302919,2.283944,2.100887
4728.832000000,0.531988,1.001723,-0.349382,-1.085689,0.378793,2.283505,1.931468
4728.838000000,0.531911,1.003021,-0.348533,-1.085914,0.319385,2.283820,2.060992
4728.866000000,0.531998,1.001746,-0.349373,-1.085686,0.378792,2.283498,1.931470
4728.872000000,0.531782,1.002076,-0.348947,-1.085629,0.328363,2.283751,2.034504
4728.899000000,0.532007,1.001776,-0.349360,-1.085719,0.378792,2.283487,1.931468
4728.906000000,0.531693,1.001413,-0.349271,-1.085431,0.334011,2.283726,2.015772
4728.933000000,0.532020,1.001840,-0.349338,-1.085748,0.378790,2.283478,1.931458
4728.941000000,0.531533,1.001033,-0.349309,-1.085268,0.337103,2.283679,2.004939
4728.967000000,0.532040,1.001990,-0.349329,-1.085762,0.378787,2.283472,1.931470
4728.976000000,0.531638,1.000932,-0.349535,-1.085284,0.339726,2.283702,1.997169
4729.002000000,0.532021,1.002038,-0.349339,-1.085785,0.378791,2.283471,1.931464
4729.010000000,0.531480,1.000813,-0.349574,-1.085232,0.329013,2.283723,2.006423
4729.036000000,0.532045,1.002050,-0.349331,-1.085914,0.378789,2.283467,1.931471
4729.044000000,0.531454,1.000767,-0.349623,-1.085225,0.320033,2.283753,2.018712
4729.070000000,0.532033,1.002045,-0.349334,-1.085890,0.378787,2.283470,1.931471
4729.078000000,0.531455,1.000737,-0.349664,-1.085227,0.310449,2.283767,2.035889
4729.104000000,0.531997,1.002061,-0.349347,-1.085906,0.378786,2.283466,1.931459
4729.112000000,0.531466,1.000742,-0.349696,-1.085213,0.300813,2.283792,2.056362
4729.138000000,0.531988,1.002081,-0.349353,-1.085917,0.378788,2.283460,1.931467
4729.146000000,0.531472,1.000728,-0.349706,-1.085224,0.290943,2.283811,2.077812
4729.171000000,0.532003,1.002098,-0.349337,-1.085935,0.378787,2.283447,1.931464
4729.180000000,0.531492,1.000716,-0.349736,-1.085235,0.281001,2.283820,2.100427
4729.204000000,0.532018,1.002130,-0.349331,-1.085949,0.378787,2.283436,1.931456
4729.214000000,0.531508,1.000729,-0.349764,-1.085228,0.270897,2.283843,2.124034
4729.239000000,0.532029,1.002179,-0.349303,-1.085988,0.378790,2.283413,1.931463
4729.247000000,0.531517,1.000719,-0.349772,-1.085241,0.260595,2.283864,2.148638
4729.273000000,0.532059,1.002344,-0.349281,-1.086026,0.378792,2.283400,1.931462
4729.282000000,0.531537,1.000709,-0.349803,-1.085254,0.250199,2.283877,2.174315
4729.307000000,0.532054,1.002439,-0.349258,-1.086148,0.378794,2.283373,1.931459
4729.316000000,0.531554,1.000724,-0.349829,-1.085249,0.239665,2.283901,2.200658
4729.340000000,0.532057,1.002611,-0.349239,-1.086251,0.378790,2.283246,1.931411
4729.350000000,0.531564,1.000715,-0.349838,-1.085264,0.228933,2.283927,2.227940
4729.373000000,0.532073,1.002607,-0.349273,-1.086317,0.378788,2.281357,1.930816
4729.384000000,0.531585,1.000705,-0.349868,-1.085280,0.218099,2.283943,2.255615
4729.407000000,0.532124,1.002520,-0.349288,-1.086300,0.378791,2.277006,1.930757
4729.418000000,0.531601,1.000719,-0.349895,-1.085277,0.207118,2.283972,2.283988
4729.441000000,0.532300,1.002141,-0.349306,-1.086272,0.378788,2.268562,1.930750
4729.452000000,0.531612,1.000710,-0.349905,-1.085293,0.195944,2.284004,2.313036
4729.475000000,0.532585,1.001505,-0.349505,-1.086102,0.378790,2.256911,1.930752
4729.486000000,0.531633,1.000700,-0.349935,-1.085310,0.184640,2.284025,2.342690
4729.510000000,0.532885,1.000337,-0.350093,-1.085695,0.378790,2.242843,1.930760
4729.520000000,0.531651,1.000713,-0.349963,-1.085309,0.173185,2.284060,2.372659
4729.544000000,0.533273,0.998315,-0.351171,-1.085314,0.378794,2.226115,1.930759
4729.554000000,0.531663,1.000703,-0.349976,-1.085330,0.161574,2.284097,2.403169
4729.578000000,0.533794,0.995200,-0.352884,-1.084634,0.378801,2.206938,1.930765
4729.587000000,0.531569,1.000684,-0.349856,-1.085257,0.149489,2.283880,2.434849
4729.612000000,0.534332,0.990678,-0.354827,-1.083953,0.378799,2.186462,1.930787
4729.621000000,0.531569,1.000696,-0.349848,-1.085234,0.137449,2.283854,2.466478
4729.646000000,0.534965,0.984317,-0.357086,-1.083627,0.378793,2.164444,1.930835
4729.656000000,0.531669,1.000684,-0.349970,-1.085328,0.125550,2.284072,2.497865
4729.679000000,0.535596,0.975890,-0.359477,-1.083724,0.378798,2.141520,1.931097
4729.690000000,0.531676,1.000696,-0.349989,-1.085320,0.113245,2.284098,2.530274
4729.713000000,0.536062,0.966427,-0.361824,-1.083751,0.378799,2.116068,1.931257
4729.724000000,0.531686,1.000684,-0.350005,-1.085340,0.100684,2.284152,2.563150
4729.747000000,0.536503,0.955316,-0.364280,-1.083821,0.378808,2.088511,1.931880
4729.758000000,0.531708,1.000671,-0.350037,-1.085363,0.087995,2.284194,2.596477
4729.781000000,0.537052,0.942664,-0.367056,-1.084405,0.378806,2.060022,1.933177
4729.791000000,0.531603,1.000661,-0.349905,-1.085268,0.074779,2.283905,2.630889
4729.816000000,0.537747,0.928973,-0.370265,-1.085135,0.378801,2.031592,1.935925
4729.825000000,0.531600,1.000671,-0.349897,-1.085247,0.061613,2.283859,2.665264
4729.850000000,0.538317,0.913882,-0.373589,-1.086194,0.378802,2.004057,1.940108
4729.860000000,0.531697,1.000666,-0.350013,-1.085336,0.048648,2.284155,2.699100
4729.883000000,0.539039,0.897700,-0.377268,-1.087417,0.378795,1.977477,1.945775
4729.894000000,0.531714,1.000670,-0.350048,-1.085345,0.035235,2.284204,2.734050
4729.917000000,0.539886,0.880879,-0.381515,-1.089023,0.378791,1.951096,1.953277
4729.928000000,0.531731,1.000654,-0.350063,-1.085367,0.021477,2.284274,2.769629
4729.951000000,0.540969,0.862572,-0.386354,-1.090929,0.378794,1.924498,1.960069
4729.961000000,0.531617,1.000647,-0.349915,-1.085253,0.007286,2.283908,2.806205
4729.985000000,0.542420,0.843967,-0.391906,-1.093137,0.378793,1.898620,1.965765
4729.996000000,0.531745,1.000653,-0.350082,-1.085362,-0.006581,2.284287,2.842224
4730.019000000,0.543397,0.824806,-0.397645,-1.095661,0.378791,1.873492,1.969746
4730.030000000,0.531753,1.000639,-0.350094,-1.085381,-0.021002,2.284352,2.879292
4730.053000000,0.544294,0.805407,-0.403534,-1.097899,0.378787,1.849240,1.972178
4730.064000000,0.531803,1.000708,-0.350067,-1.085391,-0.030227,2.284278,2.897347
4730.087000000,0.545192,0.785578,-0.409548,-1.100183,0.378777,1.825575,1.973591
4730.098000000,0.531867,1.000799,-0.350003,-1.085429,-0.033558,2.284245,2.897300
4730.120000000,0.545939,0.765921,-0.415958,-1.102426,0.378739,1.802062,1.974165
4730.132000000,0.531914,1.000876,-0.349980,-1.085438,-0.036219,2.284239,2.897300
4730.155000000,0.546564,0.746394,-0.423533,-1.104505,0.378689,1.779003,1.974233
4730.166000000,0.531941,1.000912,-0.349955,-1.085457,-0.038227,2.284247,2.897300
4730.188000000,0.547321,0.726579,-0.432153,-1.106266,0.378539,1.756631,1.974249
4730.201000000,0.531967,1.000931,-0.349953,-1.085475,-0.039774,2.284243,2.897300
4730.223000000,0.548140,0.707045,-0.441631,-1.106880,0.378283,1.734336,1.974265
4730.233000000,0.544598,0.985550,-0.371810,-1.097487,0.049670,2.149394,2.752115
4730.256000000,0.548543,0.688613,-0.451488,-1.106847,0.378123,1.713523,1.974273
4730.268000000,0.550523,0.953040,-0.390444,-1.110792,0.146277,2.007483,2.600122
4730.289000000,0.548943,0.669643,-0.462012,-1.106660,0.378031,1.692469,1.974281
4730.301000000,0.551535,0.908573,-0.406572,-1.119457,0.216577,1.908878,2.476490
4730.324000000,0.549261,0.650530,-0.472535,-1.106563,0.377887,1.671978,1.974279
4730.336000000,0.551004,0.846973,-0.422935,-1.124431,0.268350,1.831526,2.367528
4730.358000000,0.549476,0.631898,-0.483657,-1.106372,0.377754,1.651728,1.974272
4730.370000000,0.550066,0.782983,-0.439581,-1.119880,0.297509,1.777189,2.282203
4730.391000000,0.549569,0.614079,-0.494600,-1.106213,0.377673,1.632047,1.974282
4730.403000000,0.549188,0.724804,-0.455303,-1.111489,0.315941,1.736860,2.209767
4730.426000000,0.549490,0.596487,-0.505700,-1.106151,0.377405,1.612675,1.974274
4730.438000000,0.549158,0.671825,-0.472151,-1.102922,0.326370,1.702322,2.155704
4730.460000000,0.549437,0.579599,-0.516805,-1.106130,0.377197,1.594440,1.974275
4730.472000000,0.548793,0.630476,-0.486813,-1.096808,0.329582,1.673931,2.108224
4730.493000000,0.549310,0.564299,-0.528157,-1.105954,0.377037,1.577431,1.974263
4730.506000000,0.548480,0.598745,-0.500346,-1.093585,0.323824,1.648645,2.066866
4730.527000000,0.549265,0.549231,-0.539828,-1.105875,0.376998,1.562891,1.974259
4730.540000000,0.547548,0.575069,-0.511286,-1.092813,0.310303,1.625812,2.031003
4730.561000000,0.549228,0.535533,-0.551238,-1.105668,0.376986,1.550088,1.974256
4730.573000000,0.546672,0.557598,-0.520313,-1.093957,0.299227,1.605460,2.002198
4730.595000000,0.549015,0.522709,-0.562335,-1.105552,0.376983,1.540022,1.974250
4730.608000000,0.546341,0.544425,-0.528209,-1.096077,0.290718,1.587176,1.979083
4730.629000000,0.548893,0.511189,-0.572624,-1.105518,0.376996,1.533216,1.974247
4730.642000000,0.546567,0.533794,-0.535538,-1.098498,0.284482,1.571440,1.960223
4730.663000000,0.548559,0.500478,-0.582402,-1.105504,0.376994,1.529396,1.974235
4730.675000000,0.545656,0.524501,-0.540307,-1.100503,0.278680,1.558965,1.947206
4730.697000000,0.548344,0.491522,-0.591740,-1.105435,0.376994,1.528391,1.974233
4730.710000000,0.547654,0.515597,-0.549151,-1.102579,0.276560,1.548884,1.932732
4730.730000000,0.548343,0.483699,-0.600617,-1.105084,0.376988,1.528386,1.974215
4730.744000000,0.548106,0.506913,-0.555705,-1.103787,0.273956,1.542107,1.922522
4730.764000000,0.548346,0.476482,-0.609198,-1.104827,0.376979,1.528383,1.974210
4730.778000000,0.548435,0.498455,-0.562215,-1.104355,0.271997,1.537606,1.914089
4730.798000000,0.548416,0.470417,-0.617602,-1.104384,0.376980,1.528396,1.974179
4730.811000000,0.547102,0.490220,-0.566312,-1.104301,0.269070,1.534687,1.909098
4730.832000000,0.548418,0.465286,-0.625705,-1.103522,0.376964,1.528401,1.974141
4730.846000000,0.548668,0.482409,-0.574725,-1.104262,0.268943,1.532693,1.901314
4730.866000000,0.548410,0.460989,-0.634417,-1.102360,0.376960,1.528407,1.974101
4730.880000000,0.548622,0.475287,-0.580651,-1.103631,0.267647,1.531430,1.896267
4730.901000000,0.548467,0.457552,-0.643371,-1.100782,0.376960,1.528404,1.974105
4730.915000000,0.545825,0.468801,-0.582477,-1.102066,0.262239,1.531016,1.895071
4730.934000000,0.548612,0.454479,-0.652118,-1.099172,0.376957,1.528404,1.974106
4730.949000000,0.541462,0.464721,-0.576503,-1.100546,0.233757,1.531761,1.897133
4730.968000000,0.548610,0.451592,-0.660521,-1.097704,0.376954,1.528403,1.974102
4730.983000000,0.537394,0.462304,-0.565242,-1.100095,0.200021,1.532064,1.902395
4731.001000000,0.548634,0.449099,-0.669244,-1.095966,0.376932,1.528395,1.974106
4731.017000000,0.535084,0.461162,-0.552606,-1.099872,0.167231,1.532200,1.910222
4731.035000000,0.548686,0.447056,-0.677872,-1.093942,0.376917,1.528379,1.974102
4731.051000000,0.533696,0.460558,-0.538821,-1.099791,0.133024,1.532301,1.919714
