yuan18844-afk/dissertation/catkin_ws/src/franka_digital_twin/analysis/data/real_static1_20250728_062551.csv
time,panda_joint1,panda_joint2,panda_joint3,panda_joint4,panda_joint5,panda_joint6,panda_joint7
3876.315000000,0.319965,0.721024,-0.524375,-1.299252,0.481747,2.055151,2.596481
3876.325000000,0.319977,0.720862,-0.524608,-1.299216,0.388126,2.055244,2.709979
3876.348000000,0.319958,0.721024,-0.524377,-1.299249,0.481746,2.055150,2.596483
3876.355000000,0.319995,0.720861,-0.524628,-1.299224,0.379073,2.055268,2.724218
3876.381000000,0.319965,0.721032,-0.524375,-1.299249,0.481747,2.055151,2.596475
3876.388000000,0.319810,0.720832,-0.524411,-1.299145,0.369622,2.055064,2.740896
3876.415000000,0.319962,0.721030,-0.524370,-1.299249,0.481745,2.055152,2.596486
3876.417000000,0.320040,0.720877,-0.524672,-1.299236,0.360731,2.055302,2.756668
3876.449000000,0.319962,0.721025,-0.524372,-1.299246,0.481749,2.055151,2.596481
3876.452000000,0.320028,0.720873,-0.524653,-1.299230,0.351333,2.055298,2.775057
3876.484000000,0.319962,0.721029,-0.524372,-1.299246,0.481748,2.055151,2.596482
3876.485000000,0.319843,0.720844,-0.524443,-1.299150,0.341598,2.055075,2.795907
3876.518000000,0.319965,0.721026,-0.524372,-1.299249,0.481748,2.055149,2.596483
3876.519000000,0.319849,0.720841,-0.524445,-1.299151,0.332017,2.055059,2.817221
3876.552000000,0.319965,0.721027,-0.524375,-1.299249,0.481747,2.055149,2.596479
3876.554000000,0.320026,0.720878,-0.524635,-1.299223,0.322653,2.055283,2.838637
3876.586000000,0.319965,0.721026,-0.524373,-1.299254,0.481747,2.055150,2.596478
3876.589000000,0.319825,0.720848,-0.524411,-1.299131,0.312016,2.055007,2.864151
3876.620000000,0.319960,0.721027,-0.524372,-1.299244,0.481748,2.055150,2.596484
3876.622000000,0.320041,0.720884,-0.524659,-1.299228,0.302973,2.055292,2.885578
3876.654000000,0.319962,0.721029,-0.524367,-1.299249,0.481745,2.055152,2.596478
3876.657000000,0.319968,0.720906,-0.524546,-1.299216,0.296591,2.055179,2.897331
3876.688000000,0.319965,0.721025,-0.524375,-1.299249,0.481747,2.055150,2.596474
3876.691000000,0.319999,0.720973,-0.524529,-1.299233,0.294606,2.055181,2.897312
3876.722000000,0.319968,0.721032,-0.524374,-1.299252,0.481745,2.055151,2.596481
3876.725000000,0.320009,0.721002,-0.524507,-1.299246,0.292782,2.055179,2.897302
3876.756000000,0.319965,0.721029,-0.524380,-1.299254,0.481748,2.055151,2.596477
3876.759000000,0.320025,0.721018,-0.524511,-1.299258,0.291443,2.055179,2.897300
3876.790000000,0.319960,0.721030,-0.524372,-1.299249,0.481748,2.055149,2.596474
3876.793000000,0.320048,0.721049,-0.524525,-1.299262,0.290453,2.055190,2.897353
3876.825000000,0.319973,0.721025,-0.524373,-1.299252,0.481747,2.055149,2.596485
3876.827000000,0.320039,0.721051,-0.524504,-1.299260,0.289632,2.055184,2.897301
3876.860000000,0.319962,0.721028,-0.524378,-1.299254,0.481747,2.055151,2.596479
3876.861000000,0.320042,0.721057,-0.524503,-1.299267,0.289042,2.055182,2.897317
3876.893000000,0.319970,0.721030,-0.524372,-1.299249,0.481744,2.055150,2.596481
3876.895000000,0.320050,0.721072,-0.524506,-1.299264,0.288599,2.055183,2.897315
3876.928000000,0.319964,0.721025,-0.524375,-1.299249,0.481747,2.055151,2.596477
3876.929000000,0.320137,0.721088,-0.524600,-1.299308,0.288408,2.055328,2.896835
3876.962000000,0.319960,0.721027,-0.524372,-1.299252,0.481746,2.055151,2.596481
3876.963000000,0.320148,0.721021,-0.524651,-1.299312,0.281954,2.055352,2.896534
3876.997000000,0.319957,0.721027,-0.524375,-1.299246,0.481746,2.055151,2.596483
3876.997000000,0.320173,0.721003,-0.524711,-1.299307,0.274835,2.055411,2.896473
3877.030000000,0.319965,0.721027,-0.524374,-1.299249,0.481748,2.055149,2.596481
3877.031000000,0.320202,0.721000,-0.524767,-1.299318,0.267817,2.055481,2.895950
3877.064000000,0.319965,0.721026,-0.524372,-1.299249,0.481746,2.055152,2.596484
3877.064000000,0.320231,0.720966,-0.524810,-1.299334,0.259242,2.055513,2.896869
3877.098000000,0.319957,0.721030,-0.524376,-1.299244,0.481747,2.055152,2.596475
3877.099000000,0.320286,0.720999,-0.524876,-1.299357,0.252717,2.055582,2.896070
3877.131000000,0.319968,0.721022,-0.524372,-1.299252,0.481748,2.055150,2.596480
3877.133000000,0.320295,0.720984,-0.524886,-1.299360,0.244206,2.055618,2.895570
3877.165000000,0.319962,0.721023,-0.524368,-1.299249,0.481746,2.055151,2.596479
3877.167000000,0.320359,0.720982,-0.524971,-1.299396,0.235542,2.055692,2.895287
3877.200000000,0.320486,0.721792,-0.524603,-1.299617,0.304560,2.055465,2.797741
3877.204000000,0.319962,0.721028,-0.524372,-1.299246,0.481745,2.055150,2.596485
3877.234000000,0.319965,0.721029,-0.524373,-1.299244,0.481746,2.055149,2.596482
3877.235000000,0.320390,0.721932,-0.524192,-1.299615,0.357818,2.055155,2.740078
3877.267000000,0.319962,0.721027,-0.524378,-1.299246,0.481748,2.055149,2.596484
3877.269000000,0.320231,0.721688,-0.524045,-1.299489,0.394130,2.055004,2.695544
3877.301000000,0.319960,0.721030,-0.524373,-1.299249,0.481747,2.055149,2.596479
3877.304000000,0.319945,0.721023,-0.524282,-1.299203,0.374929,2.054996,2.723211
3877.334000000,0.319965,0.721027,-0.524378,-1.299252,0.481747,2.055150,2.596485
3877.338000000,0.319829,0.720875,-0.524272,-1.299132,0.371820,2.054967,2.731427
3877.369000000,0.319965,0.721025,-0.524373,-1.299249,0.481748,2.055150,2.596487
3877.372000000,0.319772,0.720809,-0.524285,-1.299106,0.362859,2.054925,2.744089
3877.403000000,0.319964,0.721028,-0.524373,-1.299249,0.481744,2.055155,2.596476
3877.406000000,0.319730,0.720806,-0.524252,-1.299083,0.355001,2.054884,2.757377
3877.437000000,0.319965,0.721029,-0.524372,-1.299249,0.481746,2.055149,2.596482
3877.440000000,0.319686,0.720795,-0.524208,-1.299068,0.346600,2.054840,2.772546
3877.471000000,0.319957,0.721025,-0.524375,-1.299244,0.481745,2.055150,2.596482
3877.474000000,0.319667,0.720786,-0.524194,-1.299060,0.338187,2.054802,2.789272
3877.505000000,0.319962,0.721032,-0.524370,-1.299254,0.481745,2.055149,2.596483
3877.508000000,0.319635,0.720788,-0.524155,-1.299037,0.329538,2.054754,2.807761
3877.538000000,0.319965,0.721030,-0.524368,-1.299249,0.481747,2.055151,2.596482
3877.543000000,0.319825,0.720807,-0.524376,-1.299133,0.321188,2.054986,2.826283
3877.573000000,0.319960,0.721025,-0.524375,-1.299252,0.481746,2.055149,2.596483
3877.578000000,0.319580,0.720777,-0.524094,-1.299014,0.311491,2.054681,2.848818
3877.608000000,0.319958,0.721027,-0.524373,-1.299252,0.481748,2.055151,2.596480
3877.611000000,0.319817,0.720813,-0.524378,-1.299125,0.303455,2.054995,2.867585
3877.641000000,0.319965,0.721027,-0.524376,-1.299252,0.481746,2.055151,2.596483
3877.646000000,0.319586,0.720779,-0.524107,-1.299012,0.293396,2.054663,2.892142
3877.675000000,0.319965,0.721024,-0.524375,-1.299249,0.481748,2.055151,2.596485
3877.681000000,0.319756,0.720856,-0.524264,-1.299114,0.290224,2.054864,2.897301
3877.709000000,0.319962,0.721027,-0.524367,-1.299252,0.481746,2.055147,2.596478
3877.716000000,0.319724,0.720896,-0.524180,-1.299093,0.288161,2.054784,2.897930
3877.743000000,0.319960,0.721029,-0.524377,-1.299252,0.481747,2.055151,2.596474
3877.750000000,0.319770,0.720917,-0.524222,-1.299127,0.286734,2.054827,2.897390
3877.777000000,0.319959,0.721027,-0.524374,-1.299254,0.481747,2.055152,2.596476
3877.784000000,0.319765,0.720937,-0.524203,-1.299119,0.285519,2.054814,2.897314
3877.811000000,0.319968,0.721030,-0.524376,-1.299246,0.481747,2.055151,2.596478
3877.818000000,0.319766,0.720945,-0.524193,-1.299121,0.284672,2.054817,2.897302
3877.844000000,0.319957,0.721032,-0.524370,-1.299249,0.481748,2.055150,2.596481
3877.853000000,0.319778,0.720961,-0.524204,-1.299125,0.284009,2.054818,2.897332
3877.879000000,0.319960,0.721024,-0.524372,-1.299246,0.481748,2.055149,2.596483
3877.887000000,0.319769,0.720960,-0.524186,-1.299122,0.283503,2.054815,2.897332
3877.913000000,0.319962,0.721027,-0.524376,-1.299252,0.481747,2.055150,2.596481
3877.922000000,0.319778,0.720972,-0.524196,-1.299124,0.283125,2.054816,2.897300
3877.947000000,0.319962,0.721025,-0.524372,-1.299249,0.481747,2.055150,2.596479
3877.957000000,0.319783,0.720967,-0.524195,-1.299134,0.282838,2.054816,2.897300
3877.980000000,0.319967,0.721025,-0.524376,-1.299249,0.481747,2.055151,2.596475
3877.991000000,0.319861,0.720938,-0.524307,-1.299159,0.278075,2.054949,2.891769
3878.005000000,0.319962,0.721030,-0.524372,-1.299249,0.481746,2.055152,2.596476
3878.024000000,0.319644,0.720853,-0.524099,-1.299037,0.269317,2.054666,2.891373
3878.039000000,0.319960,0.721030,-0.524373,-1.299249,0.481746,2.055149,2.596484
3878.058000000,0.319612,0.720824,-0.524072,-1.299013,0.260633,2.054636,2.892229
3878.070000000,0.319960,0.721027,-0.524375,-1.299252,0.481746,2.055151,2.596482
3878.092000000,0.319813,0.720845,-0.524317,-1.299099,0.251689,2.054916,2.894901
3878.103000000,0.319962,0.721027,-0.524379,-1.299252,0.481746,2.055153,2.596485
3878.127000000,0.319827,0.720866,-0.524341,-1.299112,0.244379,2.054959,2.896190
3878.135000000,0.319962,0.721025,-0.524372,-1.299249,0.481748,2.055151,2.596484
3878.161000000,0.319862,0.720856,-0.524374,-1.299140,0.236804,2.054991,2.896012
3878.169000000,0.319962,0.721026,-0.524372,-1.299246,0.481747,2.055151,2.596481
3878.195000000,0.319898,0.720872,-0.524423,-1.299149,0.228359,2.055051,2.895310
3878.203000000,0.319965,0.721032,-0.524375,-1.299244,0.481747,2.055147,2.596487
3878.229000000,0.319945,0.720879,-0.524495,-1.299171,0.219194,2.055137,2.895650
3878.236000000,0.319962,0.721027,-0.524370,-1.299252,0.481747,2.055150,2.596482
3878.264000000,0.319736,0.720831,-0.524248,-1.299059,0.208182,2.054808,2.898651
3878.269000000,0.319962,0.721029,-0.524372,-1.299246,0.481746,2.055150,2.596474
3878.297000000,0.319970,0.720905,-0.524501,-1.299172,0.202239,2.055133,2.896078
3878.302000000,0.319965,0.721026,-0.524375,-1.299252,0.481747,2.055150,2.596481
3878.332000000,0.319749,0.720840,-0.524248,-1.299065,0.191155,2.054805,2.898769
3878.335000000,0.319962,0.721022,-0.524378,-1.299246,0.481745,2.055151,2.596479
3878.366000000,0.319726,0.720859,-0.524199,-1.299047,0.183250,2.054737,2.897476
3878.369000000,0.319965,0.721030,-0.524377,-1.299245,0.481747,2.055149,2.596485
3878.400000000,0.319676,0.720847,-0.524121,-1.299013,0.173687,2.054660,2.898442
3878.401000000,0.319962,0.721027,-0.524375,-1.299252,0.481745,2.055151,2.596478
3878.433000000,0.320240,0.721878,-0.524358,-1.299517,0.253943,2.055091,2.800178
3878.436000000,0.319962,0.721023,-0.524370,-1.299249,0.481745,2.055151,2.596479
3878.467000000,0.319841,0.721428,-0.523918,-1.299294,0.256638,2.054599,2.800156
3878.470000000,0.319962,0.721029,-0.524375,-1.299249,0.481746,2.055150,2.596478
3878.500000000,0.319960,0.721025,-0.524374,-1.299249,0.481746,2.055149,2.596478
3878.502000000,0.320468,0.721952,-0.524431,-1.299627,0.320746,2.055262,2.740421
3878.535000000,0.320181,0.721835,-0.523979,-1.299503,0.367518,2.054873,2.702526
3878.537000000,0.319965,0.721032,-0.524380,-1.299244,0.481748,2.055153,2.596485
3878.570000000,0.320012,0.721044,-0.524327,-1.299256,0.344770,2.054973,2.715734
3878.572000000,0.319960,0.721029,-0.524372,-1.299257,0.481746,2.055149,2.596481
3878.604000000,0.320059,0.721264,-0.524313,-1.299277,0.383074,2.055059,2.684046
3878.607000000,0.319962,0.721030,-0.524380,-1.299252,0.481746,2.055152,2.596485
3878.638000000,0.319980,0.721205,-0.524207,-1.299255,0.408977,2.054985,2.666191
3878.641000000,0.319968,0.721029,-0.524373,-1.299244,0.481746,2.055151,2.596484
3878.672000000,0.319879,0.721038,-0.524200,-1.299195,0.424522,2.054969,2.657587
3878.676000000,0.319962,0.721030,-0.524375,-1.299246,0.481746,2.055152,2.596475
3878.706000000,0.319805,0.720880,-0.524258,-1.299145,0.434144,2.054980,2.654614
3878.710000000,0.319960,0.721026,-0.524377,-1.299246,0.481748,2.055149,2.596482
3878.740000000,0.319755,0.720786,-0.524311,-1.299105,0.440191,2.055007,2.655180
3878.744000000,0.319968,0.721026,-0.524375,-1.299252,0.481746,2.055149,2.596486
3878.774000000,0.319713,0.720739,-0.524325,-1.299090,0.444078,2.055023,2.657274
3878.778000000,0.319960,0.721030,-0.524375,-1.299241,0.481747,2.055150,2.596482
3878.808000000,0.319721,0.720741,-0.524355,-1.299107,0.446659,2.055039,2.659840
3878.813000000,0.319965,0.721029,-0.524370,-1.299246,0.481745,2.055150,2.596484
3878.841000000,0.319732,0.720787,-0.524347,-1.299116,0.448189,2.055046,2.662692
3878.847000000,0.319968,0.721030,-0.524375,-1.299249,0.481747,2.055150,2.596480
3878.876000000,0.319744,0.720838,-0.524312,-1.299137,0.449203,2.055045,2.665371
3878.877000000,0.319956,0.721025,-0.524376,-1.299254,0.481746,2.055150,2.596484
3878.910000000,0.319787,0.720893,-0.524310,-1.299169,0.449834,2.055047,2.667920
3878.915000000,0.319968,0.721025,-0.524372,-1.299252,0.481746,2.055149,2.596483
3878.945000000,0.320011,0.720987,-0.524511,-1.299260,0.450843,2.055223,2.668659
3878.949000000,0.319968,0.721030,-0.524372,-1.299249,0.481747,2.055151,2.596480
3878.979000000,0.320046,0.721020,-0.524506,-1.299289,0.451098,2.055216,2.670689
3878.983000000,0.319960,0.721027,-0.524375,-1.299249,0.481747,2.055150,2.596481
3879.013000000,0.320070,0.721062,-0.524499,-1.299291,0.451283,2.055227,2.672452
3879.017000000,0.319960,0.721030,-0.524372,-1.299250,0.481747,2.055151,2.596484
3879.046000000,0.319872,0.721038,-0.524245,-1.299216,0.450706,2.055039,2.675629
3879.051000000,0.319968,0.721024,-0.524373,-1.299246,0.481748,2.055150,2.596485
3879.080000000,0.319866,0.721042,-0.524224,-1.299215,0.450764,2.055036,2.676973
3879.085000000,0.319958,0.721027,-0.524377,-1.299246,0.481747,2.055151,2.596479
3879.115000000,0.320090,0.721086,-0.524486,-1.299297,0.451460,2.055228,2.676505
3879.118000000,0.319962,0.721030,-0.524372,-1.299246,0.481748,2.055151,2.596481
3879.148000000,0.319880,0.721043,-0.524243,-1.299215,0.450809,2.055041,2.679123
3879.152000000,0.319964,0.721025,-0.524378,-1.299244,0.481747,2.055149,2.596486
3879.183000000,0.320081,0.721064,-0.524485,-1.299299,0.451451,2.055219,2.678343
3879.186000000,0.319960,0.721026,-0.524376,-1.299246,0.481746,2.055149,2.596482
3879.218000000,0.319861,0.721028,-0.524234,-1.299207,0.450830,2.055039,2.680708
3879.220000000,0.319962,0.721030,-0.524372,-1.299249,0.481746,2.055150,2.596482
3879.252000000,0.319869,0.721019,-0.524255,-1.299214,0.450840,2.055044,2.681307
3879.253000000,0.319963,0.721024,-0.524372,-1.299249,0.481747,2.055152,2.596475
3879.287000000,0.320061,0.721057,-0.524481,-1.299282,0.451450,2.055227,2.680208
3879.288000000,0.319965,0.721029,-0.524367,-1.299246,0.481745,2.055149,2.596477
3879.321000000,0.319962,0.721032,-0.524373,-1.299246,0.481746,2.055147,2.596482
3879.321000000,0.320069,0.721047,-0.524495,-1.299294,0.451457,2.055223,2.680637
3879.356000000,0.319960,0.721026,-0.524369,-1.299246,0.481746,2.055151,2.596484
3879.356000000,0.319812,0.720954,-0.524235,-1.299187,0.445829,2.055009,2.686373
3879.385000000,0.319965,0.721030,-0.524370,-1.299246,0.481745,2.055152,2.596482
3879.390000000,0.319794,0.720888,-0.524283,-1.299166,0.436026,2.055014,2.694559
3879.420000000,0.319965,0.721031,-0.524376,-1.299252,0.481746,2.055149,2.596481
3879.425000000,0.319943,0.720897,-0.524475,-1.299213,0.426874,2.055171,2.701863
3879.456000000,0.319962,0.721027,-0.524376,-1.299246,0.481747,2.055150,2.596477
3879.459000000,0.319958,0.720880,-0.524518,-1.299227,0.417358,2.055185,2.711392
3879.490000000,0.319962,0.721032,-0.524370,-1.299249,0.481748,2.055150,2.596487
3879.493000000,0.319989,0.720892,-0.524570,-1.299232,0.407770,2.055229,2.721865
3879.524000000,0.319965,0.721027,-0.524370,-1.299246,0.481746,2.055153,2.596485
3879.527000000,0.320006,0.720888,-0.524596,-1.299239,0.397952,2.055256,2.733459
3879.558000000,0.319960,0.721027,-0.524372,-1.299252,0.481746,2.055150,2.596478
3879.561000000,0.320048,0.720887,-0.524647,-1.299263,0.388112,2.055287,2.746120
3879.591000000,0.319965,0.721025,-0.524374,-1.299249,0.481745,2.055147,2.596484
3879.596000000,0.319859,0.720863,-0.524427,-1.299176,0.377201,2.055087,2.762070
3879.626000000,0.319965,0.721030,-0.524370,-1.299246,0.481745,2.055151,2.596480
3879.630000000,0.319850,0.720854,-0.524407,-1.299169,0.366809,2.055051,2.777478
3879.660000000,0.319962,0.721027,-0.524378,-1.299249,0.481747,2.055151,2.596486
3879.664000000,0.319820,0.720857,-0.524361,-1.299145,0.356288,2.054999,2.794256
3879.694000000,0.319968,0.721025,-0.524375,-1.299254,0.481746,2.055150,2.596487
3879.698000000,0.319776,0.720849,-0.524302,-1.299123,0.345635,2.054944,2.812479
3879.727000000,0.319962,0.721032,-0.524377,-1.299244,0.481747,2.055149,2.596484
3879.733000000,0.319971,0.720887,-0.524529,-1.299205,0.335274,2.055172,2.831127
3879.763000000,0.319962,0.721025,-0.524373,-1.299249,0.481747,2.055150,2.596485
3879.767000000,0.319985,0.720886,-0.524556,-1.299215,0.324467,2.055210,2.852472
3879.797000000,0.319960,0.721025,-0.524373,-1.299244,0.481747,2.055149,2.596481
3879.801000000,0.320104,0.721408,-0.524307,-1.299375,0.364889,2.055119,2.791440
3879.832000000,0.319965,0.721027,-0.524374,-1.299252,0.481746,2.055151,2.596487
3879.835000000,0.320120,0.721533,-0.524109,-1.299426,0.396761,2.054995,2.737102
3879.866000000,0.319962,0.721027,-0.524370,-1.299244,0.481746,2.055152,2.596475
3879.869000000,0.320062,0.721421,-0.524070,-1.299366,0.416795,2.054952,2.693868
3879.899000000,0.319965,0.721030,-0.524370,-1.299252,0.481745,2.055150,2.596484
3879.903000000,0.319958,0.721212,-0.524098,-1.299276,0.429222,2.054950,2.658206
3879.934000000,0.319965,0.721032,-0.524374,-1.299252,0.481747,2.055150,2.596485
3879.938000000,0.319964,0.720900,-0.524433,-1.299195,0.417104,2.055116,2.665779
3879.968000000,0.319965,0.721027,-0.524372,-1.299249,0.481746,2.055151,2.596482
3879.972000000,0.319890,0.720809,-0.524439,-1.299153,0.410829,2.055091,2.669965
3880.001000000,0.319965,0.721030,-0.524372,-1.299252,0.481747,2.055150,2.596484
3880.006000000,0.319912,0.720781,-0.524526,-1.299172,0.402432,2.055135,2.676872
3880.036000000,0.319965,0.721027,-0.524369,-1.299252,0.481746,2.055151,2.596486
3880.040000000,0.319931,0.720795,-0.524562,-1.299171,0.394508,2.055165,2.684628
3880.068000000,0.319962,0.721030,-0.524372,-1.299246,0.481747,2.055151,2.596474
3880.074000000,0.319944,0.720792,-0.524580,-1.299179,0.386287,2.055185,2.693844
3880.103000000,0.319962,0.721030,-0.524375,-1.299246,0.481747,2.055150,2.596481
3880.109000000,0.319771,0.720764,-0.524383,-1.299104,0.377069,2.054995,2.706442
3880.138000000,0.319962,0.721030,-0.524377,-1.299249,0.481748,2.055151,2.596478
3880.143000000,0.319771,0.720764,-0.524375,-1.299102,0.368552,2.054994,2.718587
3880.172000000,0.319962,0.721025,-0.524378,-1.299249,0.481746,2.055150,2.596479
3880.177000000,0.319751,0.720755,-0.524344,-1.299091,0.359752,2.054950,2.732354
3880.205000000,0.319968,0.721032,-0.524368,-1.299249,0.481746,2.055151,2.596482
3880.211000000,0.319723,0.720760,-0.524306,-1.299070,0.350847,2.054909,2.747669
3880.240000000,0.319963,0.721027,-0.524377,-1.299246,0.481747,2.055152,2.596479
3880.245000000,0.319683,0.720752,-0.524255,-1.299054,0.341856,2.054864,2.764564
3880.274000000,0.319962,0.721029,-0.524375,-1.299246,0.481746,2.055149,2.596483
3880.279000000,0.319665,0.720745,-0.524238,-1.299046,0.332794,2.054826,2.783099
3880.308000000,0.319962,0.721027,-0.524375,-1.299241,0.481746,2.055152,2.596483
3880.312000000,0.319853,0.720774,-0.524452,-1.299133,0.324512,2.055048,2.800723
3880.341000000,0.319957,0.721032,-0.524370,-1.299246,0.481747,2.055150,2.596477
3880.347000000,0.319616,0.720745,-0.524179,-1.299021,0.314426,2.054761,2.823695
3880.375000000,0.319968,0.721032,-0.524380,-1.299249,0.481746,2.055150,2.596482
3880.381000000,0.319637,0.720742,-0.524210,-1.299035,0.305275,2.054769,2.844657
3880.410000000,0.319960,0.721026,-0.524370,-1.299252,0.481747,2.055150,2.596481
3880.415000000,0.319600,0.720745,-0.524157,-1.299006,0.295743,2.054704,2.867234
3880.444000000,0.319960,0.721027,-0.524372,-1.299252,0.481747,2.055150,2.596481
3880.449000000,0.319561,0.720738,-0.524105,-1.298989,0.286201,2.054650,2.890467
3880.478000000,0.319965,0.721030,-0.524370,-1.299246,0.481746,2.055151,2.596484
3880.483000000,0.319686,0.720803,-0.524212,-1.299067,0.282108,2.054790,2.897305
3880.511000000,0.319960,0.721024,-0.524375,-1.299252,0.481748,2.055150,2.596475
3880.517000000,0.319683,0.720857,-0.524169,-1.299068,0.280242,2.054758,2.897302
3880.546000000,0.319962,0.721027,-0.524373,-1.299252,0.481747,2.055150,2.596483
3880.551000000,0.319695,0.720880,-0.524164,-1.299080,0.278587,2.054766,2.897300
3880.580000000,0.319962,0.721027,-0.524372,-1.299254,0.481747,2.055152,2.596479
3880.586000000,0.319691,0.720897,-0.524148,-1.299081,0.277344,2.054753,2.897376
3880.614000000,0.319965,0.721025,-0.524372,-1.299246,0.481747,2.055149,2.596484
3880.619000000,0.319712,0.720913,-0.524165,-1.299087,0.276483,2.054764,2.897308
3880.648000000,0.319962,0.721027,-0.524372,-1.299249,0.481747,2.055151,2.596478
3880.654000000,0.319710,0.720914,-0.524156,-1.299096,0.275732,2.054760,2.897300
3880.680000000,0.319962,0.721032,-0.524368,-1.299249,0.481746,2.055152,2.596477
3880.688000000,0.319716,0.720930,-0.524158,-1.299090,0.275214,2.054761,2.897304
3880.712000000,0.319965,0.721024,-0.524375,-1.299249,0.481746,2.055150,2.596484
3880.723000000,0.319724,0.720927,-0.524164,-1.299101,0.274817,2.054765,2.897302
3880.746000000,0.319962,0.721027,-0.524374,-1.299246,0.481746,2.055152,2.596480
3880.757000000,0.319800,0.720910,-0.524260,-1.299130,0.271227,2.054893,2.894304
3880.781000000,0.319965,0.721027,-0.524374,-1.299252,0.481745,2.055153,2.596481
3880.791000000,0.319801,0.720850,-0.524311,-1.299114,0.262739,2.054938,2.893428
3880.815000000,0.319962,0.721029,-0.524374,-1.299249,0.481745,2.055150,2.596480
3880.826000000,0.319604,0.720795,-0.524110,-1.299008,0.253204,2.054657,2.897284
3880.850000000,0.319962,0.721026,-0.524377,-1.299246,0.481746,2.055150,2.596483
3880.861000000,0.319811,0.720814,-0.524339,-1.299113,0.245675,2.054948,2.896439
3880.884000000,0.319965,0.721032,-0.524369,-1.299246,0.481746,2.055147,2.596477
3880.895000000,0.319834,0.720824,-0.524377,-1.299117,0.237389,2.054988,2.896381
3880.919000000,0.319965,0.721019,-0.524370,-1.299246,0.481747,2.055150,2.596477
3880.929000000,0.319853,0.720818,-0.524404,-1.299129,0.228763,2.055035,2.896020
3880.953000000,0.319958,0.721030,-0.524374,-1.299249,0.481746,2.055150,2.596483
3880.963000000,0.319899,0.720817,-0.524457,-1.299155,0.220233,2.055087,2.896462
3880.987000000,0.319960,0.721029,-0.524373,-1.299252,0.481748,2.055150,2.596478
3880.996000000,0.319697,0.720787,-0.524224,-1.299054,0.210886,2.054786,2.898417
3881.021000000,0.319960,0.721032,-0.524370,-1.299246,0.481747,2.055150,2.596480
3881.031000000,0.319919,0.720840,-0.524462,-1.299158,0.203537,2.055099,2.896438
3881.055000000,0.319962,0.721029,-0.524375,-1.299252,0.481746,2.055151,2.596484
3881.065000000,0.319942,0.720824,-0.524492,-1.299179,0.194341,2.055133,2.894745
3881.089000000,0.319968,0.721026,-0.524373,-1.299252,0.481747,2.055149,2.596482
3881.099000000,0.319983,0.720823,-0.524560,-1.299183,0.183363,2.055203,2.897333
3881.123000000,0.319965,0.721027,-0.524372,-1.299248,0.481747,2.055149,2.596486
3881.133000000,0.320008,0.720818,-0.524584,-1.299199,0.173474,2.055255,2.890389
3881.157000000,0.319959,0.721028,-0.524374,-1.299249,0.481748,2.055149,2.596485
3881.166000000,0.319800,0.720778,-0.524343,-1.299084,0.161605,2.054931,2.890560
3881.191000000,0.319968,0.721024,-0.524370,-1.299246,0.481745,2.055150,2.596484
3881.201000000,0.320029,0.720810,-0.524604,-1.299187,0.149981,2.055259,2.891951
3881.225000000,0.319967,0.721027,-0.524368,-1.299249,0.481746,2.055152,2.596478
3881.235000000,0.320337,0.721947,-0.524469,-1.299595,0.241287,2.055242,2.790369
3881.259000000,0.319960,0.721027,-0.524372,-1.299246,0.481748,2.055150,2.596484
3881.269000000,0.320282,0.722162,-0.524001,-1.299664,0.312789,2.054951,2.729325
3881.293000000,0.319965,0.721030,-0.524372,-1.299249,0.481744,2.055151,2.596475
3881.303000000,0.320199,0.721892,-0.523878,-1.299546,0.364375,2.054832,2.686229
3881.328000000,0.319962,0.721030,-0.524374,-1.299249,0.481747,2.055150,2.596483
3881.338000000,0.320259,0.721439,-0.524199,-1.299411,0.398266,2.055037,2.657772
3881.362000000,0.319960,0.721027,-0.524378,-1.299249,0.481747,2.055149,2.596482
3881.372000000,0.320100,0.720964,-0.524360,-1.299230,0.417644,2.055065,2.643244
3881.396000000,0.319965,0.721027,-0.524372,-1.299244,0.481746,2.055149,2.596476
3881.406000000,0.319959,0.720645,-0.524512,-1.299093,0.429646,2.055123,2.635652
3881.429000000,0.319962,0.721030,-0.524374,-1.299249,0.481746,2.055150,2.596483
3881.440000000,0.319851,0.720473,-0.524604,-1.299028,0.437476,2.055170,2.632357
3881.463000000,0.319960,0.721027,-0.524370,-1.299249,0.481744,2.055149,2.596485
3881.474000000,0.319812,0.720431,-0.524670,-1.299037,0.442326,2.055201,2.632326
3881.496000000,0.319965,0.721030,-0.524375,-1.299244,0.481746,2.055150,2.596475
3881.508000000,0.319813,0.720508,-0.524688,-1.299063,0.445595,2.055233,2.634410
3881.530000000,0.319962,0.721024,-0.524373,-1.299249,0.481745,2.055150,2.596485
3881.542000000,0.319828,0.720617,-0.524648,-1.299109,0.447627,2.055232,2.638255
3881.565000000,0.319960,0.721030,-0.524375,-1.299246,0.481746,2.055151,2.596483
3881.577000000,0.319682,0.720718,-0.524380,-1.299093,0.448349,2.055059,2.645237
3881.599000000,0.319965,0.721030,-0.524372,-1.299249,0.481748,2.055153,2.596477
3881.611000000,0.319725,0.720837,-0.524318,-1.299140,0.449218,2.055050,2.650796
3881.633000000,0.319962,0.721030,-0.524378,-1.299254,0.481745,2.055151,2.596479
3881.645000000,0.319790,0.720932,-0.524297,-1.299188,0.449795,2.055046,2.655703
3881.667000000,0.319957,0.721030,-0.524374,-1.299249,0.481745,2.055150,2.596480
3881.679000000,0.319779,0.720975,-0.524203,-1.299186,0.448331,2.054976,2.661365
3881.700000000,0.319965,0.721027,-0.524378,-1.299246,0.481748,2.055149,2.596483
3881.713000000,0.319734,0.720922,-0.524189,-1.299157,0.438237,2.054956,2.673702
3881.729000000,0.319965,0.721030,-0.524367,-1.299249,0.481747,2.055150,2.596487
3881.748000000,0.319800,0.720982,-0.524230,-1.299204,0.436354,2.055001,2.673581
3881.765000000,0.319965,0.721025,-0.524375,-1.299254,0.481747,2.055147,2.596477
3881.781000000,0.319855,0.721092,-0.524185,-1.299236,0.441427,2.054999,2.655772
3881.800000000,0.319965,0.721030,-0.524373,-1.299246,0.481747,2.055151,2.596478
3881.814000000,0.320029,0.721126,-0.524362,-1.299284,0.442612,2.055115,2.649210
3881.834000000,0.319962,0.721029,-0.524375,-1.299252,0.481748,2.055151,2.596486
3881.847000000,0.319980,0.721027,-0.524401,-1.299251,0.432331,2.055130,2.664939
3881.869000000,0.319960,0.721027,-0.524370,-1.299249,0.481746,2.055150,2.596479
3881.881000000,0.320003,0.721001,-0.524463,-1.299263,0.424244,2.055153,2.678721
3881.902000000,0.319968,0.721025,-0.524370,-1.299249,0.481747,2.055150,2.596474
3881.919000000,0.320028,0.721006,-0.524512,-1.299263,0.415544,2.055192,2.693735
3881.935000000,0.319965,0.721030,-0.524377,-1.299246,0.481746,2.055150,2.596484
3881.951000000,0.319844,0.720959,-0.524306,-1.299195,0.405879,2.055006,2.711748
3881.968000000,0.319962,0.721022,-0.524372,-1.299249,0.481746,2.055150,2.596480
3881.985000000,0.319844,0.720966,-0.524299,-1.299183,0.396856,2.054992,2.728739
3882.003000000,0.319968,0.721029,-0.524377,-1.299246,0.481746,2.055151,2.596484
3882.020000000,0.320024,0.720986,-0.524500,-1.299263,0.387917,2.055168,2.745771
3882.037000000,0.319958,0.721027,-0.524373,-1.299244,0.481746,2.055150,2.596487
3882.054000000,0.320033,0.721000,-0.524519,-1.299260,0.378657,2.055188,2.764917
3882.071000000,0.319965,0.721030,-0.524379,-1.299252,0.481748,2.055151,2.596486
3882.087000000,0.319848,0.720966,-0.524312,-1.299181,0.368900,2.054972,2.786261
3882.105000000,0.319962,0.721030,-0.524375,-1.299252,0.481745,2.055150,2.596477
3882.122000000,0.320055,0.720992,-0.524543,-1.299275,0.359691,2.055200,2.806785
3882.140000000,0.319962,0.721030,-0.524372,-1.299249,0.481747,2.055151,2.596481
3882.155000000,0.319850,0.720962,-0.524310,-1.299182,0.349732,2.054950,2.830524
3882.174000000,0.319965,0.721026,-0.524375,-1.299252,0.481746,2.055154,2.596474
3882.190000000,0.320048,0.721000,-0.524529,-1.299265,0.340318,2.055198,2.853110
3882.207000000,0.319962,0.721025,-0.524372,-1.299249,0.481747,2.055151,2.596482
3882.224000000,0.320069,0.720994,-0.524560,-1.299284,0.330495,2.055215,2.877541
3882.241000000,0.319965,0.721026,-0.524367,-1.299252,0.481746,2.055151,2.596480
3882.258000000,0.320064,0.721029,-0.524559,-1.299276,0.321853,2.055179,2.897497
3882.276000000,0.319965,0.721030,-0.524372,-1.299244,0.481745,2.055152,2.596484
3882.292000000,0.320089,0.721085,-0.524514,-1.299300,0.319821,2.055170,2.897407
3882.310000000,0.319960,0.721027,-0.524373,-1.299246,0.481747,2.055150,2.596484
3882.327000000,0.320105,0.721129,-0.524499,-1.299310,0.317757,2.055165,2.897332
3882.344000000,0.319965,0.721027,-0.524372,-1.299249,0.481746,2.055150,2.596479
3882.361000000,0.320101,0.721151,-0.524466,-1.299314,0.316255,2.055158,2.897305
3882.378000000,0.319962,0.721030,-0.524375,-1.299241,0.481748,2.055150,2.596482
3882.395000000,0.320123,0.721161,-0.524477,-1.299327,0.315161,2.055160,2.897300
3882.413000000,0.319964,0.721030,-0.524372,-1.299246,0.481749,2.055150,2.596477
3882.429000000,0.320124,0.721183,-0.524466,-1.299323,0.314274,2.055158,2.897319
3882.446000000,0.319965,0.721027,-0.524378,-1.299252,0.481747,2.055152,2.596483
3882.463000000,0.320124,0.721190,-0.524454,-1.299327,0.313622,2.055157,2.897300
3882.473000000,0.319962,0.721027,-0.524369,-1.299252,0.481746,2.055151,2.596484
3882.498000000,0.320135,0.721202,-0.524463,-1.299327,0.313126,2.055159,2.897303
3882.507000000,0.319960,0.721025,-0.524374,-1.299249,0.481749,2.055149,2.596479
3882.532000000,0.320222,0.721198,-0.524579,-1.299368,0.310330,2.055305,2.896398
3882.541000000,0.319965,0.721027,-0.524373,-1.299249,0.481746,2.055151,2.596483
3882.566000000,0.320237,0.721152,-0.524614,-1.299374,0.305339,2.055323,2.896178
3882.574000000,0.319966,0.721030,-0.524375,-1.299246,0.481746,2.055151,2.596485
3882.600000000,0.320274,0.721161,-0.524694,-1.299376,0.299023,2.055399,2.896301
3882.608000000,0.319960,0.721030,-0.524373,-1.299246,0.481745,2.055151,2.596483
3882.634000000,0.320344,0.721695,-0.524359,-1.299522,0.349702,2.055223,2.808932
3882.642000000,0.319962,0.721027,-0.524372,-1.299246,0.481748,2.055152,2.596477
3882.668000000,0.320286,0.721757,-0.524099,-1.299533,0.389689,2.055030,2.736567
3882.675000000,0.319962,0.721032,-0.524375,-1.299241,0.481746,2.055152,2.596485
3882.702000000,0.320149,0.721533,-0.524052,-1.299414,0.413717,2.054955,2.685843
3882.710000000,0.319963,0.721027,-0.524370,-1.299246,0.481746,2.055150,2.596483
3882.737000000,0.320211,0.721249,-0.524377,-1.299366,0.429105,2.055135,2.642976
3882.744000000,0.319962,0.721026,-0.524375,-1.299246,0.481746,2.055149,2.596478
3882.771000000,0.320080,0.720998,-0.524482,-1.299249,0.437756,2.055165,2.618540
3882.778000000,0.319970,0.721027,-0.524373,-1.299249,0.481748,2.055151,2.596485
3882.805000000,0.319965,0.720812,-0.524541,-1.299176,0.443065,2.055176,2.598077
3882.812000000,0.319960,0.721032,-0.524378,-1.299249,0.481746,2.055150,2.596478
3882.840000000,0.319710,0.720689,-0.524365,-1.299074,0.445797,2.055046,2.581793
3882.846000000,0.319962,0.721025,-0.524372,-1.299244,0.481745,2.055150,2.596486
3882.875000000,0.319898,0.720712,-0.524632,-1.299157,0.448483,2.055213,2.566260
3882.881000000,0.319965,0.721027,-0.524375,-1.299252,0.481745,2.055150,2.596484
3882.910000000,0.319688,0.720726,-0.524363,-1.299093,0.449076,2.055075,2.557294
3882.915000000,0.319960,0.721032,-0.524373,-1.299249,0.481749,2.055149,2.596486
3882.944000000,0.319728,0.720791,-0.524359,-1.299131,0.449808,2.055080,2.549223
3882.949000000,0.319962,0.721025,-0.524372,-1.299246,0.481747,2.055150,2.596483
3882.978000000,0.319764,0.720873,-0.524327,-1.299153,0.450221,2.055077,2.542995
3882.983000000,0.319968,0.721028,-0.524373,-1.299249,0.481747,2.055151,2.596481
3883.012000000,0.319788,0.720936,-0.524279,-1.299177,0.450462,2.055071,2.538170
3883.016000000,0.319962,0.721027,-0.524369,-1.299249,0.481747,2.055151,2.596488
3883.046000000,0.319834,0.720984,-0.524273,-1.299205,0.450600,2.055070,2.534633
3883.051000000,0.319965,0.721027,-0.524373,-1.299249,0.481744,2.055152,2.596478
3883.080000000,0.319858,0.721027,-0.524251,-1.299211,0.450650,2.055067,2.532347
3883.085000000,0.319965,0.721027,-0.524372,-1.299244,0.481747,2.055151,2.596481
3883.114000000,0.319863,0.721044,-0.524222,-1.299215,0.450679,2.055062,2.531232
3883.118000000,0.319960,0.721024,-0.524378,-1.299246,0.481746,2.055151,2.596480
3883.148000000,0.319885,0.721049,-0.524236,-1.299225,0.450695,2.055065,2.531280
3883.152000000,0.319965,0.721025,-0.524370,-1.299246,0.481747,2.055151,2.596477
3883.182000000,0.319887,0.721055,-0.524233,-1.299218,0.450675,2.055065,2.532471
3883.185000000,0.319959,0.721030,-0.524373,-1.299252,0.481746,2.055149,2.596478
3883.217000000,0.320092,0.721077,-0.524481,-1.299298,0.451296,2.055199,2.533189
3883.220000000,0.319962,0.721030,-0.524372,-1.299246,0.481747,2.055152,2.596488
3883.251000000,0.320092,0.721084,-0.524492,-1.299288,0.451322,2.055213,2.536536
3883.254000000,0.319968,0.721027,-0.524374,-1.299246,0.481746,2.055150,2.596476
3883.284000000,0.319876,0.721035,-0.524245,-1.299211,0.450640,2.055067,2.542455
3883.287000000,0.319965,0.721027,-0.524374,-1.299246,0.481747,2.055149,2.596479
3883.319000000,0.320079,0.721058,-0.524495,-1.299291,0.451263,2.055205,2.546361
3883.322000000,0.319965,0.721025,-0.524378,-1.299252,0.481746,2.055150,2.596482
3883.352000000,0.319869,0.721017,-0.524256,-1.299214,0.450636,2.055067,2.554152
3883.356000000,0.319968,0.721019,-0.524372,-1.299249,0.481747,2.055151,2.596475
3883.386000000,0.319867,0.721020,-0.524256,-1.299209,0.450617,2.055067,2.561431
3883.390000000,0.319965,0.721027,-0.524373,-1.299246,0.481746,2.055150,2.596484
3883.420000000,0.319853,0.721015,-0.524240,-1.299205,0.450619,2.055063,2.569580
3883.424000000,0.319960,0.721029,-0.524376,-1.299249,0.481747,2.055149,2.596486
3883.454000000,0.319865,0.721011,-0.524259,-1.299213,0.450627,2.055065,2.578587
3883.457000000,0.319962,0.721024,-0.524372,-1.299246,0.481746,2.055151,2.596485
3883.488000000,0.319864,0.721019,-0.524257,-1.299207,0.450615,2.055063,2.588421
3883.492000000,0.319968,0.721027,-0.524374,-1.299246,0.481748,2.055152,2.596481
3883.522000000,0.319852,0.721017,-0.524240,-1.299204,0.450625,2.055059,2.599001
3883.525000000,0.319965,0.721035,-0.524370,-1.299249,0.481747,2.055151,2.596482
3883.556000000,0.319865,0.721014,-0.524259,-1.299213,0.450640,2.055060,2.610312
3883.559000000,0.319965,0.721027,-0.524374,-1.299244,0.481747,2.055151,2.596475
3883.591000000,0.320061,0.721058,-0.524484,-1.299280,0.451272,2.055222,2.620423
3883.593000000,0.319965,0.721024,-0.524375,-1.299249,0.481747,2.055151,2.596481
3883.626000000,0.319867,0.721024,-0.524255,-1.299210,0.450670,2.055055,2.632051
3883.627000000,0.319960,0.721027,-0.524374,-1.299246,0.481747,2.055155,2.596484
3883.660000000,0.319855,0.721020,-0.524237,-1.299208,0.450695,2.055051,2.640214
3883.661000000,0.319965,0.721029,-0.524372,-1.299252,0.481747,2.055150,2.596482
3883.695000000,0.320077,0.721064,-0.524500,-1.299290,0.451377,2.055231,2.645648
3883.695000000,0.319962,0.721027,-0.524375,-1.299252,0.481747,2.055149,2.596482
3883.728000000,0.319868,0.721023,-0.524254,-1.299212,0.450722,2.055051,2.652964
3883.729000000,0.319960,0.721022,-0.524373,-1.299244,0.481747,2.055149,2.596487
3883.762000000,0.319854,0.721020,-0.524236,-1.299209,0.450738,2.055046,2.657882
3883.763000000,0.319962,0.721029,-0.524375,-1.299246,0.481746,2.055150,2.596481
3883.797000000,0.320076,0.721063,-0.524500,-1.299289,0.451414,2.055232,2.660485
3883.797000000,0.319957,0.721025,-0.524378,-1.299246,0.481747,2.055150,2.596477
3883.831000000,0.319960,0.721028,-0.524374,-1.299246,0.481746,2.055152,2.596483
3883.832000000,0.319866,0.721015,-0.524257,-1.299215,0.450769,2.055048,2.665721
3883.865000000,0.319977,0.720954,-0.524446,-1.299250,0.443255,2.055150,2.673558
3883.865000000,0.319962,0.721026,-0.524373,-1.299252,0.481746,2.055150,2.596483
3883.898000000,0.319960,0.721024,-0.524378,-1.299252,0.481748,2.055150,2.596483
3883.900000000,0.320060,0.721048,-0.524495,-1.299292,0.446280,2.055226,2.655733
3883.932000000,0.319960,0.721027,-0.524375,-1.299246,0.481747,2.055150,2.596475
3883.934000000,0.320062,0.721077,-0.524462,-1.299298,0.448150,2.055210,2.637517
3883.964000000,0.319965,0.721029,-0.524375,-1.299249,0.481746,2.055151,2.596477
3883.968000000,0.319873,0.721055,-0.524231,-1.299225,0.448791,2.055040,2.622194
3883.998000000,0.319962,0.721027,-0.524375,-1.299246,0.481748,2.055149,2.596483
3884.002000000,0.320084,0.721094,-0.524483,-1.299300,0.450192,2.055213,2.606084
3884.032000000,0.319965,0.721030,-0.524374,-1.299252,0.481749,2.055149,2.596481
3884.035000000,0.320067,0.721078,-0.524470,-1.299289,0.450609,2.055206,2.592658
3884.065000000,0.319962,0.721030,-0.524374,-1.299249,0.481748,2.055152,2.596477
3884.070000000,0.319866,0.721032,-0.524245,-1.299213,0.450269,2.055053,2.581879
3884.099000000,0.319965,0.721027,-0.524373,-1.299252,0.481747,2.055153,2.596479
3884.103000000,0.320074,0.721066,-0.524501,-1.299286,0.451098,2.055216,2.569796
3884.133000000,0.319962,0.721030,-0.524373,-1.299249,0.481746,2.055149,2.596484
3884.138000000,0.319861,0.721011,-0.524257,-1.299215,0.450538,2.055064,2.561739
3884.166000000,0.319959,0.721030,-0.524372,-1.299252,0.481746,2.055152,2.596479
3884.171000000,0.320067,0.721044,-0.524501,-1.299289,0.451207,2.055206,2.552494
3884.202000000,0.319965,0.721032,-0.524372,-1.299246,0.481746,2.055149,2.596478
3884.205000000,0.320060,0.721047,-0.524497,-1.299278,0.450879,2.055198,2.546151
3884.236000000,0.319964,0.721027,-0.524375,-1.299254,0.481746,2.055151,2.596484
3884.239000000,0.320030,0.720961,-0.524556,-1.299256,0.441121,2.055216,2.547876
3884.270000000,0.319960,0.721030,-0.524377,-1.299252,0.481749,2.055150,2.596475
3884.273000000,0.320057,0.720941,-0.524611,-1.299266,0.433647,2.055232,2.549112
3884.304000000,0.319965,0.721027,-0.524372,-1.299244,0.481747,2.055152,2.596483
3884.307000000,0.320082,0.720952,-0.524654,-1.299265,0.425388,2.055264,2.552163
3884.337000000,0.319968,0.721022,-0.524380,-1.299249,0.481746,2.055151,2.596485
3884.341000000,0.320096,0.720950,-0.524671,-1.299271,0.417150,2.055275,2.556473
3884.371000000,0.319962,0.721032,-0.524372,-1.299246,0.481747,2.055149,2.596485
3884.375000000,0.320135,0.720950,-0.524720,-1.299292,0.408864,2.055294,2.562167
3884.406000000,0.319964,0.721027,-0.524373,-1.299249,0.481746,2.055153,2.596475
3884.409000000,0.320167,0.720969,-0.524757,-1.299293,0.400476,2.055326,2.569323
3884.439000000,0.319965,0.721030,-0.524378,-1.299249,0.481746,2.055150,2.596483
3884.443000000,0.320184,0.720969,-0.524775,-1.299300,0.391942,2.055342,2.578002
3884.472000000,0.319962,0.721026,-0.524373,-1.299246,0.481745,2.055152,2.596484
3884.477000000,0.320225,0.720970,-0.524822,-1.299322,0.383438,2.055363,2.588140
3884.506000000,0.319960,0.721024,-0.524372,-1.299249,0.481748,2.055155,2.596484
3884.511000000,0.320258,0.720989,-0.524861,-1.299324,0.374763,2.055399,2.599921
3884.540000000,0.319965,0.721024,-0.524372,-1.299249,0.481746,2.055149,2.596486
3884.546000000,0.320073,0.720946,-0.524643,-1.299257,0.365064,2.055222,2.615397
3884.574000000,0.319962,0.721025,-0.524372,-1.299249,0.481747,2.055151,2.596482
3884.580000000,0.320082,0.720958,-0.524644,-1.299248,0.356101,2.055215,2.630583
3884.607000000,0.319962,0.721023,-0.524374,-1.299246,0.481747,2.055150,2.596480
3884.614000000,0.320040,0.720949,-0.524580,-1.299229,0.346838,2.055168,2.647609
3884.642000000,0.319958,0.721030,-0.524373,-1.299249,0.481746,2.055150,2.596479
3884.648000000,0.320025,0.720943,-0.524563,-1.299222,0.337527,2.055136,2.666362
3884.676000000,0.319968,0.721030,-0.524370,-1.299246,0.481746,2.055153,2.596476
3884.682000000,0.319993,0.720947,-0.524520,-1.299200,0.328117,2.055090,2.686347
3884.709000000,0.319960,0.721032,-0.524377,-1.299249,0.481747,2.055152,2.596477
3884.716000000,0.319952,0.720939,-0.524467,-1.299183,0.318582,2.055044,2.707285
3884.743000000,0.319962,0.721027,-0.524372,-1.299246,0.481746,2.055150,2.596480
3884.751000000,0.320156,0.720979,-0.524708,-1.299267,0.309356,2.055266,2.728218
3884.776000000,0.319962,0.721025,-0.524375,-1.299249,0.481746,2.055150,2.596480
3884.784000000,0.319930,0.720940,-0.524450,-1.299168,0.299306,2.054996,2.751828
3884.811000000,0.319962,0.721027,-0.524375,-1.299246,0.481746,2.055149,2.596481
3884.818000000,0.319918,0.720939,-0.524434,-1.299162,0.289502,2.054980,2.775223
3884.844000000,0.319960,0.721030,-0.524372,-1.299246,0.481748,2.055150,2.596486
3884.853000000,0.320123,0.720978,-0.524668,-1.299250,0.279953,2.055224,2.798512
3884.878000000,0.319960,0.721027,-0.524379,-1.299252,0.481745,2.055150,2.596479
3884.888000000,0.319901,0.720934,-0.524417,-1.299154,0.269020,2.054932,2.825570
3884.911000000,0.319962,0.721026,-0.524372,-1.299246,0.481746,2.055153,2.596479
3884.922000000,0.319893,0.720940,-0.524402,-1.299139,0.258718,2.054900,2.851039
3884.945000000,0.319968,0.721027,-0.524370,-1.299246,0.481746,2.055150,2.596483
3884.957000000,0.320089,0.720960,-0.524623,-1.299241,0.248619,2.055165,2.876652
3884.979000000,0.319968,0.721027,-0.524375,-1.299244,0.481748,2.055147,2.596479
3884.991000000,0.320065,0.720993,-0.524606,-1.299226,0.239466,2.055101,2.897655
3885.013000000,0.319962,0.721026,-0.524372,-1.299252,0.481746,2.055151,2.596486
3885.025000000,0.320095,0.721055,-0.524579,-1.299256,0.237322,2.055104,2.897500
3885.046000000,0.319965,0.721028,-0.524372,-1.299246,0.481747,2.055151,2.596482
3885.059000000,0.320117,0.721096,-0.524580,-1.299277,0.235157,2.055105,2.897366
3885.081000000,0.319957,0.721030,-0.524378,-1.299246,0.481745,2.055151,2.596485
3885.093000000,0.320102,0.721122,-0.524539,-1.299272,0.233561,2.055083,2.897319
3885.115000000,0.319965,0.721025,-0.524373,-1.299249,0.481748,2.055149,2.596478
3885.127000000,0.320114,0.721141,-0.524534,-1.299279,0.232362,2.055090,2.897304
3885.148000000,0.319965,0.721022,-0.524375,-1.299249,0.481750,2.055150,2.596478
3885.161000000,0.320123,0.721146,-0.524536,-1.299289,0.231471,2.055088,2.897300
3885.182000000,0.319965,0.721030,-0.524379,-1.299249,0.481748,2.055151,2.596478
3885.195000000,0.320134,0.721171,-0.524542,-1.299286,0.230806,2.055093,2.897303
3885.217000000,0.319964,0.721024,-0.524373,-1.299252,0.481745,2.055149,2.596474
3885.229000000,0.320202,0.721141,-0.524618,-1.299320,0.227362,2.055222,2.895603
3885.251000000,0.319965,0.721027,-0.524378,-1.299252,0.481746,2.055151,2.596484
3885.263000000,0.320230,0.721077,-0.524704,-1.299323,0.218303,2.055284,2.897337
3885.284000000,0.319960,0.721024,-0.524375,-1.299249,0.481746,2.055151,2.596483
3885.297000000,0.320278,0.721097,-0.524773,-1.299341,0.212613,2.055350,2.897206
3885.319000000,0.319963,0.721029,-0.524375,-1.299249,0.481748,2.055151,2.596477
3885.332000000,0.320060,0.721045,-0.524515,-1.299236,0.205125,2.055033,2.898280
3885.352000000,0.319965,0.721027,-0.524375,-1.299249,0.481745,2.055149,2.596480
3885.366000000,0.320061,0.721053,-0.524520,-1.299216,0.197269,2.055012,2.898004
3885.386000000,0.319960,0.721027,-0.524373,-1.299246,0.481748,2.055150,2.596479
3885.401000000,0.319986,0.721021,-0.524414,-1.299177,0.188880,2.054906,2.897620
3885.419000000,0.319960,0.721031,-0.524373,-1.299249,0.481747,2.055151,2.596481
3885.433000000,0.320678,0.722030,-0.524757,-1.299727,0.269411,2.055538,2.793858
3885.452000000,0.319960,0.721029,-0.524377,-1.299246,0.481748,2.055149,2.596481
3885.468000000,0.320596,0.722169,-0.524334,-1.299765,0.332657,2.055224,2.728187
3885.485000000,0.319962,0.721027,-0.524374,-1.299246,0.481747,2.055151,2.596478
3885.502000000,0.320465,0.721901,-0.524215,-1.299619,0.377684,2.055095,2.681505
3885.520000000,0.319960,0.721026,-0.524373,-1.299249,0.481747,2.055149,2.596481
3885.536000000,0.320278,0.721434,-0.524265,-1.299415,0.405966,2.055067,2.649894
3885.553000000,0.319964,0.721030,-0.524372,-1.299249,0.481748,2.055152,2.596479
3885.570000000,0.320110,0.720988,-0.524413,-1.299248,0.423073,2.055091,2.628514
3885.587000000,0.319965,0.721027,-0.524373,-1.299246,0.481748,2.055150,2.596482
3885.605000000,0.319967,0.720690,-0.524548,-1.299119,0.433539,2.055143,2.613633
3885.622000000,0.319962,0.721030,-0.524372,-1.299246,0.481747,2.055149,2.596482
3885.638000000,0.319857,0.720524,-0.524621,-1.299056,0.440118,2.055177,2.602992
3885.656000000,0.319962,0.721024,-0.524372,-1.299246,0.481746,2.055149,2.596487
3885.672000000,0.319822,0.720483,-0.524677,-1.299062,0.444163,2.055202,2.595484
3885.690000000,0.319962,0.721025,-0.524378,-1.299246,0.481745,2.055150,2.596486
3885.706000000,0.319826,0.720554,-0.524688,-1.299084,0.446837,2.055230,2.590162
3885.723000000,0.319965,0.721027,-0.524372,-1.299254,0.481747,2.055151,2.596479
3885.739000000,0.319644,0.720616,-0.524415,-1.299052,0.447853,2.055071,2.588392
3885.757000000,0.319962,0.721027,-0.524369,-1.299246,0.481745,2.055151,2.596485
3885.773000000,0.319681,0.720733,-0.524359,-1.299101,0.448912,2.055068,2.586407
3885.790000000,0.319962,0.721024,-0.524374,-1.299246,0.481747,2.055149,2.596484
3885.808000000,0.319959,0.720896,-0.524580,-1.299225,0.450266,2.055227,2.584096
3885.825000000,0.319965,0.721029,-0.524372,-1.299254,0.481747,2.055147,2.596477
3885.842000000,0.319994,0.720981,-0.524521,-1.299254,0.450630,2.055213,2.584693
3885.858000000,0.319960,0.721028,-0.524377,-1.299249,0.481747,2.055151,2.596483
3885.876000000,0.319840,0.721013,-0.524259,-1.299209,0.450269,2.055052,2.588049
3885.893000000,0.319962,0.721030,-0.524375,-1.299249,0.481747,2.055150,2.596474
3885.911000000,0.319857,0.721050,-0.524223,-1.299219,0.450434,2.055045,2.590738
3885.927000000,0.319965,0.721032,-0.524378,-1.299252,0.481746,2.055151,2.596477
3885.945000000,0.319886,0.721064,-0.524232,-1.299233,0.450541,2.055047,2.594392
3885.961000000,0.319960,0.721027,-0.524374,-1.299244,0.481746,2.055150,2.596477
3885.979000000,0.319893,0.721076,-0.524228,-1.299227,0.450585,2.055047,2.598974
3885.995000000,0.319962,0.721027,-0.524372,-1.299252,0.481749,2.055149,2.596483
3886.013000000,0.319880,0.721066,-0.524213,-1.299221,0.450625,2.055044,2.604399
3886.029000000,0.319965,0.721027,-0.524373,-1.299244,0.481747,2.055152,2.596482
3886.047000000,0.319888,0.721051,-0.524237,-1.299226,0.450656,2.055049,2.610658
3886.063000000,0.319960,0.721027,-0.524377,-1.299244,0.481747,2.055151,2.596482
3886.081000000,0.319882,0.721046,-0.524241,-1.299214,0.450657,2.055050,2.617724
3886.097000000,0.319965,0.721025,-0.524370,-1.299249,0.481747,2.055152,2.596478
3886.115000000,0.319863,0.721032,-0.524231,-1.299207,0.450673,2.055049,2.625518
3886.131000000,0.319965,0.721030,-0.524374,-1.299254,0.481746,2.055150,2.596479
3886.150000000,0.320080,0.721067,-0.524500,-1.299286,0.451348,2.055228,2.632614
3886.165000000,0.319960,0.721032,-0.524373,-1.299252,0.481746,2.055150,2.596478
3886.183000000,0.319866,0.721020,-0.524255,-1.299209,0.450699,2.055052,2.641884
3886.198000000,0.319960,0.721030,-0.524372,-1.299252,0.481745,2.055150,2.596480
3886.217000000,0.319851,0.721014,-0.524239,-1.299207,0.450721,2.055048,2.648512
3886.233000000,0.319965,0.721027,-0.524372,-1.299249,0.481748,2.055150,2.596482
3886.251000000,0.319861,0.721010,-0.524259,-1.299216,0.450744,2.055050,2.654122
3886.267000000,0.319967,0.721027,-0.524370,-1.299252,0.481748,2.055152,2.596484
3886.285000000,0.319793,0.720962,-0.524195,-1.299179,0.446929,2.054978,2.661872
3886.300000000,0.319965,0.721030,-0.524374,-1.299249,0.481747,2.055149,2.596487
3886.320000000,0.319731,0.720890,-0.524194,-1.299141,0.437057,2.054965,2.674554
3886.335000000,0.319962,0.721030,-0.524372,-1.299249,0.481747,2.055151,2.596479
3886.353000000,0.319696,0.720858,-0.524182,-1.299125,0.428060,2.054931,2.687268
3886.369000000,0.319960,0.721022,-0.524377,-1.299244,0.481745,2.055149,2.596486
3886.388000000,0.319855,0.720883,-0.524377,-1.299180,0.419132,2.055094,2.699700
3886.401000000,0.319960,0.721027,-0.524374,-1.299244,0.481747,2.055151,2.596478
3886.423000000,0.319660,0.720845,-0.524169,-1.299103,0.408920,2.054899,2.716291
3886.435000000,0.319960,0.721030,-0.524372,-1.299252,0.481747,2.055149,2.596480
3886.457000000,0.319635,0.720838,-0.524138,-1.299090,0.399371,2.054874,2.731862
3886.469000000,0.319965,0.721025,-0.524377,-1.299252,0.481747,2.055151,2.596480
3886.491000000,0.319613,0.720828,-0.524112,-1.299081,0.389620,2.054833,2.748520
3886.502000000,0.319962,0.721027,-0.524375,-1.299249,0.481748,2.055150,2.596477
3886.525000000,0.319581,0.720830,-0.524071,-1.299059,0.379728,2.054787,2.766285
3886.536000000,0.319960,0.721027,-0.524372,-1.299246,0.481747,2.055151,2.596482
3886.559000000,0.319538,0.720822,-0.524017,-1.299040,0.369775,2.054737,2.785159
3886.569000000,0.319968,0.721027,-0.524367,-1.299244,0.481747,2.055151,2.596484
3886.594000000,0.319732,0.720860,-0.524244,-1.299119,0.360077,2.054952,2.804214
3886.603000000,0.319965,0.721022,-0.524375,-1.299249,0.481746,2.055151,2.596486
3886.628000000,0.319735,0.720857,-0.524259,-1.299124,0.349908,2.054976,2.825647
3886.637000000,0.319962,0.721030,-0.524376,-1.299246,0.481745,2.055149,2.596478
3886.662000000,0.319777,0.720857,-0.524315,-1.299152,0.339826,2.055017,2.848319
3886.670000000,0.319960,0.721027,-0.524375,-1.299254,0.481747,2.055150,2.596477
3886.696000000,0.319815,0.720875,-0.524364,-1.299162,0.329569,2.055069,2.872461
3886.704000000,0.319962,0.721030,-0.524369,-1.299246,0.481746,2.055150,2.596483
3886.729000000,0.319838,0.720875,-0.524389,-1.299173,0.319094,2.055110,2.897510
3886.738000000,0.319965,0.721027,-0.524373,-1.299244,0.481745,2.055150,2.596483
3886.764000000,0.319852,0.720941,-0.524345,-1.299198,0.316315,2.055045,2.897417
3886.772000000,0.319962,0.721022,-0.524374,-1.299249,0.481746,2.055153,2.596482
3886.791000000,0.319965,0.721032,-0.524376,-1.299249,0.481747,2.055152,2.596483
3886.798000000,0.319844,0.720993,-0.524288,-1.299198,0.313998,2.055030,2.897349
3886.819000000,0.319963,0.721027,-0.524378,-1.299246,0.481748,2.055150,2.596485
3886.832000000,0.319858,0.721017,-0.524270,-1.299206,0.312212,2.055030,2.897311
3886.853000000,0.319960,0.721030,-0.524370,-1.299249,0.481745,2.055149,2.596477
3886.870000000,0.319881,0.721047,-0.524277,-1.299215,0.310892,2.055031,2.897300
3886.886000000,0.319965,0.721030,-0.524373,-1.299252,0.481747,2.055151,2.596486
3886.902000000,0.320256,0.721521,-0.524437,-1.299458,0.348278,2.055305,2.830029
3886.922000000,0.319968,0.721030,-0.524376,-1.299249,0.481745,2.055150,2.596477
3886.933000000,0.320111,0.721671,-0.523990,-1.299455,0.389996,2.054947,2.763423
3886.957000000,0.319965,0.721030,-0.524369,-1.299254,0.481748,2.055151,2.596482
3886.969000000,0.320270,0.721538,-0.524234,-1.299472,0.417144,2.055115,2.705015
3886.978000000,0.319964,0.721027,-0.524376,-1.299249,0.481745,2.055149,2.596486
3887.004000000,0.319932,0.721194,-0.524054,-1.299269,0.431134,2.054894,2.661437
3887.014000000,0.319962,0.721027,-0.524375,-1.299246,0.481746,2.055150,2.596482
3887.038000000,0.319838,0.720958,-0.524183,-1.299167,0.439364,2.054954,2.632001
3887.048000000,0.319960,0.721025,-0.524376,-1.299249,0.481747,2.055149,2.596484
3887.072000000,0.319747,0.720784,-0.524259,-1.299099,0.444241,2.054992,2.607379
3887.076000000,0.319962,0.721030,-0.524370,-1.299246,0.481746,2.055152,2.596481
3887.107000000,0.319921,0.720746,-0.524588,-1.299151,0.447927,2.055196,2.589398
3887.111000000,0.319965,0.721030,-0.524378,-1.299249,0.481748,2.055150,2.596475
3887.141000000,0.319891,0.720733,-0.524594,-1.299148,0.449701,2.055205,2.575720
3887.144000000,0.319967,0.721027,-0.524372,-1.299246,0.481748,2.055147,2.596484
3887.174000000,0.319695,0.720736,-0.524351,-1.299095,0.450161,2.055068,2.565788
3887.180000000,0.319962,0.721027,-0.524375,-1.299249,0.481747,2.055149,2.596479
3887.209000000,0.319943,0.720846,-0.524599,-1.299199,0.451253,2.055225,2.554703
3887.211000000,0.319965,0.721032,-0.524370,-1.299249,0.481745,2.055150,2.596483
3887.243000000,0.319964,0.720910,-0.524554,-1.299223,0.451455,2.055215,2.547230
3887.249000000,0.319962,0.721032,-0.524376,-1.299252,0.481746,2.055149,2.596481
3887.278000000,0.319803,0.720942,-0.524293,-1.299179,0.450934,2.055070,2.542539
3887.283000000,0.319960,0.721032,-0.524372,-1.299246,0.481745,2.055150,2.596485
3887.312000000,0.319822,0.720990,-0.524253,-1.299196,0.450954,2.055064,2.537681
3887.318000000,0.319968,0.721027,-0.524372,-1.299246,0.481747,2.055150,2.596479
3887.346000000,0.319858,0.721023,-0.524254,-1.299217,0.450941,2.055065,2.534058
3887.351000000,0.319960,0.721024,-0.524377,-1.299246,0.481745,2.055151,2.596485
3887.380000000,0.319874,0.721050,-0.524241,-1.299218,0.450888,2.055064,2.531649
3887.386000000,0.319965,0.721030,-0.524375,-1.299249,0.481747,2.055150,2.596479
3887.414000000,0.319871,0.721054,-0.524219,-1.299218,0.450846,2.055061,2.530390
3887.420000000,0.319962,0.721030,-0.524372,-1.299252,0.481745,2.055151,2.596482
3887.448000000,0.319886,0.721049,-0.524237,-1.299226,0.450810,2.055065,2.530282
3887.454000000,0.319959,0.721027,-0.524373,-1.299252,0.481747,2.055150,2.596485
3887.483000000,0.319884,0.721051,-0.524237,-1.299218,0.450756,2.055066,2.531308
3887.488000000,0.319962,0.721030,-0.524375,-1.299246,0.481748,2.055147,2.596481
3887.517000000,0.320087,0.721072,-0.524487,-1.299297,0.451353,2.055199,2.531856
3887.522000000,0.319960,0.721027,-0.524372,-1.299246,0.481746,2.055149,2.596483
3887.551000000,0.320086,0.721079,-0.524497,-1.299287,0.451363,2.055213,2.535038
3887.555000000,0.319962,0.721029,-0.524373,-1.299249,0.481746,2.055152,2.596483
3887.585000000,0.320067,0.721066,-0.524481,-1.299279,0.451293,2.055208,2.539306
3887.590000000,0.319965,0.721027,-0.524375,-1.299249,0.481747,2.055150,2.596474
3887.619000000,0.320074,0.721054,-0.524498,-1.299291,0.451283,2.055206,2.544545
3887.623000000,0.319964,0.721025,-0.524372,-1.299249,0.481745,2.055149,2.596479
3887.652000000,0.319865,0.721015,-0.524257,-1.299215,0.450650,2.055068,2.552190
3887.656000000,0.319960,0.721027,-0.524375,-1.299246,0.481746,2.055150,2.596482
3887.687000000,0.320060,0.721056,-0.524488,-1.299278,0.451250,2.055213,2.557916
3887.689000000,0.319960,0.721026,-0.524375,-1.299250,0.481747,2.055150,2.596482
3887.720000000,0.319850,0.721016,-0.524240,-1.299205,0.450626,2.055063,2.567339
3887.724000000,0.319962,0.721025,-0.524372,-1.299249,0.481747,2.055151,2.596483
3887.755000000,0.320073,0.721062,-0.524507,-1.299284,0.451288,2.055223,2.574842
3887.758000000,0.319962,0.721022,-0.524373,-1.299249,0.481750,2.055150,2.596475
3887.789000000,0.320058,0.721055,-0.524487,-1.299280,0.451242,2.055217,2.584593
3887.792000000,0.319960,0.721030,-0.524372,-1.299249,0.481747,2.055150,2.596484
3887.823000000,0.320069,0.721048,-0.524499,-1.299293,0.451254,2.055214,2.595088
3887.825000000,0.319960,0.721028,-0.524377,-1.299252,0.481747,2.055150,2.596478
3887.858000000,0.319851,0.721018,-0.524239,-1.299207,0.450633,2.055056,2.608293
3887.859000000,0.319965,0.721027,-0.524375,-1.299244,0.481747,2.055152,2.596483
3887.892000000,0.319864,0.721015,-0.524258,-1.299216,0.450657,2.055057,2.619886
3887.893000000,0.319965,0.721028,-0.524376,-1.299249,0.481747,2.055150,2.596485
3887.926000000,0.319865,0.721023,-0.524256,-1.299211,0.450667,2.055055,2.629965
3887.928000000,0.319968,0.721025,-0.524369,-1.299244,0.481746,2.055151,2.596481
3887.960000000,0.319853,0.721019,-0.524238,-1.299209,0.450692,2.055050,2.638452
3887.962000000,0.319962,0.721027,-0.524375,-1.299249,0.481747,2.055149,2.596484
3887.994000000,0.319866,0.721015,-0.524256,-1.299217,0.450718,2.055051,2.645628
3887.995000000,0.319965,0.721025,-0.524373,-1.299246,0.481745,2.055151,2.596482
3888.028000000,0.319868,0.721022,-0.524254,-1.299211,0.450719,2.055050,2.651707
3888.029000000,0.319965,0.721026,-0.524370,-1.299244,0.481749,2.055151,2.596479
3888.061000000,0.319856,0.721018,-0.524236,-1.299207,0.450736,2.055046,2.656818
3888.064000000,0.319967,0.721026,-0.524374,-1.299254,0.481746,2.055151,2.596484
3888.096000000,0.319869,0.721014,-0.524255,-1.299216,0.450756,2.055050,2.661123
3888.098000000,0.319955,0.721027,-0.524372,-1.299252,0.481748,2.055150,2.596484
3888.130000000,0.319868,0.721021,-0.524252,-1.299211,0.450754,2.055049,2.664783
3888.131000000,0.319960,0.721030,-0.524375,-1.299249,0.481746,2.055150,2.596479
3888.164000000,0.319855,0.721018,-0.524236,-1.299208,0.450769,2.055045,2.667856
3888.165000000,0.319965,0.721032,-0.524373,-1.299246,0.481745,2.055150,2.596480
3888.198000000,0.319866,0.721016,-0.524256,-1.299216,0.450785,2.055048,2.670458
3888.199000000,0.319962,0.721025,-0.524373,-1.299244,0.481747,2.055150,2.596482
3888.232000000,0.319866,0.721024,-0.524255,-1.299209,0.450779,2.055048,2.672680
3888.233000000,0.319962,0.721029,-0.524374,-1.299246,0.481747,2.055150,2.596485
3888.266000000,0.319760,0.720928,-0.524185,-1.299158,0.442852,2.054967,2.680659
3888.268000000,0.319962,0.721030,-0.524374,-1.299246,0.481747,2.055151,2.596483
3888.300000000,0.319711,0.720862,-0.524191,-1.299127,0.432493,2.054941,2.691083
3888.301000000,0.319962,0.721027,-0.524372,-1.299249,0.481747,2.055150,2.596482
3888.329000000,0.319962,0.721027,-0.524375,-1.299246,0.481746,2.055150,2.596484
3888.329000000,0.319836,0.721027,-0.524230,-1.299200,0.439679,2.055029,2.675185
3888.368000000,0.319854,0.721079,-0.524188,-1.299222,0.443637,2.055020,2.663106
3888.368000000,0.319968,0.721030,-0.524372,-1.299249,0.481747,2.055150,2.596482
3888.402000000,0.319873,0.721084,-0.524197,-1.299234,0.446168,2.055017,2.653182
3888.402000000,0.319965,0.721027,-0.524373,-1.299249,0.481747,2.055150,2.596476
3888.436000000,0.319881,0.721080,-0.524212,-1.299226,0.447833,2.055029,2.644951
3888.436000000,0.319962,0.721027,-0.524373,-1.299246,0.481746,2.055152,2.596477
3888.470000000,0.319864,0.721054,-0.524207,-1.299216,0.448913,2.055032,2.638159
3888.471000000,0.319960,0.721029,-0.524375,-1.299249,0.481747,2.055151,2.596485
3888.504000000,0.319867,0.721027,-0.524236,-1.299215,0.449597,2.055041,2.632664
3888.504000000,0.319962,0.721027,-0.524373,-1.299241,0.481745,2.055151,2.596477
3888.538000000,0.319860,0.721017,-0.524246,-1.299203,0.450013,2.055047,2.628344
3888.538000000,0.319962,0.721032,-0.524377,-1.299249,0.481748,2.055149,2.596484
3888.572000000,0.319843,0.721004,-0.524238,-1.299195,0.450284,2.055048,2.625083
3888.573000000,0.319960,0.721032,-0.524370,-1.299252,0.481747,2.055152,2.596481
3888.606000000,0.319853,0.720995,-0.524264,-1.299203,0.450454,2.055055,2.622850
3888.606000000,0.319968,0.721030,-0.524375,-1.299246,0.481746,2.055150,2.596483
3888.640000000,0.319852,0.721003,-0.524263,-1.299198,0.450541,2.055058,2.621607
3888.640000000,0.319962,0.721027,-0.524373,-1.299249,0.481747,2.055150,2.596476
3888.674000000,0.319960,0.721030,-0.524377,-1.299249,0.481747,2.055150,2.596484
3888.674000000,0.319842,0.721004,-0.524247,-1.299198,0.450604,2.055055,2.621283
3888.708000000,0.319856,0.721005,-0.524264,-1.299209,0.450647,2.055058,2.621875
3888.708000000,0.319967,0.721025,-0.524373,-1.299252,0.481746,2.055149,2.596485
3888.742000000,0.319859,0.721017,-0.524261,-1.299205,0.450656,2.055058,2.623364
3888.742000000,0.319962,0.721030,-0.524373,-1.299249,0.481746,2.055151,2.596484
3888.775000000,0.319958,0.721022,-0.524374,-1.299249,0.481746,2.055150,2.596481
3888.775000000,0.319850,0.721017,-0.524242,-1.299205,0.450673,2.055054,2.625687
3888.810000000,0.319864,0.721016,-0.524259,-1.299215,0.450690,2.055057,2.628845
3888.811000000,0.319965,0.721032,-0.524370,-1.299244,0.481745,2.055151,2.596475
3888.844000000,0.319865,0.721025,-0.524255,-1.299209,0.450683,2.055055,2.632820
3888.844000000,0.319965,0.721028,-0.524373,-1.299254,0.481746,2.055150,2.596484
3888.877000000,0.319962,0.721027,-0.524372,-1.299249,0.481749,2.055150,2.596479
3888.878000000,0.319854,0.721023,-0.524238,-1.299205,0.450693,2.055052,2.637547
3888.911000000,0.319962,0.721030,-0.524377,-1.299246,0.481747,2.055151,2.596478
3888.912000000,0.319867,0.721019,-0.524256,-1.299216,0.450707,2.055054,2.643023
3888.945000000,0.319960,0.721024,-0.524372,-1.299252,0.481747,2.055149,2.596477
3888.946000000,0.319826,0.721002,-0.524204,-1.299192,0.449594,2.055003,2.650027
3888.979000000,0.319967,0.721030,-0.524372,-1.299249,0.481746,2.055150,2.596483
3888.980000000,0.319753,0.720913,-0.524199,-1.299150,0.439569,2.054981,2.664198
3889.014000000,0.319720,0.720882,-0.524187,-1.299134,0.431258,2.054949,2.677757
3889.014000000,0.319960,0.721032,-0.524370,-1.299249,0.481746,2.055151,2.596484
3889.048000000,0.319684,0.720874,-0.524157,-1.299111,0.422391,2.054916,2.692425
3889.048000000,0.319962,0.721027,-0.524377,-1.299252,0.481746,2.055150,2.596477
3889.081000000,0.319962,0.721024,-0.524375,-1.299246,0.481747,2.055149,2.596482
3889.082000000,0.319776,0.720978,-0.524201,-1.299174,0.422824,2.054998,2.691607
3889.116000000,0.319970,0.721030,-0.524370,-1.299246,0.481747,2.055150,2.596483
3889.116000000,0.319731,0.721021,-0.524062,-1.299164,0.425452,2.054875,2.689529
3889.150000000,0.319695,0.720938,-0.524101,-1.299134,0.414637,2.054879,2.708376
3889.150000000,0.319965,0.721027,-0.524375,-1.299252,0.481748,2.055151,2.596484
3889.183000000,0.319960,0.721023,-0.524370,-1.299254,0.481747,2.055149,2.596475
3889.183000000,0.319635,0.720910,-0.524043,-1.299104,0.406186,2.054829,2.716232
3889.217000000,0.319962,0.721030,-0.524375,-1.299249,0.481747,2.055152,2.596479
3889.218000000,0.319612,0.720889,-0.524034,-1.299094,0.397014,2.054799,2.725658
3889.251000000,0.319965,0.721030,-0.524373,-1.299246,0.481746,2.055152,2.596477
3889.252000000,0.319787,0.721093,-0.524133,-1.299186,0.403971,2.054948,2.713795
3889.285000000,0.319962,0.721026,-0.524374,-1.299249,0.481746,2.055150,2.596483
3889.286000000,0.319686,0.721105,-0.523904,-1.299175,0.409700,2.054759,2.701484
3889.319000000,0.319962,0.721027,-0.524370,-1.299246,0.481748,2.055150,2.596481
3889.320000000,0.319655,0.720988,-0.523990,-1.299127,0.398757,2.054787,2.709216
3889.353000000,0.319962,0.721025,-0.524375,-1.299246,0.481747,2.055150,2.596482
3889.354000000,0.319597,0.720950,-0.523952,-1.299089,0.389945,2.054737,2.716545
3889.387000000,0.319962,0.721028,-0.524375,-1.299249,0.481746,2.055150,2.596480
3889.388000000,0.319547,0.720923,-0.523911,-1.299065,0.380579,2.054697,2.725516
3889.420000000,0.319962,0.721030,-0.524375,-1.299249,0.481746,2.055150,2.596481
3889.422000000,0.319520,0.720906,-0.523893,-1.299053,0.371079,2.054660,2.735905
3889.455000000,0.319960,0.721027,-0.524372,-1.299246,0.481746,2.055147,2.596477
3889.456000000,0.319485,0.720905,-0.523855,-1.299030,0.361431,2.054615,2.747787
3889.488000000,0.319962,0.721028,-0.524375,-1.299249,0.481745,2.055149,2.596477
3889.490000000,0.319440,0.720895,-0.523802,-1.299010,0.351649,2.054567,2.761213
3889.523000000,0.319962,0.721029,-0.524376,-1.299249,0.481745,2.055151,2.596483
3889.524000000,0.319417,0.720885,-0.523779,-1.299000,0.341703,2.054525,2.776290
3889.557000000,0.319960,0.721027,-0.524372,-1.299246,0.481745,2.055150,2.596483
3889.558000000,0.319383,0.720887,-0.523738,-1.298977,0.331643,2.054473,2.793046
3889.590000000,0.319964,0.721025,-0.524372,-1.299252,0.481746,2.055149,2.596485
3889.592000000,0.319338,0.720879,-0.523682,-1.298956,0.321460,2.054419,2.811549
3889.624000000,0.319960,0.721030,-0.524374,-1.299249,0.481746,2.055150,2.596479
3889.626000000,0.319314,0.720870,-0.523658,-1.298945,0.311121,2.054371,2.831910
3889.658000000,0.319970,0.721026,-0.524373,-1.299244,0.481747,2.055152,2.596486
3889.660000000,0.319279,0.720873,-0.523615,-1.298921,0.300685,2.054312,2.854142
3889.692000000,0.319960,0.721027,-0.524372,-1.299249,0.481748,2.055150,2.596489
3889.692000000,0.319233,0.720865,-0.523557,-1.298900,0.290127,2.054251,2.877475
3889.727000000,0.319962,0.721027,-0.524375,-1.299249,0.481749,2.055147,2.596482
3889.728000000,0.319288,0.720876,-0.523621,-1.298947,0.280390,2.054367,2.897668
3889.760000000,0.319962,0.721025,-0.524377,-1.299246,0.481746,2.055149,2.596484
3889.762000000,0.319381,0.720972,-0.523669,-1.298986,0.278148,2.054387,2.897485
3889.794000000,0.319959,0.721026,-0.524378,-1.299246,0.481746,2.055151,2.596482
3889.795000000,0.319350,0.721001,-0.523602,-1.298989,0.275850,2.054363,2.897371
3889.828000000,0.319957,0.721025,-0.524369,-1.299249,0.481746,2.055151,2.596474
3889.830000000,0.319371,0.721029,-0.523607,-1.299009,0.274208,2.054364,2.897316
3889.862000000,0.319967,0.721030,-0.524370,-1.299246,0.481746,2.055151,2.596484
3889.864000000,0.319381,0.721054,-0.523602,-1.299008,0.272946,2.054364,2.897301
3889.896000000,0.319967,0.721029,-0.524379,-1.299252,0.481746,2.055154,2.596475
3889.897000000,0.319381,0.721066,-0.523590,-1.299011,0.271989,2.054364,2.897308
3889.929000000,0.319965,0.721025,-0.524375,-1.299249,0.481747,2.055151,2.596482
3889.932000000,0.319394,0.721074,-0.523598,-1.299024,0.271293,2.054366,2.897300
3889.963000000,0.319962,0.721027,-0.524375,-1.299250,0.481747,2.055149,2.596477
3889.966000000,0.319395,0.721089,-0.523594,-1.299018,0.270721,2.054364,2.897306
3889.997000000,0.319965,0.721029,-0.524372,-1.299254,0.481745,2.055149,2.596479
3890.000000000,0.319393,0.721096,-0.523584,-1.299015,0.270302,2.054366,2.897312
3890.031000000,0.319962,0.721030,-0.524372,-1.299254,0.481746,2.055150,2.596476
3890.034000000,0.319998,0.721835,-0.523895,-1.299453,0.338826,2.054812,2.801341
3890.064000000,0.319960,0.721030,-0.524375,-1.299246,0.481746,2.055151,2.596484
3890.067000000,0.320134,0.721844,-0.523903,-1.299524,0.381917,2.054846,2.740812
3890.097000000,0.319968,0.721027,-0.524373,-1.299249,0.481747,2.055151,2.596478
3890.101000000,0.320124,0.721580,-0.524018,-1.299425,0.411023,2.054896,2.692801
3890.131000000,0.319973,0.721027,-0.524364,-1.299249,0.481748,2.055152,2.596482
3890.136000000,0.319830,0.721158,-0.523943,-1.299213,0.427756,2.054771,2.656519
3890.165000000,0.319965,0.721025,-0.524374,-1.299244,0.481747,2.055150,2.596480
3890.171000000,0.319947,0.720889,-0.524349,-1.299172,0.438367,2.055037,2.624602
3890.198000000,0.319962,0.721027,-0.524375,-1.299252,0.481746,2.055149,2.596481
3890.205000000,0.319890,0.720691,-0.524489,-1.299118,0.443931,2.055096,2.602969
3890.232000000,0.319962,0.721026,-0.524374,-1.299246,0.481746,2.055150,2.596485
3890.240000000,0.319639,0.720583,-0.524313,-1.299013,0.446765,2.054997,2.585638
3890.266000000,0.319965,0.721026,-0.524372,-1.299252,0.481747,2.055151,2.596480
3890.273000000,0.319846,0.720635,-0.524598,-1.299097,0.449330,2.055188,2.570480
3890.301000000,0.319962,0.721030,-0.524375,-1.299249,0.481746,2.055150,2.596484
3890.308000000,0.319655,0.720656,-0.524351,-1.299055,0.449564,2.055036,2.563496
3890.334000000,0.319964,0.721027,-0.524375,-1.299249,0.481746,2.055150,2.596480
3890.342000000,0.319624,0.720608,-0.524377,-1.299044,0.439943,2.055032,2.563974
3890.368000000,0.319960,0.721027,-0.524378,-1.299249,0.481746,2.055149,2.596474
3890.376000000,0.319594,0.720590,-0.524346,-1.299028,0.432271,2.055001,2.564193
3890.401000000,0.319962,0.721027,-0.524375,-1.299252,0.481747,2.055150,2.596483
3890.411000000,0.319762,0.720623,-0.524549,-1.299082,0.424252,2.055134,2.564629
3890.436000000,0.319967,0.721025,-0.524373,-1.299249,0.481747,2.055151,2.596485
3890.445000000,0.319758,0.720612,-0.524553,-1.299090,0.415848,2.055121,2.567958
3890.471000000,0.319962,0.721032,-0.524372,-1.299254,0.481748,2.055149,2.596486
3890.479000000,0.319792,0.720630,-0.524608,-1.299095,0.407422,2.055161,2.572669
3890.504000000,0.319965,0.721026,-0.524375,-1.299249,0.481746,2.055147,2.596484
3890.513000000,0.319805,0.720626,-0.524625,-1.299100,0.398742,2.055174,2.578950
3890.539000000,0.319962,0.721035,-0.524374,-1.299249,0.481747,2.055150,2.596482
3890.548000000,0.319634,0.720599,-0.524427,-1.299031,0.389129,2.055021,2.588612
3890.572000000,0.319965,0.721029,-0.524370,-1.299246,0.481747,2.055151,2.596483
3890.581000000,0.319855,0.720642,-0.524681,-1.299112,0.381119,2.055207,2.596118
3890.606000000,0.319962,0.721025,-0.524372,-1.299249,0.481745,2.055149,2.596475
3890.615000000,0.319837,0.720636,-0.524654,-1.299102,0.371943,2.055196,2.607244
3890.639000000,0.319964,0.721030,-0.524373,-1.299249,0.481747,2.055151,2.596483
3890.649000000,0.319883,0.720637,-0.524716,-1.299129,0.362864,2.055228,2.619906
3890.674000000,0.319965,0.721030,-0.524373,-1.299249,0.481745,2.055150,2.596483
3890.683000000,0.319916,0.720657,-0.524757,-1.299132,0.353648,2.055267,2.634308
3890.710000000,0.319962,0.721022,-0.524375,-1.299249,0.481747,2.055150,2.596479
3890.717000000,0.319936,0.720657,-0.524777,-1.299141,0.344333,2.055290,2.650455
3890.742000000,0.319960,0.721026,-0.524367,-1.299249,0.481748,2.055150,2.596484
3890.752000000,0.319979,0.720658,-0.524828,-1.299165,0.334960,2.055321,2.668385
3890.777000000,0.319968,0.721030,-0.524374,-1.299246,0.481747,2.055151,2.596477
3890.785000000,0.320015,0.720677,-0.524870,-1.299171,0.325517,2.055364,2.687909
3890.811000000,0.319965,0.721027,-0.524374,-1.299254,0.481746,2.055150,2.596484
3890.819000000,0.320036,0.720677,-0.524891,-1.299180,0.315857,2.055392,2.708492
3890.844000000,0.319960,0.721030,-0.524373,-1.299252,0.481746,2.055151,2.596477
3890.854000000,0.319859,0.720651,-0.524685,-1.299099,0.305229,2.055170,2.732470
3890.878000000,0.319967,0.721030,-0.524372,-1.299249,0.481747,2.055150,2.596483
3890.888000000,0.319841,0.720648,-0.524648,-1.299087,0.295234,2.055140,2.755047
3890.912000000,0.319965,0.721032,-0.524370,-1.299246,0.481749,2.055147,2.596474
3890.922000000,0.319821,0.720640,-0.524618,-1.299075,0.284986,2.055090,2.779322
3890.946000000,0.319960,0.721029,-0.524367,-1.299249,0.481748,2.055150,2.596483
3890.956000000,0.319789,0.720644,-0.524573,-1.299051,0.274655,2.055033,2.804140
3890.980000000,0.319961,0.721027,-0.524372,-1.299246,0.481748,2.055151,2.596475
3890.991000000,0.319984,0.720665,-0.524797,-1.299151,0.264564,2.055282,2.828669
3891.014000000,0.319962,0.721025,-0.524373,-1.299249,0.481747,2.055150,2.596482
3891.025000000,0.320003,0.720679,-0.524832,-1.299155,0.254086,2.055317,2.854749
3891.048000000,0.319962,0.721026,-0.524372,-1.299247,0.481747,2.055153,2.596475
3891.060000000,0.319805,0.720638,-0.524609,-1.299067,0.242538,2.055035,2.883686
3891.082000000,0.319962,0.721027,-0.524372,-1.299254,0.481747,2.055150,2.596483
3891.095000000,0.319959,0.720707,-0.524750,-1.299140,0.235320,2.055213,2.897365
3891.116000000,0.319962,0.721022,-0.524378,-1.299249,0.481747,2.055150,2.596478
3891.130000000,0.319975,0.720771,-0.524720,-1.299162,0.232778,2.055192,2.897333
3891.151000000,0.319965,0.721032,-0.524375,-1.299249,0.481747,2.055151,2.596485
3891.165000000,0.319969,0.720798,-0.524684,-1.299176,0.230628,2.055176,2.897307
3891.184000000,0.319965,0.721032,-0.524373,-1.299246,0.481747,2.055149,2.596480
3891.198000000,0.319996,0.720827,-0.524694,-1.299192,0.229135,2.055187,2.897301
3891.217000000,0.319964,0.721029,-0.524374,-1.299249,0.481748,2.055147,2.596482
3891.232000000,0.319982,0.720848,-0.524665,-1.299183,0.227917,2.055166,2.897405
3891.253000000,0.319968,0.721029,-0.524370,-1.299249,0.481747,2.055151,2.596481
3891.267000000,0.320009,0.720861,-0.524685,-1.299201,0.227039,2.055184,2.897305
3891.287000000,0.319962,0.721025,-0.524377,-1.299249,0.481747,2.055151,2.596483
3891.300000000,0.320284,0.721658,-0.524539,-1.299502,0.299266,2.055241,2.812719
3891.322000000,0.319959,0.721024,-0.524373,-1.299249,0.481747,2.055149,2.596484
3891.334000000,0.320235,0.721799,-0.524152,-1.299533,0.356449,2.055001,2.744882
3891.357000000,0.319965,0.721029,-0.524370,-1.299252,0.481747,2.055149,2.596483
3891.369000000,0.320337,0.721583,-0.524291,-1.299514,0.396303,2.055116,2.691487
3891.390000000,0.319968,0.721023,-0.524370,-1.299252,0.481749,2.055150,2.596477
3891.404000000,0.319970,0.721170,-0.524096,-1.299255,0.418441,2.054908,2.656063
3891.424000000,0.319962,0.721025,-0.524375,-1.299246,0.481745,2.055151,2.596482
3891.439000000,0.320045,0.720874,-0.524463,-1.299201,0.432620,2.055115,2.626179
3891.458000000,0.319965,0.721034,-0.524372,-1.299244,0.481747,2.055149,2.596475
3891.472000000,0.319728,0.720630,-0.524312,-1.299040,0.439480,2.054984,2.606640
3891.490000000,0.319962,0.721028,-0.524367,-1.299249,0.481747,2.055151,2.596481
3891.507000000,0.319872,0.720562,-0.524627,-1.299091,0.444780,2.055178,2.586481
3891.525000000,0.319962,0.721027,-0.524375,-1.299249,0.481748,2.055151,2.596481
3891.542000000,0.319632,0.720542,-0.524392,-1.299014,0.447058,2.055051,2.572936
3891.560000000,0.319965,0.721025,-0.524372,-1.299246,0.481747,2.055150,2.596478
3891.576000000,0.319657,0.720610,-0.524406,-1.299056,0.448725,2.055070,2.561867
3891.595000000,0.319965,0.721032,-0.524377,-1.299246,0.481747,2.055149,2.596477
3891.610000000,0.319692,0.720719,-0.524377,-1.299093,0.449684,2.055073,2.553434
3891.629000000,0.319962,0.721027,-0.524370,-1.299252,0.481747,2.055150,2.596482
3891.644000000,0.319725,0.720820,-0.524325,-1.299132,0.450249,2.055068,2.546530
3891.663000000,0.319968,0.721020,-0.524376,-1.299249,0.481746,2.055151,2.596478
3891.677000000,0.319979,0.720949,-0.524538,-1.299240,0.451170,2.055208,2.539565
3891.697000000,0.319970,0.721027,-0.524372,-1.299249,0.481747,2.055151,2.596481
3891.711000000,0.320031,0.721012,-0.524520,-1.299280,0.451342,2.055198,2.535360
3891.730000000,0.319962,0.721027,-0.524375,-1.299246,0.481748,2.055149,2.596479
3891.745000000,0.320068,0.721073,-0.524503,-1.299289,0.451453,2.055206,2.532396
3891.765000000,0.319960,0.721030,-0.524374,-1.299246,0.481747,2.055149,2.596474
3891.779000000,0.320075,0.721093,-0.524469,-1.299291,0.451421,2.055196,2.530697
3891.799000000,0.319965,0.721030,-0.524370,-1.299246,0.481746,2.055149,2.596481
3891.814000000,0.319889,0.721068,-0.524229,-1.299224,0.450784,2.055058,2.531777
3891.832000000,0.319965,0.721029,-0.524374,-1.299252,0.481745,2.055151,2.596482
3891.848000000,0.319880,0.721063,-0.524211,-1.299220,0.450766,2.055056,2.532380
3891.867000000,0.319965,0.721032,-0.524370,-1.299246,0.481746,2.055152,2.596483
3891.882000000,0.319827,0.721010,-0.524161,-1.299205,0.448432,2.054990,2.534585
3891.901000000,0.319960,0.721027,-0.524375,-1.299249,0.481745,2.055149,2.596478
3891.915000000,0.319984,0.720968,-0.524425,-1.299248,0.439379,2.055126,2.532325
3891.934000000,0.319957,0.721027,-0.524376,-1.299244,0.481747,2.055150,2.596476
3891.950000000,0.319741,0.720909,-0.524169,-1.299152,0.429961,2.054975,2.532747
3891.968000000,0.319962,0.721027,-0.524370,-1.299249,0.481747,2.055149,2.596477
3891.983000000,0.319948,0.720938,-0.524432,-1.299222,0.421933,2.055125,2.531571
3892.002000000,0.319968,0.721027,-0.524370,-1.299246,0.481748,2.055153,2.596483
3892.017000000,0.319950,0.720926,-0.524442,-1.299229,0.412915,2.055119,2.533510
3892.037000000,0.319962,0.721030,-0.524370,-1.299249,0.481745,2.055151,2.596481
3892.052000000,0.319759,0.720899,-0.524223,-1.299153,0.403044,2.054986,2.538655
3892.070000000,0.319962,0.721030,-0.524370,-1.299254,0.481747,2.055152,2.596481
3892.087000000,0.319980,0.720943,-0.524481,-1.299229,0.394180,2.055145,2.542343
3892.104000000,0.319962,0.721025,-0.524370,-1.299254,0.481747,2.055150,2.596482
3892.123000000,0.319770,0.720894,-0.524235,-1.299153,0.383794,2.054976,2.551152
3892.137000000,0.319962,0.721025,-0.524377,-1.299246,0.481746,2.055149,2.596479
3892.156000000,0.319766,0.720902,-0.524225,-1.299141,0.374124,2.054961,2.559924
3892.172000000,0.319962,0.721027,-0.524374,-1.299252,0.481748,2.055151,2.596485
3892.190000000,0.319723,0.720893,-0.524164,-1.299122,0.364233,2.054921,2.570520
3892.206000000,0.319965,0.721035,-0.524378,-1.299246,0.481746,2.055152,2.596479
3892.224000000,0.319703,0.720885,-0.524140,-1.299113,0.354207,2.054890,2.582949
3892.240000000,0.319960,0.721022,-0.524375,-1.299254,0.481747,2.055149,2.596479
3892.258000000,0.319671,0.720888,-0.524097,-1.299091,0.344073,2.054849,2.597231
3892.274000000,0.319965,0.721029,-0.524378,-1.299254,0.481746,2.055150,2.596483
3892.292000000,0.319628,0.720880,-0.524041,-1.299072,0.333824,2.054806,2.613412
3892.308000000,0.319968,0.721029,-0.524374,-1.299252,0.481747,2.055150,2.596481
3892.326000000,0.319605,0.720871,-0.524015,-1.299062,0.323410,2.054768,2.631597
3892.342000000,0.319968,0.721030,-0.524370,-1.299246,0.481746,2.055152,2.596482
3892.360000000,0.319571,0.720874,-0.523972,-1.299039,0.312896,2.054721,2.651782
3892.376000000,0.319965,0.721030,-0.524375,-1.299246,0.481747,2.055149,2.596477
3892.394000000,0.319526,0.720866,-0.523914,-1.299019,0.302256,2.054670,2.673405
3892.410000000,0.319962,0.721025,-0.524373,-1.299249,0.481747,2.055151,2.596486
3892.428000000,0.319500,0.720856,-0.523886,-1.299008,0.291448,2.054624,2.696538
3892.444000000,0.319962,0.721027,-0.524372,-1.299249,0.481748,2.055149,2.596478
3892.463000000,0.319679,0.720892,-0.524091,-1.299082,0.280865,2.054838,2.719703
3892.478000000,0.319962,0.721030,-0.524375,-1.299252,0.481746,2.055151,2.596481
3892.497000000,0.319708,0.720887,-0.524139,-1.299107,0.269915,2.054871,2.744535
3892.512000000,0.319965,0.721022,-0.524373,-1.299249,0.481747,2.055151,2.596486
3892.531000000,0.319747,0.720903,-0.524194,-1.299118,0.258823,2.054925,2.770367
3892.546000000,0.319965,0.721027,-0.524372,-1.299252,0.481746,2.055149,2.596490
3892.565000000,0.319772,0.720903,-0.524224,-1.299131,0.247580,2.054970,2.796940
3892.580000000,0.319957,0.721022,-0.524372,-1.299252,0.481746,2.055151,2.596483
3892.599000000,0.319819,0.720902,-0.524281,-1.299161,0.236205,2.055020,2.824398
3892.614000000,0.319960,0.721025,-0.524374,-1.299249,0.481746,2.055150,2.596478
3892.633000000,0.319864,0.720919,-0.524335,-1.299174,0.224666,2.055081,2.852585
3892.648000000,0.319962,0.721026,-0.524380,-1.299249,0.481748,2.055150,2.596483
3892.665000000,0.319893,0.720920,-0.524366,-1.299189,0.212984,2.055133,2.881448
3892.681000000,0.319965,0.721027,-0.524375,-1.299249,0.481747,2.055152,2.596485
3892.700000000,0.319826,0.720947,-0.524263,-1.299174,0.204739,2.055028,2.897374
3892.715000000,0.319960,0.721030,-0.524370,-1.299249,0.481747,2.055151,2.596482
3892.734000000,0.320463,0.721948,-0.524505,-1.299664,0.284123,2.055453,2.815869
3892.749000000,0.319963,0.721027,-0.524375,-1.299246,0.481746,2.055147,2.596477
3892.769000000,0.320234,0.722066,-0.523897,-1.299614,0.346529,2.054907,2.756712
3892.783000000,0.319962,0.721027,-0.524372,-1.299249,0.481746,2.055151,2.596484
3892.802000000,0.320375,0.721824,-0.524122,-1.299581,0.385790,2.055079,2.716269
3892.817000000,0.319960,0.721027,-0.524374,-1.299249,0.481747,2.055149,2.596482
3892.837000000,0.320011,0.721325,-0.523975,-1.299308,0.410743,2.054857,2.690459
3892.850000000,0.319968,0.721027,-0.524374,-1.299249,0.481746,2.055150,2.596482
3892.870000000,0.320084,0.720971,-0.524378,-1.299240,0.426042,2.055104,2.671595
3892.884000000,0.319962,0.721030,-0.524374,-1.299249,0.481747,2.055150,2.596482
3892.904000000,0.319960,0.720701,-0.524516,-1.299123,0.435458,2.055152,2.659417
3892.919000000,0.319962,0.721030,-0.524373,-1.299249,0.481747,2.055150,2.596483
3892.938000000,0.319863,0.720554,-0.524592,-1.299068,0.441319,2.055185,2.651047
3892.952000000,0.319962,0.721029,-0.524375,-1.299246,0.481747,2.055150,2.596486
3892.972000000,0.319835,0.720521,-0.524651,-1.299079,0.444948,2.055210,2.645406
3892.987000000,0.319962,0.721026,-0.524372,-1.299246,0.481747,2.055149,2.596485
3893.006000000,0.319842,0.720594,-0.524666,-1.299100,0.447353,2.055238,2.641670
3893.020000000,0.319960,0.721027,-0.524372,-1.299249,0.481746,2.055150,2.596482
3893.040000000,0.319857,0.720689,-0.524625,-1.299139,0.448847,2.055234,2.639537
3893.054000000,0.319963,0.721025,-0.524372,-1.299252,0.481747,2.055149,2.596474
3893.074000000,0.319912,0.720795,-0.524602,-1.299199,0.449796,2.055227,2.638716
3893.088000000,0.319960,0.721025,-0.524378,-1.299249,0.481747,2.055151,2.596481
3893.108000000,0.319966,0.720913,-0.524569,-1.299234,0.450438,2.055234,2.638994
3893.123000000,0.319962,0.721027,-0.524373,-1.299249,0.481747,2.055151,2.596480
3893.143000000,0.319804,0.720951,-0.524289,-1.299194,0.450172,2.055050,2.642000
3893.156000000,0.319965,0.721025,-0.524370,-1.299244,0.481745,2.055149,2.596483
3893.176000000,0.320045,0.721043,-0.524500,-1.299294,0.451015,2.055211,2.642540
3893.190000000,0.319957,0.721032,-0.524373,-1.299246,0.481746,2.055150,2.596477
3893.210000000,0.320076,0.721092,-0.524488,-1.299298,0.451199,2.055220,2.645586
3893.224000000,0.319963,0.721030,-0.524373,-1.299246,0.481746,2.055151,2.596479
3893.245000000,0.319883,0.721061,-0.524233,-1.299229,0.450636,2.055039,2.651224
3893.258000000,0.319963,0.721025,-0.524376,-1.299249,0.481745,2.055150,2.596475
3893.279000000,0.319890,0.721071,-0.524229,-1.299223,0.450679,2.055039,2.655865
3893.292000000,0.319962,0.721027,-0.524374,-1.299252,0.481747,2.055149,2.596477
3893.313000000,0.319878,0.721060,-0.524214,-1.299220,0.450727,2.055036,2.660295
3893.326000000,0.319962,0.721027,-0.524370,-1.299249,0.481747,2.055151,2.596486
3893.347000000,0.319887,0.721045,-0.524238,-1.299225,0.450765,2.055040,2.664053
3893.359000000,0.319968,0.721024,-0.524374,-1.299246,0.481747,2.055151,2.596483
3893.382000000,0.320076,0.721075,-0.524468,-1.299290,0.451394,2.055220,2.665705
3893.394000000,0.319959,0.721030,-0.524372,-1.299252,0.481746,2.055153,2.596484
3893.416000000,0.320081,0.721058,-0.524486,-1.299299,0.451412,2.055218,2.668386
3893.427000000,0.319965,0.721028,-0.524375,-1.299246,0.481746,2.055150,2.596481
3893.450000000,0.320080,0.721065,-0.524497,-1.299289,0.451458,2.055233,2.670620
3893.462000000,0.319965,0.721027,-0.524372,-1.299252,0.481748,2.055149,2.596485
3893.484000000,0.320062,0.721054,-0.524481,-1.299283,0.451417,2.055226,2.672556
3893.496000000,0.319962,0.721030,-0.524375,-1.299252,0.481746,2.055151,2.596486
3893.518000000,0.320070,0.721044,-0.524496,-1.299296,0.451432,2.055223,2.674168
3893.530000000,0.319965,0.721027,-0.524372,-1.299249,0.481748,2.055150,2.596477
3893.552000000,0.320073,0.721058,-0.524503,-1.299289,0.451473,2.055235,2.675515
3893.563000000,0.319962,0.721030,-0.524369,-1.299252,0.481746,2.055149,2.596474
3893.587000000,0.319863,0.721011,-0.524259,-1.299215,0.450820,2.055047,2.678352
3893.597000000,0.319962,0.721030,-0.524372,-1.299244,0.481747,2.055151,2.596484
3893.621000000,0.319863,0.721020,-0.524257,-1.299209,0.450809,2.055047,2.679344
3893.629000000,0.319960,0.721027,-0.524374,-1.299249,0.481747,2.055150,2.596483
3893.655000000,0.319852,0.721019,-0.524239,-1.299206,0.450815,2.055044,2.680157
3893.662000000,0.319965,0.721022,-0.524373,-1.299249,0.481748,2.055150,2.596475
3893.689000000,0.319865,0.721015,-0.524258,-1.299215,0.450825,2.055047,2.680841
3893.696000000,0.319968,0.721032,-0.524372,-1.299249,0.481745,2.055149,2.596486
3893.724000000,0.320061,0.721057,-0.524481,-1.299284,0.451435,2.055228,2.679817
3893.729000000,0.319962,0.721027,-0.524374,-1.299249,0.481750,2.055150,2.596477
3893.758000000,0.320072,0.721051,-0.524494,-1.299297,0.451447,2.055224,2.680302
3893.764000000,0.319962,0.721025,-0.524375,-1.299252,0.481745,2.055149,2.596479
3893.793000000,0.319856,0.721020,-0.524238,-1.299207,0.450822,2.055043,2.682362
3893.798000000,0.319958,0.721026,-0.524375,-1.299249,0.481746,2.055151,2.596481
3893.826000000,0.320062,0.721058,-0.524481,-1.299285,0.451441,2.055229,2.681078
3893.832000000,0.319959,0.721029,-0.524375,-1.299246,0.481746,2.055151,2.596481
3893.860000000,0.320071,0.721051,-0.524494,-1.299296,0.451448,2.055225,2.681380
3893.866000000,0.319957,0.721027,-0.524375,-1.299246,0.481746,2.055150,2.596476
3893.894000000,0.319957,0.721024,-0.524369,-1.299249,0.481746,2.055150,2.596481
3893.894000000,0.320074,0.721064,-0.524501,-1.299288,0.451487,2.055237,2.681599
3893.928000000,0.320058,0.721057,-0.524481,-1.299283,0.451441,2.055229,2.681835
3893.929000000,0.319962,0.721028,-0.524372,-1.299249,0.481747,2.055147,2.596480
3893.951000000,0.319962,0.721028,-0.524372,-1.299252,0.481746,2.055150,2.596482
3893.962000000,0.320067,0.721049,-0.524494,-1.299296,0.451452,2.055224,2.682007
3893.981000000,0.319962,0.721027,-0.524369,-1.299247,0.481748,2.055151,2.596483
3893.997000000,0.319811,0.720935,-0.524263,-1.299185,0.443145,2.055021,2.689787
3894.015000000,0.319955,0.721030,-0.524377,-1.299246,0.481747,2.055150,2.596484
3894.031000000,0.319773,0.720871,-0.524275,-1.299157,0.432943,2.055001,2.698434
3894.050000000,0.319970,0.721032,-0.524374,-1.299249,0.481748,2.055151,2.596480
3894.065000000,0.319728,0.720846,-0.524245,-1.299126,0.422717,2.054962,2.707837
3894.077000000,0.319962,0.721025,-0.524373,-1.299252,0.481747,2.055150,2.596486
3894.099000000,0.319675,0.720824,-0.524195,-1.299101,0.412337,2.054918,2.718172
3894.111000000,0.319957,0.721026,-0.524377,-1.299249,0.481747,2.055150,2.596482
3894.135000000,0.319631,0.720810,-0.524150,-1.299079,0.401167,2.054871,2.730250
3894.138000000,0.319965,0.721027,-0.524372,-1.299246,0.481745,2.055150,2.596485
3894.167000000,0.319965,0.721030,-0.524369,-1.299244,0.481747,2.055149,2.596474
3894.169000000,0.320074,0.721152,-0.524427,-1.299334,0.421971,2.055194,2.685237
3894.203000000,0.320050,0.721221,-0.524310,-1.299309,0.431946,2.055061,2.650391
3894.205000000,0.319962,0.721032,-0.524378,-1.299252,0.481745,2.055150,2.596479
3894.238000000,0.319910,0.721061,-0.524328,-1.299231,0.421458,2.055080,2.658758
3894.240000000,0.319962,0.721030,-0.524373,-1.299249,0.481746,2.055149,2.596483
3894.272000000,0.319921,0.721144,-0.524231,-1.299247,0.432233,2.055047,2.651435
3894.275000000,0.319962,0.721025,-0.524374,-1.299252,0.481745,2.055150,2.596483
3894.306000000,0.319904,0.721138,-0.524184,-1.299246,0.438849,2.055023,2.647295
3894.310000000,0.319965,0.721030,-0.524373,-1.299252,0.481747,2.055149,2.596484
3894.340000000,0.319899,0.721094,-0.524210,-1.299242,0.443215,2.055025,2.645850
3894.344000000,0.319964,0.721027,-0.524374,-1.299246,0.481746,2.055151,2.596484
3894.374000000,0.319876,0.721051,-0.524227,-1.299216,0.445953,2.055029,2.646530
3894.379000000,0.319962,0.721025,-0.524373,-1.299241,0.481747,2.055150,2.596478
3894.409000000,0.319844,0.721004,-0.524231,-1.299197,0.447748,2.055033,2.648748
3894.413000000,0.319965,0.721025,-0.524375,-1.299246,0.481747,2.055151,2.596479
3894.443000000,0.320051,0.721018,-0.524511,-1.299265,0.449558,2.055225,2.650729
3894.447000000,0.319965,0.721027,-0.524377,-1.299249,0.481746,2.055151,2.596477
3894.478000000,0.320029,0.720996,-0.524502,-1.299256,0.450228,2.055224,2.654913
3894.482000000,0.319965,0.721027,-0.524373,-1.299246,0.481746,2.055150,2.596477
3894.511000000,0.320038,0.720987,-0.524519,-1.299270,0.450696,2.055222,2.658664
3894.514000000,0.319960,0.721030,-0.524375,-1.299252,0.481749,2.055150,2.596481
3894.545000000,0.320045,0.721008,-0.524524,-1.299267,0.451018,2.055236,2.662048
3894.548000000,0.319960,0.721032,-0.524378,-1.299246,0.481748,2.055151,2.596479
3894.579000000,0.320036,0.721014,-0.524500,-1.299267,0.451153,2.055229,2.665086
3894.582000000,0.319962,0.721030,-0.524373,-1.299246,0.481745,2.055149,2.596477
3894.613000000,0.320052,0.721022,-0.524509,-1.299284,0.451275,2.055224,2.667713
3894.616000000,0.319962,0.721029,-0.524374,-1.299249,0.481747,2.055149,2.596475
3894.647000000,0.320063,0.721048,-0.524509,-1.299282,0.451381,2.055235,2.669957
3894.649000000,0.319965,0.721030,-0.524372,-1.299252,0.481746,2.055150,2.596483
3894.681000000,0.320054,0.721052,-0.524485,-1.299281,0.451377,2.055227,2.671937
3894.683000000,0.319960,0.721027,-0.524378,-1.299252,0.481747,2.055150,2.596478
3894.715000000,0.320069,0.721051,-0.524495,-1.299298,0.451412,2.055222,2.673604
3894.716000000,0.319960,0.721030,-0.524377,-1.299244,0.481749,2.055150,2.596482
3894.749000000,0.320077,0.721069,-0.524499,-1.299292,0.451465,2.055233,2.675009
3894.749000000,0.319962,0.721029,-0.524372,-1.299249,0.481747,2.055151,2.596478
3894.783000000,0.319868,0.721031,-0.524254,-1.299211,0.450807,2.055046,2.677868
3894.783000000,0.319960,0.721027,-0.524377,-1.299246,0.481746,2.055150,2.596488
3894.816000000,0.319856,0.721028,-0.524236,-1.299208,0.450816,2.055043,2.678899
3894.816000000,0.319962,0.721025,-0.524377,-1.299254,0.481748,2.055150,2.596475
3894.850000000,0.319968,0.721025,-0.524372,-1.299252,0.481746,2.055150,2.596485
3894.851000000,0.320078,0.721070,-0.524499,-1.299291,0.451483,2.055235,2.678146
3894.884000000,0.319830,0.720984,-0.524230,-1.299195,0.447935,2.055003,2.682684
3894.885000000,0.319960,0.721028,-0.524377,-1.299249,0.481746,2.055151,2.596477
3894.918000000,0.319964,0.721027,-0.524369,-1.299252,0.481747,2.055150,2.596482
3894.919000000,0.320100,0.721028,-0.524560,-1.299310,0.446092,2.055267,2.672932
3894.952000000,0.319856,0.720980,-0.524291,-1.299196,0.442064,2.055043,2.677701
3894.952000000,0.319968,0.721030,-0.524375,-1.299252,0.481747,2.055149,2.596482
3894.986000000,0.319931,0.721025,-0.524352,-1.299242,0.441543,2.055115,2.676190
3894.986000000,0.319968,0.721030,-0.524370,-1.299249,0.481748,2.055150,2.596480
3895.020000000,0.319921,0.721074,-0.524269,-1.299249,0.445102,2.055077,2.657890
3895.020000000,0.319963,0.721030,-0.524374,-1.299246,0.481747,2.055149,2.596482
3895.054000000,0.319960,0.721027,-0.524372,-1.299252,0.481747,2.055150,2.596482
3895.054000000,0.319925,0.721081,-0.524256,-1.299253,0.447384,2.055063,2.641760
3895.088000000,0.319965,0.721027,-0.524373,-1.299244,0.481746,2.055151,2.596482
3895.089000000,0.320107,0.721110,-0.524473,-1.299309,0.449346,2.055223,2.625512
3895.122000000,0.319964,0.721030,-0.524375,-1.299244,0.481747,2.055150,2.596482
3895.123000000,0.320060,0.721019,-0.524486,-1.299291,0.444638,2.055182,2.618460
3895.156000000,0.319965,0.721030,-0.524375,-1.299249,0.481747,2.055151,2.596485
3895.157000000,0.320068,0.720965,-0.524588,-1.299269,0.435064,2.055241,2.617027
3895.190000000,0.319965,0.721027,-0.524375,-1.299257,0.481746,2.055150,2.596481
3895.191000000,0.319867,0.720898,-0.524389,-1.299188,0.425444,2.055084,2.618116
3895.224000000,0.319955,0.721030,-0.524372,-1.299249,0.481747,2.055150,2.596483
3895.225000000,0.320057,0.720910,-0.524622,-1.299261,0.416237,2.055240,2.617360
3895.259000000,0.319965,0.721027,-0.524372,-1.299252,0.481745,2.055151,2.596479
3895.260000000,0.319847,0.720875,-0.524385,-1.299174,0.405730,2.055071,2.621277
3895.292000000,0.319962,0.721027,-0.524372,-1.299246,0.481746,2.055150,2.596479
3895.294000000,0.319838,0.720864,-0.524375,-1.299169,0.395781,2.055049,2.625138
3895.325000000,0.319960,0.721034,-0.524370,-1.299249,0.481747,2.055151,2.596479
3895.327000000,0.320018,0.720892,-0.524582,-1.299239,0.386531,2.055202,2.628786
3895.359000000,0.319960,0.721030,-0.524374,-1.299244,0.481745,2.055152,2.596478
3895.361000000,0.320041,0.720907,-0.524620,-1.299242,0.376558,2.055234,2.635583
3895.392000000,0.319965,0.721027,-0.524375,-1.299254,0.481748,2.055151,2.596480
3895.395000000,0.320060,0.720907,-0.524648,-1.299250,0.366414,2.055260,2.644078
3895.426000000,0.319965,0.721027,-0.524373,-1.299249,0.481747,2.055150,2.596478
3895.429000000,0.320103,0.720906,-0.524701,-1.299274,0.356143,2.055291,2.654322
3895.461000000,0.319962,0.721027,-0.524375,-1.299246,0.481748,2.055151,2.596483
3895.464000000,0.319912,0.720882,-0.524474,-1.299187,0.344837,2.055102,2.668364
3895.495000000,0.319965,0.721025,-0.524373,-1.299249,0.481746,2.055150,2.596477
3895.498000000,0.319899,0.720874,-0.524448,-1.299178,0.334042,2.055065,2.682528
3895.528000000,0.319962,0.721025,-0.524375,-1.299254,0.481744,2.055150,2.596483
3895.532000000,0.319868,0.720876,-0.524401,-1.299153,0.323024,2.055014,2.698702
3895.561000000,0.319962,0.721027,-0.524377,-1.299246,0.481747,2.055151,2.596479
3895.567000000,0.320055,0.720898,-0.524614,-1.299239,0.312261,2.055214,2.715748
3895.594000000,0.319968,0.721027,-0.524373,-1.299249,0.481745,2.055150,2.596482
3895.602000000,0.320376,0.721527,-0.524592,-1.299475,0.358908,2.055397,2.689016
3895.629000000,0.319965,0.721027,-0.524372,-1.299246,0.481748,2.055149,2.596483
3895.636000000,0.320365,0.721634,-0.524365,-1.299527,0.393459,2.055229,2.675375
3895.663000000,0.319965,0.721024,-0.524373,-1.299252,0.481748,2.055150,2.596475
3895.669000000,0.320081,0.721454,-0.524078,-1.299381,0.413466,2.054973,2.671611
3895.696000000,0.319960,0.721030,-0.524373,-1.299252,0.481746,2.055151,2.596485
3895.703000000,0.319974,0.721229,-0.524112,-1.299282,0.427130,2.054959,2.669344
3895.729000000,0.319962,0.721027,-0.524370,-1.299249,0.481746,2.055152,2.596482
3895.737000000,0.319863,0.721005,-0.524171,-1.299194,0.435393,2.054973,2.669082
3895.765000000,0.319968,0.721027,-0.524368,-1.299252,0.481748,2.055149,2.596486
3895.772000000,0.320010,0.720891,-0.524515,-1.299218,0.441502,2.055197,2.668078
3895.799000000,0.319965,0.721027,-0.524372,-1.299246,0.481746,2.055152,2.596484
3895.806000000,0.319949,0.720804,-0.524545,-1.299185,0.444969,2.055209,2.669263
3895.833000000,0.319962,0.721027,-0.524372,-1.299249,0.481746,2.055150,2.596483
3895.841000000,0.319732,0.720751,-0.524343,-1.299105,0.446633,2.055046,2.672237
3895.867000000,0.319960,0.721026,-0.524372,-1.299249,0.481746,2.055150,2.596478
3895.876000000,0.319941,0.720805,-0.524585,-1.299205,0.448775,2.055230,2.671987
3895.895000000,0.319968,0.721035,-0.524374,-1.299246,0.481747,2.055153,2.596487
3895.911000000,0.319963,0.720868,-0.524579,-1.299217,0.449751,2.055244,2.673352
3895.927000000,0.319965,0.721025,-0.524372,-1.299246,0.481746,2.055151,2.596475
3895.944000000,0.319975,0.720921,-0.524540,-1.299234,0.450322,2.055236,2.674681
3895.962000000,0.319960,0.721027,-0.524375,-1.299252,0.481745,2.055150,2.596483
3895.978000000,0.320013,0.720967,-0.524531,-1.299267,0.450721,2.055228,2.675837
3895.996000000,0.319962,0.721027,-0.524375,-1.299252,0.481748,2.055149,2.596477
3896.013000000,0.319822,0.720982,-0.524255,-1.299195,0.450358,2.055044,2.678518
3896.030000000,0.319968,0.721027,-0.524372,-1.299249,0.481746,2.055151,2.596482
3896.047000000,0.319855,0.721009,-0.524260,-1.299215,0.450534,2.055044,2.679401
3896.064000000,0.319962,0.721027,-0.524374,-1.299249,0.481746,2.055149,2.596488
3896.082000000,0.319869,0.721036,-0.524248,-1.299215,0.450626,2.055042,2.680195
3896.098000000,0.319965,0.721027,-0.524372,-1.299249,0.481746,2.055151,2.596479
3896.115000000,0.319865,0.721041,-0.524226,-1.299215,0.450701,2.055037,2.680852
3896.132000000,0.319962,0.721026,-0.524378,-1.299249,0.481747,2.055150,2.596484
3896.149000000,0.319881,0.721039,-0.524243,-1.299224,0.450755,2.055041,2.681419
3896.167000000,0.319962,0.721027,-0.524370,-1.299254,0.481748,2.055151,2.596484
3896.183000000,0.319817,0.720996,-0.524177,-1.299188,0.447861,2.054969,2.684142
3896.200000000,0.319968,0.721027,-0.524373,-1.299246,0.481747,2.055149,2.596479
3896.216000000,0.319755,0.720919,-0.524183,-1.299149,0.437975,2.054959,2.692562
3896.234000000,0.319960,0.721030,-0.524372,-1.299249,0.481748,2.055150,2.596479
3896.251000000,0.319720,0.720886,-0.524170,-1.299133,0.429231,2.054924,2.700847
3896.269000000,0.319960,0.721028,-0.524372,-1.299246,0.481746,2.055151,2.596482
3896.284000000,0.319683,0.720877,-0.524138,-1.299109,0.420136,2.054889,2.710169
3896.302000000,0.319968,0.721027,-0.524370,-1.299246,0.481749,2.055150,2.596477
3896.318000000,0.319864,0.720908,-0.524355,-1.299180,0.411895,2.055070,2.718421
3896.336000000,0.319960,0.721026,-0.524372,-1.299252,0.481748,2.055150,2.596480
3896.352000000,0.319851,0.720902,-0.524349,-1.299176,0.402732,2.055070,2.729535
3896.370000000,0.319960,0.721022,-0.524369,-1.299252,0.481744,2.055147,2.596484
3896.386000000,0.319891,0.720901,-0.524406,-1.299202,0.393655,2.055102,2.741593
3896.404000000,0.319965,0.721027,-0.524372,-1.299249,0.481748,2.055149,2.596483
3896.420000000,0.319923,0.720920,-0.524449,-1.299207,0.384448,2.055144,2.754811
3896.438000000,0.319962,0.721029,-0.524374,-1.299249,0.481747,2.055151,2.596482
3896.455000000,0.319742,0.720879,-0.524241,-1.299136,0.374203,2.054935,2.771333
3896.472000000,0.319962,0.721027,-0.524369,-1.299246,0.481746,2.055151,2.596475
3896.490000000,0.319937,0.720919,-0.524453,-1.299209,0.364916,2.055156,2.786065
3896.506000000,0.319965,0.721030,-0.524372,-1.299249,0.481749,2.055150,2.596478
3896.525000000,0.319745,0.720888,-0.524234,-1.299123,0.354234,2.054914,2.805539
3896.540000000,0.319960,0.721027,-0.524370,-1.299252,0.481747,2.055150,2.596478
3896.559000000,0.319720,0.720883,-0.524195,-1.299108,0.344221,2.054880,2.824396
3896.574000000,0.319962,0.721030,-0.524370,-1.299249,0.481745,2.055151,2.596485
3896.594000000,0.319918,0.720921,-0.524421,-1.299191,0.334380,2.055112,2.843776
3896.608000000,0.319968,0.721027,-0.524373,-1.299249,0.481746,2.055149,2.596483
3896.629000000,0.319716,0.720879,-0.524199,-1.299105,0.323159,2.054851,2.868113
3896.642000000,0.319965,0.721028,-0.524371,-1.299249,0.481746,2.055149,2.596478
3896.663000000,0.319695,0.720883,-0.524166,-1.299084,0.312577,2.054802,2.891971
3896.675000000,0.319959,0.721028,-0.524377,-1.299254,0.481747,2.055150,2.596479
3896.696000000,0.319821,0.720957,-0.524265,-1.299152,0.307866,2.054935,2.897307
3896.709000000,0.319962,0.721030,-0.524375,-1.299249,0.481747,2.055149,2.596477
3896.730000000,0.319822,0.721005,-0.524218,-1.299166,0.305517,2.054919,2.897302
3896.743000000,0.319962,0.721027,-0.524374,-1.299249,0.481745,2.055151,2.596481
3896.764000000,0.319863,0.721042,-0.524241,-1.299197,0.303728,2.054949,2.897548
3896.777000000,0.319960,0.721027,-0.524373,-1.299246,0.481746,2.055151,2.596478
3896.797000000,0.319850,0.721067,-0.524206,-1.299189,0.302296,2.054921,2.897347
3896.810000000,0.319965,0.721027,-0.524375,-1.299252,0.481747,2.055150,2.596480
3896.833000000,0.319856,0.721081,-0.524196,-1.299193,0.301250,2.054923,2.897306
3896.840000000,0.319955,0.721032,-0.524378,-1.299244,0.481749,2.055151,2.596481
3896.867000000,0.319877,0.721090,-0.524212,-1.299211,0.300516,2.054934,2.897352
3896.874000000,0.319965,0.721025,-0.524375,-1.299246,0.481745,2.055151,2.596475
3896.900000000,0.320339,0.721672,-0.524390,-1.299520,0.352467,2.055272,2.809709
3896.908000000,0.319965,0.721025,-0.524377,-1.299246,0.481746,2.055151,2.596482
3896.935000000,0.320118,0.721679,-0.523963,-1.299455,0.392583,2.054891,2.737254
3896.941000000,0.319965,0.721032,-0.524372,-1.299249,0.481745,2.055151,2.596480
3896.970000000,0.320226,0.721480,-0.524215,-1.299426,0.417145,2.055070,2.688950
3896.975000000,0.319965,0.721026,-0.524372,-1.299249,0.481747,2.055149,2.596483
3897.004000000,0.320129,0.721180,-0.524337,-1.299324,0.430906,2.055090,2.652832
3897.010000000,0.319965,0.721026,-0.524369,-1.299246,0.481745,2.055152,2.596478
3897.039000000,0.319794,0.720894,-0.524180,-1.299135,0.438825,2.054943,2.625326
3897.043000000,0.319957,0.721027,-0.524369,-1.299252,0.481745,2.055147,2.596485
3897.074000000,0.319943,0.720780,-0.524541,-1.299160,0.444523,2.055165,2.601546
3897.077000000,0.319962,0.721029,-0.524370,-1.299249,0.481746,2.055151,2.596485
3897.108000000,0.319890,0.720712,-0.524578,-1.299133,0.447427,2.055189,2.583853
3897.110000000,0.319965,0.721032,-0.524375,-1.299244,0.481747,2.055150,2.596477
3897.142000000,0.319891,0.720712,-0.524613,-1.299154,0.449248,2.055203,2.571739
3897.144000000,0.319965,0.721027,-0.524375,-1.299249,0.481746,2.055151,2.596481
3897.176000000,0.319912,0.720777,-0.524616,-1.299169,0.450310,2.055224,2.561463
3897.180000000,0.319965,0.721030,-0.524376,-1.299249,0.481747,2.055149,2.596479
3897.210000000,0.319929,0.720843,-0.524577,-1.299195,0.450864,2.055217,2.552806
3897.212000000,0.319965,0.721027,-0.524370,-1.299246,0.481747,2.055150,2.596477
