yuan18844-afk/dissertation/catkin_ws/src/franka_digital_twin/analysis/data/real_fast1_20250728_065921.csv
time,panda_joint1,panda_joint2,panda_joint3,panda_joint4,panda_joint5,panda_joint6,panda_joint7
5866.399000000,0.323563,1.044863,0.037856,-1.271732,-0.006474,2.493915,1.981912
5866.413000000,0.323738,1.045020,0.037965,-1.271872,0.212904,2.493870,1.544766
5866.433000000,0.323506,1.044880,0.037902,-1.271663,-0.019632,2.493791,2.023236
5866.450000000,0.323736,1.045014,0.037967,-1.271874,0.212903,2.493868,1.544766
5866.467000000,0.325006,1.045369,0.038385,-1.272297,0.047213,2.493933,1.910508
5866.484000000,0.323736,1.045018,0.037968,-1.271878,0.212903,2.493868,1.544766
5866.502000000,0.325239,1.045626,0.038801,-1.272212,0.098642,2.493656,1.804979
5866.519000000,0.323738,1.045022,0.037968,-1.271873,0.212904,2.493870,1.544762
5866.535000000,0.324864,1.045499,0.038659,-1.272114,0.130265,2.493646,1.724401
5866.554000000,0.323733,1.045020,0.037965,-1.271872,0.212903,2.493868,1.544772
5866.570000000,0.324294,1.045256,0.038270,-1.271986,0.150516,2.493729,1.665814
5866.588000000,0.323738,1.045019,0.037962,-1.271876,0.212904,2.493869,1.544760
5866.604000000,0.323658,1.045052,0.038038,-1.271822,0.161568,2.493757,1.624895
5866.621000000,0.323738,1.045020,0.037960,-1.271871,0.212903,2.493870,1.544760
5866.638000000,0.323294,1.044865,0.037713,-1.271770,0.170001,2.493825,1.586982
5866.655000000,0.323736,1.045020,0.037965,-1.271874,0.212901,2.493869,1.544761
5866.672000000,0.323052,1.044768,0.037575,-1.271718,0.174456,2.493861,1.559493
5866.689000000,0.323738,1.045023,0.037965,-1.271873,0.212903,2.493868,1.544769
5866.706000000,0.322990,1.044735,0.037530,-1.271705,0.177207,2.493889,1.538187
5866.723000000,0.323738,1.045019,0.037966,-1.271868,0.212903,2.493867,1.544768
5866.740000000,0.323059,1.044750,0.037557,-1.271718,0.178970,2.493905,1.522298
5866.754000000,0.323733,1.045025,0.037965,-1.271874,0.212902,2.493867,1.544769
5866.775000000,0.323145,1.044814,0.037695,-1.271702,0.179434,2.493913,1.512944
5866.789000000,0.323741,1.045022,0.037965,-1.271876,0.212902,2.493869,1.544760
5866.809000000,0.323320,1.044869,0.037787,-1.271736,0.180116,2.493912,1.506812
5866.823000000,0.323736,1.045020,0.037967,-1.271874,0.212904,2.493869,1.544765
5866.843000000,0.323486,1.044928,0.037878,-1.271771,0.180538,2.493907,1.505058
5866.856000000,0.323738,1.045015,0.037965,-1.271871,0.212903,2.493869,1.544763
5866.877000000,0.323627,1.044973,0.037953,-1.271798,0.180789,2.493900,1.507497
5866.889000000,0.323738,1.045020,0.037970,-1.271874,0.212905,2.493870,1.544767
5866.911000000,0.323732,1.044985,0.038007,-1.271834,0.180880,2.493896,1.514022
5866.924000000,0.323736,1.045022,0.037968,-1.271871,0.212902,2.493869,1.544764
5866.946000000,0.323855,1.045011,0.037987,-1.271860,0.181565,2.493879,1.523018
5866.957000000,0.323733,1.045020,0.037968,-1.271874,0.212902,2.493868,1.544768
5866.980000000,0.323887,1.045012,0.037992,-1.271878,0.181574,2.493882,1.537329
5866.990000000,0.323736,1.045023,0.037965,-1.271871,0.212902,2.493869,1.544767
5867.014000000,0.323891,1.045013,0.037994,-1.271883,0.181558,2.493879,1.554941
5867.023000000,0.323736,1.045017,0.037963,-1.271872,0.212904,2.493869,1.544764
5867.048000000,0.323872,1.045015,0.037987,-1.271890,0.181581,2.493868,1.571113
5867.055000000,0.323738,1.045019,0.037966,-1.271876,0.212902,2.493868,1.544766
5867.082000000,0.323842,1.045018,0.037972,-1.271895,0.181548,2.493862,1.584819
5867.082000000,0.323741,1.045020,0.037963,-1.271869,0.212902,2.493867,1.544769
5867.116000000,0.323810,1.045021,0.037955,-1.271899,0.181491,2.493857,1.596424
5867.123000000,0.323736,1.045012,0.037963,-1.271871,0.212903,2.493869,1.544769
5867.150000000,0.323783,1.045024,0.037940,-1.271900,0.181428,2.493855,1.606250
5867.157000000,0.323736,1.045020,0.037963,-1.271876,0.212903,2.493869,1.544761
5867.185000000,0.323699,1.045045,0.037989,-1.271855,0.180709,2.493841,1.616595
5867.190000000,0.323736,1.045025,0.037967,-1.271881,0.212903,2.493869,1.544769
5867.217000000,0.323752,1.045021,0.037920,-1.271905,0.181307,2.493854,1.621597
5867.224000000,0.323741,1.045018,0.037962,-1.271878,0.212899,2.493868,1.544764
5867.253000000,0.323682,1.045042,0.037979,-1.271857,0.180550,2.493838,1.629556
5867.258000000,0.323738,1.045023,0.037962,-1.271873,0.212904,2.493868,1.544768
5867.287000000,0.323682,1.045047,0.037981,-1.271858,0.180510,2.493837,1.634504
5867.291000000,0.323736,1.045018,0.037962,-1.271876,0.212901,2.493867,1.544760
5867.321000000,0.323686,1.045045,0.037982,-1.271855,0.180407,2.493838,1.638823
5867.325000000,0.323733,1.045023,0.037963,-1.271872,0.212902,2.493867,1.544767
5867.355000000,0.323694,1.045023,0.037985,-1.271870,0.180311,2.493841,1.642473
5867.360000000,0.323733,1.045022,0.037968,-1.271871,0.212902,2.493870,1.544769
5867.390000000,0.323755,1.045027,0.037939,-1.271885,0.180919,2.493852,1.643723
5867.392000000,0.323733,1.045020,0.037965,-1.271871,0.212902,2.493870,1.544766
5867.424000000,0.323763,1.045016,0.037930,-1.271896,0.180880,2.493859,1.646304
5867.426000000,0.323736,1.045020,0.037965,-1.271869,0.212903,2.493873,1.544762
5867.459000000,0.323705,1.045037,0.037992,-1.271847,0.180198,2.493841,1.650327
5867.459000000,0.323738,1.045018,0.037968,-1.271876,0.212903,2.493867,1.544769
5867.492000000,0.323736,1.045020,0.037965,-1.271872,0.212903,2.493868,1.544762
5867.494000000,0.323708,1.045035,0.037993,-1.271846,0.180161,2.493841,1.652172
5867.527000000,0.323730,1.045020,0.037962,-1.271874,0.212903,2.493867,1.544763
5867.527000000,0.323591,1.045020,0.037990,-1.271802,0.175666,2.493806,1.659085
5867.560000000,0.323736,1.045023,0.037965,-1.271878,0.212904,2.493869,1.544767
5867.561000000,0.323447,1.044982,0.037911,-1.271769,0.165082,2.493817,1.675095
5867.594000000,0.323736,1.045020,0.037960,-1.271879,0.212902,2.493869,1.544766
5867.595000000,0.323372,1.044961,0.037884,-1.271740,0.154716,2.493815,1.694363
5867.628000000,0.323738,1.045020,0.037962,-1.271876,0.212903,2.493868,1.544768
5867.632000000,0.323396,1.044939,0.037806,-1.271752,0.143846,2.493856,1.717514
5867.662000000,0.323738,1.045015,0.037968,-1.271872,0.212903,2.493869,1.544767
5867.665000000,0.323313,1.044916,0.037851,-1.271717,0.132731,2.493815,1.744859
5867.695000000,0.323738,1.045023,0.037966,-1.271871,0.212899,2.493869,1.544769
5867.700000000,0.323371,1.044912,0.037783,-1.271732,0.121927,2.493869,1.773620
5867.729000000,0.323738,1.045025,0.037968,-1.271878,0.212905,2.493869,1.544764
5867.734000000,0.323850,1.045098,0.038065,-1.271935,0.141060,2.493761,1.709423
5867.763000000,0.323739,1.045018,0.037966,-1.271876,0.212904,2.493868,1.544763
5867.768000000,0.324019,1.045203,0.038199,-1.271968,0.155133,2.493748,1.650376
5867.797000000,0.323736,1.045023,0.037965,-1.271876,0.212904,2.493867,1.544767
5867.802000000,0.324004,1.045204,0.038191,-1.271941,0.163845,2.493774,1.610043
5867.831000000,0.323733,1.045020,0.037965,-1.271869,0.212904,2.493870,1.544769
5867.836000000,0.323900,1.045152,0.038134,-1.271908,0.169734,2.493794,1.577391
5867.865000000,0.323736,1.045023,0.037962,-1.271876,0.212902,2.493870,1.544767
5867.870000000,0.323772,1.045087,0.038064,-1.271869,0.173598,2.493819,1.551102
5867.900000000,0.323742,1.045018,0.037965,-1.271880,0.212906,2.493869,1.544768
5867.904000000,0.323661,1.045026,0.038001,-1.271835,0.176059,2.493843,1.530564
5867.933000000,0.323738,1.045022,0.037965,-1.271874,0.212903,2.493868,1.544768
5867.939000000,0.323663,1.044966,0.037877,-1.271848,0.178404,2.493858,1.513027
5867.967000000,0.323736,1.045015,0.037965,-1.271869,0.212904,2.493870,1.544767
5867.973000000,0.323627,1.044936,0.037858,-1.271833,0.179311,2.493864,1.502789
5868.000000000,0.323738,1.045015,0.037965,-1.271876,0.212902,2.493870,1.544762
5868.007000000,0.323456,1.044891,0.037760,-1.271792,0.171312,2.493878,1.504590
5868.034000000,0.323733,1.045020,0.037962,-1.271871,0.212903,2.493870,1.544765
5868.041000000,0.323392,1.044855,0.037714,-1.271779,0.163313,2.493883,1.510458
5868.069000000,0.323736,1.045018,0.037962,-1.271873,0.212903,2.493873,1.544765
5868.075000000,0.323388,1.044849,0.037681,-1.271757,0.155056,2.493897,1.520461
5868.102000000,0.323741,1.045015,0.037970,-1.271872,0.212901,2.493869,1.544764
5868.108000000,0.323316,1.044826,0.037745,-1.271737,0.146283,2.493892,1.535435
5868.136000000,0.323736,1.045025,0.037970,-1.271873,0.212903,2.493868,1.544768
5868.142000000,0.323323,1.044819,0.037737,-1.271729,0.137751,2.493893,1.551617
5868.169000000,0.323736,1.045020,0.037965,-1.271869,0.212903,2.493870,1.544768
5868.176000000,0.323314,1.044813,0.037752,-1.271720,0.129030,2.493892,1.569908
5868.203000000,0.323733,1.045027,0.037965,-1.271874,0.212904,2.493868,1.544763
5868.212000000,0.323384,1.044816,0.037687,-1.271730,0.120582,2.493915,1.589500
5868.236000000,0.323738,1.045020,0.037968,-1.271871,0.212904,2.493869,1.544764
5868.245000000,0.323383,1.044809,0.037689,-1.271725,0.111682,2.493919,1.611933
5868.271000000,0.323733,1.045020,0.037968,-1.271874,0.212903,2.493869,1.544767
5868.283000000,0.323314,1.044802,0.037756,-1.271694,0.101813,2.493892,1.638087
5868.305000000,0.323736,1.045020,0.037965,-1.271874,0.212904,2.493869,1.544761
5868.315000000,0.323387,1.044785,0.037680,-1.271730,0.092950,2.493925,1.662499
5868.339000000,0.323740,1.045018,0.037965,-1.271868,0.212899,2.493868,1.544764
5868.349000000,0.323381,1.044779,0.037683,-1.271725,0.083462,2.493928,1.689837
5868.372000000,0.323736,1.045023,0.037966,-1.271876,0.212903,2.493869,1.544766
5868.384000000,0.323329,1.044792,0.037729,-1.271674,0.073017,2.493882,1.720409
5868.407000000,0.323736,1.045015,0.037965,-1.271871,0.212904,2.493866,1.544769
5868.419000000,0.323384,1.044772,0.037674,-1.271718,0.063520,2.493944,1.749254
5868.440000000,0.323733,1.045023,0.037965,-1.271879,0.212901,2.493869,1.544766
5868.454000000,0.323319,1.044767,0.037728,-1.271678,0.052535,2.493869,1.782741
5868.474000000,0.323738,1.045017,0.037965,-1.271876,0.212903,2.493870,1.544763
5868.488000000,0.323312,1.044762,0.037728,-1.271671,0.042206,2.493858,1.814665
5868.508000000,0.323738,1.045020,0.037970,-1.271871,0.212903,2.493868,1.544773
5868.522000000,0.323297,1.044759,0.037738,-1.271653,0.031553,2.493842,1.848030
5868.542000000,0.323736,1.045014,0.037968,-1.271871,0.212901,2.493869,1.544766
5868.557000000,0.323358,1.044762,0.037677,-1.271681,0.021206,2.493925,1.880998
5868.577000000,0.323736,1.045020,0.037968,-1.271871,0.212903,2.493867,1.544766
5868.591000000,0.323346,1.044745,0.037678,-1.271689,0.010304,2.493936,1.915388
5868.609000000,0.323733,1.045020,0.037966,-1.271871,0.212903,2.493868,1.544761
5868.625000000,0.323349,1.044738,0.037665,-1.271693,-0.000723,2.493956,1.950432
5868.642000000,0.323733,1.045020,0.037960,-1.271866,0.212904,2.493871,1.544765
5868.659000000,0.323354,1.044732,0.037654,-1.271699,-0.011875,2.493977,1.985924
5868.677000000,0.323738,1.045020,0.037967,-1.271876,0.212903,2.493868,1.544766
5868.693000000,0.323358,1.044725,0.037644,-1.271705,-0.023241,2.494000,2.022079
5868.711000000,0.323730,1.045023,0.037970,-1.271878,0.212902,2.493868,1.544769
5868.727000000,0.323363,1.044718,0.037632,-1.271711,-0.034813,2.494027,2.058963
5868.745000000,0.323741,1.045015,0.037968,-1.271874,0.212901,2.493869,1.544766
5868.761000000,0.323369,1.044710,0.037621,-1.271718,-0.046517,2.494054,2.096240
5868.777000000,0.323736,1.045023,0.037965,-1.271873,0.212903,2.493870,1.544764
5868.795000000,0.323314,1.044728,0.037666,-1.271648,-0.058780,2.493892,2.134805
5868.811000000,0.323738,1.045020,0.037960,-1.271876,0.212902,2.493869,1.544761
5868.829000000,0.323364,1.044703,0.037620,-1.271705,-0.070730,2.494048,2.172792
5868.846000000,0.323738,1.045022,0.037962,-1.271872,0.212901,2.493870,1.544772
5868.863000000,0.323368,1.044688,0.037601,-1.271722,-0.083018,2.494077,2.211622
5868.879000000,0.323733,1.045020,0.037963,-1.271874,0.212902,2.493867,1.544774
5868.897000000,0.323373,1.044678,0.037587,-1.271732,-0.095555,2.494112,2.251067
5868.914000000,0.323738,1.045015,0.037965,-1.271873,0.212903,2.493869,1.544771
5868.932000000,0.323314,1.044696,0.037634,-1.271645,-0.109547,2.493908,2.294450
5868.946000000,0.323741,1.045020,0.037960,-1.271874,0.212899,2.493869,1.544768
5868.966000000,0.323300,1.044692,0.037641,-1.271622,-0.122939,2.493857,2.336134
5868.981000000,0.323736,1.045018,0.037965,-1.271873,0.212903,2.493868,1.544768
5869.001000000,0.323347,1.044665,0.037591,-1.271694,-0.136166,2.494076,2.377536
5869.015000000,0.323736,1.045020,0.037965,-1.271869,0.212903,2.493870,1.544770
5869.034000000,0.325193,1.045517,0.038350,-1.272488,-0.042598,2.494019,2.200509
5869.049000000,0.323736,1.045020,0.037968,-1.271871,0.212903,2.493869,1.544761
5869.068000000,0.325850,1.045909,0.038914,-1.272506,0.039992,2.493803,2.038605
5869.083000000,0.323741,1.045017,0.037963,-1.271871,0.212903,2.493867,1.544768
5869.103000000,0.325476,1.045746,0.038898,-1.272256,0.096996,2.493653,1.933227
5869.117000000,0.323733,1.045018,0.037968,-1.271876,0.212904,2.493869,1.544758
5869.137000000,0.324589,1.045351,0.038440,-1.272010,0.127132,2.493692,1.851443
5869.151000000,0.323736,1.045015,0.037972,-1.271876,0.212903,2.493870,1.544761
5869.171000000,0.323726,1.044991,0.038004,-1.271815,0.147903,2.493745,1.781239
5869.184000000,0.323738,1.045020,0.037967,-1.271874,0.212903,2.493868,1.544771
5869.205000000,0.323064,1.044723,0.037626,-1.271682,0.160245,2.493803,1.723794
5869.217000000,0.323733,1.045023,0.037963,-1.271876,0.212901,2.493869,1.544764
5869.239000000,0.322691,1.044585,0.037398,-1.271614,0.168075,2.493865,1.675428
5869.251000000,0.323738,1.045020,0.037966,-1.271871,0.212900,2.493870,1.544766
5869.273000000,0.322567,1.044552,0.037322,-1.271598,0.172916,2.493896,1.634665
5869.285000000,0.323733,1.045023,0.037965,-1.271871,0.212902,2.493869,1.544765
5869.307000000,0.322651,1.044589,0.037348,-1.271626,0.175917,2.493916,1.600369
5869.317000000,0.323736,1.045018,0.037965,-1.271874,0.212903,2.493868,1.544763
5869.341000000,0.322857,1.044671,0.037450,-1.271675,0.177866,2.493920,1.571706
5869.351000000,0.323739,1.045017,0.037965,-1.271868,0.212903,2.493870,1.544766
5869.375000000,0.323115,1.044773,0.037585,-1.271730,0.179146,2.493918,1.548207
5869.386000000,0.323738,1.045023,0.037966,-1.271876,0.212900,2.493872,1.544761
5869.408000000,0.323290,1.044874,0.037794,-1.271744,0.179292,2.493913,1.531832
5869.418000000,0.323738,1.045022,0.037966,-1.271878,0.212904,2.493868,1.544767
5869.444000000,0.323601,1.044947,0.037827,-1.271813,0.180501,2.493901,1.515543
5869.452000000,0.323733,1.045015,0.037963,-1.271874,0.212900,2.493872,1.544768
5869.477000000,0.323767,1.045000,0.037915,-1.271845,0.180894,2.493891,1.505882
5869.485000000,0.323730,1.045020,0.037970,-1.271871,0.212902,2.493869,1.544768
5869.510000000,0.323795,1.045020,0.038047,-1.271851,0.180487,2.493884,1.502386
5869.520000000,0.323738,1.045020,0.037970,-1.271876,0.212904,2.493870,1.544768
5869.545000000,0.323929,1.045046,0.038004,-1.271873,0.181350,2.493881,1.499281
5869.554000000,0.323736,1.045025,0.037963,-1.271873,0.212904,2.493868,1.544761
5869.579000000,0.323945,1.045047,0.038012,-1.271875,0.181471,2.493880,1.502140
5869.587000000,0.323736,1.045017,0.037965,-1.271871,0.212900,2.493868,1.544763
5869.613000000,0.323935,1.045041,0.038005,-1.271872,0.181548,2.493881,1.508984
5869.622000000,0.323738,1.045025,0.037965,-1.271869,0.212904,2.493870,1.544766
5869.647000000,0.323909,1.045031,0.037990,-1.271866,0.181582,2.493884,1.519730
5869.648000000,0.323736,1.045017,0.037967,-1.271874,0.212903,2.493868,1.544768
5869.678000000,0.323735,1.045015,0.037962,-1.271874,0.212904,2.493870,1.544771
5869.681000000,0.323879,1.045021,0.037972,-1.271860,0.181585,2.493888,1.534283
5869.708000000,0.323741,1.045019,0.037965,-1.271871,0.212900,2.493867,1.544766
5869.717000000,0.323724,1.045005,0.038038,-1.271830,0.179555,2.493856,1.552958
5869.735000000,0.323741,1.045018,0.037970,-1.271869,0.212902,2.493872,1.544767
5869.750000000,0.323544,1.044976,0.037947,-1.271813,0.170682,2.493843,1.565656
5869.763000000,0.323739,1.045020,0.037968,-1.271872,0.212900,2.493870,1.544771
5869.783000000,0.323743,1.045000,0.037865,-1.271875,0.170743,2.493904,1.570033
5869.793000000,0.323733,1.045020,0.037968,-1.271873,0.212903,2.493870,1.544765
5869.818000000,0.323795,1.045047,0.038051,-1.271858,0.174382,2.493876,1.577857
5869.823000000,0.323733,1.045023,0.037963,-1.271874,0.212902,2.493868,1.544766
5869.850000000,0.323741,1.045020,0.037968,-1.271873,0.212902,2.493870,1.544768
5869.854000000,0.323918,1.045053,0.037999,-1.271884,0.177585,2.493875,1.587441
5869.878000000,0.323741,1.045022,0.037962,-1.271876,0.212903,2.493870,1.544767
5869.887000000,0.323859,1.045043,0.037993,-1.271862,0.177326,2.493854,1.601579
5869.913000000,0.323738,1.045020,0.037962,-1.271874,0.212903,2.493869,1.544765
5869.922000000,0.323604,1.044994,0.037961,-1.271806,0.167224,2.493846,1.628127
5869.947000000,0.323738,1.045020,0.037971,-1.271871,0.212901,2.493870,1.544767
5869.956000000,0.323513,1.044971,0.037918,-1.271785,0.157826,2.493845,1.653701
5869.983000000,0.323733,1.045022,0.037963,-1.271874,0.212903,2.493868,1.544766
5869.989000000,0.323457,1.044957,0.037907,-1.271767,0.148052,2.493838,1.681515
5870.017000000,0.323741,1.045018,0.037969,-1.271876,0.212902,2.493868,1.544768
5870.024000000,0.323421,1.044948,0.037905,-1.271752,0.138044,2.493829,1.710821
5870.052000000,0.323738,1.045022,0.037967,-1.271869,0.212903,2.493868,1.544761
5870.058000000,0.323396,1.044942,0.037910,-1.271739,0.127878,2.493818,1.741185
5870.086000000,0.323736,1.045022,0.037965,-1.271876,0.212902,2.493868,1.544762
5870.093000000,0.323445,1.044921,0.037846,-1.271772,0.117843,2.493858,1.771845
5870.120000000,0.323738,1.045015,0.037969,-1.271874,0.212904,2.493869,1.544767
5870.126000000,0.323370,1.044926,0.037904,-1.271726,0.106979,2.493799,1.805228
5870.154000000,0.323736,1.045020,0.037962,-1.271878,0.212904,2.493868,1.544774
5870.161000000,0.323430,1.044904,0.037837,-1.271768,0.096604,2.493858,1.837920
5870.189000000,0.323736,1.045017,0.037970,-1.271874,0.212904,2.493871,1.544761
5870.195000000,0.323427,1.044902,0.037829,-1.271769,0.085744,2.493871,1.872343
5870.223000000,0.323736,1.045022,0.037962,-1.271876,0.212900,2.493869,1.544769
5870.228000000,0.323358,1.044909,0.037886,-1.271716,0.074305,2.493790,1.908429
5870.257000000,0.323733,1.045022,0.037966,-1.271876,0.212901,2.493869,1.544765
5870.262000000,0.323352,1.044893,0.037882,-1.271714,0.062964,2.493761,1.944712
5870.292000000,0.323736,1.045018,0.037967,-1.271878,0.212904,2.493868,1.544763
5870.296000000,0.323339,1.044889,0.037889,-1.271701,0.051413,2.493733,1.981695
5870.325000000,0.323736,1.045018,0.037963,-1.271874,0.212904,2.493870,1.544769
5870.330000000,0.323323,1.044884,0.037895,-1.271689,0.039647,2.493701,2.019362
5870.359000000,0.323738,1.045025,0.037970,-1.271873,0.212898,2.493869,1.544768
5870.365000000,0.323380,1.044884,0.037838,-1.271721,0.028113,2.493817,2.056769
5870.393000000,0.323741,1.045023,0.037968,-1.271874,0.212903,2.493870,1.544768
5870.402000000,0.323304,1.044879,0.037895,-1.271668,0.015015,2.493678,2.098450
5870.419000000,0.323744,1.045014,0.037962,-1.271879,0.212901,2.493870,1.544765
5870.433000000,0.324668,1.045346,0.038352,-1.272236,0.075752,2.493775,1.952945
5870.456000000,0.323736,1.045020,0.037965,-1.271868,0.212903,2.493869,1.544768
5870.468000000,0.324218,1.045264,0.038257,-1.271921,0.072776,2.493767,1.977392
5870.490000000,0.323730,1.045020,0.037970,-1.271873,0.212900,2.493868,1.544767
5870.501000000,0.324783,1.045403,0.038470,-1.272231,0.115336,2.493716,1.869372
5870.525000000,0.323741,1.045018,0.037967,-1.271871,0.212902,2.493869,1.544769
5870.535000000,0.324645,1.045419,0.038456,-1.272152,0.142735,2.493678,1.773946
5870.559000000,0.323733,1.045020,0.037966,-1.271874,0.212904,2.493868,1.544764
5870.569000000,0.324219,1.045283,0.038229,-1.272032,0.157768,2.493709,1.700826
5870.593000000,0.323741,1.045017,0.037963,-1.271871,0.212904,2.493869,1.544762
5870.605000000,0.323777,1.045109,0.037968,-1.271894,0.167173,2.493763,1.645748
5870.627000000,0.323736,1.045018,0.037967,-1.271876,0.212902,2.493869,1.544768
5870.638000000,0.323395,1.044961,0.037859,-1.271796,0.171894,2.493796,1.605428
5870.661000000,0.323736,1.045023,0.037966,-1.271876,0.212902,2.493868,1.544771
5870.672000000,0.323216,1.044863,0.037755,-1.271748,0.175411,2.493842,1.574137
5870.692000000,0.323739,1.045020,0.037965,-1.271874,0.212898,2.493868,1.544767
5870.707000000,0.323240,1.044824,0.037644,-1.271742,0.178361,2.493884,1.546198
5870.722000000,0.323741,1.045020,0.037969,-1.271877,0.212903,2.493869,1.544771
5870.742000000,0.323198,1.044823,0.037749,-1.271718,0.179099,2.493902,1.527442
5870.760000000,0.323738,1.045020,0.037965,-1.271874,0.212899,2.493870,1.544761
5870.775000000,0.323378,1.044848,0.037712,-1.271753,0.180552,2.493911,1.511097
5870.796000000,0.323738,1.045015,0.037968,-1.271871,0.212904,2.493869,1.544758
5870.809000000,0.323489,1.044874,0.037785,-1.271788,0.181007,2.493911,1.500686
5870.830000000,0.323736,1.045017,0.037965,-1.271871,0.212899,2.493869,1.544761
5870.843000000,0.323610,1.044914,0.037849,-1.271812,0.181338,2.493908,1.494636
5870.864000000,0.323738,1.045018,0.037962,-1.271876,0.212901,2.493869,1.544766
5870.877000000,0.323713,1.044950,0.037903,-1.271832,0.181535,2.493903,1.492854
5870.897000000,0.323736,1.045012,0.037966,-1.271869,0.212904,2.493869,1.544769
5870.912000000,0.323789,1.044977,0.037943,-1.271849,0.181650,2.493899,1.495198
5870.932000000,0.323736,1.045020,0.037963,-1.271876,0.212901,2.493872,1.544765
5870.948000000,0.323837,1.044996,0.037969,-1.271860,0.181711,2.493896,1.501558
5870.966000000,0.323738,1.045019,0.037963,-1.271873,0.212904,2.493869,1.544773
5870.980000000,0.323796,1.045003,0.038043,-1.271846,0.181089,2.493889,1.513965
5871.000000000,0.323738,1.045020,0.037967,-1.271876,0.212902,2.493869,1.544760
5871.018000000,0.323744,1.045018,0.038052,-1.271824,0.179277,2.493852,1.528342
5871.035000000,0.323736,1.045012,0.037962,-1.271876,0.212903,2.493868,1.544758
5871.051000000,0.323640,1.044977,0.037918,-1.271849,0.171134,2.493844,1.535407
5871.060000000,0.323733,1.045020,0.037962,-1.271878,0.212904,2.493867,1.544762
5871.085000000,0.323568,1.044965,0.037871,-1.271836,0.162170,2.493853,1.546142
5871.102000000,0.323736,1.045025,0.037966,-1.271874,0.212903,2.493868,1.544758
5871.120000000,0.323485,1.044972,0.037904,-1.271786,0.152234,2.493851,1.562943
5871.136000000,0.323736,1.045023,0.037968,-1.271871,0.212904,2.493869,1.544769
5871.154000000,0.323469,1.044967,0.037902,-1.271774,0.142868,2.493851,1.581474
5871.170000000,0.323738,1.045020,0.037968,-1.271871,0.212903,2.493869,1.544758
5871.188000000,0.323459,1.044962,0.037909,-1.271758,0.133398,2.493847,1.602494
5871.205000000,0.323738,1.045018,0.037968,-1.271873,0.212903,2.493869,1.544761
5871.223000000,0.323507,1.044941,0.037864,-1.271776,0.124004,2.493862,1.625026
5871.237000000,0.323738,1.045022,0.037968,-1.271876,0.212904,2.493868,1.544758
5871.257000000,0.323505,1.044934,0.037858,-1.271770,0.114108,2.493867,1.650660
5871.269000000,0.323736,1.045020,0.037967,-1.271876,0.212904,2.493869,1.544761
5871.290000000,0.323440,1.044933,0.037912,-1.271737,0.103756,2.493840,1.678326
5871.302000000,0.323739,1.045020,0.037963,-1.271869,0.212898,2.493870,1.544757
5871.325000000,0.323506,1.044913,0.037845,-1.271772,0.093830,2.493876,1.705768
5871.335000000,0.323738,1.045020,0.037970,-1.271871,0.212897,2.493868,1.544760
5871.359000000,0.323509,1.044905,0.037839,-1.271772,0.083486,2.493883,1.735616
5871.365000000,0.323736,1.045012,0.037966,-1.271877,0.212899,2.493867,1.544761
5871.393000000,0.324080,1.045082,0.038097,-1.271997,0.103202,2.493847,1.706554
5871.397000000,0.323736,1.045019,0.037968,-1.271871,0.212904,2.493868,1.544767
5871.426000000,0.324501,1.045268,0.038316,-1.272058,0.132000,2.493810,1.655028
5871.428000000,0.323736,1.045022,0.037960,-1.271876,0.212904,2.493869,1.544760
5871.461000000,0.324367,1.045273,0.038378,-1.271990,0.149931,2.493759,1.618799
5871.461000000,0.323738,1.045015,0.037966,-1.271873,0.212898,2.493868,1.544771
5871.492000000,0.323733,1.045018,0.037973,-1.271876,0.212902,2.493868,1.544766
5871.495000000,0.324109,1.045191,0.038248,-1.271932,0.161145,2.493775,1.592493
5871.524000000,0.323736,1.045020,0.037968,-1.271869,0.212899,2.493869,1.544762
5871.529000000,0.323665,1.045075,0.038078,-1.271787,0.160350,2.493769,1.591587
5871.555000000,0.323736,1.045020,0.037969,-1.271874,0.212903,2.493867,1.544764
5871.563000000,0.323301,1.044952,0.037885,-1.271708,0.150313,2.493793,1.606019
5871.587000000,0.323738,1.045017,0.037965,-1.271876,0.212902,2.493869,1.544765
5871.597000000,0.323110,1.044887,0.037794,-1.271655,0.140216,2.493803,1.624170
5871.618000000,0.323738,1.045020,0.037963,-1.271880,0.212903,2.493871,1.544768
5871.631000000,0.323004,1.044849,0.037749,-1.271617,0.129781,2.493807,1.646079
5871.651000000,0.323742,1.045022,0.037965,-1.271871,0.212903,2.493870,1.544768
5871.665000000,0.322943,1.044827,0.037729,-1.271589,0.119178,2.493805,1.671202
5871.685000000,0.323730,1.045012,0.037967,-1.271871,0.212903,2.493869,1.544767
5871.701000000,0.322963,1.044798,0.037666,-1.271613,0.108629,2.493851,1.697475
5871.719000000,0.323740,1.045015,0.037963,-1.271873,0.212903,2.493868,1.544766
5871.734000000,0.323704,1.044981,0.037908,-1.271868,0.134925,2.493863,1.659746
5871.755000000,0.323736,1.045022,0.037966,-1.271871,0.212903,2.493869,1.544769
5871.770000000,0.323963,1.045092,0.038078,-1.271906,0.152710,2.493827,1.633086
5871.784000000,0.323741,1.045019,0.037968,-1.271876,0.212902,2.493869,1.544767
5871.804000000,0.323910,1.045122,0.038152,-1.271857,0.162924,2.493799,1.618443
5871.815000000,0.323741,1.045018,0.037965,-1.271874,0.212902,2.493869,1.544758
5871.838000000,0.323826,1.045068,0.038097,-1.271858,0.169528,2.493817,1.610168
5871.847000000,0.323736,1.045020,0.037965,-1.271872,0.212899,2.493866,1.544757
5871.873000000,0.323759,1.045027,0.037975,-1.271851,0.174199,2.493835,1.606523
5871.881000000,0.323736,1.045018,0.037965,-1.271879,0.212902,2.493869,1.544758
5871.908000000,0.323606,1.044999,0.037962,-1.271799,0.176067,2.493845,1.611956
5871.915000000,0.323731,1.045020,0.037965,-1.271874,0.212902,2.493870,1.544763
5871.941000000,0.323616,1.044953,0.037867,-1.271843,0.178361,2.493867,1.616262
5871.951000000,0.323738,1.045020,0.037965,-1.271876,0.212904,2.493869,1.544763
5871.976000000,0.323528,1.044967,0.037911,-1.271798,0.178757,2.493855,1.624164
5871.985000000,0.323733,1.045025,0.037965,-1.271872,0.212903,2.493868,1.544765
5872.010000000,0.323534,1.044972,0.037910,-1.271805,0.179416,2.493855,1.629512
5872.019000000,0.323736,1.045018,0.037963,-1.271871,0.212905,2.493870,1.544762
5872.044000000,0.323558,1.044986,0.037920,-1.271814,0.179800,2.493853,1.634198
5872.051000000,0.323741,1.045020,0.037968,-1.271869,0.212904,2.493867,1.544765
5872.078000000,0.323592,1.045002,0.037936,-1.271824,0.180010,2.493850,1.638265
5872.083000000,0.323736,1.045020,0.037965,-1.271878,0.212904,2.493869,1.544761
5872.112000000,0.323629,1.045017,0.037954,-1.271833,0.180132,2.493847,1.641777
5872.115000000,0.323736,1.045019,0.037968,-1.271874,0.212903,2.493867,1.544765
5872.147000000,0.323722,1.045014,0.037919,-1.271884,0.180839,2.493871,1.643092
5872.148000000,0.323736,1.045015,0.037970,-1.271871,0.212903,2.493870,1.544766
5872.182000000,0.323738,1.045020,0.037965,-1.271876,0.212903,2.493869,1.544771
5872.183000000,0.323686,1.045020,0.037990,-1.271863,0.180203,2.493840,1.647584
5872.215000000,0.323736,1.045025,0.037968,-1.271872,0.212900,2.493869,1.544761
5872.217000000,0.323724,1.045029,0.037939,-1.271865,0.179088,2.493842,1.649921
5872.250000000,0.323733,1.045020,0.037963,-1.271874,0.212902,2.493867,1.544768
5872.251000000,0.323579,1.044988,0.037852,-1.271838,0.169270,2.493856,1.664115
5872.284000000,0.323738,1.045020,0.037965,-1.271868,0.212903,2.493868,1.544763
5872.285000000,0.323532,1.044972,0.037811,-1.271818,0.160199,2.493872,1.681168
5872.319000000,0.323738,1.045022,0.037965,-1.271873,0.212902,2.493868,1.544769
5872.319000000,0.323517,1.044958,0.037783,-1.271808,0.150759,2.493886,1.701927
5872.352000000,0.323738,1.045017,0.037965,-1.271873,0.212902,2.493869,1.544769
5872.354000000,0.323443,1.044935,0.037830,-1.271780,0.140200,2.493846,1.728624
5872.385000000,0.323733,1.045017,0.037960,-1.271876,0.212904,2.493872,1.544767
5872.388000000,0.323437,1.044928,0.037829,-1.271768,0.130265,2.493841,1.756242
5872.420000000,0.323741,1.045020,0.037965,-1.271876,0.212902,2.493868,1.544762
5872.424000000,0.323497,1.044928,0.037770,-1.271784,0.120437,2.493893,1.784821
5872.449000000,0.323741,1.045020,0.037966,-1.271876,0.212902,2.493869,1.544765
5872.458000000,0.323417,1.044919,0.037837,-1.271745,0.109180,2.493828,1.818137
5872.484000000,0.323738,1.045017,0.037962,-1.271873,0.212904,2.493868,1.544761
5872.491000000,0.323487,1.044916,0.037762,-1.271773,0.099596,2.493899,1.846566
5872.518000000,0.323741,1.045023,0.037965,-1.271871,0.212902,2.493869,1.544767
5872.525000000,0.323487,1.044910,0.037755,-1.271769,0.088913,2.493907,1.879505
5872.553000000,0.323738,1.045019,0.037960,-1.271872,0.212903,2.493869,1.544769
5872.559000000,0.323495,1.044905,0.037740,-1.271771,0.078204,2.493924,1.912753
5872.586000000,0.323736,1.045020,0.037965,-1.271876,0.212902,2.493868,1.544761
5872.593000000,0.323503,1.044901,0.037726,-1.271772,0.067293,2.493942,1.946855
5872.620000000,0.323733,1.045020,0.037965,-1.271874,0.212898,2.493869,1.544761
5872.628000000,0.323434,1.044896,0.037784,-1.271729,0.055152,2.493835,1.984682
5872.653000000,0.323733,1.045017,0.037962,-1.271874,0.212905,2.493869,1.544766
5872.663000000,0.323494,1.044875,0.037723,-1.271779,0.043975,2.493941,2.020262
5872.688000000,0.323741,1.045023,0.037968,-1.271876,0.212899,2.493869,1.544758
5872.697000000,0.323493,1.044866,0.037713,-1.271784,0.032298,2.493956,2.057443
5872.723000000,0.323736,1.045020,0.037966,-1.271871,0.212903,2.493869,1.544763
5872.732000000,0.323493,1.044862,0.037702,-1.271791,0.020408,2.493984,2.095315
5872.756000000,0.323733,1.045022,0.037968,-1.271871,0.212901,2.493868,1.544765
5872.766000000,0.323443,1.044858,0.037743,-1.271737,0.007310,2.493839,2.136791
5872.791000000,0.323738,1.045017,0.037965,-1.271871,0.212902,2.493868,1.544762
5872.799000000,0.323415,1.044860,0.037758,-1.271714,-0.005272,2.493799,2.176167
5872.825000000,0.323733,1.045020,0.037963,-1.271876,0.212905,2.493869,1.544771
5872.834000000,0.324864,1.045366,0.038312,-1.272323,0.060184,2.493903,2.030901
5872.859000000,0.323736,1.045022,0.037965,-1.271873,0.212903,2.493869,1.544764
5872.868000000,0.325214,1.045577,0.038641,-1.272267,0.110168,2.493772,1.925995
5872.893000000,0.323736,1.045023,0.037965,-1.271869,0.212903,2.493868,1.544768
5872.903000000,0.324722,1.045466,0.038578,-1.272094,0.138000,2.493629,1.837110
5872.928000000,0.323741,1.045025,0.037963,-1.271874,0.212903,2.493870,1.544765
5872.936000000,0.324215,1.045260,0.038228,-1.271991,0.154900,2.493717,1.764845
5872.961000000,0.323733,1.045022,0.037965,-1.271878,0.212900,2.493868,1.544769
5872.970000000,0.323671,1.045047,0.037916,-1.271881,0.165130,2.493765,1.703172
5872.995000000,0.323738,1.045025,0.037968,-1.271876,0.212903,2.493869,1.544768
5873.005000000,0.323204,1.044914,0.037752,-1.271740,0.170763,2.493795,1.651051
5873.030000000,0.323736,1.045020,0.037965,-1.271869,0.212903,2.493869,1.544766
5873.039000000,0.323016,1.044820,0.037637,-1.271690,0.174658,2.493849,1.613090
5873.064000000,0.323731,1.045020,0.037965,-1.271873,0.212903,2.493868,1.544767
5873.072000000,0.322979,1.044784,0.037612,-1.271674,0.176953,2.493881,1.581315
5873.097000000,0.323741,1.045020,0.037968,-1.271874,0.212901,2.493869,1.544769
5873.107000000,0.323058,1.044793,0.037649,-1.271685,0.178440,2.493902,1.555088
5873.131000000,0.323739,1.045015,0.037968,-1.271876,0.212904,2.493868,1.544763
5873.141000000,0.323204,1.044826,0.037722,-1.271711,0.179403,2.493909,1.534647
5873.162000000,0.323736,1.045018,0.037965,-1.271871,0.212903,2.493868,1.544760
5873.175000000,0.323371,1.044873,0.037810,-1.271743,0.180021,2.493909,1.518934
5873.192000000,0.323738,1.045023,0.037965,-1.271877,0.212903,2.493868,1.544760
5873.209000000,0.323524,1.044927,0.037897,-1.271772,0.180424,2.493906,1.507733
5873.225000000,0.323736,1.045017,0.037965,-1.271871,0.212903,2.493869,1.544768
5873.243000000,0.323653,1.044968,0.037965,-1.271798,0.180691,2.493901,1.500878
5873.261000000,0.323733,1.045022,0.037968,-1.271874,0.212904,2.493868,1.544769
5873.277000000,0.323747,1.044979,0.038014,-1.271832,0.180817,2.493899,1.498292
5873.295000000,0.323736,1.045022,0.037968,-1.271879,0.212901,2.493870,1.544764
5873.311000000,0.323870,1.045011,0.037969,-1.271855,0.181587,2.493890,1.497884
5873.329000000,0.323738,1.045025,0.037967,-1.271871,0.212901,2.493868,1.544763
5873.345000000,0.323895,1.045022,0.037983,-1.271863,0.181647,2.493888,1.503270
5873.359000000,0.323738,1.045018,0.037965,-1.271871,0.212903,2.493869,1.544762
5873.380000000,0.323815,1.045024,0.038069,-1.271844,0.180992,2.493890,1.514713
5873.391000000,0.323736,1.045023,0.037965,-1.271871,0.212903,2.493869,1.544768
5873.412000000,0.323887,1.045026,0.037977,-1.271863,0.181660,2.493889,1.525747
5873.422000000,0.323738,1.045020,0.037962,-1.271873,0.212900,2.493871,1.544771
5873.447000000,0.323785,1.045018,0.038050,-1.271840,0.180943,2.493888,1.544998
5873.457000000,0.323738,1.045019,0.037967,-1.271869,0.212903,2.493869,1.544762
5873.481000000,0.323761,1.045014,0.038039,-1.271844,0.180958,2.493877,1.562940
5873.485000000,0.323733,1.045023,0.037965,-1.271876,0.212903,2.493869,1.544768
5873.512000000,0.323736,1.045017,0.037965,-1.271876,0.212901,2.493869,1.544772
5873.516000000,0.323806,1.045003,0.037950,-1.271885,0.181593,2.493870,1.576821
5873.548000000,0.323740,1.045018,0.037963,-1.271876,0.212902,2.493870,1.544772
5873.550000000,0.323751,1.045004,0.037936,-1.271879,0.180526,2.493852,1.590822
5873.576000000,0.323739,1.045020,0.037968,-1.271872,0.212903,2.493868,1.544768
5873.591000000,0.323572,1.044962,0.037825,-1.271860,0.169799,2.493855,1.615624
5873.618000000,0.323741,1.045020,0.037970,-1.271871,0.212903,2.493870,1.544763
5873.624000000,0.323509,1.044940,0.037774,-1.271851,0.160397,2.493863,1.639375
5873.651000000,0.323736,1.045018,0.037966,-1.271873,0.212903,2.493869,1.544766
5873.659000000,0.323418,1.044944,0.037801,-1.271798,0.149702,2.493842,1.668299
5873.684000000,0.323733,1.045023,0.037968,-1.271876,0.212902,2.493868,1.544758
5873.695000000,0.323390,1.044941,0.037795,-1.271785,0.139536,2.493833,1.696159
5873.703000000,0.323733,1.045023,0.037965,-1.271876,0.212904,2.493869,1.544768
5873.729000000,0.323366,1.044915,0.037798,-1.271785,0.128458,2.493821,1.728164
5873.746000000,0.323736,1.045022,0.037967,-1.271873,0.212905,2.493870,1.544768
5873.762000000,0.323406,1.044911,0.037751,-1.271795,0.118592,2.493856,1.757324
5873.781000000,0.323738,1.045022,0.037965,-1.271876,0.212900,2.493869,1.544761
5873.796000000,0.323343,1.044904,0.037793,-1.271761,0.106898,2.493809,1.792790
5873.815000000,0.323736,1.045020,0.037962,-1.271874,0.212904,2.493870,1.544767
5873.832000000,0.323387,1.044896,0.037741,-1.271790,0.095964,2.493870,1.825768
5873.849000000,0.323736,1.045025,0.037968,-1.271869,0.212903,2.493869,1.544761
5873.866000000,0.323387,1.044886,0.037730,-1.271792,0.084661,2.493884,1.861113
5873.882000000,0.323733,1.045022,0.037965,-1.271873,0.212900,2.493868,1.544764
5873.901000000,0.323389,1.044877,0.037717,-1.271795,0.073138,2.493902,1.897380
5873.916000000,0.323736,1.045015,0.037968,-1.271869,0.212901,2.493869,1.544761
5873.935000000,0.324242,1.045162,0.038067,-1.272132,0.108480,2.493847,1.811456
5873.950000000,0.323733,1.045022,0.037966,-1.271874,0.212901,2.493869,1.544769
5873.969000000,0.324470,1.045319,0.038280,-1.272125,0.135094,2.493763,1.736609
5873.983000000,0.323738,1.045018,0.037967,-1.271874,0.212903,2.493869,1.544761
5874.004000000,0.324269,1.045316,0.038306,-1.272013,0.151605,2.493707,1.675810
5874.018000000,0.323736,1.045020,0.037962,-1.271868,0.212903,2.493870,1.544770
5874.038000000,0.323995,1.045218,0.038171,-1.271932,0.161932,2.493743,1.626463
5874.052000000,0.323741,1.045023,0.037965,-1.271871,0.212902,2.493868,1.544766
5874.073000000,0.323734,1.045100,0.038023,-1.271856,0.168546,2.493795,1.593719
5874.087000000,0.323744,1.045017,0.037963,-1.271872,0.212902,2.493868,1.544763
5874.107000000,0.323581,1.044979,0.037857,-1.271827,0.173507,2.493828,1.565249
5874.121000000,0.323736,1.045020,0.037970,-1.271876,0.212904,2.493869,1.544763
5874.141000000,0.323465,1.044911,0.037787,-1.271792,0.176224,2.493855,1.545233
5874.155000000,0.323738,1.045020,0.037966,-1.271873,0.212901,2.493868,1.544766
5874.174000000,0.323356,1.044883,0.037830,-1.271757,0.177352,2.493883,1.532593
5874.189000000,0.323743,1.045020,0.037971,-1.271868,0.212902,2.493868,1.544763
5874.209000000,0.323455,1.044865,0.037762,-1.271791,0.179245,2.493890,1.520564
5874.222000000,0.323733,1.045020,0.037968,-1.271876,0.212901,2.493870,1.544768
5874.243000000,0.323518,1.044880,0.037794,-1.271799,0.180057,2.493895,1.515255
5874.255000000,0.323738,1.045018,0.037963,-1.271869,0.212903,2.493869,1.544761
5874.277000000,0.323596,1.044903,0.037835,-1.271815,0.180583,2.493896,1.514331
5874.289000000,0.323736,1.045022,0.037965,-1.271879,0.212904,2.493868,1.544760
5874.311000000,0.323674,1.044929,0.037875,-1.271831,0.180921,2.493895,1.517603
5874.322000000,0.323738,1.045022,0.037968,-1.271872,0.212905,2.493869,1.544768
5874.345000000,0.323740,1.044954,0.037910,-1.271846,0.181135,2.493893,1.524913
5874.355000000,0.323744,1.045013,0.037968,-1.271878,0.212902,2.493869,1.544762
5874.379000000,0.323789,1.044974,0.037937,-1.271858,0.181257,2.493891,1.536138
5874.389000000,0.323730,1.045020,0.037966,-1.271873,0.212903,2.493868,1.544764
5874.413000000,0.323824,1.044985,0.037952,-1.271870,0.181317,2.493889,1.551154
5874.422000000,0.323736,1.045025,0.037968,-1.271873,0.212904,2.493869,1.544762
5874.448000000,0.323837,1.044994,0.037963,-1.271881,0.181413,2.493879,1.567710
5874.456000000,0.323738,1.045015,0.037966,-1.271872,0.212902,2.493868,1.544763
5874.480000000,0.323753,1.045024,0.038042,-1.271850,0.180751,2.493869,1.583377
5874.490000000,0.323738,1.045022,0.037966,-1.271868,0.212904,2.493868,1.544763
5874.515000000,0.323813,1.045021,0.037958,-1.271895,0.181396,2.493866,1.594021
5874.524000000,0.323741,1.045020,0.037966,-1.271874,0.212902,2.493873,1.544769
5874.549000000,0.323802,1.045039,0.037940,-1.271885,0.181323,2.493865,1.604277
5874.558000000,0.323736,1.045020,0.037962,-1.271876,0.212903,2.493869,1.544760
5874.583000000,0.323786,1.045043,0.037932,-1.271889,0.181281,2.493862,1.612866
5874.592000000,0.323740,1.045023,0.037965,-1.271871,0.212902,2.493870,1.544768
5874.617000000,0.323773,1.045045,0.037926,-1.271890,0.181234,2.493860,1.620148
5874.626000000,0.323736,1.045017,0.037963,-1.271868,0.212902,2.493869,1.544768
5874.651000000,0.323767,1.045045,0.037920,-1.271888,0.181186,2.493861,1.626334
5874.660000000,0.323733,1.045018,0.037968,-1.271873,0.212902,2.493868,1.544757
5874.685000000,0.323762,1.045042,0.037918,-1.271887,0.181132,2.493862,1.631576
5874.693000000,0.323733,1.045019,0.037965,-1.271876,0.212902,2.493867,1.544771
5874.719000000,0.323761,1.045038,0.037920,-1.271887,0.181090,2.493860,1.635958
5874.728000000,0.323736,1.045018,0.037965,-1.271876,0.212904,2.493868,1.544768
5874.753000000,0.323762,1.045035,0.037921,-1.271886,0.181027,2.493860,1.639765
5874.762000000,0.323738,1.045019,0.037968,-1.271876,0.212902,2.493868,1.544762
5874.787000000,0.323766,1.045032,0.037922,-1.271884,0.180997,2.493863,1.642872
5874.796000000,0.323738,1.045020,0.037968,-1.271873,0.212902,2.493869,1.544765
5874.821000000,0.323771,1.045029,0.037924,-1.271884,0.180953,2.493865,1.645576
5874.829000000,0.323738,1.045023,0.037963,-1.271874,0.212901,2.493867,1.544762
5874.856000000,0.323696,1.045024,0.038004,-1.271861,0.180252,2.493840,1.649641
5874.864000000,0.323736,1.045018,0.037965,-1.271871,0.212904,2.493869,1.544760
5874.890000000,0.323700,1.045024,0.038004,-1.271859,0.180209,2.493842,1.651581
5874.897000000,0.323736,1.045015,0.037969,-1.271877,0.212899,2.493869,1.544765
5874.924000000,0.323699,1.045029,0.038010,-1.271855,0.180185,2.493846,1.653178
5874.932000000,0.323738,1.045020,0.037965,-1.271873,0.212904,2.493869,1.544765
5874.958000000,0.323699,1.045029,0.038011,-1.271854,0.180140,2.493846,1.654568
5874.965000000,0.323738,1.045019,0.037963,-1.271874,0.212902,2.493867,1.544774
5874.992000000,0.323706,1.045015,0.037997,-1.271862,0.180075,2.493840,1.655792
5875.000000000,0.323736,1.045018,0.037963,-1.271872,0.212902,2.493869,1.544767
5875.026000000,0.323604,1.045004,0.038001,-1.271827,0.176447,2.493804,1.660862
5875.033000000,0.323739,1.045014,0.037973,-1.271874,0.212902,2.493869,1.544763
5875.060000000,0.323677,1.045010,0.037987,-1.271876,0.176751,2.493825,1.653618
5875.068000000,0.323736,1.045018,0.037968,-1.271874,0.212903,2.493870,1.544764
5875.095000000,0.323646,1.045013,0.037923,-1.271839,0.172480,2.493834,1.656916
5875.100000000,0.323736,1.045025,0.037965,-1.271877,0.212902,2.493870,1.544768
5875.129000000,0.323540,1.044969,0.037836,-1.271820,0.162376,2.493857,1.672768
5875.135000000,0.323736,1.045023,0.037968,-1.271871,0.212904,2.493867,1.544769
5875.163000000,0.323494,1.044945,0.037791,-1.271803,0.152348,2.493872,1.691993
5875.169000000,0.323738,1.045023,0.037965,-1.271869,0.212903,2.493869,1.544764
5875.197000000,0.323477,1.044927,0.037759,-1.271791,0.142031,2.493887,1.714773
5875.203000000,0.323736,1.045020,0.037963,-1.271876,0.212898,2.493871,1.544757
5875.232000000,0.323393,1.044912,0.037813,-1.271751,0.130417,2.493852,1.743599
5875.238000000,0.323738,1.045009,0.037967,-1.271873,0.212903,2.493868,1.544768
5875.267000000,0.323444,1.044884,0.037746,-1.271781,0.119553,2.493895,1.772561
5875.272000000,0.323736,1.045023,0.037965,-1.271871,0.212901,2.493869,1.544758
5875.300000000,0.323983,1.045073,0.037987,-1.272011,0.139495,2.493840,1.710027
5875.305000000,0.323738,1.045018,0.037966,-1.271871,0.212903,2.493871,1.544761
5875.335000000,0.324107,1.045195,0.038188,-1.271997,0.154474,2.493761,1.652374
5875.338000000,0.323741,1.045023,0.037965,-1.271871,0.212904,2.493868,1.544760
5875.369000000,0.324062,1.045212,0.038185,-1.271943,0.163636,2.493773,1.611396
5875.372000000,0.323738,1.045020,0.037967,-1.271873,0.212903,2.493872,1.544768
5875.404000000,0.323985,1.045144,0.038063,-1.271941,0.170298,2.493810,1.575716
5875.406000000,0.323744,1.045017,0.037967,-1.271876,0.212899,2.493868,1.544762
5875.437000000,0.323782,1.045091,0.038044,-1.271861,0.173397,2.493816,1.551691
5875.441000000,0.323736,1.045023,0.037966,-1.271876,0.212898,2.493869,1.544770
5875.472000000,0.323719,1.045015,0.037919,-1.271865,0.176647,2.493848,1.528410
5875.475000000,0.323738,1.045025,0.037963,-1.271868,0.212901,2.493870,1.544771
5875.507000000,0.323645,1.044971,0.037875,-1.271841,0.178370,2.493867,1.512759
5875.508000000,0.323740,1.045020,0.037963,-1.271876,0.212904,2.493870,1.544760
5875.541000000,0.323549,1.044941,0.037915,-1.271804,0.178920,2.493879,1.503499
5875.543000000,0.323730,1.045020,0.037960,-1.271874,0.212902,2.493872,1.544771
5875.575000000,0.323553,1.044930,0.037914,-1.271800,0.179646,2.493889,1.497503
5875.577000000,0.323738,1.045022,0.037965,-1.271876,0.212904,2.493866,1.544761
5875.609000000,0.323580,1.044932,0.037927,-1.271803,0.180138,2.493895,1.495894
5875.612000000,0.323733,1.045018,0.037968,-1.271873,0.212901,2.493868,1.544772
5875.643000000,0.323618,1.044942,0.037946,-1.271814,0.180459,2.493897,1.498519
5875.646000000,0.323736,1.045025,0.037962,-1.271879,0.212903,2.493869,1.544767
5875.677000000,0.323658,1.044955,0.037968,-1.271822,0.180668,2.493896,1.505230
5875.679000000,0.323738,1.045022,0.037962,-1.271873,0.212901,2.493866,1.544764
5875.712000000,0.323769,1.044984,0.037915,-1.271837,0.181444,2.493900,1.514499
5875.713000000,0.323738,1.045024,0.037963,-1.271874,0.212903,2.493869,1.544771
5875.746000000,0.323797,1.044996,0.037929,-1.271843,0.181500,2.493899,1.529128
5875.747000000,0.323741,1.045023,0.037970,-1.271869,0.212902,2.493867,1.544764
5875.778000000,0.323736,1.045020,0.037968,-1.271871,0.212902,2.493868,1.544760
5875.780000000,0.323804,1.044994,0.037949,-1.271861,0.181461,2.493897,1.547412
5875.812000000,0.323733,1.045019,0.037960,-1.271871,0.212903,2.493869,1.544761
5875.813000000,0.323720,1.045013,0.038016,-1.271824,0.180014,2.493856,1.566506
5875.845000000,0.323736,1.045023,0.037968,-1.271876,0.212903,2.493868,1.544766
5875.848000000,0.323615,1.044979,0.037880,-1.271851,0.171910,2.493855,1.580523
5875.879000000,0.323733,1.045018,0.037965,-1.271874,0.212901,2.493868,1.544760
5875.882000000,0.323540,1.044973,0.037837,-1.271835,0.163062,2.493868,1.596306
5875.914000000,0.323738,1.045015,0.037963,-1.271874,0.212902,2.493869,1.544763
5875.915000000,0.323459,1.044975,0.037864,-1.271790,0.153743,2.493849,1.616903
5875.949000000,0.323733,1.045015,0.037968,-1.271871,0.212904,2.493868,1.544768
5875.950000000,0.323507,1.044955,0.037803,-1.271824,0.144988,2.493880,1.638155
5875.982000000,0.323738,1.045020,0.037963,-1.271874,0.212902,2.493870,1.544764
5875.984000000,0.323502,1.044948,0.037800,-1.271815,0.135684,2.493885,1.662523
5876.016000000,0.323741,1.045020,0.037965,-1.271874,0.212903,2.493868,1.544768
5876.018000000,0.323506,1.044940,0.037787,-1.271817,0.126254,2.493894,1.688171
5876.051000000,0.323738,1.045020,0.037965,-1.271873,0.212903,2.493867,1.544768
5876.052000000,0.323511,1.044937,0.037779,-1.271820,0.116678,2.493903,1.715341
5876.084000000,0.323736,1.045020,0.037963,-1.271873,0.212904,2.493870,1.544762
5876.086000000,0.323517,1.044931,0.037770,-1.271821,0.106970,2.493913,1.743942
5876.119000000,0.323741,1.045019,0.037965,-1.271874,0.212900,2.493870,1.544768
5876.120000000,0.323522,1.044923,0.037764,-1.271814,0.097037,2.493911,1.773497
5876.152000000,0.323736,1.045022,0.037967,-1.271873,0.212903,2.493870,1.544761
5876.153000000,0.323474,1.044917,0.037805,-1.271787,0.086673,2.493858,1.805008
5876.186000000,0.323736,1.045022,0.037965,-1.271871,0.212904,2.493867,1.544761
5876.188000000,0.323528,1.044906,0.037748,-1.271825,0.076778,2.493922,1.835538
5876.220000000,0.323741,1.045023,0.037965,-1.271874,0.212903,2.493868,1.544762
5876.222000000,0.323528,1.044898,0.037744,-1.271826,0.066389,2.493926,1.868119
5876.255000000,0.323740,1.045020,0.037965,-1.271871,0.212904,2.493869,1.544769
5876.256000000,0.323535,1.044890,0.037731,-1.271832,0.055911,2.493941,1.901133
5876.287000000,0.323736,1.045023,0.037965,-1.271873,0.212903,2.493869,1.544761
5876.290000000,0.323541,1.044882,0.037720,-1.271838,0.045265,2.493956,1.934956
5876.321000000,0.323741,1.045017,0.037965,-1.271876,0.212901,2.493868,1.544772
5876.324000000,0.323546,1.044873,0.037707,-1.271845,0.034395,2.493973,1.969624
5876.355000000,0.323736,1.045023,0.037963,-1.271871,0.212903,2.493869,1.544761
5876.358000000,0.323552,1.044864,0.037696,-1.271853,0.023401,2.493991,2.004816
5876.388000000,0.323736,1.045020,0.037962,-1.271871,0.212902,2.493868,1.544763
5876.393000000,0.323558,1.044856,0.037685,-1.271860,0.012242,2.494011,2.040581
5876.423000000,0.323733,1.045020,0.037965,-1.271876,0.212902,2.493870,1.544761
5876.426000000,0.323565,1.044844,0.037671,-1.271869,0.000860,2.494032,2.077010
5876.453000000,0.323736,1.045020,0.037962,-1.271871,0.212903,2.493869,1.544771
5876.460000000,0.323568,1.044842,0.037663,-1.271877,-0.010650,2.494059,2.113948
5876.487000000,0.323736,1.045018,0.037960,-1.271871,0.212903,2.493869,1.544765
5876.494000000,0.323581,1.044843,0.037642,-1.271872,-0.022370,2.494089,2.151469
5876.521000000,0.323738,1.045019,0.037965,-1.271872,0.212903,2.493868,1.544771
5876.528000000,0.323588,1.044836,0.037626,-1.271877,-0.034309,2.494120,2.189555
5876.554000000,0.323736,1.045018,0.037968,-1.271871,0.212903,2.493869,1.544768
5876.562000000,0.323596,1.044831,0.037612,-1.271883,-0.046376,2.494153,2.228013
5876.588000000,0.323740,1.045020,0.037965,-1.271871,0.212902,2.493870,1.544765
5876.596000000,0.323605,1.044825,0.037597,-1.271889,-0.058644,2.494188,2.267047
5876.621000000,0.323738,1.045019,0.037968,-1.271871,0.212902,2.493869,1.544765
5876.630000000,0.323612,1.044819,0.037581,-1.271894,-0.071145,2.494226,2.306691
5876.654000000,0.323738,1.045025,0.037968,-1.271871,0.212901,2.493869,1.544765
5876.663000000,0.323549,1.044813,0.037635,-1.271838,-0.084121,2.494008,2.347309
5876.688000000,0.323741,1.045023,0.037968,-1.271873,0.212904,2.493868,1.544767
5876.698000000,0.323613,1.044814,0.037575,-1.271889,-0.096717,2.494237,2.387409
5876.720000000,0.323736,1.045023,0.037968,-1.271869,0.212903,2.493869,1.544761
5876.732000000,0.323606,1.044795,0.037570,-1.271904,-0.109905,2.494277,2.428708
5876.753000000,0.323738,1.045020,0.037963,-1.271874,0.212902,2.493869,1.544763
5876.766000000,0.323612,1.044786,0.037557,-1.271916,-0.123145,2.494328,2.470221
5876.785000000,0.323736,1.045020,0.037962,-1.271871,0.212903,2.493871,1.544768
5876.800000000,0.323559,1.044802,0.037606,-1.271823,-0.136832,2.494057,2.512561
5876.819000000,0.323738,1.045020,0.037960,-1.271866,0.212901,2.493870,1.544768
5876.834000000,0.325409,1.045607,0.038348,-1.272661,-0.046331,2.494253,2.342355
5876.852000000,0.323736,1.045020,0.037962,-1.271876,0.212904,2.493868,1.544770
5876.868000000,0.326045,1.045995,0.038959,-1.272619,0.036835,2.493889,2.179650
5876.885000000,0.323736,1.045019,0.037965,-1.271871,0.212904,2.493869,1.544769
5876.902000000,0.325672,1.045834,0.038933,-1.272392,0.091671,2.493728,2.052377
5876.916000000,0.323736,1.045023,0.037968,-1.271877,0.212904,2.493868,1.544765
5876.936000000,0.324852,1.045462,0.038567,-1.272126,0.130250,2.493700,1.943701
5876.948000000,0.323744,1.045020,0.037965,-1.271873,0.212903,2.493869,1.544761
5876.969000000,0.323895,1.045084,0.038105,-1.271881,0.154073,2.493710,1.845300
5876.981000000,0.323736,1.045020,0.037971,-1.271876,0.212903,2.493870,1.544771
5877.004000000,0.322999,1.044784,0.037682,-1.271651,0.165375,2.493741,1.764157
5877.014000000,0.323736,1.045023,0.037965,-1.271876,0.212903,2.493869,1.544763
5877.038000000,0.322532,1.044596,0.037398,-1.271554,0.171482,2.493835,1.706172
5877.049000000,0.323736,1.045013,0.037963,-1.271874,0.212904,2.493870,1.544764
5877.072000000,0.322379,1.044535,0.037296,-1.271522,0.175115,2.493901,1.656508
5877.081000000,0.323733,1.045017,0.037963,-1.271871,0.212903,2.493869,1.544765
5877.106000000,0.322472,1.044556,0.037335,-1.271543,0.177348,2.493930,1.620577
5877.115000000,0.323741,1.045020,0.037968,-1.271876,0.212903,2.493868,1.544771
5877.140000000,0.322706,1.044635,0.037456,-1.271595,0.178741,2.493937,1.590090
5877.148000000,0.323738,1.045017,0.037960,-1.271873,0.212902,2.493869,1.544764
5877.174000000,0.323000,1.044739,0.037612,-1.271659,0.179608,2.493932,1.564650
5877.183000000,0.323738,1.045018,0.037968,-1.271873,0.212902,2.493869,1.544771
5877.208000000,0.323289,1.044843,0.037765,-1.271721,0.180140,2.493922,1.543972
5877.216000000,0.323741,1.045017,0.037963,-1.271879,0.212902,2.493868,1.544766
5877.242000000,0.323535,1.044929,0.037896,-1.271774,0.180488,2.493908,1.527819
5877.249000000,0.323738,1.045020,0.037965,-1.271878,0.212900,2.493869,1.544765
5877.276000000,0.323717,1.044993,0.037993,-1.271813,0.180711,2.493896,1.516049
5877.283000000,0.323736,1.045020,0.037963,-1.271871,0.212903,2.493868,1.544769
5877.310000000,0.323829,1.045039,0.038058,-1.271838,0.180846,2.493889,1.508550
5877.317000000,0.323736,1.045020,0.037972,-1.271874,0.212898,2.493867,1.544767
5877.344000000,0.323886,1.045059,0.038090,-1.271849,0.180938,2.493883,1.505216
5877.350000000,0.323736,1.045017,0.037966,-1.271874,0.212903,2.493868,1.544758
5877.378000000,0.323902,1.045043,0.038098,-1.271869,0.180956,2.493883,1.506006
5877.383000000,0.323736,1.045023,0.037967,-1.271878,0.212902,2.493868,1.544765
5877.412000000,0.323886,1.045036,0.038089,-1.271866,0.180988,2.493883,1.510766
5877.416000000,0.323741,1.045017,0.037968,-1.271874,0.212903,2.493870,1.544767
5877.445000000,0.323924,1.045038,0.037998,-1.271873,0.181660,2.493883,1.517356
5877.450000000,0.323736,1.045015,0.037966,-1.271868,0.212903,2.493869,1.544771
5877.480000000,0.323804,1.045022,0.038061,-1.271845,0.180964,2.493886,1.532002
5877.483000000,0.323736,1.045023,0.037965,-1.271877,0.212901,2.493867,1.544768
5877.515000000,0.323844,1.044997,0.037964,-1.271873,0.181563,2.493885,1.547067
5877.515000000,0.323742,1.045022,0.037967,-1.271872,0.212903,2.493869,1.544767
5877.545000000,0.323733,1.045020,0.037968,-1.271872,0.212902,2.493870,1.544761
5877.549000000,0.323812,1.044990,0.037951,-1.271875,0.181578,2.493878,1.564524
5877.581000000,0.323733,1.045015,0.037963,-1.271871,0.212903,2.493870,1.544755
5877.584000000,0.323680,1.045008,0.037999,-1.271818,0.179475,2.493849,1.583166
5877.614000000,0.323738,1.045020,0.037967,-1.271874,0.212903,2.493870,1.544762
5877.619000000,0.323558,1.044962,0.037849,-1.271840,0.170382,2.493861,1.600876
5877.645000000,0.323741,1.045018,0.037968,-1.271876,0.212902,2.493869,1.544768
5877.653000000,0.323486,1.044949,0.037806,-1.271823,0.161225,2.493873,1.620830
5877.678000000,0.323733,1.045023,0.037968,-1.271871,0.212904,2.493868,1.544765
5877.687000000,0.323462,1.044935,0.037776,-1.271819,0.151865,2.493884,1.644403
5877.712000000,0.323736,1.045022,0.037965,-1.271876,0.212905,2.493869,1.544768
5877.721000000,0.323452,1.044927,0.037760,-1.271819,0.142300,2.493892,1.670035
5877.746000000,0.323730,1.045020,0.037957,-1.271871,0.212903,2.493869,1.544762
5877.754000000,0.323392,1.044935,0.037801,-1.271772,0.132249,2.493854,1.697608
5877.781000000,0.323703,1.045015,0.037951,-1.271863,0.212904,2.493872,1.544763
5877.789000000,0.323444,1.044915,0.037752,-1.271800,0.122623,2.493888,1.725273
5877.814000000,0.323728,1.045007,0.037962,-1.271861,0.212905,2.493874,1.544768
5877.822000000,0.323387,1.044908,0.037797,-1.271770,0.112191,2.493844,1.755931
5877.848000000,0.323771,1.045019,0.038003,-1.271876,0.212906,2.493867,1.544767
5877.856000000,0.323369,1.044912,0.037809,-1.271756,0.101931,2.493833,1.786600
5877.882000000,0.323866,1.045070,0.038172,-1.271939,0.212902,2.493864,1.544768
5877.891000000,0.323428,1.044892,0.037749,-1.271795,0.091819,2.493885,1.817859
5877.916000000,0.324126,1.045104,0.038230,-1.271996,0.212902,2.493846,1.544764
5877.925000000,0.323426,1.044884,0.037742,-1.271795,0.081239,2.493893,1.850572
5877.947000000,0.324077,1.045227,0.038183,-1.272065,0.212902,2.493819,1.544772
5877.959000000,0.323432,1.044875,0.037729,-1.271801,0.070550,2.493906,1.884302
5877.979000000,0.323929,1.045234,0.038125,-1.272195,0.212900,2.493821,1.544771
5877.994000000,0.323377,1.044891,0.037772,-1.271741,0.058686,2.493818,1.921475
5878.011000000,0.323926,1.045108,0.038131,-1.272115,0.212904,2.493830,1.544771
5878.028000000,0.323365,1.044887,0.037774,-1.271725,0.047294,2.493794,1.957413
5878.043000000,0.323932,1.045126,0.038133,-1.272119,0.212906,2.493822,1.544772
5878.062000000,0.323352,1.044886,0.037781,-1.271707,0.035753,2.493764,1.994154
5878.075000000,0.323918,1.045297,0.038125,-1.272222,0.212908,2.493794,1.544778
5878.096000000,0.323338,1.044883,0.037784,-1.271688,0.023906,2.493731,2.031630
5878.107000000,0.323939,1.045307,0.038135,-1.272231,0.212910,2.493787,1.544783
5878.130000000,0.323322,1.044887,0.037792,-1.271671,0.011918,2.493695,2.069917
5878.140000000,0.324033,1.045216,0.038212,-1.272176,0.212918,2.493789,1.544794
5878.165000000,0.323313,1.044866,0.037799,-1.271668,-0.000216,2.493659,2.108574
5878.173000000,0.324184,1.045252,0.038267,-1.272212,0.212917,2.493778,1.544806
5878.201000000,0.323350,1.044859,0.037753,-1.271713,-0.012956,2.493802,2.149348
5878.208000000,0.324191,1.045340,0.038296,-1.272265,0.212919,2.493765,1.544814
5878.235000000,0.324847,1.045407,0.038404,-1.272365,0.056885,2.493751,1.997348
5878.244000000,0.324198,1.045337,0.038563,-1.272305,0.212936,2.493790,1.545650
5878.269000000,0.325198,1.045656,0.038756,-1.272402,0.105039,2.493628,1.875738
5878.278000000,0.324231,1.044918,0.039052,-1.271900,0.212943,2.494010,1.547750
5878.303000000,0.324926,1.045627,0.038784,-1.272367,0.135434,2.493593,1.776116
5878.312000000,0.324263,1.043663,0.039273,-1.269838,0.212935,2.495956,1.550816
5878.337000000,0.324417,1.045459,0.038728,-1.272194,0.152352,2.493714,1.707987
5878.346000000,0.324133,1.040578,0.039004,-1.265564,0.212942,2.497543,1.552684
5878.371000000,0.323998,1.045263,0.038686,-1.271564,0.163392,2.494398,1.654149
5878.381000000,0.323868,1.035380,0.038840,-1.262073,0.212931,2.497686,1.552689
5878.405000000,0.323769,1.044787,0.038598,-1.270029,0.170217,2.495250,1.614635
5878.414000000,0.323604,1.028905,0.038420,-1.257849,0.212923,2.497983,1.552692
5878.439000000,0.323634,1.043255,0.038521,-1.268063,0.174397,2.495749,1.583491
5878.448000000,0.323088,1.021656,0.037837,-1.253460,0.212926,2.498299,1.552697
5878.474000000,0.323519,1.040291,0.038438,-1.265378,0.176537,2.496113,1.561243
5878.482000000,0.322497,1.014196,0.037370,-1.248683,0.212923,2.498586,1.552733
5878.507000000,0.323529,1.036036,0.038158,-1.262310,0.178703,2.496408,1.544028
5878.516000000,0.322066,1.006376,0.036974,-1.244509,0.212911,2.498844,1.552725
5878.542000000,0.323270,1.030091,0.037982,-1.258292,0.179028,2.496725,1.536498
5878.552000000,0.321673,1.000223,0.036675,-1.241117,0.212922,2.499265,1.552756
5878.576000000,0.322981,1.023064,0.037683,-1.254041,0.179614,2.497119,1.533811
5878.586000000,0.321280,0.996650,0.036504,-1.239139,0.212912,2.499623,1.552766
5878.611000000,0.322654,1.015131,0.037302,-1.249510,0.180610,2.497708,1.535122
5878.619000000,0.320964,0.997169,0.036421,-1.238931,0.212880,2.499733,1.552772
5878.646000000,0.322104,1.007382,0.037104,-1.245171,0.180197,2.498497,1.544799
5878.653000000,0.320736,0.998544,0.036414,-1.239489,0.212890,2.499642,1.552763
5878.680000000,0.321613,1.001143,0.036913,-1.241654,0.180265,2.499315,1.555864
5878.687000000,0.321021,0.999674,0.036579,-1.239778,0.212900,2.499539,1.552762
5878.714000000,0.321165,0.996837,0.036767,-1.239182,0.180244,2.499989,1.569426
5878.721000000,0.321449,0.999939,0.036749,-1.240304,0.212911,2.499464,1.552772
5878.748000000,0.320869,0.994564,0.036647,-1.237798,0.180206,2.500420,1.584675
5878.756000000,0.321732,1.000312,0.037013,-1.240706,0.212917,2.499429,1.552774
5878.782000000,0.320744,0.993918,0.036616,-1.237460,0.180096,2.500606,1.598032
5878.790000000,0.321951,1.000982,0.037237,-1.241213,0.212921,2.499386,1.552770
5878.816000000,0.320807,0.994490,0.036677,-1.237796,0.180078,2.500598,1.609126
5878.824000000,0.322050,1.001504,0.037297,-1.241649,0.212921,2.499357,1.552772
5878.850000000,0.321009,0.995823,0.036802,-1.238552,0.179944,2.500457,1.618699
5878.858000000,0.321978,1.001711,0.037276,-1.241887,0.212922,2.499355,1.552762
5878.883000000,0.321352,0.997465,0.036885,-1.239501,0.180538,2.500270,1.624689
5878.891000000,0.321879,1.001913,0.037218,-1.241962,0.212919,2.499362,1.552747
5878.918000000,0.321564,0.999209,0.037104,-1.240443,0.179803,2.499987,1.633399
5878.926000000,0.321828,1.002311,0.037194,-1.242137,0.212923,2.499351,1.552741
5878.952000000,0.321779,1.000690,0.037213,-1.241234,0.179738,2.499750,1.639089
5878.959000000,0.321825,1.002681,0.037194,-1.242368,0.212920,2.499340,1.552732
5878.987000000,0.322001,1.001899,0.037199,-1.241885,0.180356,2.499580,1.642251
5878.994000000,0.321803,1.003002,0.037168,-1.242444,0.212915,2.499343,1.552725
5879.021000000,0.322065,1.002747,0.037226,-1.242325,0.180309,2.499439,1.646328
5879.028000000,0.321762,1.003275,0.037144,-1.242577,0.212918,2.499334,1.552713
5879.053000000,0.321797,1.003598,0.037157,-1.242712,0.212918,2.499325,1.552712
5879.055000000,0.322073,1.003321,0.037223,-1.242612,0.180277,2.499344,1.649713
5879.087000000,0.321837,1.003960,0.037184,-1.242915,0.212915,2.499318,1.552709
5879.089000000,0.321948,1.003661,0.037194,-1.242741,0.176512,2.499264,1.657221
5879.112000000,0.321801,1.004313,0.037165,-1.243126,0.212915,2.499311,1.552698
5879.124000000,0.321716,1.003793,0.037162,-1.242778,0.165087,2.499231,1.678031
5879.149000000,0.321760,1.004621,0.037144,-1.243199,0.212910,2.499312,1.552688
5879.158000000,0.321645,1.003856,0.037133,-1.242793,0.154963,2.499212,1.701187
5879.186000000,0.321751,1.004887,0.037136,-1.243244,0.212910,2.499305,1.552681
5879.192000000,0.321607,1.003869,0.037113,-1.242799,0.144416,2.499190,1.729379
5879.222000000,0.321738,1.005179,0.037131,-1.243304,0.212910,2.499309,1.552685
5879.226000000,0.321580,1.003878,0.037115,-1.242795,0.133730,2.499169,1.760171
5879.258000000,0.321775,1.005481,0.037149,-1.243442,0.212911,2.499301,1.552682
5879.260000000,0.321558,1.003881,0.037121,-1.242789,0.122943,2.499146,1.791732
5879.292000000,0.321797,1.005774,0.037160,-1.243593,0.212909,2.499299,1.552677
5879.294000000,0.321539,1.003879,0.037128,-1.242781,0.111917,2.499122,1.824859
5879.328000000,0.321778,1.006041,0.037149,-1.243697,0.212908,2.499291,1.552675
5879.329000000,0.321599,1.003884,0.037059,-1.242803,0.101034,2.499184,1.858222
5879.360000000,0.321767,1.006228,0.037149,-1.243846,0.212905,2.499288,1.552676
5879.362000000,0.321523,1.003871,0.037118,-1.242769,0.089425,2.499098,1.893806
5879.389000000,0.321762,1.006405,0.037141,-1.243949,0.212903,2.499285,1.552680
5879.398000000,0.321590,1.003875,0.037048,-1.242796,0.078229,2.499183,1.928666
5879.421000000,0.321722,1.006598,0.037112,-1.244005,0.212908,2.499288,1.552677
5879.431000000,0.321591,1.003869,0.037033,-1.242795,0.066557,2.499195,1.965061
5879.454000000,0.321692,1.006837,0.037099,-1.244099,0.212908,2.499285,1.552670
5879.464000000,0.321520,1.003857,0.037091,-1.242756,0.054417,2.499081,2.002919
5879.486000000,0.321694,1.007102,0.037104,-1.244231,0.212903,2.499286,1.552670
5879.498000000,0.321509,1.003855,0.037099,-1.242745,0.042287,2.499048,2.041030
5879.518000000,0.321689,1.007332,0.037101,-1.244326,0.212906,2.499286,1.552672
5879.533000000,0.321574,1.003854,0.037031,-1.242783,0.030274,2.499169,2.079235
5879.551000000,0.321685,1.007558,0.037096,-1.244308,0.212907,2.499290,1.552662
5879.568000000,0.321578,1.003846,0.037013,-1.242787,0.017872,2.499194,2.118487
5879.585000000,0.321685,1.007764,0.037098,-1.244295,0.212909,2.499288,1.552664
5879.602000000,0.322814,1.004601,0.037539,-1.243328,0.074013,2.499304,1.985838
5879.618000000,0.321685,1.008065,0.037099,-1.244293,0.212906,2.499290,1.552663
5879.636000000,0.322963,1.005531,0.037862,-1.243496,0.115337,2.499159,1.871203
5879.653000000,0.321687,1.008363,0.037104,-1.244306,0.212908,2.499279,1.552661
5879.671000000,0.322686,1.006381,0.037636,-1.243737,0.141340,2.499221,1.774286
5879.689000000,0.321684,1.008700,0.037107,-1.244301,0.212907,2.499287,1.552660
5879.705000000,0.322160,1.007112,0.037351,-1.243914,0.155638,2.499228,1.706586
5879.725000000,0.321679,1.009034,0.037102,-1.244311,0.212905,2.499282,1.552661
5879.739000000,0.321674,1.007746,0.037091,-1.244073,0.164789,2.499239,1.653363
5879.760000000,0.321687,1.009361,0.037109,-1.244296,0.212906,2.499279,1.552663
5879.773000000,0.321334,1.008302,0.036892,-1.244186,0.170595,2.499245,1.613653
5879.795000000,0.321687,1.009754,0.037100,-1.244298,0.212907,2.499273,1.552666
5879.807000000,0.321145,1.008780,0.036780,-1.244256,0.174186,2.499249,1.582152
5879.828000000,0.321687,1.010013,0.037101,-1.244352,0.212904,2.499252,1.552662
5879.841000000,0.321101,1.009199,0.036745,-1.244295,0.176545,2.499255,1.557807
5879.862000000,0.321694,1.010014,0.037101,-1.244345,0.212907,2.499232,1.552662
5879.874000000,0.321091,1.009555,0.036833,-1.244300,0.177409,2.499244,1.542251
5879.897000000,0.321695,1.009891,0.037112,-1.244280,0.212907,2.499221,1.552668
5879.909000000,0.321279,1.009821,0.036824,-1.244389,0.179086,2.499235,1.528459
5879.930000000,0.321702,1.009901,0.037120,-1.244296,0.212909,2.499203,1.552671
5879.943000000,0.321423,1.009987,0.036899,-1.244417,0.179743,2.499213,1.522745
5879.964000000,0.321732,1.010012,0.037133,-1.244352,0.212903,2.499169,1.552666
5879.977000000,0.321561,1.010063,0.036974,-1.244426,0.180165,2.499196,1.522643
5879.998000000,0.321734,1.010017,0.037128,-1.244342,0.212908,2.499140,1.552664
5880.012000000,0.321680,1.010092,0.037041,-1.244422,0.180405,2.499180,1.527925
5880.033000000,0.321734,1.009959,0.037138,-1.244317,0.212903,2.499125,1.552664
5880.045000000,0.321773,1.010089,0.037091,-1.244406,0.180551,2.499165,1.538361
5880.066000000,0.321747,1.009967,0.037141,-1.244336,0.212903,2.499103,1.552658
5880.079000000,0.321822,1.010060,0.037133,-1.244377,0.180300,2.499130,1.553254
5880.100000000,0.321753,1.010032,0.037146,-1.244371,0.212903,2.499071,1.552659
5880.113000000,0.321690,1.010016,0.037079,-1.244354,0.172539,2.499108,1.566205
5880.133000000,0.321743,1.010051,0.037141,-1.244376,0.212907,2.499038,1.552661
5880.146000000,0.321722,1.010006,0.037088,-1.244386,0.168827,2.499168,1.577590
5880.166000000,0.321740,1.010051,0.037141,-1.244376,0.212908,2.499009,1.552664
5880.181000000,0.321916,1.010044,0.037150,-1.244394,0.173465,2.499109,1.584597
5880.199000000,0.321758,1.010087,0.037146,-1.244412,0.212904,2.498964,1.552668
5880.215000000,0.321765,1.010003,0.037086,-1.244370,0.165410,2.499106,1.605808
5880.233000000,0.321767,1.010168,0.037146,-1.244446,0.212908,2.498909,1.552666
5880.249000000,0.321956,1.010020,0.037083,-1.244475,0.168080,2.499093,1.605760
5880.266000000,0.321758,1.010178,0.037143,-1.244441,0.212908,2.498843,1.552659
5880.284000000,0.321965,1.010138,0.037278,-1.244418,0.174254,2.498975,1.592634
5880.299000000,0.321767,1.010131,0.037146,-1.244415,0.212902,2.498799,1.552658
5880.318000000,0.321898,1.010167,0.037287,-1.244402,0.176050,2.498923,1.587868
5880.332000000,0.321724,1.010131,0.037125,-1.244423,0.212907,2.498767,1.552664
5880.352000000,0.321889,1.010170,0.037236,-1.244423,0.176632,2.498923,1.586804
5880.366000000,0.321700,1.010155,0.037112,-1.244433,0.212910,2.498726,1.552663
5880.386000000,0.321864,1.010161,0.037248,-1.244426,0.179161,2.498855,1.586553
5880.399000000,0.321713,1.010157,0.037122,-1.244440,0.212914,2.498662,1.552666
5880.420000000,0.321734,1.010155,0.037242,-1.244386,0.178491,2.498811,1.594243
5880.434000000,0.321721,1.010155,0.037125,-1.244438,0.212919,2.498619,1.552667
5880.454000000,0.321526,1.010104,0.037146,-1.244346,0.168878,2.498827,1.614879
5880.469000000,0.321671,1.010150,0.037109,-1.244428,0.212921,2.498597,1.552661
5880.488000000,0.321426,1.010078,0.037116,-1.244322,0.159872,2.498823,1.636647
5880.502000000,0.321707,1.010079,0.037120,-1.244379,0.212915,2.498614,1.552665
5880.523000000,0.321445,1.010048,0.037018,-1.244343,0.150694,2.498845,1.660164
5880.536000000,0.321769,1.009894,0.037159,-1.244287,0.212915,2.498661,1.552662
5880.557000000,0.321421,1.010035,0.037000,-1.244338,0.141050,2.498850,1.685611
5880.570000000,0.321820,1.009702,0.037191,-1.244190,0.212907,2.498669,1.552656
5880.591000000,0.321413,1.010022,0.036977,-1.244338,0.131042,2.498859,1.713300
5880.604000000,0.321775,1.009759,0.037149,-1.244219,0.212907,2.498625,1.552668
5880.625000000,0.321413,1.010011,0.036959,-1.244339,0.120832,2.498868,1.742615
5880.638000000,0.321725,1.009933,0.037095,-1.244289,0.212905,2.498577,1.552662
5880.659000000,0.321418,1.009998,0.036943,-1.244344,0.110491,2.498875,1.773089
5880.670000000,0.321764,1.009887,0.037121,-1.244266,0.212901,2.498527,1.552663
5880.693000000,0.321423,1.009989,0.036928,-1.244348,0.099922,2.498885,1.804684
5880.702000000,0.321756,1.009701,0.037118,-1.244180,0.212908,2.498538,1.552662
5880.727000000,0.321426,1.009985,0.036915,-1.244351,0.089113,2.498900,1.837544
5880.731000000,0.321738,1.009728,0.037113,-1.244203,0.212905,2.498536,1.552661
5880.761000000,0.321965,1.010154,0.037189,-1.244573,0.108618,2.498695,1.785335
5880.768000000,0.321781,1.009871,0.037133,-1.244283,0.212903,2.498508,1.552657
5880.795000000,0.321857,1.010132,0.037153,-1.244384,0.105756,2.498726,1.796690
5880.802000000,0.321756,1.009902,0.037112,-1.244309,0.212904,2.498480,1.552664
5880.829000000,0.321705,1.010019,0.037048,-1.244365,0.095209,2.498737,1.821922
5880.837000000,0.321740,1.009853,0.037108,-1.244257,0.212904,2.498479,1.552666
5880.863000000,0.321627,1.009970,0.036980,-1.244334,0.084041,2.498765,1.848033
5880.870000000,0.321769,1.009811,0.037121,-1.244241,0.212901,2.498485,1.552658
5880.897000000,0.321592,1.009938,0.036938,-1.244318,0.072605,2.498790,1.878494
5880.903000000,0.321722,1.009822,0.037097,-1.244247,0.212904,2.498474,1.552666
5880.931000000,0.321700,1.009853,0.037080,-1.244268,0.212903,2.498460,1.552659
5880.932000000,0.321495,1.009917,0.036996,-1.244267,0.059994,2.498705,1.914618
5880.965000000,0.321735,1.009853,0.037096,-1.244263,0.212904,2.498453,1.552661
5880.969000000,0.321543,1.009897,0.036928,-1.244302,0.047628,2.498803,1.950764
5880.998000000,0.321722,1.009845,0.037091,-1.244265,0.212905,2.498452,1.552658
5881.003000000,0.322472,1.010266,0.037427,-1.244624,0.092794,2.498543,1.838759
5881.034000000,0.321714,1.009850,0.037093,-1.244250,0.212905,2.498448,1.552658
5881.037000000,0.322629,1.010370,0.037592,-1.244525,0.121488,2.498469,1.766723
5881.068000000,0.321745,1.009850,0.037104,-1.244253,0.212904,2.498441,1.552665
5881.072000000,0.321952,1.010033,0.037164,-1.244359,0.103683,2.498570,1.817638
5881.101000000,0.321746,1.009853,0.037099,-1.244263,0.212903,2.498430,1.552655
5881.106000000,0.321837,1.009993,0.037136,-1.244343,0.101865,2.498524,1.811570
5881.136000000,0.321745,1.009858,0.037104,-1.244271,0.212904,2.498419,1.552665
5881.140000000,0.321715,1.009953,0.037024,-1.244317,0.091263,2.498571,1.818368
5881.170000000,0.321751,1.009879,0.037107,-1.244276,0.212905,2.498401,1.552665
5881.176000000,0.321618,1.009941,0.037095,-1.244270,0.082000,2.498496,1.829806
5881.204000000,0.321738,1.009919,0.037101,-1.244294,0.212904,2.498397,1.552663
5881.210000000,0.321689,1.009914,0.036997,-1.244313,0.073084,2.498586,1.843298
5881.238000000,0.321740,1.009894,0.037096,-1.244276,0.212905,2.498398,1.552657
5881.245000000,0.321613,1.009929,0.037072,-1.244236,0.062622,2.498497,1.865138
5881.273000000,0.321716,1.009853,0.037088,-1.244258,0.212903,2.498403,1.552657
5881.279000000,0.321616,1.009917,0.037063,-1.244232,0.052964,2.498498,1.888011
5881.306000000,0.321722,1.009858,0.037091,-1.244263,0.212901,2.498401,1.552661
5881.313000000,0.321602,1.009914,0.037073,-1.244211,0.042917,2.498477,1.912758
5881.341000000,0.321755,1.009835,0.037104,-1.244229,0.212898,2.498413,1.552654
5881.347000000,0.321593,1.009912,0.037079,-1.244195,0.032759,2.498460,1.939274
5881.374000000,0.321714,1.009754,0.037088,-1.244196,0.212899,2.498425,1.552653
5881.381000000,0.321583,1.009910,0.037088,-1.244179,0.022499,2.498436,1.966695
5881.408000000,0.321700,1.009749,0.037075,-1.244206,0.212900,2.498422,1.552655
5881.415000000,0.321574,1.009907,0.037092,-1.244162,0.012006,2.498413,1.995898
5881.442000000,0.321745,1.009811,0.037092,-1.244245,0.212899,2.498415,1.552649
5881.449000000,0.321563,1.009906,0.037099,-1.244146,0.001384,2.498387,2.026118
5881.476000000,0.321724,1.009811,0.037090,-1.244232,0.212900,2.498414,1.552655
5881.483000000,0.321552,1.009905,0.037107,-1.244129,-0.009373,2.498358,2.057181
5881.509000000,0.321697,1.009767,0.037083,-1.244206,0.212900,2.498424,1.552655
5881.517000000,0.321538,1.009909,0.037116,-1.244113,-0.020326,2.498327,2.089289
5881.543000000,0.321732,1.009757,0.037090,-1.244214,0.212900,2.498422,1.552657
5881.551000000,0.321530,1.009888,0.037125,-1.244111,-0.031448,2.498295,2.122030
5881.578000000,0.321729,1.009801,0.037090,-1.244237,0.212902,2.498417,1.552655
5881.585000000,0.321504,1.009896,0.037145,-1.244088,-0.042703,2.498260,2.155597
5881.612000000,0.321711,1.009809,0.037077,-1.244223,0.212902,2.498414,1.552657
5881.619000000,0.321490,1.009892,0.037156,-1.244074,-0.054148,2.498221,2.189895
5881.645000000,0.321724,1.009762,0.037090,-1.244203,0.212899,2.498424,1.552664
5881.653000000,0.321475,1.009890,0.037168,-1.244057,-0.065759,2.498181,2.224926
5881.679000000,0.321724,1.009772,0.037088,-1.244224,0.212901,2.498421,1.552662
5881.687000000,0.321459,1.009888,0.037181,-1.244039,-0.077537,2.498138,2.260436
5881.714000000,0.321716,1.009803,0.037085,-1.244236,0.212900,2.498419,1.552660
5881.721000000,0.321444,1.009883,0.037192,-1.244025,-0.089519,2.498092,2.296494
5881.747000000,0.321722,1.009790,0.037088,-1.244224,0.212904,2.498420,1.552663
5881.755000000,0.321424,1.009888,0.037211,-1.244002,-0.101626,2.498044,2.333190
5881.781000000,0.321724,1.009772,0.037090,-1.244211,0.212900,2.498422,1.552654
5881.789000000,0.321414,1.009872,0.037211,-1.243993,-0.113954,2.497991,2.370493
5881.815000000,0.321719,1.009783,0.037085,-1.244224,0.212900,2.498420,1.552657
5881.823000000,0.321399,1.009869,0.037221,-1.243975,-0.126496,2.497940,2.408301
5881.849000000,0.321724,1.009790,0.037080,-1.244224,0.212900,2.498419,1.552662
5881.857000000,0.321384,1.009864,0.037232,-1.243958,-0.139170,2.497884,2.446593
5881.882000000,0.321722,1.009783,0.037080,-1.244216,0.212901,2.498421,1.552653
5881.891000000,0.321369,1.009860,0.037245,-1.243940,-0.152023,2.497824,2.485348
5881.916000000,0.321719,1.009783,0.037085,-1.244216,0.212899,2.498419,1.552663
5881.925000000,0.321353,1.009854,0.037256,-1.243920,-0.165123,2.497763,2.524727
5881.950000000,0.321724,1.009788,0.037085,-1.244232,0.212899,2.498417,1.552662
5881.959000000,0.321411,1.009841,0.037190,-1.244001,-0.177242,2.498049,2.561459
5881.985000000,0.321719,1.009790,0.037083,-1.244222,0.212903,2.498419,1.552656
5881.993000000,0.321340,1.009844,0.037261,-1.243903,-0.191506,2.497731,2.604099
5882.018000000,0.321724,1.009780,0.037086,-1.244219,0.212900,2.498420,1.552656
5882.027000000,0.321332,1.009851,0.037266,-1.243874,-0.205155,2.497675,2.644796
5882.052000000,0.321724,1.009783,0.037091,-1.244219,0.212900,2.498419,1.552662
5882.061000000,0.321318,1.009848,0.037280,-1.243848,-0.218970,2.497601,2.686069
5882.086000000,0.321716,1.009788,0.037085,-1.244223,0.212900,2.498418,1.552662
5882.095000000,0.321303,1.009847,0.037295,-1.243819,-0.232996,2.497523,2.727815
5882.120000000,0.321718,1.009783,0.037089,-1.244219,0.212899,2.498418,1.552654
5882.129000000,0.321288,1.009846,0.037309,-1.243791,-0.247259,2.497446,2.770213
5882.154000000,0.321721,1.009780,0.037088,-1.244216,0.212901,2.498415,1.552654
5882.163000000,0.321275,1.009843,0.037325,-1.243763,-0.261642,2.497362,2.812895
5882.187000000,0.321722,1.009788,0.037085,-1.244229,0.212901,2.498416,1.552654
5882.197000000,0.321259,1.009847,0.037343,-1.243736,-0.276242,2.497281,2.856242
5882.222000000,0.321722,1.009788,0.037088,-1.244222,0.212900,2.498415,1.552655
5882.231000000,0.321246,1.009825,0.037363,-1.243721,-0.291092,2.497190,2.900242
5882.255000000,0.321724,1.009783,0.037088,-1.244216,0.212901,2.498416,1.552664
5882.265000000,0.321425,1.009938,0.037415,-1.243855,-0.294722,2.497376,2.897302
5882.287000000,0.321719,1.009788,0.037083,-1.244217,0.212900,2.498414,1.552663
5882.298000000,0.321532,1.010002,0.037451,-1.243899,-0.297760,2.497368,2.897300
5882.321000000,0.321724,1.009790,0.037083,-1.244226,0.212899,2.498415,1.552663
5882.333000000,0.321588,1.010048,0.037483,-1.243925,-0.300231,2.497362,2.897300
5882.355000000,0.321722,1.009788,0.037085,-1.244224,0.212900,2.498416,1.552656
5882.366000000,0.321626,1.010085,0.037511,-1.243937,-0.301941,2.497365,2.897300
5882.390000000,0.321719,1.009780,0.037085,-1.244219,0.212900,2.498418,1.552662
5882.401000000,0.321654,1.010106,0.037533,-1.243940,-0.303331,2.497348,2.897300
5882.423000000,0.321722,1.009785,0.037089,-1.244224,0.212901,2.498415,1.552661
5882.438000000,0.323374,1.011017,0.037948,-1.244910,-0.199956,2.497879,2.715743
5882.457000000,0.321727,1.009788,0.037086,-1.244227,0.212901,2.498420,1.552658
5882.472000000,0.324109,1.011354,0.038332,-1.245026,-0.101830,2.497944,2.555424
5882.491000000,0.321714,1.009788,0.037086,-1.244214,0.212900,2.498415,1.552662
5882.506000000,0.324064,1.011131,0.038476,-1.244791,-0.011495,2.497848,2.410832
5882.524000000,0.321719,1.009783,0.037082,-1.244219,0.212899,2.498415,1.552657
5882.540000000,0.323374,1.010540,0.038161,-1.244453,0.057479,2.497943,2.293828
5882.557000000,0.321724,1.009790,0.037085,-1.244222,0.212898,2.498414,1.552660
5882.574000000,0.322307,1.009882,0.037663,-1.244135,0.105020,2.498002,2.191639
5882.591000000,0.321721,1.009785,0.037085,-1.244224,0.212901,2.498417,1.552663
5882.608000000,0.321316,1.009376,0.037077,-1.243897,0.137471,2.498180,2.086666
5882.625000000,0.321719,1.009785,0.037088,-1.244216,0.212900,2.498417,1.552656
5882.641000000,0.320553,1.009102,0.036688,-1.243746,0.159241,2.498199,1.993835
5882.660000000,0.321722,1.009783,0.037083,-1.244222,0.212899,2.498416,1.552654
5882.676000000,0.320046,1.008965,0.036321,-1.243722,0.170380,2.498365,1.898729
5882.694000000,0.321722,1.009790,0.037083,-1.244224,0.212900,2.498417,1.552655
5882.710000000,0.319872,1.008990,0.036157,-1.243748,0.174079,2.498440,1.820947
5882.728000000,0.321722,1.009785,0.037085,-1.244222,0.212900,2.498417,1.552663
5882.744000000,0.320025,1.009121,0.036188,-1.243821,0.176380,2.498485,1.755020
5882.763000000,0.321722,1.009783,0.037090,-1.244216,0.212900,2.498416,1.552663
5882.777000000,0.320297,1.009298,0.036394,-1.243870,0.177130,2.498458,1.704633
5882.796000000,0.321716,1.009785,0.037085,-1.244224,0.212901,2.498415,1.552663
5882.812000000,0.320790,1.009461,0.036548,-1.244015,0.178733,2.498492,1.657488
5882.830000000,0.321722,1.009788,0.037083,-1.244224,0.212901,2.498417,1.552659
5882.846000000,0.321195,1.009607,0.036755,-1.244102,0.179343,2.498476,1.621524
5882.864000000,0.321722,1.009783,0.037086,-1.244219,0.212901,2.498418,1.552661
5882.880000000,0.321531,1.009721,0.036931,-1.244171,0.179714,2.498457,1.592269
5882.897000000,0.321724,1.009785,0.037088,-1.244222,0.212902,2.498415,1.552663
5882.914000000,0.321778,1.009793,0.037061,-1.244214,0.179994,2.498443,1.568735
5882.932000000,0.321724,1.009785,0.037090,-1.244221,0.212899,2.498414,1.552661
5882.949000000,0.321865,1.009830,0.037214,-1.244208,0.179543,2.498428,1.552155
5882.966000000,0.321719,1.009783,0.037088,-1.244216,0.212899,2.498415,1.552655
5882.983000000,0.321937,1.009840,0.037253,-1.244216,0.179699,2.498426,1.539881
5883.000000000,0.321719,1.009783,0.037086,-1.244222,0.212902,2.498414,1.552652
5883.017000000,0.321900,1.009841,0.037270,-1.244180,0.178066,2.498406,1.534549
5883.034000000,0.321724,1.009785,0.037083,-1.244224,0.212901,2.498415,1.552649
5883.051000000,0.321738,1.009793,0.037193,-1.244140,0.167935,2.498425,1.541992
5883.067000000,0.321719,1.009785,0.037089,-1.244224,0.212900,2.498416,1.552659
5883.085000000,0.321675,1.009770,0.037174,-1.244110,0.158696,2.498433,1.553717
5883.101000000,0.321718,1.009780,0.037087,-1.244216,0.212903,2.498414,1.552655
5883.119000000,0.321644,1.009754,0.037169,-1.244087,0.149102,2.498440,1.570635
5883.136000000,0.321723,1.009785,0.037088,-1.244222,0.212903,2.498414,1.552661
5883.153000000,0.321626,1.009744,0.037174,-1.244069,0.139420,2.498440,1.590031
5883.170000000,0.321724,1.009788,0.037085,-1.244222,0.212901,2.498418,1.552654
5883.187000000,0.321614,1.009738,0.037181,-1.244052,0.129588,2.498439,1.611874
5883.203000000,0.321719,1.009783,0.037088,-1.244222,0.212900,2.498414,1.552661
5883.221000000,0.321604,1.009732,0.037188,-1.244037,0.119588,2.498434,1.635757
5883.237000000,0.321719,1.009788,0.037085,-1.244219,0.212901,2.498414,1.552661
5883.255000000,0.321595,1.009728,0.037196,-1.244021,0.109460,2.498427,1.661376
5883.272000000,0.321722,1.009785,0.037083,-1.244227,0.212901,2.498415,1.552662
5883.289000000,0.321583,1.009731,0.037207,-1.244007,0.099185,2.498419,1.688551
5883.305000000,0.321719,1.009785,0.037088,-1.244222,0.212899,2.498415,1.552662
5883.323000000,0.321572,1.009728,0.037217,-1.243991,0.088729,2.498408,1.717365
5883.340000000,0.321725,1.009785,0.037085,-1.244216,0.212899,2.498415,1.552664
5883.357000000,0.321564,1.009706,0.037227,-1.243992,0.078116,2.498397,1.747384
5883.374000000,0.321719,1.009788,0.037085,-1.244219,0.212901,2.498414,1.552655
5883.391000000,0.321553,1.009703,0.037236,-1.243981,0.067370,2.498381,1.778794
5883.407000000,0.321724,1.009785,0.037085,-1.244222,0.212901,2.498415,1.552663
5883.425000000,0.321527,1.009706,0.037256,-1.243962,0.056407,2.498363,1.811348
5883.441000000,0.321719,1.009783,0.037085,-1.244219,0.212901,2.498414,1.552663
5883.459000000,0.321513,1.009701,0.037268,-1.243950,0.045317,2.498342,1.844838
5883.475000000,0.321722,1.009785,0.037080,-1.244224,0.212900,2.498414,1.552657
5883.493000000,0.321497,1.009698,0.037281,-1.243935,0.034038,2.498320,1.879205
5883.509000000,0.321724,1.009788,0.037085,-1.244219,0.212900,2.498417,1.552659
5883.527000000,0.321480,1.009694,0.037293,-1.243921,0.022539,2.498294,1.914490
5883.543000000,0.321712,1.009785,0.037088,-1.244219,0.212900,2.498413,1.552659
5883.560000000,0.321550,1.009689,0.037216,-1.243957,0.011970,2.498392,1.947526
5883.576000000,0.321722,1.009785,0.037086,-1.244222,0.212898,2.498414,1.552662
5883.595000000,0.321468,1.009687,0.037294,-1.243905,-0.000612,2.498270,1.986325
5883.610000000,0.321722,1.009788,0.037087,-1.244216,0.212899,2.498415,1.552656
5883.628000000,0.321539,1.009680,0.037213,-1.243945,-0.011547,2.498391,2.020750
5883.644000000,0.321721,1.009790,0.037085,-1.244222,0.212901,2.498413,1.552658
5883.663000000,0.321459,1.009680,0.037289,-1.243890,-0.024516,2.498249,2.060707
5883.679000000,0.321722,1.009783,0.037085,-1.244222,0.212900,2.498417,1.552663
5883.696000000,0.321533,1.009671,0.037207,-1.243940,-0.035774,2.498392,2.095923
5883.712000000,0.321724,1.009785,0.037090,-1.244216,0.212900,2.498417,1.552663
5883.731000000,0.321449,1.009676,0.037286,-1.243876,-0.049168,2.498231,2.137305
5883.746000000,0.321712,1.009788,0.037085,-1.244222,0.212904,2.498414,1.552656
5883.764000000,0.321510,1.009656,0.037215,-1.243936,-0.060897,2.498399,2.173796
5883.780000000,0.321729,1.009788,0.037083,-1.244219,0.212899,2.498411,1.552661
5883.799000000,0.321443,1.009653,0.037272,-1.243873,-0.074699,2.498206,2.216170
5883.811000000,0.321724,1.009790,0.037090,-1.244216,0.212899,2.498415,1.552661
5883.832000000,0.321496,1.009642,0.037214,-1.243929,-0.086930,2.498394,2.254030
5883.845000000,0.321709,1.009788,0.037077,-1.244219,0.212900,2.498413,1.552663
5883.867000000,0.321431,1.009640,0.037271,-1.243863,-0.101123,2.498179,2.297151
5883.869000000,0.321724,1.009788,0.037088,-1.244222,0.212901,2.498415,1.552655
5883.901000000,0.323347,1.010400,0.037821,-1.244732,-0.009985,2.498432,2.120818
5883.906000000,0.321729,1.009783,0.037083,-1.244214,0.212901,2.498415,1.552664
5883.934000000,0.323859,1.010676,0.038191,-1.244734,0.061006,2.498281,1.991894
5883.937000000,0.321709,1.009783,0.037082,-1.244222,0.212905,2.498415,1.552659
5883.969000000,0.323428,1.010501,0.038071,-1.244554,0.111396,2.498194,1.886460
5883.970000000,0.321727,1.009788,0.037085,-1.244218,0.212900,2.498413,1.552656
5884.003000000,0.322612,1.010155,0.037663,-1.244367,0.143772,2.498167,1.791441
5884.007000000,0.321724,1.009788,0.037088,-1.244224,0.212899,2.498415,1.552655
5884.036000000,0.321694,1.009799,0.037143,-1.244171,0.159636,2.498249,1.719374
5884.041000000,0.321719,1.009790,0.037085,-1.244227,0.212901,2.498414,1.552659
5884.071000000,0.321025,1.009530,0.036741,-1.244033,0.168348,2.498346,1.668346
5884.076000000,0.321724,1.009785,0.037088,-1.244219,0.212901,2.498414,1.552661
5884.106000000,0.320573,1.009406,0.036596,-1.243914,0.172979,2.498388,1.627428
5884.110000000,0.321719,1.009785,0.037083,-1.244219,0.212901,2.498411,1.552661
5884.140000000,0.320495,1.009346,0.036528,-1.243922,0.176129,2.498443,1.593934
5884.143000000,0.321714,1.009786,0.037093,-1.244219,0.212900,2.498412,1.552662
5884.173000000,0.320677,1.009390,0.036484,-1.243962,0.178588,2.498477,1.566459
5884.177000000,0.321723,1.009785,0.037090,-1.244222,0.212904,2.498417,1.552654
5884.208000000,0.320819,1.009463,0.036693,-1.243990,0.179039,2.498479,1.547651
5884.211000000,0.321716,1.009788,0.037083,-1.244224,0.212900,2.498416,1.552656
5884.242000000,0.321088,1.009553,0.036830,-1.244045,0.179700,2.498477,1.533727
5884.244000000,0.321724,1.009788,0.037088,-1.244224,0.212900,2.498415,1.552660
5884.276000000,0.321346,1.009638,0.036962,-1.244097,0.180068,2.498470,1.525523
5884.280000000,0.321724,1.009788,0.037088,-1.244224,0.212903,2.498410,1.552652
5884.311000000,0.321647,1.009698,0.036986,-1.244175,0.180920,2.498450,1.521014
5884.311000000,0.321719,1.009780,0.037083,-1.244222,0.212901,2.498415,1.552653
5884.343000000,0.321722,1.009788,0.037085,-1.244224,0.212901,2.498413,1.552654
5884.346000000,0.321734,1.009769,0.037141,-1.244162,0.180344,2.498447,1.525672
5884.376000000,0.321726,1.009785,0.037088,-1.244219,0.212901,2.498413,1.552657
5884.380000000,0.321784,1.009796,0.037201,-1.244162,0.179133,2.498421,1.534592
5884.409000000,0.321716,1.009786,0.037085,-1.244216,0.212898,2.498413,1.552658
5884.415000000,0.321712,1.009765,0.037084,-1.244183,0.170102,2.498418,1.543911
5884.444000000,0.321719,1.009783,0.037088,-1.244221,0.212899,2.498415,1.552656
5884.450000000,0.321594,1.009755,0.037125,-1.244143,0.160283,2.498417,1.558700
5884.479000000,0.321722,1.009785,0.037088,-1.244222,0.212900,2.498413,1.552656
5884.484000000,0.321576,1.009744,0.037113,-1.244139,0.151045,2.498418,1.575865
5884.513000000,0.321719,1.009785,0.037085,-1.244222,0.212900,2.498412,1.552663
5884.519000000,0.321640,1.009744,0.037037,-1.244145,0.141883,2.498438,1.594833
5884.547000000,0.321722,1.009790,0.037085,-1.244219,0.212901,2.498411,1.552661
5884.552000000,0.321554,1.009729,0.037116,-1.244111,0.131851,2.498420,1.618101
5884.581000000,0.321722,1.009785,0.037088,-1.244224,0.212899,2.498415,1.552655
5884.587000000,0.321553,1.009723,0.037114,-1.244104,0.122094,2.498417,1.641633
5884.614000000,0.321719,1.009785,0.037083,-1.244224,0.212900,2.498415,1.552662
5884.620000000,0.321546,1.009730,0.037120,-1.244080,0.112044,2.498408,1.667854
5884.648000000,0.321724,1.009788,0.037085,-1.244216,0.212902,2.498412,1.552662
5884.655000000,0.321601,1.009711,0.037066,-1.244116,0.102275,2.498449,1.694563
5884.683000000,0.321722,1.009785,0.037088,-1.244222,0.212899,2.498411,1.552656
5884.689000000,0.321601,1.009706,0.037060,-1.244112,0.092082,2.498457,1.723256
5884.717000000,0.321719,1.009785,0.037088,-1.244219,0.212901,2.498415,1.552653
5884.723000000,0.321607,1.009699,0.037048,-1.244114,0.081739,2.498469,1.752760
5884.750000000,0.321722,1.009785,0.037088,-1.244219,0.212901,2.498413,1.552658
5884.757000000,0.321614,1.009692,0.037037,-1.244117,0.071250,2.498481,1.783858
5884.784000000,0.321727,1.009788,0.037085,-1.244219,0.212899,2.498412,1.552664
5884.791000000,0.321620,1.009686,0.037026,-1.244120,0.060591,2.498496,1.815811
5884.819000000,0.321719,1.009783,0.037083,-1.244222,0.212901,2.498410,1.552663
5884.825000000,0.321626,1.009680,0.037015,-1.244123,0.049736,2.498511,1.848789
5884.852000000,0.321721,1.009785,0.037088,-1.244219,0.212900,2.498415,1.552649
5884.859000000,0.321636,1.009673,0.037002,-1.244128,0.038791,2.498528,1.882455
5884.887000000,0.321718,1.009785,0.037088,-1.244219,0.212899,2.498409,1.552662
5884.892000000,0.321579,1.009683,0.037051,-1.244069,0.027268,2.498428,1.917956
5884.921000000,0.321716,1.009790,0.037080,-1.244222,0.212900,2.498412,1.552650
5884.927000000,0.321633,1.009667,0.036998,-1.244126,0.016164,2.498534,1.952808
5884.952000000,0.321724,1.009785,0.037085,-1.244219,0.212903,2.498413,1.552655
5884.961000000,0.321635,1.009662,0.036992,-1.244128,0.004657,2.498548,1.988796
5884.985000000,0.321719,1.009785,0.037080,-1.244222,0.212900,2.498411,1.552658
5884.995000000,0.321640,1.009655,0.036978,-1.244135,-0.007049,2.498573,2.025462
5885.018000000,0.321719,1.009788,0.037088,-1.244224,0.212900,2.498409,1.552657
5885.030000000,0.321578,1.009652,0.037029,-1.244077,-0.020025,2.498442,2.065805
5885.051000000,0.321724,1.009783,0.037088,-1.244216,0.212900,2.498411,1.552654
5885.064000000,0.321571,1.009662,0.037031,-1.244053,-0.032317,2.498404,2.104053
5885.084000000,0.321719,1.009785,0.037086,-1.244222,0.212901,2.498411,1.552662
5885.098000000,0.321554,1.009659,0.037039,-1.244032,-0.044984,2.498362,2.143466
5885.116000000,0.321719,1.009785,0.037088,-1.244222,0.212902,2.498411,1.552662
5885.133000000,0.321537,1.009657,0.037047,-1.244010,-0.057918,2.498315,2.183521
5885.149000000,0.321722,1.009788,0.037090,-1.244219,0.212901,2.498413,1.552657
5885.167000000,0.321585,1.009635,0.036994,-1.244074,-0.070644,2.498490,2.223365
5885.181000000,0.321719,1.009788,0.037088,-1.244221,0.212901,2.498411,1.552663
5885.201000000,0.323322,1.010355,0.037692,-1.244779,0.015335,2.498422,2.056856
5885.213000000,0.321722,1.009786,0.037088,-1.244222,0.212900,2.498413,1.552654
5885.234000000,0.323657,1.010592,0.038054,-1.244735,0.077083,2.498252,1.930857
5885.245000000,0.321724,1.009785,0.037083,-1.244224,0.212899,2.498411,1.552657
5885.269000000,0.323130,1.010430,0.037953,-1.244519,0.119148,2.498110,1.820717
5885.279000000,0.321719,1.009788,0.037080,-1.244227,0.212899,2.498411,1.552661
5885.303000000,0.322346,1.010122,0.037550,-1.244308,0.143537,2.498163,1.740876
5885.313000000,0.321724,1.009783,0.037090,-1.244227,0.212899,2.498412,1.552654
5885.337000000,0.321586,1.009812,0.037137,-1.244133,0.157641,2.498255,1.678957
5885.344000000,0.321724,1.009785,0.037088,-1.244222,0.212900,2.498411,1.552653
5885.372000000,0.321100,1.009559,0.036759,-1.244053,0.166986,2.498375,1.634032
5885.375000000,0.321719,1.009785,0.037083,-1.244223,0.212902,2.498411,1.552661
5885.406000000,0.320820,1.009433,0.036596,-1.243993,0.172386,2.498427,1.601016
5885.408000000,0.321722,1.009783,0.037090,-1.244219,0.212899,2.498412,1.552660
5885.440000000,0.320759,1.009397,0.036551,-1.243981,0.175752,2.498460,1.575750
5885.440000000,0.321712,1.009780,0.037085,-1.244222,0.212903,2.498411,1.552655
5885.472000000,0.321722,1.009788,0.037085,-1.244224,0.212904,2.498410,1.552662
5885.474000000,0.320855,1.009423,0.036593,-1.244002,0.177824,2.498477,1.557407
5885.506000000,0.321723,1.009785,0.037088,-1.244222,0.212900,2.498411,1.552657
5885.508000000,0.321025,1.009484,0.036688,-1.244034,0.178696,2.498471,1.545730
5885.541000000,0.321718,1.009785,0.037080,-1.244222,0.212899,2.498412,1.552659
5885.542000000,0.320978,1.009487,0.036656,-1.244027,0.169965,2.498479,1.547889
5885.573000000,0.321722,1.009783,0.037085,-1.244224,0.212900,2.498411,1.552649
5885.576000000,0.320970,1.009474,0.036638,-1.244019,0.161706,2.498488,1.554767
5885.607000000,0.321722,1.009785,0.037088,-1.244222,0.212899,2.498412,1.552657
5885.610000000,0.320972,1.009461,0.036628,-1.244002,0.153051,2.498488,1.566969
5885.640000000,0.321719,1.009783,0.037088,-1.244222,0.212904,2.498411,1.552654
5885.644000000,0.320982,1.009450,0.036620,-1.243999,0.144345,2.498495,1.583040
5885.675000000,0.321722,1.009783,0.037083,-1.244219,0.212900,2.498412,1.552659
5885.679000000,0.320926,1.009455,0.036672,-1.243958,0.134587,2.498489,1.603686
5885.704000000,0.321724,1.009785,0.037090,-1.244222,0.212900,2.498412,1.552657
5885.714000000,0.320993,1.009436,0.036607,-1.243995,0.125879,2.498517,1.622883
5885.733000000,0.321716,1.009785,0.037083,-1.244219,0.212900,2.498411,1.552658
5885.747000000,0.321263,1.009482,0.036717,-1.244115,0.129265,2.498548,1.629645
5885.768000000,0.321719,1.009783,0.037085,-1.244222,0.212903,2.498409,1.552661
5885.781000000,0.321413,1.009642,0.037018,-1.244013,0.138243,2.498417,1.628233
5885.803000000,0.321727,1.009790,0.037088,-1.244219,0.212900,2.498411,1.552662
5885.816000000,0.321305,1.009550,0.036807,-1.244090,0.127220,2.498468,1.648853
5885.838000000,0.321716,1.009785,0.037085,-1.244222,0.212899,2.498411,1.552653
5885.850000000,0.321233,1.009556,0.036790,-1.244055,0.118379,2.498471,1.663860
5885.873000000,0.321716,1.009785,0.037083,-1.244222,0.212900,2.498410,1.552663
5885.884000000,0.321215,1.009538,0.036753,-1.244056,0.108860,2.498487,1.684089
5885.904000000,0.321729,1.009785,0.037085,-1.244227,0.212903,2.498411,1.552663
5885.919000000,0.321213,1.009527,0.036737,-1.244051,0.099235,2.498501,1.708754
5885.934000000,0.321722,1.009790,0.037090,-1.244219,0.212900,2.498411,1.552661
5885.952000000,0.321215,1.009520,0.036726,-1.244054,0.089424,2.498513,1.734902
5885.966000000,0.321719,1.009783,0.037088,-1.244223,0.212898,2.498412,1.552654
5885.985000000,0.321736,1.009636,0.036827,-1.244263,0.102249,2.498538,1.719985
5885.997000000,0.321727,1.009785,0.037085,-1.244224,0.212899,2.498411,1.552655
5886.020000000,0.322139,1.009869,0.037291,-1.244291,0.131674,2.498382,1.677092
5886.028000000,0.321719,1.009785,0.037088,-1.244222,0.212900,2.498411,1.552664
5886.056000000,0.322173,1.009930,0.037384,-1.244274,0.150774,2.498352,1.647990
5886.066000000,0.321724,1.009783,0.037080,-1.244219,0.212900,2.498411,1.552655
5886.090000000,0.321994,1.009887,0.037309,-1.244237,0.161231,2.498355,1.632921
5886.100000000,0.321719,1.009788,0.037087,-1.244216,0.212901,2.498414,1.552658
5886.124000000,0.321673,1.009811,0.037209,-1.244157,0.163860,2.498332,1.630173
5886.135000000,0.321717,1.009788,0.037083,-1.244222,0.212904,2.498412,1.552656
5886.158000000,0.321309,1.009711,0.037039,-1.244084,0.154496,2.498346,1.643312
5886.170000000,0.321724,1.009788,0.037083,-1.244219,0.212901,2.498412,1.552654
5886.193000000,0.321198,1.009640,0.036870,-1.244079,0.145159,2.498381,1.660452
5886.205000000,0.321722,1.009783,0.037088,-1.244216,0.212902,2.498412,1.552662
5886.227000000,0.321116,1.009602,0.036813,-1.244058,0.135194,2.498397,1.683768
5886.239000000,0.321722,1.009785,0.037088,-1.244219,0.212899,2.498412,1.552661
5886.261000000,0.321081,1.009573,0.036774,-1.244054,0.125054,2.498408,1.709681
5886.273000000,0.321722,1.009783,0.037088,-1.244219,0.212901,2.498411,1.552653
5886.295000000,0.321064,1.009555,0.036746,-1.244051,0.114582,2.498420,1.737016
5886.307000000,0.321722,1.009783,0.037085,-1.244222,0.212899,2.498411,1.552662
5886.329000000,0.321056,1.009545,0.036726,-1.244050,0.103865,2.498435,1.766546
5886.342000000,0.321714,1.009788,0.037083,-1.244216,0.212901,2.498411,1.552655
5886.362000000,0.320979,1.009548,0.036793,-1.244000,0.092627,2.498383,1.798473
5886.375000000,0.321722,1.009790,0.037088,-1.244219,0.212900,2.498410,1.552655
5886.396000000,0.320970,1.009530,0.036787,-1.243995,0.081377,2.498363,1.830922
5886.408000000,0.321722,1.009788,0.037091,-1.244222,0.212901,2.498411,1.552657
5886.430000000,0.320953,1.009524,0.036797,-1.243982,0.069926,2.498341,1.864474
5886.444000000,0.321716,1.009789,0.037083,-1.244224,0.212899,2.498412,1.552662
5886.464000000,0.320937,1.009517,0.036805,-1.243970,0.058312,2.498317,1.899245
5886.478000000,0.321724,1.009783,0.037085,-1.244222,0.212901,2.498410,1.552659
5886.498000000,0.320920,1.009510,0.036813,-1.243957,0.046450,2.498290,1.935061
5886.511000000,0.321716,1.009783,0.037083,-1.244227,0.212900,2.498413,1.552662
5886.533000000,0.320980,1.009509,0.036746,-1.243985,0.034687,2.498387,1.971321
5886.545000000,0.321713,1.009785,0.037077,-1.244222,0.212900,2.498408,1.552663
5886.570000000,0.320900,1.009503,0.036814,-1.243934,0.021499,2.498272,2.011637
5886.576000000,0.321724,1.009789,0.037088,-1.244214,0.212901,2.498411,1.552655
5886.603000000,0.322285,1.009972,0.037279,-1.244475,0.081646,2.498355,1.886781
5886.610000000,0.321727,1.009785,0.037088,-1.244219,0.212901,2.498405,1.552662
5886.636000000,0.322561,1.010151,0.037503,-1.244462,0.118689,2.498281,1.796426
5886.642000000,0.321714,1.009783,0.037085,-1.244224,0.212901,2.498411,1.552658
5886.671000000,0.322289,1.010094,0.037505,-1.244353,0.142034,2.498195,1.725285
5886.676000000,0.321722,1.009783,0.037088,-1.244219,0.212901,2.498408,1.552657
5886.705000000,0.321923,1.009953,0.037311,-1.244267,0.156075,2.498240,1.669367
5886.708000000,0.321722,1.009785,0.037085,-1.244219,0.212899,2.498407,1.552652
5886.739000000,0.321657,1.009814,0.037053,-1.244205,0.165446,2.498315,1.624699
5886.740000000,0.321724,1.009788,0.037085,-1.244216,0.212899,2.498411,1.552654
5886.773000000,0.321316,1.009693,0.036971,-1.244112,0.170453,2.498349,1.590893
5886.773000000,0.321724,1.009783,0.037083,-1.244224,0.212900,2.498405,1.552655
5886.807000000,0.321188,1.009634,0.036879,-1.244067,0.173906,2.498391,1.564150
5886.807000000,0.321719,1.009788,0.037085,-1.244221,0.212899,2.498408,1.552662
5886.839000000,0.321713,1.009785,0.037085,-1.244222,0.212899,2.498411,1.552659
5886.842000000,0.321168,1.009604,0.036857,-1.244057,0.176199,2.498419,1.544208
5886.867000000,0.321719,1.009783,0.037085,-1.244219,0.212904,2.498409,1.552663
5886.875000000,0.321212,1.009607,0.036890,-1.244057,0.177502,2.498427,1.530777
5886.898000000,0.321716,1.009785,0.037088,-1.244227,0.212899,2.498409,1.552662
5886.909000000,0.321199,1.009596,0.036834,-1.244065,0.173267,2.498486,1.527977
5886.931000000,0.321724,1.009783,0.037085,-1.244219,0.212899,2.498412,1.552656
5886.945000000,0.321363,1.009631,0.036953,-1.244074,0.177252,2.498457,1.524629
5886.960000000,0.321716,1.009780,0.037085,-1.244219,0.212901,2.498408,1.552652
5886.977000000,0.321490,1.009667,0.037019,-1.244097,0.178864,2.498454,1.528589
5886.993000000,0.321719,1.009785,0.037088,-1.244224,0.212902,2.498406,1.552652
5887.011000000,0.321595,1.009698,0.037070,-1.244120,0.179784,2.498449,1.538238
5887.025000000,0.321719,1.009788,0.037085,-1.244222,0.212905,2.498411,1.552657
5887.044000000,0.321740,1.009705,0.037034,-1.244183,0.180913,2.498441,1.550922
5887.058000000,0.321716,1.009788,0.037083,-1.244219,0.212902,2.498410,1.552659
5887.079000000,0.321786,1.009735,0.037062,-1.244204,0.181160,2.498434,1.568714
5887.090000000,0.321716,1.009790,0.037088,-1.244222,0.212900,2.498409,1.552662
5887.112000000,0.321804,1.009760,0.037075,-1.244222,0.181217,2.498420,1.584099
5887.123000000,0.321721,1.009786,0.037085,-1.244224,0.212901,2.498405,1.552662
5887.146000000,0.321808,1.009792,0.037071,-1.244224,0.181152,2.498411,1.597123
5887.154000000,0.321722,1.009790,0.037090,-1.244222,0.212901,2.498406,1.552657
5887.181000000,0.321725,1.009797,0.037145,-1.244220,0.180357,2.498391,1.610334
5887.187000000,0.321721,1.009788,0.037083,-1.244219,0.212900,2.498410,1.552661
5887.217000000,0.321777,1.009804,0.037062,-1.244254,0.180927,2.498394,1.618045
5887.220000000,0.321719,1.009790,0.037085,-1.244227,0.212899,2.498410,1.552658
5887.251000000,0.321697,1.009829,0.037125,-1.244211,0.180171,2.498379,1.627814
5887.253000000,0.321723,1.009788,0.037083,-1.244221,0.212901,2.498405,1.552659
5887.285000000,0.321755,1.009807,0.037048,-1.244258,0.180740,2.498392,1.632404
5887.288000000,0.321716,1.009790,0.037085,-1.244224,0.212900,2.498410,1.552652
5887.318000000,0.321749,1.009804,0.037044,-1.244256,0.180648,2.498392,1.637978
5887.321000000,0.321716,1.009793,0.037088,-1.244224,0.212905,2.498409,1.552659
5887.352000000,0.321745,1.009800,0.037043,-1.244254,0.180560,2.498393,1.642699
5887.355000000,0.321729,1.009786,0.037085,-1.244222,0.212902,2.498406,1.552657
5887.386000000,0.321744,1.009796,0.037043,-1.244251,0.180485,2.498395,1.646743
5887.388000000,0.321719,1.009786,0.037085,-1.244224,0.212901,2.498409,1.552654
5887.420000000,0.321747,1.009791,0.037043,-1.244249,0.180422,2.498396,1.650099
5887.422000000,0.321714,1.009785,0.037085,-1.244229,0.212900,2.498405,1.552658
5887.454000000,0.321752,1.009784,0.037043,-1.244250,0.180375,2.498396,1.652910
5887.455000000,0.321719,1.009793,0.037085,-1.244219,0.212900,2.498406,1.552657
