yuan18844-afk/dissertation/catkin_ws/src/franka_digital_twin/analysis/data/real_smooth2_20250728_072359.csv
time,panda_joint1,panda_joint2,panda_joint3,panda_joint4,panda_joint5,panda_joint6,panda_joint7
0.000000000,0.375469,1.157257,-0.050807,-0.989352,0.088178,2.123128,2.389563
970.028000000,0.375477,1.157260,-0.050807,-0.989349,0.088178,2.123127,2.389562
970.038000000,0.375333,1.157176,-0.050699,-0.989253,0.031860,2.122952,2.411292
970.063000000,0.375474,1.157260,-0.050807,-0.989352,0.088176,2.123127,2.389563
970.073000000,0.375338,1.157005,-0.050928,-0.989274,0.038063,2.123253,2.387628
970.097000000,0.375471,1.157257,-0.050804,-0.989349,0.088178,2.123129,2.389570
970.107000000,0.375296,1.156932,-0.050957,-0.989238,0.041472,2.123264,2.374616
970.128000000,0.375468,1.157257,-0.050804,-0.989356,0.088179,2.123128,2.389561
970.141000000,0.375296,1.156925,-0.050958,-0.989224,0.043776,2.123249,2.362322
970.163000000,0.375474,1.157260,-0.050807,-0.989352,0.088180,2.123126,2.389565
970.175000000,0.375331,1.156955,-0.050966,-0.989260,0.045255,2.123259,2.350780
970.197000000,0.375466,1.157255,-0.050807,-0.989352,0.088180,2.123126,2.389569
970.210000000,0.375262,1.157049,-0.050759,-0.989187,0.045516,2.123005,2.343200
970.227000000,0.375469,1.157255,-0.050810,-0.989357,0.088177,2.123127,2.389566
970.247000000,0.375313,1.157120,-0.050742,-0.989222,0.046144,2.123003,2.335853
970.260000000,0.375474,1.157257,-0.050804,-0.989352,0.088177,2.123126,2.389563
970.278000000,0.375360,1.157183,-0.050727,-0.989255,0.046551,2.122997,2.329833
970.295000000,0.375471,1.157260,-0.050802,-0.989354,0.088177,2.123129,2.389567
970.312000000,0.375394,1.157241,-0.050712,-0.989282,0.046818,2.122994,2.324920
970.329000000,0.375474,1.157260,-0.050807,-0.989352,0.088181,2.123127,2.389562
970.346000000,0.375425,1.157257,-0.050702,-0.989321,0.046987,2.123001,2.321128
970.363000000,0.375471,1.157263,-0.050807,-0.989357,0.088176,2.123131,2.389566
970.380000000,0.375427,1.157289,-0.050685,-0.989322,0.047104,2.122998,2.317912
970.397000000,0.375466,1.157252,-0.050807,-0.989354,0.088177,2.123127,2.389563
970.414000000,0.375565,1.157298,-0.050897,-0.989400,0.047932,2.123226,2.313728
970.431000000,0.375469,1.157260,-0.050810,-0.989352,0.088178,2.123127,2.389568
970.448000000,0.375434,1.157301,-0.050684,-0.989328,0.047263,2.122997,2.313075
970.462000000,0.375471,1.157257,-0.050804,-0.989352,0.088177,2.123127,2.389570
970.483000000,0.375557,1.157275,-0.050894,-0.989417,0.048030,2.123224,2.309473
970.495000000,0.375471,1.157255,-0.050810,-0.989357,0.088176,2.123128,2.389564
970.523000000,0.375426,1.157284,-0.050693,-0.989325,0.047350,2.122998,2.309355
970.528000000,0.375471,1.157257,-0.050802,-0.989352,0.088178,2.123127,2.389567
970.556000000,0.375415,1.157282,-0.050689,-0.989316,0.047383,2.123002,2.308050
970.560000000,0.375469,1.157263,-0.050807,-0.989352,0.088177,2.123126,2.389566
970.591000000,0.375543,1.157268,-0.050909,-0.989386,0.048107,2.123227,2.305270
970.592000000,0.375474,1.157257,-0.050810,-0.989352,0.088177,2.123129,2.389570
970.624000000,0.375464,1.157260,-0.050807,-0.989354,0.088180,2.123126,2.389570
970.626000000,0.375410,1.157264,-0.050698,-0.989312,0.047389,2.123003,2.306110
970.655000000,0.375474,1.157257,-0.050804,-0.989354,0.088177,2.123128,2.389568
970.661000000,0.375414,1.157192,-0.050778,-0.989350,0.041714,2.123124,2.304135
970.686000000,0.375474,1.157255,-0.050802,-0.989354,0.088177,2.123127,2.389565
970.695000000,0.375369,1.157115,-0.050855,-0.989332,0.028768,2.123164,2.299121
970.719000000,0.375466,1.157265,-0.050807,-0.989354,0.088177,2.123128,2.389568
970.729000000,0.375353,1.157073,-0.050898,-0.989329,0.016039,2.123199,2.293729
970.750000000,0.375477,1.157263,-0.050804,-0.989354,0.088180,2.123126,2.389566
970.764000000,0.375358,1.157044,-0.050941,-0.989336,0.003106,2.123234,2.288349
970.783000000,0.375466,1.157260,-0.050807,-0.989354,0.088177,2.123129,2.389561
970.797000000,0.375373,1.157044,-0.050985,-0.989328,-0.009954,2.123271,2.282984
970.816000000,0.375474,1.157259,-0.050807,-0.989354,0.088180,2.123128,2.389565
970.831000000,0.375390,1.157032,-0.051022,-0.989333,-0.023349,2.123307,2.277839
970.849000000,0.375471,1.157257,-0.050807,-0.989352,0.088178,2.123127,2.389572
970.865000000,0.375412,1.157025,-0.051059,-0.989340,-0.036892,2.123346,2.272825
970.884000000,0.375469,1.157257,-0.050807,-0.989352,0.088180,2.123129,2.389566
970.899000000,0.375434,1.157019,-0.051096,-0.989348,-0.050664,2.123385,2.268051
970.920000000,0.375471,1.157255,-0.050804,-0.989354,0.088182,2.123125,2.389569
970.933000000,0.375458,1.157013,-0.051133,-0.989355,-0.064676,2.123426,2.263568
970.949000000,0.375471,1.157257,-0.050807,-0.989354,0.088179,2.123128,2.389565
970.966000000,0.375483,1.157013,-0.051172,-0.989361,-0.078798,2.123472,2.259318
970.979000000,0.375469,1.157257,-0.050804,-0.989354,0.088179,2.123127,2.389564
971.001000000,0.376017,1.157452,-0.051357,-0.989562,-0.039278,2.123678,2.305250
971.010000000,0.375469,1.157260,-0.050810,-0.989354,0.088179,2.123127,2.389572
971.035000000,0.376011,1.157628,-0.050952,-0.989619,-0.005332,2.123448,2.346983
971.038000000,0.375474,1.157263,-0.050812,-0.989352,0.088175,2.123127,2.389570
971.069000000,0.375886,1.157583,-0.050822,-0.989581,0.014736,2.123324,2.375923
971.076000000,0.375471,1.157260,-0.050807,-0.989349,0.088182,2.123129,2.389565
971.103000000,0.375719,1.157448,-0.050814,-0.989507,0.026989,2.123271,2.398228
971.108000000,0.375469,1.157257,-0.050810,-0.989357,0.088176,2.123126,2.389563
971.137000000,0.375561,1.157301,-0.050842,-0.989420,0.034639,2.123235,2.415504
971.142000000,0.375469,1.157260,-0.050804,-0.989354,0.088176,2.123126,2.389568
971.171000000,0.375442,1.157171,-0.050893,-0.989379,0.039367,2.123240,2.428439
971.174000000,0.375469,1.157257,-0.050810,-0.989349,0.088177,2.123129,2.389568
971.204000000,0.375370,1.157096,-0.050924,-0.989341,0.042327,2.123244,2.437931
971.210000000,0.375469,1.157255,-0.050804,-0.989352,0.088176,2.123128,2.389570
971.238000000,0.375217,1.157085,-0.050739,-0.989223,0.043441,2.122970,2.447875
971.246000000,0.375474,1.157260,-0.050804,-0.989360,0.088177,2.123128,2.389568
971.275000000,0.375350,1.157065,-0.050949,-0.989324,0.045372,2.123259,2.452803
971.281000000,0.375471,1.157255,-0.050804,-0.989352,0.088178,2.123126,2.389567
971.307000000,0.375381,1.157087,-0.050946,-0.989339,0.046114,2.123260,2.458374
971.316000000,0.375471,1.157257,-0.050804,-0.989352,0.088180,2.123127,2.389569
971.341000000,0.375301,1.157162,-0.050740,-0.989244,0.045857,2.122966,2.464708
971.350000000,0.375464,1.157257,-0.050804,-0.989352,0.088176,2.123127,2.389571
971.376000000,0.375347,1.157180,-0.050728,-0.989282,0.046107,2.122974,2.468177
971.384000000,0.375469,1.157260,-0.050810,-0.989356,0.088183,2.123126,2.389571
971.411000000,0.375367,1.157224,-0.050703,-0.989287,0.046262,2.122970,2.471131
971.416000000,0.375466,1.157257,-0.050807,-0.989352,0.088176,2.123127,2.389573
971.445000000,0.375520,1.157232,-0.050899,-0.989403,0.047087,2.123255,2.471944
971.447000000,0.375469,1.157260,-0.050804,-0.989354,0.088179,2.123129,2.389567
971.478000000,0.375411,1.157272,-0.050690,-0.989310,0.046413,2.122965,2.475563
971.480000000,0.375469,1.157260,-0.050804,-0.989349,0.088177,2.123128,2.389568
971.513000000,0.375545,1.157263,-0.050889,-0.989416,0.047165,2.123254,2.475522
971.514000000,0.375471,1.157257,-0.050807,-0.989349,0.088177,2.123128,2.389571
971.547000000,0.375551,1.157265,-0.050891,-0.989419,0.047179,2.123253,2.476712
971.547000000,0.375466,1.157257,-0.050810,-0.989352,0.088180,2.123128,2.389568
971.581000000,0.375547,1.157272,-0.050888,-0.989417,0.047184,2.123256,2.477501
971.581000000,0.375471,1.157260,-0.050810,-0.989354,0.088177,2.123127,2.389562
971.615000000,0.375471,1.157257,-0.050810,-0.989354,0.088176,2.123127,2.389568
971.616000000,0.375434,1.157275,-0.050704,-0.989324,0.046434,2.122966,2.479622
971.649000000,0.375471,1.157255,-0.050807,-0.989353,0.088177,2.123129,2.389561
971.649000000,0.375490,1.157259,-0.050824,-0.989369,0.045246,2.123192,2.479386
971.683000000,0.375471,1.157257,-0.050807,-0.989349,0.088177,2.123128,2.389566
971.684000000,0.375285,1.157168,-0.050656,-0.989241,0.031148,2.122902,2.490944
971.717000000,0.375389,1.157129,-0.050874,-0.989308,0.020591,2.123204,2.497149
971.718000000,0.375469,1.157257,-0.050807,-0.989354,0.088176,2.123129,2.389571
971.751000000,0.375469,1.157255,-0.050810,-0.989352,0.088180,2.123126,2.389571
971.752000000,0.375412,1.157215,-0.050783,-0.989299,0.020280,2.122955,2.489658
971.784000000,0.375469,1.157257,-0.050812,-0.989354,0.088178,2.123128,2.389573
971.786000000,0.375342,1.157286,-0.050552,-0.989254,0.020714,2.122831,2.491987
971.819000000,0.375471,1.157260,-0.050807,-0.989354,0.088178,2.123128,2.389572
971.821000000,0.375416,1.157186,-0.050808,-0.989309,0.007228,2.123115,2.510169
971.848000000,0.375471,1.157257,-0.050802,-0.989349,0.088182,2.123127,2.389570
971.856000000,0.375392,1.157157,-0.050814,-0.989294,-0.004831,2.123127,2.522707
971.874000000,0.375466,1.157257,-0.050810,-0.989352,0.088177,2.123127,2.389566
971.889000000,0.375402,1.157136,-0.050858,-0.989300,-0.017418,2.123183,2.535503
971.904000000,0.375477,1.157263,-0.050810,-0.989351,0.088181,2.123127,2.389566
971.923000000,0.375416,1.157123,-0.050893,-0.989308,-0.030294,2.123234,2.548474
971.934000000,0.375474,1.157263,-0.050802,-0.989350,0.088180,2.123126,2.389561
971.958000000,0.375434,1.157113,-0.050927,-0.989316,-0.043460,2.123289,2.561744
971.964000000,0.375474,1.157260,-0.050807,-0.989352,0.088180,2.123128,2.389568
971.991000000,0.375658,1.157404,-0.050928,-0.989408,-0.024967,2.123084,2.533719
971.993000000,0.375471,1.157260,-0.050807,-0.989352,0.088177,2.123126,2.389565
972.024000000,0.375474,1.157257,-0.050804,-0.989352,0.088176,2.123126,2.389567
972.026000000,0.375834,1.157581,-0.050883,-0.989595,0.002519,2.123294,2.488751
972.060000000,0.375608,1.157448,-0.050686,-0.989484,0.002343,2.123177,2.482004
972.061000000,0.375469,1.157257,-0.050807,-0.989354,0.088176,2.123128,2.389567
972.094000000,0.375760,1.157447,-0.050974,-0.989548,0.011276,2.123341,2.465032
972.096000000,0.375469,1.157260,-0.050807,-0.989357,0.088176,2.123129,2.389561
972.128000000,0.375725,1.157470,-0.050891,-0.989511,0.024480,2.123272,2.441955
972.131000000,0.375471,1.157260,-0.050804,-0.989352,0.088177,2.123128,2.389563
972.162000000,0.375651,1.157406,-0.050867,-0.989466,0.033105,2.123240,2.422660
972.166000000,0.375474,1.157260,-0.050804,-0.989354,0.088180,2.123128,2.389571
972.196000000,0.375573,1.157317,-0.050880,-0.989417,0.038362,2.123232,2.406047
972.200000000,0.375469,1.157257,-0.050804,-0.989354,0.088177,2.123127,2.389564
972.230000000,0.375398,1.157178,-0.050808,-0.989324,0.033647,2.123190,2.397019
972.232000000,0.375474,1.157260,-0.050810,-0.989354,0.088181,2.123127,2.389563
972.265000000,0.375377,1.157173,-0.050794,-0.989275,0.036583,2.123047,2.394227
972.266000000,0.375469,1.157263,-0.050804,-0.989352,0.088178,2.123127,2.389565
972.298000000,0.375469,1.157260,-0.050810,-0.989349,0.088177,2.123127,2.389572
972.299000000,0.375384,1.157181,-0.050760,-0.989284,0.040892,2.123019,2.391721
972.331000000,0.375464,1.157263,-0.050810,-0.989354,0.088178,2.123128,2.389567
972.334000000,0.375362,1.157106,-0.050824,-0.989283,0.033617,2.123163,2.396578
972.366000000,0.375471,1.157257,-0.050810,-0.989357,0.088176,2.123127,2.389568
972.368000000,0.375506,1.157176,-0.050966,-0.989348,0.039812,2.123264,2.391925
972.398000000,0.375466,1.157260,-0.050804,-0.989349,0.088176,2.123127,2.389572
972.403000000,0.375390,1.157213,-0.050713,-0.989292,0.042541,2.122972,2.390682
972.432000000,0.375474,1.157257,-0.050810,-0.989354,0.088178,2.123129,2.389562
972.437000000,0.375401,1.157237,-0.050701,-0.989305,0.044586,2.122969,2.388528
972.466000000,0.375469,1.157257,-0.050804,-0.989352,0.088180,2.123129,2.389567
972.472000000,0.375529,1.157256,-0.050899,-0.989376,0.046557,2.123239,2.384912
972.499000000,0.375469,1.157255,-0.050807,-0.989349,0.088177,2.123128,2.389564
972.506000000,0.375519,1.157248,-0.050886,-0.989392,0.047165,2.123246,2.383113
972.532000000,0.375471,1.157257,-0.050802,-0.989349,0.088177,2.123127,2.389564
972.540000000,0.375518,1.157249,-0.050888,-0.989393,0.047554,2.123247,2.381107
972.565000000,0.375474,1.157260,-0.050810,-0.989357,0.088177,2.123128,2.389569
972.575000000,0.375403,1.157251,-0.050706,-0.989313,0.047058,2.122980,2.380462
972.599000000,0.375469,1.157257,-0.050804,-0.989354,0.088181,2.123129,2.389567
972.608000000,0.375405,1.157251,-0.050709,-0.989315,0.047147,2.122982,2.377921
972.633000000,0.375466,1.157257,-0.050810,-0.989357,0.088178,2.123128,2.389567
972.643000000,0.375406,1.157251,-0.050709,-0.989316,0.047189,2.122984,2.375042
972.667000000,0.375469,1.157257,-0.050810,-0.989352,0.088176,2.123128,2.389567
972.677000000,0.375368,1.157248,-0.050647,-0.989295,0.046305,2.122942,2.372480
972.700000000,0.375469,1.157260,-0.050802,-0.989352,0.088178,2.123125,2.389570
972.711000000,0.375399,1.157164,-0.050849,-0.989313,0.034200,2.123157,2.376878
972.734000000,0.375474,1.157257,-0.050804,-0.989354,0.088180,2.123130,2.389562
972.746000000,0.375358,1.157120,-0.050833,-0.989306,0.023273,2.123157,2.381177
972.768000000,0.375471,1.157260,-0.050804,-0.989352,0.088180,2.123127,2.389570
972.780000000,0.375367,1.157101,-0.050877,-0.989311,0.011900,2.123206,2.385514
972.802000000,0.375474,1.157260,-0.050810,-0.989352,0.088180,2.123126,2.389573
972.814000000,0.375377,1.157090,-0.050901,-0.989320,0.000368,2.123244,2.389714
972.835000000,0.375474,1.157260,-0.050804,-0.989352,0.088179,2.123126,2.389573
972.848000000,0.375393,1.157081,-0.050928,-0.989330,-0.011337,2.123285,2.393875
972.869000000,0.375457,1.157263,-0.050818,-0.989362,0.088180,2.123124,2.389562
972.882000000,0.375409,1.157078,-0.050954,-0.989345,-0.023187,2.123327,2.398054
972.903000000,0.375408,1.157289,-0.050849,-0.989385,0.088181,2.123121,2.389562
972.917000000,0.375308,1.157076,-0.050787,-0.989263,-0.036347,2.123074,2.404199
972.935000000,0.375356,1.157302,-0.050875,-0.989391,0.088180,2.123120,2.389561
972.951000000,0.375308,1.157087,-0.050778,-0.989243,-0.048800,2.123043,2.408879
972.969000000,0.375386,1.157283,-0.050862,-0.989365,0.088180,2.123123,2.389570
972.984000000,0.375416,1.157056,-0.050949,-0.989343,-0.060419,2.123310,2.412062
973.002000000,0.375406,1.157250,-0.050851,-0.989352,0.088177,2.123125,2.389572
973.019000000,0.375296,1.157082,-0.050745,-0.989222,-0.074305,2.122986,2.419188
973.036000000,0.375401,1.157265,-0.050853,-0.989360,0.088177,2.123125,2.389570
973.053000000,0.375424,1.157045,-0.050954,-0.989342,-0.086133,2.123311,2.423058
973.070000000,0.375417,1.157276,-0.050843,-0.989365,0.088180,2.123124,2.389563
973.086000000,0.375424,1.157048,-0.050953,-0.989339,-0.099258,2.123318,2.429290
973.103000000,0.375408,1.157271,-0.050848,-0.989360,0.088176,2.123124,2.389571
973.120000000,0.375453,1.157051,-0.051000,-0.989341,-0.112474,2.123372,2.436088
973.138000000,0.375361,1.157265,-0.050872,-0.989362,0.088180,2.123124,2.389573
973.154000000,0.375475,1.157045,-0.051034,-0.989354,-0.125865,2.123424,2.443563
973.172000000,0.375377,1.157268,-0.050867,-0.989362,0.088180,2.123126,2.389570
973.189000000,0.375357,1.157047,-0.050825,-0.989263,-0.140645,2.123111,2.453791
973.204000000,0.375388,1.157271,-0.050862,-0.989357,0.088180,2.123128,2.389570
973.223000000,0.375353,1.157045,-0.050802,-0.989250,-0.154794,2.123076,2.463213
973.238000000,0.375374,1.157239,-0.050870,-0.989349,0.088182,2.123129,2.389564
973.257000000,0.375337,1.157041,-0.050759,-0.989231,-0.169239,2.123004,2.473675
973.272000000,0.375379,1.157239,-0.050867,-0.989344,0.088181,2.123134,2.389566
973.291000000,0.375314,1.157046,-0.050709,-0.989203,-0.183930,2.122936,2.485241
973.306000000,0.375385,1.157241,-0.050864,-0.989347,0.088181,2.123133,2.389572
973.325000000,0.375301,1.157029,-0.050679,-0.989191,-0.198974,2.122859,2.498125
973.340000000,0.375375,1.157241,-0.050864,-0.989352,0.088181,2.123129,2.389570
973.359000000,0.375284,1.157026,-0.050636,-0.989170,-0.214198,2.122783,2.512278
973.373000000,0.375382,1.157236,-0.050867,-0.989347,0.088179,2.123132,2.389571
973.393000000,0.375265,1.157022,-0.050593,-0.989149,-0.229737,2.122703,2.527936
973.408000000,0.375401,1.157241,-0.050856,-0.989344,0.088178,2.123128,2.389574
973.427000000,0.375246,1.157015,-0.050547,-0.989126,-0.245608,2.122619,2.545242
973.441000000,0.375423,1.157255,-0.050845,-0.989357,0.088178,2.123128,2.389570
973.461000000,0.375231,1.157013,-0.050508,-0.989101,-0.261747,2.122551,2.564289
973.475000000,0.375405,1.157252,-0.050847,-0.989352,0.088184,2.123131,2.389571
973.501000000,0.375208,1.157005,-0.050453,-0.989071,-0.281320,2.122449,2.589322
973.506000000,0.375420,1.157250,-0.050845,-0.989357,0.088178,2.123127,2.389571
973.536000000,0.376127,1.157989,-0.051231,-0.989740,-0.183476,2.123115,2.525959
973.541000000,0.375457,1.157267,-0.050825,-0.989365,0.088181,2.123124,2.389574
973.570000000,0.376078,1.158351,-0.050620,-0.989803,-0.104235,2.122779,2.494881
973.576000000,0.375423,1.157315,-0.050841,-0.989388,0.088179,2.123117,2.389571
973.601000000,0.375365,1.157323,-0.050869,-0.989385,0.088182,2.123117,2.389572
973.604000000,0.375902,1.158194,-0.050356,-0.989710,-0.046272,2.122689,2.479647
973.635000000,0.375354,1.157304,-0.050873,-0.989378,0.088182,2.123118,2.389564
973.638000000,0.375473,1.157741,-0.050114,-0.989459,-0.014528,2.122535,2.474897
973.665000000,0.375394,1.157291,-0.050846,-0.989360,0.088192,2.123127,2.389564
973.672000000,0.375310,1.157136,-0.050794,-0.989237,-0.028886,2.122931,2.495307
973.699000000,0.375498,1.157315,-0.050803,-0.989372,0.088189,2.123129,2.389576
973.707000000,0.375285,1.157142,-0.050676,-0.989201,-0.000314,2.122814,2.484966
973.732000000,0.375549,1.157327,-0.050786,-0.989372,0.088189,2.123127,2.389579
973.741000000,0.375248,1.157081,-0.050646,-0.989198,0.017176,2.122845,2.479605
973.765000000,0.375543,1.157333,-0.050790,-0.989403,0.088179,2.123097,2.389569
973.775000000,0.375206,1.157042,-0.050648,-0.989168,0.027648,2.122877,2.477030
973.797000000,0.375543,1.157372,-0.050790,-0.989445,0.088178,2.123082,2.389575
973.809000000,0.375208,1.157026,-0.050673,-0.989173,0.034520,2.122896,2.475635
973.830000000,0.375541,1.157446,-0.050785,-0.989478,0.088178,2.123073,2.389570
973.843000000,0.375233,1.157047,-0.050688,-0.989200,0.038890,2.122907,2.475710
973.863000000,0.375514,1.157458,-0.050799,-0.989484,0.088174,2.123072,2.389576
973.881000000,0.375398,1.157103,-0.050891,-0.989340,0.042547,2.123218,2.474189
973.897000000,0.375508,1.157414,-0.050804,-0.989463,0.088174,2.123073,2.389578
973.914000000,0.375443,1.157186,-0.050891,-0.989388,0.044237,2.123217,2.474740
973.931000000,0.375503,1.157409,-0.050812,-0.989458,0.088175,2.123073,2.389577
973.948000000,0.375484,1.157274,-0.050888,-0.989436,0.045333,2.123212,2.475377
973.965000000,0.375497,1.157432,-0.050812,-0.989466,0.088173,2.123071,2.389575
973.982000000,0.375407,1.157344,-0.050702,-0.989384,0.045280,2.122909,2.477627
973.998000000,0.375505,1.157468,-0.050802,-0.989490,0.088177,2.123066,2.389575
974.021000000,0.375434,1.157408,-0.050700,-0.989417,0.045772,2.122904,2.478067
974.032000000,0.375529,1.157506,-0.050788,-0.989518,0.088178,2.123063,2.389567
974.054000000,0.375566,1.157452,-0.050896,-0.989516,0.046763,2.123192,2.476450
974.058000000,0.375540,1.157522,-0.050783,-0.989533,0.088179,2.123056,2.389574
974.088000000,0.375580,1.157486,-0.050892,-0.989538,0.046947,2.123189,2.476214
974.099000000,0.375522,1.157526,-0.050793,-0.989530,0.088177,2.123061,2.389573
974.122000000,0.375592,1.157514,-0.050889,-0.989556,0.047054,2.123186,2.475659
974.132000000,0.375489,1.157502,-0.050809,-0.989508,0.088177,2.123057,2.389570
974.156000000,0.375598,1.157534,-0.050887,-0.989565,0.047116,2.123184,2.474767
974.165000000,0.375453,1.157463,-0.050831,-0.989506,0.088176,2.123051,2.389565
974.190000000,0.375596,1.157540,-0.050894,-0.989574,0.047151,2.123178,2.473532
974.198000000,0.375400,1.157457,-0.050853,-0.989500,0.088181,2.123056,2.389573
974.225000000,0.375444,1.157543,-0.050685,-0.989481,0.046439,2.122889,2.473569
974.232000000,0.375404,1.157544,-0.050844,-0.989543,0.088183,2.123055,2.389569
974.259000000,0.375425,1.157518,-0.050716,-0.989489,0.046429,2.122888,2.471649
974.265000000,0.375445,1.157589,-0.050825,-0.989573,0.088179,2.123047,2.389569
974.294000000,0.375398,1.157515,-0.050728,-0.989491,0.046446,2.122891,2.469345
974.299000000,0.375464,1.157574,-0.050803,-0.989572,0.088188,2.123050,2.389571
974.327000000,0.375380,1.157523,-0.050732,-0.989500,0.046462,2.122892,2.466694
974.333000000,0.375518,1.157585,-0.050789,-0.989572,0.088189,2.123055,2.389567
974.361000000,0.375378,1.157536,-0.050731,-0.989509,0.046481,2.122894,2.463705
974.366000000,0.375501,1.157654,-0.050793,-0.989617,0.088189,2.123050,2.389560
974.395000000,0.375262,1.157495,-0.050611,-0.989451,0.038776,2.122798,2.466274
974.400000000,0.375455,1.157667,-0.050812,-0.989795,0.088192,2.123047,2.389565
974.429000000,0.375200,1.157427,-0.050630,-0.989410,0.025177,2.122762,2.473025
974.433000000,0.375443,1.157671,-0.050815,-0.989785,0.088194,2.123046,2.389572
974.463000000,0.375378,1.157536,-0.050741,-0.989550,0.031220,2.122855,2.458274
974.467000000,0.375444,1.157676,-0.050807,-0.989795,0.088194,2.123045,2.389572
974.497000000,0.375275,1.157572,-0.050539,-0.989491,0.027397,2.122697,2.464683
974.500000000,0.375415,1.157681,-0.050826,-0.989798,0.088193,2.123046,2.389561
974.531000000,0.375218,1.157517,-0.050565,-0.989451,0.014027,2.122661,2.481200
974.534000000,0.375389,1.157676,-0.050842,-0.989798,0.088199,2.123043,2.389568
974.565000000,0.375176,1.157466,-0.050539,-0.989432,0.000661,2.122605,2.497254
974.567000000,0.375264,1.157745,-0.050867,-0.989901,0.088193,2.123039,2.389364
974.599000000,0.374923,1.157804,-0.050864,-0.990031,0.088195,2.123045,2.389355
974.600000000,0.375127,1.157454,-0.050498,-0.989396,-0.013122,2.122540,2.513299
974.633000000,0.375453,1.157701,-0.050689,-0.989657,0.007147,2.122763,2.491605
974.633000000,0.374478,1.157801,-0.050986,-0.990318,0.088195,2.123041,2.389227
974.666000000,0.373732,1.157794,-0.051215,-0.990375,0.088196,2.123045,2.389183
974.667000000,0.375395,1.157801,-0.050565,-0.989870,0.021563,2.122782,2.475117
974.701000000,0.372738,1.157788,-0.051541,-0.990373,0.088192,2.123046,2.388929
974.701000000,0.375121,1.157825,-0.050577,-0.990034,0.030447,2.122801,2.462996
974.734000000,0.371491,1.157774,-0.051996,-0.990368,0.088194,2.123047,2.388622
974.736000000,0.374799,1.157739,-0.050766,-0.989975,0.020414,2.122929,2.481181
974.768000000,0.370010,1.157739,-0.052707,-0.990354,0.088193,2.123047,2.388508
974.771000000,0.374565,1.157688,-0.050680,-0.989898,0.009972,2.122656,2.486473
974.802000000,0.368154,1.157731,-0.053302,-0.990352,0.088198,2.123042,2.388505
974.805000000,0.374528,1.157670,-0.050707,-0.989887,-0.000715,2.122679,2.490765
974.836000000,0.365834,1.157750,-0.053707,-0.990355,0.088192,2.123045,2.388320
974.840000000,0.374623,1.157641,-0.050878,-0.989975,-0.011266,2.122928,2.493594
974.868000000,0.363110,1.157751,-0.054296,-0.990355,0.088189,2.123048,2.387638
974.874000000,0.374610,1.157637,-0.050862,-0.989966,-0.022371,2.122909,2.498094
974.903000000,0.360338,1.157708,-0.055455,-0.990331,0.088188,2.123046,2.387367
974.907000000,0.374501,1.157648,-0.050690,-0.989876,-0.034023,2.122629,2.504359
974.937000000,0.356639,1.157688,-0.057555,-0.990314,0.088182,2.123050,2.387262
974.943000000,0.374511,1.157656,-0.050707,-0.989866,-0.046269,2.122628,2.509785
974.970000000,0.352843,1.157693,-0.060141,-0.990317,0.088167,2.123050,2.386725
974.979000000,0.374488,1.157651,-0.050662,-0.989840,-0.058942,2.122552,2.515808
975.006000000,0.348703,1.157700,-0.063644,-0.990334,0.088160,2.123048,2.386151
975.021000000,0.374472,1.157651,-0.050631,-0.989817,-0.071240,2.122495,2.522118
975.041000000,0.343961,1.157747,-0.068754,-0.990358,0.088128,2.123049,2.385024
975.047000000,0.374456,1.157650,-0.050600,-0.989795,-0.083859,2.122432,2.529120
975.075000000,0.339185,1.157798,-0.074482,-0.990385,0.087898,2.123050,2.382803
975.081000000,0.374440,1.157653,-0.050568,-0.989773,-0.096522,2.122370,2.536699
975.108000000,0.334522,1.157804,-0.080574,-0.990473,0.087617,2.123053,2.380259
975.116000000,0.374547,1.157626,-0.050743,-0.989878,-0.109052,2.122712,2.543665
975.140000000,0.328583,1.157808,-0.088489,-0.990577,0.087590,2.123052,2.378136
975.150000000,0.374546,1.157623,-0.050738,-0.989866,-0.122260,2.122696,2.553084
975.175000000,0.322591,1.157853,-0.096485,-0.990725,0.087575,2.123057,2.376882
975.184000000,0.374569,1.157605,-0.050787,-0.989899,-0.135580,2.122775,2.563467
975.208000000,0.315969,1.157885,-0.105110,-0.991105,0.087556,2.123058,2.375795
975.218000000,0.374590,1.157595,-0.050819,-0.989914,-0.149210,2.122834,2.575043
975.243000000,0.308844,1.157976,-0.114003,-0.991574,0.087537,2.123060,2.374682
975.255000000,0.374480,1.157622,-0.050621,-0.989789,-0.164155,2.122453,2.589903
975.277000000,0.301308,1.158192,-0.122887,-0.992104,0.087528,2.123066,2.373924
975.287000000,0.374477,1.157619,-0.050603,-0.989776,-0.178408,2.122417,2.604252
975.310000000,0.293151,1.158487,-0.131626,-0.992800,0.087529,2.123073,2.373523
975.321000000,0.374459,1.157623,-0.050558,-0.989747,-0.193075,2.122329,2.620237
975.345000000,0.284409,1.158883,-0.140046,-0.993643,0.087522,2.123077,2.372910
975.355000000,0.374451,1.157601,-0.050521,-0.989740,-0.207987,2.122257,2.637884
975.379000000,0.275268,1.159394,-0.147738,-0.994686,0.087514,2.123081,2.371805
975.389000000,0.374419,1.157608,-0.050466,-0.989705,-0.223157,2.122170,2.657330
975.412000000,0.265433,1.159974,-0.154762,-0.996007,0.087508,2.123084,2.370172
975.423000000,0.374400,1.157604,-0.050419,-0.989680,-0.238773,2.122080,2.678899
975.445000000,0.255177,1.160661,-0.161169,-0.997414,0.087489,2.123089,2.368104
975.457000000,0.374382,1.157600,-0.050373,-0.989651,-0.254537,2.121932,2.702523
975.478000000,0.244397,1.161545,-0.166747,-0.998802,0.087475,2.123095,2.365869
975.491000000,0.374367,1.157591,-0.050326,-0.989625,-0.270489,2.121635,2.728095
975.511000000,0.233124,1.162528,-0.172000,-1.000186,0.087450,2.123101,2.363363
975.525000000,0.374353,1.157573,-0.050288,-0.989601,-0.286716,2.121136,2.754844
975.545000000,0.221839,1.163614,-0.176790,-1.001360,0.087418,2.123111,2.360052
975.561000000,0.374339,1.157561,-0.050240,-0.989572,-0.303049,2.120457,2.782615
975.579000000,0.209944,1.164800,-0.181339,-1.002168,0.087365,2.123118,2.355657
975.594000000,0.374481,1.157541,-0.050471,-0.989666,-0.319237,2.120077,2.810477
975.616000000,0.197960,1.166036,-0.185587,-1.002446,0.087192,2.123130,2.350399
975.628000000,0.374502,1.157520,-0.050495,-0.989666,-0.335909,2.119089,2.840217
975.649000000,0.184741,1.167345,-0.189865,-1.002413,0.087070,2.123185,2.344998
975.662000000,0.374539,1.157499,-0.050543,-0.989675,-0.352656,2.117906,2.870591
975.683000000,0.172238,1.168354,-0.193649,-1.002412,0.087006,2.123431,2.341089
975.696000000,0.374594,1.157506,-0.050620,-0.989689,-0.368511,2.116553,2.897630
975.717000000,0.159546,1.169121,-0.197753,-1.002406,0.086990,2.123512,2.338768
975.730000000,0.374616,1.157605,-0.050618,-0.989768,-0.374842,2.116294,2.897300
975.751000000,0.146917,1.169716,-0.201754,-1.002408,0.086975,2.123675,2.337345
975.764000000,0.374650,1.157674,-0.050653,-0.989818,-0.380692,2.116064,2.897300
975.785000000,0.134029,1.170230,-0.205483,-1.002401,0.086965,2.124246,2.336786
975.798000000,0.374705,1.157636,-0.050739,-0.989845,-0.391179,2.115057,2.897769
975.818000000,0.121224,1.170761,-0.209163,-1.002402,0.086951,2.125841,2.336129
975.832000000,0.374700,1.157593,-0.050698,-0.989825,-0.403342,2.113603,2.894827
975.853000000,0.108299,1.171410,-0.213030,-1.002407,0.086940,2.128482,2.335629
975.866000000,0.374776,1.157545,-0.050839,-0.989850,-0.418009,2.112069,2.895947
975.886000000,0.095438,1.172210,-0.216591,-1.002414,0.086924,2.132719,2.335545
975.901000000,0.374623,1.157526,-0.050504,-0.989707,-0.432664,2.109491,2.895763
975.920000000,0.082539,1.173163,-0.220134,-1.002412,0.086908,2.138280,2.335538
975.935000000,0.372759,1.159967,-0.085371,-0.992015,-0.339171,2.120536,2.721403
975.954000000,0.069955,1.174213,-0.223746,-1.002414,0.086917,2.144146,2.335535
975.969000000,0.333533,1.163671,-0.108926,-0.993061,-0.245202,2.128795,2.619331
975.988000000,0.057502,1.175386,-0.227466,-1.002423,0.086899,2.149994,2.335527
976.002000000,0.268676,1.167362,-0.137132,-0.994159,-0.154801,2.135733,2.537838
976.022000000,0.045212,1.176581,-0.231269,-1.002408,0.086901,2.156375,2.335534
976.037000000,0.194709,1.170371,-0.168432,-0.995653,-0.082513,2.141062,2.465137
976.055000000,0.032977,1.177898,-0.235229,-1.002431,0.086895,2.163177,2.335525
976.071000000,0.128024,1.172454,-0.196959,-0.997847,-0.031320,2.146550,2.424526
976.090000000,0.020794,1.179156,-0.239447,-1.002406,0.086890,2.170375,2.335528
976.106000000,0.071582,1.174155,-0.221120,-1.000515,0.013783,2.152767,2.387001
976.122000000,0.008772,1.180388,-0.243863,-1.002357,0.086861,2.178765,2.335533
976.140000000,0.030499,1.175637,-0.238156,-1.002718,0.045881,2.158949,2.364135
976.156000000,-0.002997,1.181412,-0.248931,-1.002287,0.086766,2.186439,2.335532
976.174000000,0.002377,1.177131,-0.249534,-1.004283,0.065714,2.165839,2.356081
976.190000000,-0.014109,1.182080,-0.254082,-1.002284,0.086682,2.193201,2.335527
976.208000000,-0.015466,1.178657,-0.256539,-1.005054,0.073479,2.173055,2.361947
976.224000000,-0.025077,1.182446,-0.259399,-1.002252,0.086421,2.198402,2.335494
976.244000000,-0.026175,1.180089,-0.260541,-1.005100,0.068043,2.179954,2.373181
976.257000000,-0.035280,1.182489,-0.265161,-1.002052,0.085966,2.200791,2.335027
976.278000000,-0.031888,1.181322,-0.262934,-1.004811,0.062855,2.186168,2.381577
976.292000000,-0.044911,1.182472,-0.271469,-1.001400,0.085504,2.200943,2.333559
976.311000000,-0.035569,1.182289,-0.264967,-1.004191,0.058502,2.190969,2.388887
976.326000000,-0.053791,1.182466,-0.278511,-1.000745,0.085351,2.200931,2.331636
976.345000000,-0.038971,1.182955,-0.267503,-1.003299,0.054855,2.194231,2.394910
976.360000000,-0.061817,1.182450,-0.286075,-1.000422,0.085329,2.200929,2.329877
976.379000000,-0.043024,1.183284,-0.271125,-1.002363,0.051937,2.196425,2.399860
976.394000000,-0.069157,1.182447,-0.294423,-1.000395,0.085299,2.200900,2.328874
976.412000000,-0.047806,1.183350,-0.276129,-1.001687,0.050428,2.198184,2.402026
976.428000000,-0.075941,1.182460,-0.303229,-1.000414,0.085293,2.200896,2.328807
976.446000000,-0.053850,1.183227,-0.282486,-1.001093,0.048652,2.199186,2.405521
976.460000000,-0.082125,1.182494,-0.311748,-1.000575,0.085291,2.200888,2.328813
976.481000000,-0.060995,1.183017,-0.290016,-1.000588,0.046508,2.199547,2.410629
976.494000000,-0.087911,1.182495,-0.320345,-1.000738,0.085285,2.200847,2.328805
976.517000000,-0.068379,1.182796,-0.298749,-1.000550,0.046207,2.200311,2.411965
976.528000000,-0.093045,1.182489,-0.328916,-1.000730,0.085276,2.200819,2.328805
976.550000000,-0.075818,1.182603,-0.307512,-1.000558,0.045390,2.200573,2.414629
976.562000000,-0.097595,1.182508,-0.337534,-1.000761,0.085278,2.200757,2.328797
976.584000000,-0.082975,1.182483,-0.316549,-1.000650,0.044816,2.200704,2.416979
976.597000000,-0.101652,1.182528,-0.345804,-1.000987,0.085277,2.200686,2.328810
976.617000000,-0.089523,1.182426,-0.325233,-1.000679,0.043680,2.200428,2.420631
976.630000000,-0.105305,1.182546,-0.353140,-1.001229,0.085270,2.200425,2.328790
976.652000000,-0.095593,1.182392,-0.334490,-1.001031,0.044047,2.200718,2.420704
976.663000000,-0.108452,1.182581,-0.358969,-1.001282,0.085283,2.199873,2.328755
976.686000000,-0.100939,1.182360,-0.342694,-1.001265,0.043789,2.200542,2.422105
976.697000000,-0.111403,1.182544,-0.363330,-1.001234,0.085285,2.198665,2.328732
976.720000000,-0.105662,1.182324,-0.349912,-1.001438,0.043604,2.200092,2.423269
976.734000000,-0.113751,1.182532,-0.366375,-1.001159,0.085286,2.197236,2.328731
976.754000000,-0.110374,1.181887,-0.353752,-1.001700,0.037148,2.199824,2.428793
976.768000000,-0.115486,1.182503,-0.368146,-1.001070,0.085296,2.194149,2.328698
976.788000000,-0.113227,1.181457,-0.354878,-1.001989,0.023697,2.199836,2.442775
976.802000000,-0.116252,1.182443,-0.368262,-1.000653,0.085302,2.187538,2.328637
976.822000000,-0.114520,1.181320,-0.355551,-1.002113,0.010907,2.199834,2.459850
976.835000000,-0.115857,1.182439,-0.368027,-1.000101,0.085312,2.174899,2.328606
976.856000000,-0.115170,1.181241,-0.355860,-1.002200,-0.002272,2.199859,2.480543
976.869000000,-0.114384,1.182354,-0.367403,-0.999558,0.085336,2.155725,2.328592
976.890000000,-0.115487,1.181208,-0.356038,-1.002254,-0.015690,2.199893,2.504753
976.903000000,-0.112062,1.182306,-0.366283,-0.999087,0.085376,2.129995,2.328590
976.924000000,-0.115643,1.181180,-0.356156,-1.002299,-0.029325,2.199934,2.530960
976.936000000,-0.109258,1.182308,-0.364528,-0.999047,0.085393,2.098948,2.328580
976.958000000,-0.115726,1.181164,-0.356229,-1.002336,-0.043210,2.199984,2.558326
976.969000000,-0.106345,1.182336,-0.362083,-0.999071,0.085419,2.065933,2.328600
976.992000000,-0.115759,1.181166,-0.356292,-1.002354,-0.057310,2.200042,2.586703
977.004000000,-0.103476,1.182305,-0.358174,-0.999037,0.085549,2.031231,2.328597
977.030000000,-0.115912,1.181146,-0.356145,-1.002225,-0.073863,2.199643,2.620442
977.033000000,-0.100632,1.182314,-0.353127,-0.998825,0.085669,1.998677,2.328624
977.063000000,-0.115937,1.181134,-0.356144,-1.002210,-0.089085,2.199570,2.651701
977.069000000,-0.097477,1.182306,-0.347326,-0.998531,0.085749,1.970256,2.328703
977.097000000,-0.115975,1.181134,-0.356113,-1.002164,-0.104784,2.199458,2.684570
977.104000000,-0.094201,1.182309,-0.340733,-0.997971,0.085926,1.947391,2.329071
977.131000000,-0.116012,1.181115,-0.356072,-1.002132,-0.120735,2.199338,2.717946
977.138000000,-0.091023,1.182310,-0.333629,-0.997305,0.086044,1.930673,2.329261
977.165000000,-0.116029,1.181101,-0.356052,-1.002103,-0.136916,2.199082,2.752260
977.173000000,-0.087863,1.182312,-0.325936,-0.996668,0.086095,1.920678,2.329369
977.200000000,-0.115925,1.181086,-0.356200,-1.002231,-0.153162,2.199110,2.786627
977.206000000,-0.084392,1.182317,-0.317360,-0.996334,0.086126,1.916669,2.329513
977.234000000,-0.113932,1.179700,-0.350429,-0.999436,-0.082249,2.113630,2.659215
977.241000000,-0.080782,1.182312,-0.307952,-0.996062,0.086127,1.916306,2.329536
977.268000000,-0.109183,1.178971,-0.341378,-0.998551,-0.028505,2.045522,2.577641
977.275000000,-0.076996,1.182328,-0.297396,-0.995514,0.086131,1.916301,2.329566
977.302000000,-0.102561,1.179493,-0.331194,-0.998051,0.003462,2.001014,2.507557
977.309000000,-0.072776,1.182320,-0.285650,-0.995053,0.086135,1.916282,2.329750
977.336000000,-0.095181,1.180584,-0.319908,-0.997522,0.021739,1.971291,2.452371
977.343000000,-0.068141,1.182319,-0.273419,-0.994606,0.086146,1.916218,2.330001
977.370000000,-0.087729,1.181719,-0.307881,-0.997082,0.032382,1.952364,2.416935
977.378000000,-0.063020,1.182338,-0.260585,-0.994410,0.086146,1.915854,2.330075
977.404000000,-0.080635,1.182659,-0.295379,-0.996548,0.038976,1.939919,2.384936
977.412000000,-0.057502,1.182330,-0.247810,-0.994281,0.086153,1.914689,2.330076
977.438000000,-0.073991,1.183221,-0.282607,-0.996062,0.043282,1.931454,2.361572
977.445000000,-0.051300,1.182336,-0.235106,-0.993903,0.086139,1.912120,2.330078
977.472000000,-0.067694,1.183461,-0.269857,-0.995637,0.045986,1.925525,2.344265
977.480000000,-0.044454,1.182330,-0.222483,-0.993178,0.086143,1.907520,2.330090
977.506000000,-0.061626,1.183490,-0.257130,-0.995135,0.047757,1.920642,2.328969
977.514000000,-0.036849,1.182352,-0.209839,-0.992039,0.086136,1.901609,2.330368
977.540000000,-0.055528,1.183367,-0.244469,-0.994529,0.048960,1.915778,2.316874
977.548000000,-0.028683,1.182341,-0.197333,-0.990472,0.086128,1.896314,2.330699
977.575000000,-0.048809,1.183236,-0.231830,-0.993755,0.050456,1.910592,2.305667
977.581000000,-0.019575,1.182336,-0.184663,-0.988402,0.086133,1.892356,2.330776
977.609000000,-0.041976,1.183123,-0.219308,-0.992652,0.050955,1.905355,2.298003
977.616000000,-0.009758,1.182270,-0.172823,-0.985920,0.086126,1.889075,2.331176
977.643000000,-0.034458,1.183094,-0.206830,-0.991205,0.051375,1.900558,2.291897
977.650000000,0.001009,1.182293,-0.162201,-0.982971,0.086130,1.886199,2.331975
977.678000000,-0.025941,1.183147,-0.194064,-0.989220,0.051000,1.895980,2.288658
977.684000000,0.012731,1.182264,-0.152721,-0.980223,0.086133,1.883298,2.332606
977.712000000,-0.016489,1.183227,-0.182475,-0.986996,0.051208,1.892183,2.284925
977.721000000,0.024624,1.182301,-0.144492,-0.977186,0.086135,1.880401,2.333118
977.746000000,-0.006018,1.183271,-0.171512,-0.984501,0.051336,1.888655,2.282066
977.754000000,0.038556,1.182261,-0.136361,-0.974485,0.086129,1.876927,2.333414
977.780000000,0.005454,1.183246,-0.161458,-0.981800,0.051412,1.885317,2.279673
977.789000000,0.051548,1.182278,-0.129961,-0.972075,0.086128,1.873057,2.333445
977.814000000,0.017816,1.183119,-0.152212,-0.979045,0.051429,1.881857,2.277754
977.823000000,0.065196,1.182283,-0.124151,-0.969823,0.086124,1.868259,2.333455
977.848000000,0.030957,1.182932,-0.143813,-0.976299,0.051415,1.878132,2.276149
977.857000000,0.078871,1.182286,-0.118943,-0.967737,0.086130,1.862676,2.333469
977.882000000,0.044618,1.182672,-0.136257,-0.973684,0.051380,1.873939,2.274773
977.891000000,0.093185,1.182297,-0.114136,-0.965685,0.086131,1.856903,2.333476
977.916000000,0.058638,1.182415,-0.129496,-0.971192,0.051355,1.869187,2.273610
977.925000000,0.107507,1.182295,-0.109613,-0.963675,0.086125,1.851308,2.333469
977.950000000,0.072907,1.182224,-0.123372,-0.968801,0.051307,1.864090,2.272743
977.959000000,0.122232,1.182272,-0.105508,-0.961582,0.086114,1.844996,2.333477
977.984000000,0.087333,1.182072,-0.117828,-0.966542,0.051274,1.858705,2.272039
977.993000000,0.137057,1.182270,-0.102014,-0.959119,0.086126,1.838310,2.333470
978.018000000,0.101973,1.182012,-0.112896,-0.964289,0.051242,1.852849,2.271503
978.027000000,0.151848,1.182287,-0.098615,-0.956107,0.086114,1.831394,2.333475
978.052000000,0.116781,1.182078,-0.108436,-0.961878,0.051206,1.846609,2.271168
978.061000000,0.166739,1.182286,-0.095489,-0.952232,0.086116,1.823639,2.333469
978.086000000,0.131672,1.182234,-0.104368,-0.959170,0.051192,1.839933,2.270938
978.094000000,0.181395,1.182281,-0.093036,-0.947338,0.086115,1.816979,2.333469
978.120000000,0.146686,1.182506,-0.100737,-0.955926,0.051184,1.832967,2.270861
978.128000000,0.196278,1.182270,-0.091215,-0.941911,0.086119,1.812931,2.333474
978.154000000,0.161781,1.182863,-0.097552,-0.952058,0.051156,1.826544,2.270778
978.162000000,0.210729,1.182272,-0.090363,-0.935712,0.086123,1.810998,2.333473
978.188000000,0.176927,1.183219,-0.094960,-0.947550,0.051103,1.821345,2.270848
978.196000000,0.225299,1.182269,-0.090104,-0.929077,0.086122,1.810952,2.333474
978.222000000,0.192092,1.183543,-0.093075,-0.942344,0.051025,1.817624,2.270819
978.230000000,0.239161,1.182289,-0.089986,-0.921808,0.086127,1.810958,2.333469
978.256000000,0.207097,1.183771,-0.091662,-0.936493,0.050844,1.815152,2.270926
978.264000000,0.252813,1.182293,-0.089842,-0.915189,0.086141,1.810956,2.333461
978.290000000,0.221780,1.183812,-0.090692,-0.930189,0.050627,1.813585,2.271059
978.298000000,0.265834,1.182295,-0.089588,-0.909240,0.086169,1.810964,2.333475
978.324000000,0.236148,1.183633,-0.090025,-0.923716,0.050333,1.812589,2.271075
978.332000000,0.278539,1.182303,-0.089385,-0.904379,0.086168,1.810961,2.333476
978.357000000,0.249830,1.183215,-0.089743,-0.917757,0.050685,1.812182,2.269536
978.366000000,0.290474,1.182319,-0.089294,-0.900501,0.086176,1.810961,2.333469
978.391000000,0.263301,1.182658,-0.089328,-0.912019,0.050292,1.811836,2.269466
978.399000000,0.301889,1.182339,-0.089273,-0.897491,0.086185,1.810959,2.333464
978.426000000,0.276531,1.182014,-0.088742,-0.906762,0.049167,1.811498,2.270910
978.433000000,0.312338,1.182317,-0.089233,-0.895872,0.086191,1.810969,2.333474
978.459000000,0.288754,1.181403,-0.088765,-0.902834,0.049464,1.811611,2.269346
978.467000000,0.322330,1.182339,-0.089166,-0.895120,0.086198,1.810995,2.333487
978.493000000,0.297853,1.180155,-0.085798,-0.901182,0.041844,1.811893,2.268034
978.499000000,0.331509,1.182478,-0.089106,-0.895302,0.086208,1.810993,2.333562
978.528000000,0.302333,1.179190,-0.083501,-0.900581,0.028397,1.811923,2.261104
978.533000000,0.340098,1.182690,-0.089011,-0.895769,0.086210,1.810999,2.333628
978.563000000,0.304778,1.178674,-0.082775,-0.900342,0.016256,1.812210,2.244908
978.568000000,0.348279,1.183022,-0.088860,-0.896524,0.086218,1.810994,2.333700
978.597000000,0.305967,1.178415,-0.082316,-0.900166,0.003591,1.812320,2.228106
978.603000000,0.355791,1.183565,-0.088730,-0.897157,0.086220,1.810991,2.333828
978.631000000,0.306623,1.178248,-0.082077,-0.900090,-0.009327,1.812427,2.210294
978.637000000,0.362793,1.184520,-0.088636,-0.897427,0.086223,1.810994,2.333916
978.665000000,0.307024,1.178148,-0.081979,-0.900051,-0.022275,1.812502,2.191893
978.671000000,0.369305,1.185721,-0.088611,-0.897417,0.086224,1.811000,2.334007
978.700000000,0.307118,1.178093,-0.081614,-0.899953,-0.036531,1.812405,2.174117
978.705000000,0.375447,1.187061,-0.088617,-0.897427,0.086214,1.811010,2.334092
978.735000000,0.315234,1.179499,-0.089897,-0.899122,-0.007291,1.812279,2.217036
978.739000000,0.380348,1.188185,-0.088634,-0.897419,0.086212,1.811025,2.334115
978.769000000,0.328834,1.181405,-0.092540,-0.898295,0.012596,1.811730,2.260489
978.772000000,0.385422,1.189349,-0.088650,-0.897411,0.086209,1.811048,2.334130
978.803000000,0.344244,1.183367,-0.092103,-0.897836,0.025013,1.811496,2.285299
978.806000000,0.389327,1.190093,-0.088653,-0.897408,0.086199,1.811100,2.334124
978.837000000,0.359501,1.185344,-0.090415,-0.897530,0.032813,1.811386,2.306832
978.840000000,0.392492,1.190481,-0.088654,-0.897399,0.086201,1.811370,2.334131
978.871000000,0.373030,1.187140,-0.088343,-0.897401,0.037735,1.811298,2.323694
978.873000000,0.394929,1.190494,-0.088660,-0.897320,0.086196,1.811719,2.334130
978.905000000,0.384006,1.188652,-0.086596,-0.897403,0.040958,1.811296,2.334930
978.908000000,0.396653,1.190449,-0.088665,-0.896896,0.086195,1.812119,2.334128
978.939000000,0.392170,1.189830,-0.085388,-0.897428,0.043061,1.811374,2.340304
978.941000000,0.397615,1.190428,-0.088666,-0.896195,0.086198,1.812418,2.334131
978.973000000,0.397651,1.190632,-0.084747,-0.897367,0.044421,1.811552,2.339905
978.975000000,0.397931,1.190409,-0.088666,-0.895783,0.086200,1.812691,2.334133
979.007000000,0.400851,1.191112,-0.084666,-0.897104,0.045333,1.811754,2.333937
979.009000000,0.397790,1.190393,-0.088842,-0.895709,0.086196,1.812903,2.334129
979.042000000,0.402416,1.191301,-0.085254,-0.896802,0.046659,1.812199,2.322753
979.043000000,0.397353,1.190404,-0.089344,-0.895743,0.086191,1.812929,2.334128
979.076000000,0.402514,1.191218,-0.085858,-0.896497,0.047084,1.812434,2.314604
979.077000000,0.396558,1.190426,-0.089907,-0.895801,0.086196,1.812986,2.334127
979.110000000,0.401787,1.191025,-0.086697,-0.896231,0.047348,1.812618,2.307570
979.112000000,0.395318,1.190418,-0.090335,-0.895818,0.086194,1.813068,2.334127
979.144000000,0.400525,1.190770,-0.087611,-0.896059,0.047491,1.812791,2.301618
979.145000000,0.393656,1.190413,-0.090742,-0.895804,0.086193,1.813380,2.334124
979.178000000,0.398951,1.190541,-0.088506,-0.895936,0.047629,1.812946,2.296540
979.180000000,0.391590,1.190415,-0.091412,-0.895795,0.086202,1.814240,2.334120
979.211000000,0.397068,1.190386,-0.088990,-0.895779,0.046991,1.813039,2.293859
979.213000000,0.389072,1.190415,-0.092351,-0.895783,0.086204,1.815994,2.334126
979.246000000,0.395225,1.190301,-0.090072,-0.895785,0.047720,1.813805,2.288586
979.247000000,0.386035,1.190407,-0.093716,-0.895776,0.086215,1.818689,2.334121
979.280000000,0.393135,1.190269,-0.090923,-0.895772,0.047776,1.814915,2.285515
979.282000000,0.382390,1.190425,-0.095291,-0.895810,0.086216,1.821795,2.334104
979.314000000,0.390794,1.190311,-0.091910,-0.895753,0.047786,1.816652,2.282904
979.315000000,0.378103,1.190440,-0.096525,-0.895837,0.086215,1.824602,2.334076
979.348000000,0.388048,1.190349,-0.092980,-0.895774,0.047736,1.818843,2.280664
979.350000000,0.372881,1.190432,-0.097307,-0.895840,0.086226,1.827156,2.334062
979.382000000,0.384767,1.190385,-0.094021,-0.895793,0.047733,1.821215,2.278690
979.384000000,0.366938,1.190432,-0.097487,-0.895827,0.086228,1.829376,2.334052
979.416000000,0.380766,1.190433,-0.094842,-0.895774,0.047676,1.823632,2.276975
979.417000000,0.360602,1.190429,-0.097484,-0.895814,0.086234,1.831184,2.334029
979.450000000,0.375982,1.190435,-0.095401,-0.895773,0.047579,1.825953,2.275551
979.451000000,0.353794,1.190424,-0.097457,-0.895799,0.086237,1.832777,2.333984
979.484000000,0.370499,1.190429,-0.095790,-0.895755,0.047561,1.828062,2.274297
979.485000000,0.346376,1.190415,-0.097482,-0.895786,0.086235,1.834559,2.333837
979.519000000,0.338503,1.190397,-0.097460,-0.895721,0.086236,1.837091,2.333812
979.520000000,0.364032,1.190422,-0.095781,-0.895653,0.046775,1.829899,2.274656
979.553000000,0.358323,1.190343,-0.096979,-0.895660,0.044114,1.830626,2.274325
979.553000000,0.330407,1.190394,-0.097477,-0.895608,0.086233,1.840389,2.333771
979.587000000,0.321808,1.190385,-0.097546,-0.895305,0.086230,1.843833,2.333715
979.588000000,0.355692,1.190186,-0.098621,-0.895807,0.031728,1.830647,2.268948
979.621000000,0.312471,1.190352,-0.097522,-0.894714,0.086228,1.847650,2.333674
979.622000000,0.354439,1.190161,-0.099158,-0.895819,0.020085,1.830655,2.261021
979.654000000,0.302994,1.190345,-0.097526,-0.893683,0.086233,1.852107,2.333667
979.657000000,0.353695,1.190129,-0.099176,-0.895791,0.007075,1.830493,2.250853
979.688000000,0.293091,1.190338,-0.097525,-0.892394,0.086230,1.857061,2.333673
979.691000000,0.353395,1.190121,-0.099272,-0.895796,-0.005272,1.830464,2.236286
979.723000000,0.282975,1.190261,-0.097513,-0.891018,0.086231,1.862514,2.333672
979.726000000,0.353380,1.190133,-0.099594,-0.895850,-0.017537,1.830600,2.219156
979.757000000,0.272843,1.190130,-0.097484,-0.889490,0.086233,1.867141,2.333666
979.760000000,0.353297,1.190121,-0.099643,-0.895866,-0.030221,1.830621,2.202636
979.791000000,0.262274,1.189984,-0.097526,-0.887645,0.086219,1.870531,2.333656
979.794000000,0.353271,1.190119,-0.099713,-0.895879,-0.042983,1.830646,2.185331
979.824000000,0.251886,1.189920,-0.097531,-0.885204,0.086221,1.872214,2.333643
979.828000000,0.353265,1.190118,-0.099766,-0.895884,-0.055953,1.830653,2.167370
979.859000000,0.241322,1.189780,-0.097596,-0.882574,0.086215,1.872389,2.333566
979.862000000,0.353273,1.190109,-0.099838,-0.895911,-0.068952,1.830686,2.148823
979.893000000,0.230561,1.189422,-0.097594,-0.880046,0.086209,1.872383,2.333257
979.896000000,0.353288,1.190106,-0.099894,-0.895927,-0.082106,1.830707,2.129791
979.926000000,0.219681,1.189058,-0.097646,-0.877350,0.086204,1.872361,2.332840
979.931000000,0.353144,1.190112,-0.099627,-0.895863,-0.096584,1.830556,2.111221
979.960000000,0.208265,1.188838,-0.097919,-0.874220,0.086193,1.872333,2.332558
979.965000000,0.353123,1.190112,-0.099577,-0.895854,-0.110297,1.830526,2.091749
979.993000000,0.196831,1.188807,-0.098107,-0.870590,0.086186,1.872309,2.332182
980.000000000,0.353260,1.190109,-0.099842,-0.895920,-0.123859,1.830672,2.069802
980.027000000,0.184913,1.188719,-0.098434,-0.867238,0.086179,1.872308,2.331499
980.033000000,0.336587,1.193174,-0.086476,-0.889043,-0.077402,1.844098,2.134625
980.061000000,0.172922,1.188588,-0.098779,-0.864078,0.086168,1.872302,2.330495
980.067000000,0.319242,1.191851,-0.090973,-0.887684,-0.074203,1.844705,2.130515
980.095000000,0.160555,1.188532,-0.099408,-0.861001,0.086164,1.872284,2.329067
980.103000000,0.292975,1.193470,-0.083921,-0.880334,-0.033879,1.854381,2.184096
980.129000000,0.148061,1.188503,-0.100141,-0.857821,0.086150,1.872279,2.327817
980.136000000,0.259041,1.193213,-0.084436,-0.873864,0.001774,1.860710,2.228826
980.163000000,0.135278,1.188362,-0.101171,-0.855051,0.086132,1.872273,2.326586
980.170000000,0.220580,1.191676,-0.089095,-0.867810,0.020934,1.864753,2.265923
980.196000000,0.122452,1.188210,-0.102624,-0.852387,0.086116,1.872258,2.324982
980.205000000,0.184925,1.189750,-0.095790,-0.862864,0.031483,1.867800,2.292671
980.229000000,0.109517,1.188144,-0.104824,-0.849681,0.086097,1.872239,2.322922
980.239000000,0.154877,1.188099,-0.101557,-0.858732,0.036624,1.869606,2.312879
980.263000000,0.096571,1.188180,-0.107597,-0.846702,0.086082,1.872235,2.320431
980.275000000,0.129462,1.186889,-0.106079,-0.854955,0.038401,1.870573,2.329378
980.296000000,0.083396,1.188134,-0.110650,-0.843879,0.086060,1.872236,2.317792
980.307000000,0.110726,1.186323,-0.109930,-0.851832,0.040240,1.871493,2.338564
980.331000000,0.070234,1.187966,-0.113886,-0.841234,0.086020,1.872240,2.314497
980.343000000,0.094551,1.186204,-0.112335,-0.848567,0.039902,1.871730,2.348224
980.365000000,0.057025,1.187933,-0.117508,-0.838540,0.085997,1.872248,2.310131
980.375000000,0.082299,1.186353,-0.114709,-0.845890,0.040604,1.872199,2.351431
980.399000000,0.044022,1.187917,-0.121332,-0.835907,0.085990,1.872259,2.306328
980.410000000,0.070555,1.186702,-0.116392,-0.842920,0.039552,1.872090,2.356140
980.432000000,0.030966,1.187920,-0.125118,-0.833180,0.085985,1.872265,2.303122
980.444000000,0.059893,1.187078,-0.118470,-0.840200,0.039183,1.872173,2.357035
980.466000000,0.018063,1.187904,-0.128728,-0.830717,0.085979,1.872285,2.301069
980.478000000,0.049167,1.187426,-0.120843,-0.837503,0.038769,1.872203,2.355583
980.500000000,0.005190,1.187876,-0.132119,-0.828548,0.085981,1.872295,2.300029
980.513000000,0.038549,1.187249,-0.124259,-0.835878,0.037402,1.872557,2.351623
980.534000000,-0.007490,1.187878,-0.135061,-0.826756,0.085972,1.872308,2.299193
980.547000000,0.033168,1.186476,-0.126719,-0.836306,0.022594,1.872530,2.357697
980.566000000,-0.020118,1.187881,-0.137479,-0.825376,0.085964,1.872319,2.298086
980.582000000,0.030672,1.186302,-0.127294,-0.836116,0.008309,1.872367,2.364108
980.602000000,-0.032610,1.187883,-0.139364,-0.824478,0.085946,1.872323,2.297116
980.615000000,0.029960,1.186202,-0.128010,-0.836250,-0.004662,1.872623,2.366505
980.634000000,-0.044838,1.187902,-0.141173,-0.823936,0.085912,1.872325,2.296136
980.650000000,0.029347,1.186177,-0.127829,-0.836128,-0.020170,1.872345,2.370818
980.668000000,-0.056773,1.187908,-0.143242,-0.823731,0.085840,1.872326,2.294105
980.683000000,0.029333,1.186155,-0.128280,-0.836244,-0.033468,1.872630,2.370515
980.702000000,-0.068149,1.187911,-0.145459,-0.823688,0.085770,1.872331,2.290323
980.718000000,0.029031,1.186135,-0.127964,-0.836145,-0.049615,1.872348,2.372163
980.736000000,-0.079303,1.187942,-0.147987,-0.823701,0.085707,1.872331,2.286139
980.751000000,0.029147,1.186123,-0.128354,-0.836260,-0.063430,1.872640,2.369454
980.771000000,-0.089827,1.187945,-0.150638,-0.823693,0.085548,1.872330,2.281671
980.786000000,0.029107,1.186131,-0.128375,-0.836249,-0.078778,1.872636,2.367215
980.805000000,-0.099975,1.187929,-0.153552,-0.823658,0.085444,1.872337,2.276219
980.820000000,0.028923,1.186113,-0.128080,-0.836171,-0.095512,1.872380,2.365356
980.838000000,-0.109577,1.187929,-0.157027,-0.823543,0.085271,1.872349,2.270082
980.855000000,0.029081,1.186114,-0.128425,-0.836278,-0.111145,1.872687,2.359520
980.872000000,-0.118562,1.187929,-0.161047,-0.823293,0.085184,1.872366,2.264818
980.890000000,0.028896,1.186122,-0.128074,-0.836154,-0.128771,1.872357,2.356000
980.906000000,-0.127193,1.187929,-0.165638,-0.822855,0.085120,1.872381,2.261427
980.924000000,0.028879,1.186112,-0.128032,-0.836153,-0.145717,1.872337,2.350489
980.940000000,-0.134982,1.187932,-0.170742,-0.822156,0.085078,1.872382,2.259866
980.958000000,0.028856,1.186107,-0.127981,-0.836139,-0.162865,1.872269,2.344251
980.974000000,-0.142026,1.187932,-0.176406,-0.821256,0.085026,1.872382,2.258821
980.993000000,0.029012,1.186105,-0.128286,-0.836238,-0.180089,1.872566,2.335689
981.008000000,-0.148308,1.187935,-0.182436,-0.820140,0.084974,1.872377,2.257791
981.027000000,0.029036,1.186092,-0.128338,-0.836259,-0.197917,1.872596,2.328364
981.041000000,-0.154015,1.187916,-0.188969,-0.818885,0.084856,1.872373,2.256770
981.060000000,0.028873,1.186092,-0.128000,-0.836158,-0.216318,1.872280,2.322324
981.075000000,-0.158968,1.187899,-0.195673,-0.817431,0.084590,1.872373,2.255817
981.095000000,0.029052,1.186095,-0.128346,-0.836270,-0.234375,1.872619,2.312167
981.110000000,-0.162960,1.187893,-0.202974,-0.815741,0.084234,1.872355,2.255342
981.128000000,0.028876,1.186093,-0.127969,-0.836156,-0.253321,1.872267,2.305206
981.144000000,-0.166079,1.187887,-0.211124,-0.813747,0.083893,1.872344,2.255335
981.162000000,0.028869,1.186091,-0.127929,-0.836152,-0.272280,1.872212,2.295989
981.177000000,-0.168287,1.187863,-0.220302,-0.811590,0.083651,1.872326,2.255328
981.197000000,0.029039,1.186093,-0.128259,-0.836258,-0.291324,1.872546,2.284529
981.211000000,-0.169402,1.187886,-0.230331,-0.809261,0.083550,1.872305,2.255339
981.231000000,0.029074,1.186079,-0.128324,-0.836281,-0.311121,1.872594,2.274609
981.245000000,-0.169668,1.187878,-0.241164,-0.807113,0.083528,1.872298,2.255335
981.265000000,0.029117,1.186090,-0.128400,-0.836291,-0.331202,1.872653,2.264245
981.278000000,-0.169402,1.187850,-0.251913,-0.805375,0.083518,1.872292,2.255328
981.301000000,0.028950,1.186080,-0.128030,-0.836194,-0.353201,1.872300,2.254710
981.311000000,-0.168916,1.187849,-0.261874,-0.804224,0.083528,1.872278,2.255332
981.334000000,0.020917,1.191370,-0.151634,-0.825952,-0.258804,1.874777,2.245168
981.345000000,-0.168478,1.187854,-0.271024,-0.803935,0.083527,1.872272,2.255338
981.369000000,-0.015364,1.193128,-0.178555,-0.817298,-0.154419,1.875607,2.231699
981.379000000,-0.168068,1.187976,-0.278813,-0.804073,0.083534,1.872228,2.255340
981.403000000,-0.061545,1.192122,-0.207695,-0.812076,-0.071029,1.875115,2.226800
981.413000000,-0.167900,1.188207,-0.284712,-0.804600,0.083530,1.872189,2.255333
981.437000000,-0.106701,1.189869,-0.235478,-0.809263,-0.019415,1.874474,2.235799
981.446000000,-0.167983,1.188479,-0.288920,-0.805369,0.083530,1.872062,2.255339
981.471000000,-0.144291,1.187401,-0.258914,-0.808182,0.005461,1.873840,2.249595
981.481000000,-0.168165,1.189070,-0.291589,-0.806238,0.083536,1.872019,2.255338
981.505000000,-0.171294,1.185561,-0.276858,-0.808123,0.016839,1.873252,2.261261
981.515000000,-0.168378,1.190098,-0.292530,-0.807111,0.083542,1.872012,2.255338
981.539000000,-0.187769,1.184634,-0.288890,-0.808532,0.023605,1.872757,2.271141
981.548000000,-0.168328,1.191728,-0.292372,-0.807918,0.083552,1.872005,2.255337
981.574000000,-0.195480,1.184729,-0.295559,-0.808832,0.027088,1.872159,2.281169
981.583000000,-0.167653,1.194375,-0.291990,-0.808314,0.083552,1.871995,2.255345
981.609000000,-0.195790,1.185825,-0.298675,-0.809180,0.030473,1.872194,2.286678
981.616000000,-0.166240,1.197947,-0.291661,-0.808297,0.083555,1.872001,2.255344
981.643000000,-0.191875,1.187803,-0.298803,-0.809055,0.032015,1.872128,2.292696
981.650000000,-0.163999,1.202184,-0.291324,-0.808272,0.083566,1.872006,2.255350
981.677000000,-0.185662,1.190573,-0.297534,-0.808668,0.032892,1.872176,2.297768
981.684000000,-0.160904,1.207187,-0.290490,-0.808228,0.083575,1.872024,2.255360
981.712000000,-0.178553,1.194156,-0.295342,-0.808029,0.032631,1.872025,2.303590
981.717000000,-0.156918,1.212842,-0.288842,-0.808169,0.083586,1.872044,2.255420
981.746000000,-0.171601,1.198289,-0.293339,-0.807557,0.032870,1.872157,2.307213
981.752000000,-0.152125,1.219091,-0.285767,-0.808152,0.083590,1.872058,2.255563
981.781000000,-0.165219,1.203025,-0.291193,-0.807191,0.032954,1.872263,2.309927
981.786000000,-0.146181,1.225412,-0.282025,-0.807635,0.083586,1.872074,2.255564
981.815000000,-0.159160,1.208536,-0.288942,-0.807022,0.033760,1.872578,2.310054
981.820000000,-0.139179,1.231459,-0.277954,-0.806857,0.083595,1.872085,2.255652
981.849000000,-0.153734,1.214424,-0.286163,-0.806802,0.033807,1.872592,2.310687
981.854000000,-0.131226,1.236776,-0.273857,-0.806612,0.083596,1.872096,2.256369
981.883000000,-0.148192,1.220657,-0.283094,-0.806662,0.033799,1.872550,2.310479
981.889000000,-0.120347,1.242373,-0.268639,-0.806614,0.083604,1.872095,2.256889
981.917000000,-0.142072,1.226914,-0.279727,-0.806764,0.033788,1.872470,2.309477
981.922000000,-0.109357,1.246582,-0.263717,-0.806581,0.083606,1.872096,2.256960
981.951000000,-0.134854,1.233108,-0.275943,-0.807004,0.033787,1.872354,2.307840
981.957000000,-0.097055,1.249817,-0.259003,-0.806609,0.083615,1.872087,2.257351
981.984000000,-0.126703,1.238781,-0.271583,-0.807266,0.033013,1.871959,2.307186
981.990000000,-0.083870,1.252310,-0.254181,-0.806637,0.083646,1.872083,2.258701
982.019000000,-0.116157,1.244203,-0.267372,-0.807857,0.033828,1.872025,2.302521
982.025000000,-0.069855,1.254228,-0.249103,-0.806684,0.083721,1.872085,2.261315
982.052000000,-0.105150,1.248511,-0.262508,-0.808165,0.033158,1.871629,2.300224
982.059000000,-0.055131,1.255710,-0.244221,-0.806793,0.083979,1.872071,2.265419
982.087000000,-0.091772,1.252235,-0.257763,-0.808582,0.034076,1.871726,2.293431
982.093000000,-0.039515,1.256729,-0.239814,-0.806999,0.084001,1.872056,2.269051
982.121000000,-0.077658,1.254953,-0.252826,-0.808792,0.034270,1.871627,2.286999
982.127000000,-0.023651,1.257330,-0.236201,-0.807312,0.084030,1.872029,2.272559
982.155000000,-0.062477,1.256903,-0.248026,-0.808881,0.034376,1.871577,2.279093
982.161000000,-0.007082,1.257645,-0.232795,-0.807270,0.084045,1.872073,2.275744
982.189000000,-0.046519,1.258143,-0.243543,-0.808892,0.034424,1.871584,2.269673
982.195000000,0.010132,1.257636,-0.229191,-0.807139,0.084049,1.872079,2.277599
982.223000000,-0.029893,1.258831,-0.239338,-0.808762,0.034499,1.871615,2.261236
982.229000000,0.027685,1.257579,-0.225958,-0.806375,0.084043,1.872086,2.277784
982.257000000,-0.012763,1.259123,-0.235353,-0.808397,0.034509,1.871659,2.253864
982.263000000,0.046035,1.257499,-0.223637,-0.804941,0.084060,1.872142,2.277865
982.291000000,0.004933,1.259149,-0.231785,-0.807696,0.034454,1.871728,2.247380
982.297000000,0.065048,1.257334,-0.222354,-0.803258,0.084075,1.872481,2.278674
982.325000000,0.023188,1.259024,-0.228861,-0.806629,0.034399,1.871862,2.241702
982.331000000,0.084231,1.257139,-0.222125,-0.801370,0.084114,1.873004,2.281445
982.359000000,0.042021,1.258815,-0.226681,-0.805202,0.034293,1.872139,2.237405
982.365000000,0.103687,1.257052,-0.222122,-0.799054,0.084126,1.873778,2.285585
982.392000000,0.060471,1.258532,-0.224900,-0.803405,0.033311,1.872368,2.236395
982.399000000,0.123172,1.257056,-0.222128,-0.796536,0.084142,1.874657,2.289521
982.427000000,0.080702,1.258227,-0.224275,-0.801405,0.033912,1.873214,2.233486
982.433000000,0.142529,1.257070,-0.222037,-0.794193,0.084260,1.874848,2.292469
982.461000000,0.100352,1.257928,-0.223595,-0.799124,0.033694,1.873780,2.232975
982.467000000,0.161488,1.257059,-0.222013,-0.792661,0.084496,1.874846,2.295296
982.495000000,0.115197,1.257154,-0.218946,-0.797275,0.022769,1.874217,2.234287
982.500000000,0.180425,1.257036,-0.221978,-0.792147,0.084695,1.874843,2.298226
982.529000000,0.122694,1.256461,-0.216123,-0.796297,0.005869,1.874579,2.230025
982.534000000,0.199069,1.257140,-0.221958,-0.792235,0.084800,1.874838,2.300263
982.563000000,0.126544,1.256030,-0.214761,-0.795772,-0.010879,1.874820,2.220974
982.568000000,0.217109,1.257242,-0.221802,-0.792744,0.084837,1.874828,2.301103
982.597000000,0.128565,1.255775,-0.214081,-0.795467,-0.028183,1.875002,2.209001
982.602000000,0.234536,1.257304,-0.221704,-0.793288,0.084887,1.874824,2.301923
982.631000000,0.129659,1.255601,-0.213729,-0.795319,-0.045760,1.875159,2.194662
982.636000000,0.251474,1.257355,-0.221692,-0.793373,0.084917,1.874825,2.302557
982.665000000,0.130297,1.255495,-0.213577,-0.795242,-0.063611,1.875273,2.178337
982.669000000,0.267535,1.257361,-0.221553,-0.793324,0.084983,1.874835,2.303121
982.699000000,0.130685,1.255445,-0.213516,-0.795184,-0.081824,1.875368,2.160736
982.703000000,0.283057,1.257337,-0.221516,-0.793293,0.085071,1.874831,2.303295
982.733000000,0.130921,1.255396,-0.213489,-0.795172,-0.100415,1.875465,2.141983
982.738000000,0.297989,1.257332,-0.221479,-0.793269,0.085204,1.874833,2.303360
982.767000000,0.131093,1.255367,-0.213518,-0.795176,-0.118936,1.875539,2.122394
982.772000000,0.311896,1.257384,-0.221426,-0.793336,0.085281,1.874826,2.303434
982.801000000,0.149806,1.256040,-0.229862,-0.797717,-0.069745,1.874181,2.176413
982.805000000,0.325424,1.257449,-0.221190,-0.793442,0.085365,1.874816,2.303567
982.836000000,0.184960,1.256875,-0.235058,-0.798376,-0.031424,1.873420,2.217099
982.839000000,0.337975,1.257541,-0.221004,-0.793815,0.085447,1.874810,2.303663
982.869000000,0.226555,1.257533,-0.232689,-0.797323,-0.008186,1.873476,2.251361
982.873000000,0.350194,1.257767,-0.220649,-0.794173,0.085487,1.874813,2.303680
982.903000000,0.268014,1.257770,-0.227403,-0.795721,0.006312,1.873943,2.274819
982.907000000,0.361435,1.258246,-0.220233,-0.794382,0.085569,1.874818,2.303676
982.937000000,0.305113,1.257687,-0.221808,-0.794157,0.015664,1.874450,2.293756
982.941000000,0.372079,1.258964,-0.219778,-0.794386,0.085638,1.874825,2.303676
982.971000000,0.335616,1.257485,-0.217019,-0.792893,0.021549,1.874901,2.306686
982.974000000,0.381978,1.259846,-0.219369,-0.794399,0.085684,1.874819,2.303675
983.006000000,0.359915,1.257384,-0.214172,-0.792150,0.026307,1.875471,2.312027
983.009000000,0.391024,1.260897,-0.218963,-0.794421,0.085789,1.874823,2.303710
983.040000000,0.377079,1.257555,-0.212655,-0.791744,0.028744,1.875654,2.313350
983.043000000,0.399421,1.262077,-0.218116,-0.794511,0.086020,1.874821,2.303736
983.074000000,0.389276,1.258030,-0.212284,-0.791724,0.030340,1.875754,2.310168
983.076000000,0.406975,1.263368,-0.216686,-0.794775,0.086101,1.874824,2.303787
983.108000000,0.397829,1.258825,-0.212555,-0.791991,0.031488,1.875749,2.303221
983.110000000,0.413658,1.264756,-0.214751,-0.795113,0.086165,1.874827,2.304087
983.142000000,0.404089,1.259934,-0.212983,-0.792473,0.032359,1.875686,2.293294
983.144000000,0.419678,1.266222,-0.212557,-0.795489,0.086169,1.874827,2.304397
983.176000000,0.409044,1.261262,-0.213058,-0.793117,0.032956,1.875613,2.283717
983.178000000,0.425155,1.267725,-0.209972,-0.795845,0.086173,1.874828,2.304766
983.210000000,0.413412,1.262785,-0.212656,-0.793808,0.033507,1.875507,2.275577
983.211000000,0.430078,1.269267,-0.207156,-0.796256,0.086177,1.874834,2.305047
983.244000000,0.417640,1.264438,-0.211665,-0.794496,0.033956,1.875398,2.268808
983.245000000,0.434125,1.270886,-0.204076,-0.796759,0.086176,1.874841,2.305134
983.279000000,0.421877,1.266205,-0.209644,-0.795068,0.033523,1.875070,2.264531
983.279000000,0.437321,1.272594,-0.200784,-0.797018,0.086176,1.874840,2.305281
983.313000000,0.440385,1.274666,-0.197377,-0.797011,0.086173,1.874854,2.305578
983.313000000,0.426207,1.267958,-0.207392,-0.795677,0.033850,1.875007,2.259800
983.347000000,0.430430,1.269768,-0.204655,-0.796128,0.034139,1.874943,2.255813
983.347000000,0.442928,1.276620,-0.194740,-0.797000,0.086171,1.874860,2.305677
983.381000000,0.434440,1.271685,-0.201648,-0.796369,0.034402,1.874898,2.252491
983.381000000,0.445151,1.278391,-0.192754,-0.797007,0.086168,1.874864,2.305809
983.414000000,0.447024,1.279902,-0.191242,-0.796988,0.086159,1.874874,2.305823
983.415000000,0.438201,1.273636,-0.198699,-0.796543,0.034662,1.874889,2.249662
983.448000000,0.448465,1.280945,-0.190086,-0.796978,0.086160,1.874890,2.305824
983.449000000,0.441708,1.275368,-0.196877,-0.796889,0.034154,1.874975,2.246261
983.482000000,0.449492,1.281545,-0.189156,-0.796982,0.086160,1.874894,2.305826
983.483000000,0.443603,1.276218,-0.195767,-0.797092,0.018009,1.874641,2.246904
983.516000000,0.450188,1.281695,-0.188481,-0.796973,0.086157,1.874891,2.305825
983.517000000,0.444563,1.276586,-0.195771,-0.797277,0.005129,1.874815,2.239472
983.549000000,0.450667,1.281641,-0.188193,-0.796691,0.086158,1.874893,2.305828
983.550000000,0.444931,1.276737,-0.195622,-0.797335,-0.009432,1.874773,2.231030
983.581000000,0.450914,1.281636,-0.188122,-0.795712,0.086157,1.874887,2.305827
983.585000000,0.444921,1.277215,-0.194842,-0.797065,-0.004753,1.874832,2.238513
983.611000000,0.450974,1.281523,-0.188120,-0.794856,0.086148,1.874891,2.305829
983.620000000,0.445564,1.277930,-0.193321,-0.796961,0.001957,1.874633,2.253322
983.644000000,0.450910,1.281463,-0.188142,-0.794677,0.086141,1.874877,2.305822
983.653000000,0.446284,1.278160,-0.193150,-0.797044,-0.013386,1.874559,2.253031
983.677000000,0.450822,1.281548,-0.188172,-0.794698,0.086125,1.874865,2.305817
983.687000000,0.446714,1.278279,-0.193307,-0.797143,-0.026285,1.874733,2.246748
983.712000000,0.450811,1.281587,-0.188180,-0.794699,0.086121,1.874868,2.305816
983.720000000,0.446855,1.278318,-0.193255,-0.797167,-0.041087,1.874739,2.239887
983.747000000,0.450805,1.281485,-0.188191,-0.794610,0.086119,1.874876,2.305811
983.755000000,0.446781,1.278340,-0.192927,-0.797083,-0.057284,1.874503,2.232057
983.781000000,0.450798,1.281406,-0.188200,-0.794332,0.086117,1.874880,2.305803
983.790000000,0.446984,1.278343,-0.193250,-0.797193,-0.072478,1.874729,2.219023
983.817000000,0.450804,1.281396,-0.188204,-0.794064,0.086112,1.874880,2.305805
983.825000000,0.446836,1.278346,-0.192882,-0.797098,-0.089659,1.874484,2.206978
983.852000000,0.450790,1.281373,-0.188216,-0.794048,0.086105,1.874882,2.305807
983.859000000,0.446842,1.278335,-0.192852,-0.797103,-0.106110,1.874448,2.191905
983.885000000,0.450771,1.281322,-0.188224,-0.794030,0.086107,1.874886,2.305803
983.894000000,0.446999,1.278351,-0.193148,-0.797176,-0.122678,1.874663,2.173903
983.919000000,0.450782,1.281295,-0.188218,-0.794023,0.086107,1.874886,2.305807
983.930000000,0.446849,1.278345,-0.192809,-0.797079,-0.141117,1.874404,2.157900
983.953000000,0.450777,1.281290,-0.188222,-0.794020,0.086106,1.874886,2.305808
983.963000000,0.446835,1.278337,-0.192750,-0.797076,-0.158767,1.874377,2.139359
983.987000000,0.450795,1.281284,-0.188214,-0.794010,0.086106,1.874885,2.305810
983.997000000,0.446816,1.278325,-0.192685,-0.797069,-0.176744,1.874320,2.120437
984.021000000,0.450803,1.281248,-0.188214,-0.793998,0.086107,1.874882,2.305794
984.032000000,0.446971,1.278339,-0.192997,-0.797144,-0.194747,1.874548,2.098425
984.055000000,0.450804,1.281226,-0.188217,-0.793972,0.086106,1.874890,2.305805
984.066000000,0.447002,1.278327,-0.193061,-0.797168,-0.213061,1.874580,2.077780
984.089000000,0.450806,1.281199,-0.188218,-0.793977,0.086106,1.874888,2.305800
984.101000000,0.446850,1.278322,-0.192720,-0.797082,-0.233054,1.874349,2.057171
984.122000000,0.450803,1.281189,-0.188216,-0.793968,0.086107,1.874892,2.305799
984.135000000,0.447112,1.279711,-0.193136,-0.796432,-0.149816,1.875230,2.124031
984.157000000,0.450809,1.281179,-0.188214,-0.793962,0.086106,1.874893,2.305799
984.169000000,0.447537,1.280649,-0.191549,-0.795828,-0.068194,1.875011,2.185062
984.191000000,0.450809,1.281174,-0.188212,-0.793962,0.086107,1.874892,2.305794
984.204000000,0.448356,1.281026,-0.189790,-0.795184,-0.015883,1.874590,2.227891
984.225000000,0.450804,1.281167,-0.188214,-0.793959,0.086105,1.874891,2.305803
984.239000000,0.449640,1.281068,-0.189147,-0.794784,0.014086,1.874765,2.257183
984.259000000,0.450809,1.281161,-0.188212,-0.793962,0.086105,1.874889,2.305802
984.272000000,0.450404,1.280934,-0.188232,-0.794327,0.024405,1.874579,2.281054
984.292000000,0.450809,1.281167,-0.188217,-0.793967,0.086105,1.874889,2.305803
984.306000000,0.451081,1.280841,-0.187909,-0.794034,0.030426,1.874631,2.299941
984.327000000,0.450807,1.281166,-0.188218,-0.793964,0.086106,1.874889,2.305800
984.340000000,0.451446,1.280767,-0.187727,-0.793879,0.033611,1.874693,2.314662
984.361000000,0.450809,1.281164,-0.188212,-0.793957,0.086105,1.874890,2.305803
984.375000000,0.451743,1.280776,-0.188054,-0.793875,0.036125,1.874951,2.324971
984.395000000,0.450814,1.281151,-0.188214,-0.793956,0.086105,1.874891,2.305800
984.409000000,0.451675,1.280807,-0.188062,-0.793862,0.036857,1.874988,2.333489
984.428000000,0.450810,1.281146,-0.188209,-0.793948,0.086104,1.874891,2.305797
984.443000000,0.451523,1.280864,-0.188134,-0.793886,0.037108,1.874990,2.339657
984.461000000,0.450820,1.281149,-0.188212,-0.793948,0.086106,1.874893,2.305796
984.477000000,0.451331,1.280959,-0.188218,-0.793899,0.037103,1.874989,2.343454
984.495000000,0.450820,1.281147,-0.188209,-0.793943,0.086106,1.874893,2.305793
984.511000000,0.451140,1.281028,-0.188275,-0.793947,0.036930,1.875000,2.344907
984.529000000,0.450818,1.281141,-0.188214,-0.793945,0.086106,1.874891,2.305806
984.545000000,0.450994,1.281085,-0.188342,-0.793989,0.036764,1.874986,2.343996
984.562000000,0.450818,1.281143,-0.188204,-0.793950,0.086106,1.874893,2.305797
984.580000000,0.450712,1.281136,-0.188022,-0.793914,0.035762,1.874750,2.342232
984.597000000,0.450831,1.281140,-0.188204,-0.793952,0.086106,1.874891,2.305802
984.614000000,0.450654,1.281158,-0.188058,-0.793944,0.035589,1.874743,2.336667
984.631000000,0.450821,1.281138,-0.188206,-0.793945,0.086106,1.874893,2.305800
984.650000000,0.450794,1.281192,-0.188409,-0.794035,0.036230,1.874981,2.326994
984.665000000,0.450829,1.281140,-0.188209,-0.793947,0.086107,1.874893,2.305796
984.682000000,0.450627,1.281188,-0.188055,-0.793943,0.035342,1.874748,2.318717
984.699000000,0.450829,1.281142,-0.188209,-0.793957,0.086105,1.874890,2.305802
984.716000000,0.450594,1.281146,-0.187907,-0.793916,0.032565,1.874674,2.310603
984.733000000,0.450832,1.281140,-0.188198,-0.793952,0.086105,1.874892,2.305801
984.751000000,0.450693,1.281123,-0.188092,-0.793893,0.024820,1.874774,2.310888
984.766000000,0.450836,1.281140,-0.188206,-0.793947,0.086106,1.874893,2.305796
984.785000000,0.450812,1.281172,-0.188283,-0.793980,0.027290,1.874912,2.308709
984.801000000,0.450829,1.281147,-0.188209,-0.793947,0.086106,1.874891,2.305794
984.820000000,0.450833,1.281062,-0.188231,-0.793940,0.013012,1.874917,2.314889
984.834000000,0.450821,1.281147,-0.188209,-0.793966,0.086103,1.874889,2.305798
984.853000000,0.450884,1.281002,-0.188297,-0.793940,-0.001187,1.874952,2.318599
984.868000000,0.450836,1.281141,-0.188209,-0.793965,0.086104,1.874889,2.305794
984.887000000,0.450920,1.280990,-0.188349,-0.793926,-0.015930,1.874982,2.320315
984.902000000,0.450837,1.281153,-0.188206,-0.793966,0.086103,1.874886,2.305793
984.921000000,0.450948,1.280967,-0.188387,-0.793944,-0.031085,1.875031,2.320084
984.936000000,0.450829,1.281163,-0.188209,-0.793976,0.086106,1.874886,2.305796
984.955000000,0.450984,1.280950,-0.188444,-0.793964,-0.046510,1.875060,2.317946
984.970000000,0.450829,1.281168,-0.188206,-0.793979,0.086104,1.874887,2.305799
984.989000000,0.451018,1.280960,-0.188504,-0.793962,-0.062348,1.875093,2.314084
985.005000000,0.450832,1.281173,-0.188204,-0.793979,0.086106,1.874885,2.305797
985.023000000,0.451044,1.280948,-0.188543,-0.793986,-0.078579,1.875145,2.308562
985.039000000,0.450829,1.281176,-0.188201,-0.793982,0.086107,1.874885,2.305794
985.058000000,0.450903,1.280946,-0.188228,-0.793885,-0.096351,1.874873,2.302705
985.072000000,0.450832,1.281176,-0.188206,-0.793992,0.086105,1.874885,2.305802
985.092000000,0.450893,1.280937,-0.188175,-0.793884,-0.113469,1.874848,2.294061
985.105000000,0.450839,1.281186,-0.188198,-0.793992,0.086106,1.874882,2.305802
985.125000000,0.451052,1.280942,-0.188492,-0.793974,-0.129679,1.875104,2.282711
985.138000000,0.450837,1.281189,-0.188198,-0.793995,0.086107,1.874880,2.305798
985.159000000,0.451075,1.280931,-0.188534,-0.793994,-0.147092,1.875124,2.270927
985.172000000,0.450832,1.281194,-0.188201,-0.793999,0.086105,1.874878,2.305804
985.194000000,0.450920,1.280930,-0.188192,-0.793897,-0.166103,1.874855,2.258773
985.207000000,0.450832,1.281207,-0.188200,-0.794006,0.086107,1.874877,2.305795
985.229000000,0.451098,1.280944,-0.188553,-0.793986,-0.183981,1.875125,2.241997
985.241000000,0.450832,1.281215,-0.188198,-0.794004,0.086106,1.874880,2.305802
985.264000000,0.450935,1.280917,-0.188189,-0.793907,-0.203910,1.874834,2.226772
985.276000000,0.450829,1.281210,-0.188201,-0.794009,0.086107,1.874879,2.305800
985.298000000,0.450920,1.280929,-0.188124,-0.793873,-0.223213,1.874768,2.209090
985.309000000,0.450832,1.281205,-0.188199,-0.794005,0.086106,1.874881,2.305804
985.332000000,0.450894,1.280920,-0.188037,-0.793862,-0.242885,1.874713,2.190697
985.343000000,0.450835,1.281212,-0.188195,-0.794009,0.086106,1.874882,2.305797
985.366000000,0.450872,1.280910,-0.187973,-0.793856,-0.262539,1.874650,2.171091
985.377000000,0.450832,1.281210,-0.188200,-0.794003,0.086106,1.874879,2.305795
985.401000000,0.451033,1.280923,-0.188305,-0.793941,-0.282439,1.874934,2.148897
985.410000000,0.450835,1.281207,-0.188193,-0.794003,0.086106,1.874874,2.305800
985.435000000,0.450996,1.281766,-0.189383,-0.794248,-0.196444,1.875382,2.193679
985.445000000,0.450832,1.281215,-0.188198,-0.794013,0.086107,1.874876,2.305796
985.469000000,0.450513,1.282120,-0.188559,-0.794431,-0.107476,1.874878,2.233605
985.479000000,0.450827,1.281220,-0.188204,-0.794019,0.086105,1.874875,2.305805
985.503000000,0.450438,1.282098,-0.188149,-0.794424,-0.040810,1.874696,2.263353
985.511000000,0.450824,1.281220,-0.188201,-0.794021,0.086105,1.874874,2.305799
985.538000000,0.450696,1.281791,-0.188217,-0.794368,0.004639,1.874823,2.285202
985.544000000,0.450824,1.281220,-0.188201,-0.794014,0.086104,1.874870,2.305804
985.572000000,0.450807,1.281345,-0.187997,-0.794129,0.024653,1.874780,2.303244
985.578000000,0.450826,1.281221,-0.188201,-0.794014,0.086105,1.874877,2.305800
985.606000000,0.450966,1.280942,-0.188039,-0.793937,0.031357,1.874838,2.316674
985.612000000,0.450829,1.281215,-0.188202,-0.794014,0.086107,1.874872,2.305798
985.640000000,0.451051,1.280725,-0.188096,-0.793799,0.034843,1.874894,2.327384
985.646000000,0.450832,1.281220,-0.188200,-0.794014,0.086107,1.874878,2.305800
985.674000000,0.451077,1.280626,-0.188148,-0.793767,0.036457,1.874955,2.335153
985.680000000,0.450824,1.281215,-0.188204,-0.794011,0.086105,1.874871,2.305796
985.708000000,0.451073,1.280641,-0.188214,-0.793788,0.037236,1.874975,2.340831
985.713000000,0.450824,1.281223,-0.188199,-0.794022,0.086105,1.874872,2.305798
985.742000000,0.451041,1.280752,-0.188270,-0.793817,0.037502,1.874982,2.344304
985.747000000,0.450824,1.281233,-0.188198,-0.794025,0.086107,1.874871,2.305795
985.776000000,0.450991,1.280872,-0.188291,-0.793894,0.037396,1.874995,2.345549
985.781000000,0.450837,1.281230,-0.188201,-0.794014,0.086107,1.874877,2.305804
985.810000000,0.450954,1.280996,-0.188328,-0.793970,0.037228,1.874980,2.344460
985.814000000,0.450827,1.281211,-0.188201,-0.794004,0.086107,1.874882,2.305802
985.844000000,0.450923,1.281133,-0.188358,-0.794008,0.037023,1.874968,2.341070
985.848000000,0.450832,1.281202,-0.188198,-0.793998,0.086108,1.874885,2.305794
985.878000000,0.450892,1.281214,-0.188354,-0.794061,0.036771,1.874974,2.335406
985.882000000,0.450840,1.281194,-0.188193,-0.793972,0.086108,1.874894,2.305802
985.912000000,0.450884,1.281262,-0.188370,-0.794094,0.036589,1.874960,2.327439
985.914000000,0.450857,1.281155,-0.188190,-0.793953,0.086110,1.874904,2.305794
985.946000000,0.450882,1.281307,-0.188382,-0.794080,0.036449,1.874955,2.317198
985.946000000,0.450857,1.281134,-0.188193,-0.793936,0.086109,1.874906,2.305795
985.978000000,0.450857,1.281134,-0.188193,-0.793930,0.086109,1.874907,2.305802
985.980000000,0.450881,1.281297,-0.188367,-0.794082,0.036305,1.874971,2.304869
986.012000000,0.450857,1.281133,-0.188188,-0.793941,0.086108,1.874907,2.305795
986.013000000,0.450697,1.281245,-0.187931,-0.793963,0.033770,1.874720,2.296136
986.047000000,0.450855,1.281134,-0.188195,-0.793930,0.086109,1.874905,2.305796
986.047000000,0.450746,1.281109,-0.187941,-0.793921,0.018635,1.874722,2.292051
986.081000000,0.450862,1.281126,-0.188190,-0.793932,0.086109,1.874907,2.305791
986.082000000,0.450898,1.281076,-0.188204,-0.793962,0.005064,1.874914,2.283065
986.114000000,0.450868,1.281128,-0.188193,-0.793932,0.086108,1.874906,2.305799
986.116000000,0.450911,1.281038,-0.188213,-0.793964,-0.009383,1.874906,2.273851
986.148000000,0.450870,1.281133,-0.188188,-0.793940,0.086110,1.874906,2.305802
986.150000000,0.450943,1.281042,-0.188281,-0.793956,-0.023928,1.874938,2.262504
986.183000000,0.450879,1.281133,-0.188182,-0.793943,0.086109,1.874906,2.305802
986.185000000,0.450796,1.281009,-0.187963,-0.793895,-0.039908,1.874728,2.250238
986.217000000,0.450874,1.281136,-0.188179,-0.793943,0.086109,1.874903,2.305796
986.219000000,0.450795,1.281022,-0.187938,-0.793868,-0.055143,1.874699,2.235689
986.251000000,0.450840,1.281154,-0.188196,-0.793954,0.086111,1.874901,2.305799
986.252000000,0.450953,1.281028,-0.188255,-0.793949,-0.069466,1.874906,2.219213
986.285000000,0.450836,1.281157,-0.188198,-0.793967,0.086117,1.874898,2.305804
986.287000000,0.450783,1.281001,-0.187890,-0.793874,-0.086298,1.874663,2.203905
986.320000000,0.450852,1.281141,-0.188188,-0.793946,0.086119,1.874900,2.305801
986.321000000,0.450780,1.281015,-0.187867,-0.793850,-0.102204,1.874633,2.186549
986.352000000,0.450855,1.281162,-0.188186,-0.793974,0.086122,1.874893,2.305798
986.355000000,0.450754,1.281006,-0.187792,-0.793845,-0.118409,1.874598,2.168524
986.385000000,0.450836,1.281203,-0.188187,-0.794000,0.086118,1.874888,2.305797
986.389000000,0.450735,1.280995,-0.187739,-0.793841,-0.134790,1.874549,2.150049
986.419000000,0.450846,1.281221,-0.188171,-0.794018,0.086134,1.874883,2.305817
986.424000000,0.450712,1.281008,-0.187672,-0.793807,-0.151428,1.874494,2.131175
986.449000000,0.450901,1.281217,-0.188143,-0.794003,0.086137,1.874882,2.305818
986.458000000,0.450869,1.280999,-0.188000,-0.793908,-0.167835,1.874721,2.109520
986.485000000,0.450849,1.281207,-0.188164,-0.793775,0.086139,1.874879,2.305813
986.494000000,0.450701,1.280995,-0.187632,-0.793814,-0.186045,1.874478,2.090749
986.516000000,0.450688,1.281171,-0.188177,-0.792871,0.086145,1.874896,2.305821
986.530000000,0.450872,1.280992,-0.187982,-0.793907,-0.204204,1.874706,2.066756
986.549000000,0.450540,1.280905,-0.188180,-0.791792,0.086157,1.874925,2.305819
986.564000000,0.450896,1.281004,-0.188035,-0.793901,-0.221882,1.874728,2.045615
986.582000000,0.450385,1.280401,-0.188183,-0.790773,0.086169,1.874973,2.305813
986.599000000,0.450746,1.280974,-0.187695,-0.793839,-0.241356,1.874505,2.024488
986.610000000,0.450109,1.279569,-0.188180,-0.789726,0.086176,1.874981,2.305816
986.635000000,0.450733,1.280971,-0.187635,-0.793830,-0.260866,1.874463,2.001577
986.645000000,0.449452,1.278433,-0.188183,-0.788821,0.086196,1.874979,2.305796
986.669000000,0.450889,1.282050,-0.189171,-0.793224,-0.171188,1.875321,2.086610
986.679000000,0.448191,1.277032,-0.188198,-0.788180,0.086221,1.874980,2.305794
986.704000000,0.450098,1.282048,-0.188111,-0.792230,-0.082789,1.874697,2.159777
986.714000000,0.446178,1.275554,-0.188214,-0.787549,0.086245,1.874981,2.305794
986.738000000,0.449591,1.281097,-0.187652,-0.791155,-0.027716,1.874521,2.205772
986.748000000,0.443413,1.273934,-0.188269,-0.787125,0.086262,1.874978,2.305779
986.772000000,0.448865,1.279516,-0.187310,-0.789991,0.004009,1.874447,2.242842
986.779000000,0.439817,1.272178,-0.188631,-0.787030,0.086264,1.874983,2.305728
986.806000000,0.447698,1.277553,-0.187091,-0.788934,0.018367,1.874513,2.268939
986.810000000,0.435264,1.270351,-0.189147,-0.787041,0.086258,1.874979,2.305537
986.839000000,0.446143,1.275541,-0.187467,-0.788211,0.026686,1.874852,2.288849
986.841000000,0.429823,1.268426,-0.189789,-0.787038,0.086246,1.874979,2.305355
986.873000000,0.443563,1.273432,-0.187590,-0.787609,0.030926,1.874941,2.305668
986.874000000,0.423340,1.266234,-0.191129,-0.787033,0.086233,1.874978,2.305292
986.907000000,0.416237,1.263587,-0.193681,-0.786978,0.086226,1.874979,2.305021
986.908000000,0.439778,1.271319,-0.187524,-0.787089,0.032545,1.874806,2.320640
986.940000000,0.408669,1.260760,-0.197813,-0.786625,0.086217,1.874983,2.304834
986.942000000,0.435435,1.269360,-0.188329,-0.786813,0.033748,1.874833,2.330942
986.972000000,0.400446,1.258000,-0.203238,-0.785724,0.086208,1.874985,2.304025
986.976000000,0.432839,1.268216,-0.189393,-0.786367,0.022148,1.874878,2.344543
987.008000000,0.391336,1.255140,-0.209753,-0.784737,0.086200,1.874993,2.302964
987.009000000,0.432013,1.267724,-0.190094,-0.786322,0.009225,1.875161,2.352662
987.041000000,0.381829,1.252486,-0.217062,-0.783838,0.086196,1.875043,2.302190
987.044000000,0.431462,1.267512,-0.189861,-0.786152,-0.005969,1.874914,2.362710
987.076000000,0.371548,1.249955,-0.224849,-0.782773,0.086191,1.875103,2.301079
987.078000000,0.431344,1.267448,-0.189924,-0.786116,-0.020250,1.874918,2.369417
987.111000000,0.431452,1.267401,-0.190252,-0.786213,-0.034062,1.875173,2.373223
987.111000000,0.360902,1.247790,-0.232867,-0.781450,0.086189,1.875157,2.300303
987.145000000,0.431504,1.267422,-0.192080,-0.786199,-0.037617,1.875319,2.370523
987.146000000,0.349803,1.245933,-0.240758,-0.780111,0.086183,1.875203,2.299398
987.179000000,0.338021,1.244157,-0.248069,-0.779223,0.086183,1.875218,2.297763
987.179000000,0.423507,1.265544,-0.200011,-0.785375,-0.011653,1.875056,2.347987
987.213000000,0.406925,1.261280,-0.210819,-0.783840,0.004360,1.875024,2.326090
987.213000000,0.326401,1.242504,-0.254574,-0.779047,0.086171,1.875261,2.294836
987.247000000,0.385954,1.255912,-0.222860,-0.782125,0.014424,1.875165,2.306233
987.247000000,0.314117,1.240983,-0.260550,-0.779040,0.086163,1.875291,2.290066
987.281000000,0.301968,1.239765,-0.266407,-0.779046,0.086159,1.875300,2.286227
987.282000000,0.362930,1.250215,-0.234592,-0.780533,0.019925,1.875145,2.290308
987.314000000,0.289391,1.238811,-0.272135,-0.779042,0.086145,1.875391,2.284245
987.316000000,0.342219,1.245248,-0.243879,-0.779733,0.020240,1.875312,2.278758
987.348000000,0.277130,1.238193,-0.278081,-0.779042,0.086140,1.875941,2.282448
987.350000000,0.331127,1.242330,-0.247886,-0.779629,0.003204,1.875342,2.283538
987.382000000,0.264716,1.237943,-0.284351,-0.779022,0.086133,1.877078,2.281206
987.385000000,0.326571,1.241179,-0.250107,-0.779644,-0.012224,1.875602,2.288894
987.414000000,0.252375,1.237955,-0.290794,-0.779025,0.086123,1.879028,2.280480
987.418000000,0.324457,1.240690,-0.250446,-0.779522,-0.029158,1.875349,2.297931
987.447000000,0.239713,1.238018,-0.297131,-0.779128,0.086107,1.882049,2.279773
987.453000000,0.323723,1.240492,-0.251246,-0.779625,-0.045642,1.875632,2.304141
987.482000000,0.227005,1.238035,-0.303091,-0.779306,0.086100,1.885833,2.278937
987.486000000,0.323102,1.240377,-0.250978,-0.779503,-0.063330,1.875335,2.312815
987.514000000,0.213984,1.238033,-0.308684,-0.779504,0.086108,1.890084,2.278470
987.521000000,0.323084,1.240324,-0.251485,-0.779639,-0.080705,1.875651,2.318430
987.549000000,0.200714,1.238072,-0.313679,-0.779813,0.086093,1.895063,2.277614
987.555000000,0.322970,1.240309,-0.251549,-0.779629,-0.098791,1.875660,2.325124
987.583000000,0.187020,1.238156,-0.318691,-0.780505,0.086080,1.901324,2.275412
987.588000000,0.322724,1.240277,-0.251196,-0.779515,-0.117618,1.875361,2.333054
987.617000000,0.173017,1.238343,-0.323100,-0.781311,0.086064,1.908340,2.271959
987.623000000,0.322890,1.240263,-0.251624,-0.779658,-0.136295,1.875700,2.338200
987.652000000,0.158519,1.238752,-0.327202,-0.782057,0.086023,1.915904,2.268300
987.657000000,0.322878,1.240272,-0.251659,-0.779648,-0.155599,1.875714,2.344741
987.685000000,0.143914,1.239274,-0.331052,-0.782803,0.085909,1.924409,2.265020
987.690000000,0.322681,1.240253,-0.251267,-0.779528,-0.175704,1.875370,2.352902
987.718000000,0.128578,1.239875,-0.334497,-0.783688,0.085905,1.933369,2.263150
987.724000000,0.322662,1.240245,-0.251214,-0.779521,-0.196072,1.875334,2.360061
987.752000000,0.113069,1.240499,-0.337531,-0.784806,0.085897,1.943501,2.262489
987.758000000,0.322636,1.240236,-0.251139,-0.779506,-0.216854,1.875250,2.367647
987.784000000,0.096974,1.241128,-0.340029,-0.785947,0.085899,1.953808,2.262394
987.792000000,0.322606,1.240247,-0.251046,-0.779465,-0.238162,1.875153,2.375869
987.811000000,0.080467,1.241805,-0.341622,-0.786968,0.085897,1.963586,2.262386
987.827000000,0.322809,1.240241,-0.251456,-0.779614,-0.259750,1.875550,2.383597
987.845000000,0.063877,1.242533,-0.341990,-0.787730,0.085896,1.973074,2.262373
987.861000000,0.322838,1.240252,-0.251511,-0.779616,-0.282026,1.875592,2.393552
987.876000000,0.046885,1.243421,-0.342077,-0.788292,0.085893,1.983647,2.262285
987.895000000,0.322878,1.240240,-0.251578,-0.779653,-0.304938,1.875688,2.404676
987.913000000,0.030009,1.244400,-0.342154,-0.788420,0.085885,1.993635,2.262079
987.929000000,0.322936,1.240231,-0.251666,-0.779690,-0.328495,1.875712,2.417139
987.949000000,0.013450,1.245308,-0.342147,-0.788398,0.085880,2.003085,2.261231
987.963000000,0.322993,1.240243,-0.251752,-0.779696,-0.352409,1.875525,2.430936
987.984000000,-0.002872,1.246249,-0.342152,-0.788380,0.085873,2.011573,2.259315
987.996000000,0.322805,1.240230,-0.251273,-0.779545,-0.377176,1.874561,2.447503
988.016000000,-0.018261,1.247174,-0.342189,-0.788388,0.085865,2.019494,2.256519
988.032000000,0.322806,1.240223,-0.251179,-0.779515,-0.403713,1.873642,2.465791
988.045000000,-0.033021,1.247928,-0.342187,-0.788381,0.085852,2.025769,2.253150
988.066000000,0.322799,1.240209,-0.251059,-0.779487,-0.429606,1.872404,2.485366
988.071000000,-0.046927,1.248417,-0.342272,-0.788378,0.085808,2.029727,2.249666
988.101000000,0.322796,1.240191,-0.250954,-0.779460,-0.456062,1.870811,2.506908
988.110000000,-0.060036,1.248535,-0.342295,-0.788372,0.085765,2.030855,2.247355
988.136000000,0.309271,1.244310,-0.265239,-0.778783,-0.366006,1.926410,2.427871
988.141000000,-0.072485,1.248533,-0.342451,-0.788361,0.085615,2.030823,2.245128
988.170000000,0.259075,1.247053,-0.273713,-0.776555,-0.260932,1.965957,2.370194
988.176000000,-0.084279,1.248525,-0.342830,-0.788313,0.085232,2.030794,2.241404
988.204000000,0.189521,1.247690,-0.287200,-0.776844,-0.163324,1.989182,2.319294
988.212000000,-0.095399,1.248538,-0.343290,-0.788353,0.085112,2.030721,2.236501
988.237000000,0.108688,1.247241,-0.303876,-0.778714,-0.084035,2.004802,2.290925
988.246000000,-0.106206,1.248622,-0.343777,-0.788390,0.085059,2.030388,2.229710
988.273000000,0.027818,1.246295,-0.321474,-0.781939,-0.023320,2.014677,2.266481
988.281000000,-0.116321,1.248720,-0.344054,-0.788426,0.085001,2.029973,2.222797
988.306000000,-0.039917,1.245433,-0.336986,-0.785774,0.014410,2.019928,2.257327
988.315000000,-0.125994,1.248944,-0.344212,-0.788467,0.084913,2.029536,2.214963
988.340000000,-0.092275,1.245070,-0.348801,-0.789384,0.031594,2.022878,2.259653
988.347000000,-0.135075,1.249244,-0.344232,-0.788508,0.084848,2.029025,2.204578
988.376000000,-0.129836,1.245343,-0.356057,-0.792044,0.032934,2.024192,2.262293
988.380000000,-0.143546,1.249646,-0.344238,-0.788773,0.084834,2.028202,2.193614
988.410000000,-0.152524,1.246340,-0.359622,-0.793773,0.034286,2.025254,2.259415
988.413000000,-0.151576,1.250273,-0.344288,-0.789218,0.084830,2.026314,2.182994
988.444000000,-0.164243,1.247580,-0.359549,-0.794280,0.034354,2.025447,2.256405
988.446000000,-0.159109,1.250920,-0.344283,-0.789775,0.084826,2.022923,2.174443
988.477000000,-0.169234,1.248788,-0.357226,-0.793925,0.033246,2.024713,2.253984
988.481000000,-0.165873,1.251662,-0.344268,-0.790341,0.084834,2.018367,2.166007
988.511000000,-0.170509,1.249923,-0.354161,-0.793263,0.032818,2.023287,2.249224
988.514000000,-0.171626,1.252495,-0.344250,-0.791151,0.084839,2.013246,2.157124
988.545000000,-0.170366,1.250829,-0.350960,-0.792527,0.032374,2.020892,2.244046
988.547000000,-0.176500,1.253479,-0.344232,-0.792236,0.084853,2.007923,2.146974
988.579000000,-0.170274,1.251542,-0.348218,-0.791996,0.031938,2.017588,2.238095
988.581000000,-0.180320,1.254836,-0.344151,-0.793202,0.084861,2.002594,2.137605
988.613000000,-0.171050,1.252186,-0.346115,-0.791785,0.031550,2.013590,2.231219
988.615000000,-0.183100,1.256714,-0.343693,-0.793758,0.084875,1.998060,2.127354
988.647000000,-0.172854,1.252922,-0.344715,-0.791889,0.031305,2.009279,2.223796
988.650000000,-0.184719,1.259177,-0.342783,-0.793977,0.084899,1.995092,2.117156
988.683000000,-0.175682,1.254048,-0.343795,-0.792150,0.031150,2.004836,2.215251
988.684000000,-0.185101,1.262362,-0.341356,-0.794003,0.084907,1.994051,2.108279
988.717000000,-0.178728,1.255594,-0.343205,-0.792439,0.031112,2.001370,2.206891
988.718000000,-0.184644,1.266146,-0.338527,-0.794022,0.084918,1.994044,2.102238
988.751000000,-0.181663,1.257717,-0.342417,-0.792698,0.031134,1.998864,2.198588
988.751000000,-0.183642,1.270321,-0.333646,-0.794023,0.084929,1.994049,2.097632
988.785000000,-0.182024,1.274742,-0.326701,-0.793981,0.084939,1.994069,2.093632
988.786000000,-0.183505,1.260009,-0.342288,-0.793596,0.026897,1.998058,2.200207
988.818000000,-0.179518,1.279177,-0.317813,-0.793943,0.084930,1.994087,2.090806
988.820000000,-0.184246,1.261122,-0.342633,-0.794312,0.009784,1.997971,2.220149
988.852000000,-0.176240,1.283451,-0.307310,-0.793927,0.084929,1.994102,2.088983
988.854000000,-0.184631,1.261668,-0.342717,-0.794636,-0.005689,1.997872,2.239792
988.884000000,-0.172129,1.287559,-0.295302,-0.793941,0.084924,1.994095,2.088597
988.888000000,-0.184783,1.261934,-0.342826,-0.794815,-0.021726,1.997828,2.260594
988.918000000,-0.167385,1.291385,-0.282234,-0.793951,0.084920,1.994088,2.088609
988.927000000,-0.184861,1.262082,-0.342884,-0.794917,-0.040139,1.997821,2.285096
988.950000000,-0.161718,1.294714,-0.268630,-0.793964,0.084917,1.994075,2.088610
988.960000000,-0.184869,1.262151,-0.342959,-0.794966,-0.057387,1.997820,2.308410
988.981000000,-0.155150,1.297419,-0.254872,-0.793971,0.084925,1.994045,2.088621
988.994000000,-0.184873,1.262173,-0.342997,-0.795016,-0.075239,1.997852,2.332645
989.019000000,-0.147544,1.299340,-0.241233,-0.793982,0.084921,1.994012,2.088675
989.028000000,-0.184855,1.262189,-0.343051,-0.795049,-0.093588,1.997889,2.357501
989.052000000,-0.139143,1.300649,-0.227874,-0.794003,0.084928,1.993925,2.088961
989.062000000,-0.184823,1.262193,-0.343120,-0.795088,-0.112373,1.997929,2.383018
989.085000000,-0.129846,1.301410,-0.214835,-0.794023,0.084938,1.993668,2.089312
989.096000000,-0.184791,1.262209,-0.343182,-0.795107,-0.131578,1.997976,2.409040
989.116000000,-0.119584,1.301669,-0.201995,-0.794011,0.084946,1.993604,2.089995
989.130000000,-0.184756,1.262212,-0.343243,-0.795135,-0.151200,1.998034,2.435381
989.150000000,-0.108869,1.301655,-0.188913,-0.794006,0.085030,1.993593,2.090472
989.163000000,-0.184918,1.262194,-0.342910,-0.794983,-0.171693,1.997614,2.463213
989.185000000,-0.097270,1.301649,-0.176001,-0.794023,0.085179,1.993546,2.091412
989.197000000,-0.184932,1.262186,-0.342842,-0.794966,-0.192548,1.997532,2.491073
989.220000000,-0.085004,1.301675,-0.163600,-0.794075,0.085404,1.993251,2.094700
989.232000000,-0.184752,1.262190,-0.343169,-0.795122,-0.214011,1.997927,2.518988
989.254000000,-0.072105,1.301683,-0.151316,-0.794218,0.085592,1.992661,2.098499
989.267000000,-0.184920,1.262163,-0.342810,-0.794950,-0.237649,1.997245,2.550319
989.288000000,-0.058698,1.301672,-0.139146,-0.794219,0.085642,1.991783,2.101303
989.301000000,-0.187650,1.263513,-0.297288,-0.794704,-0.155930,1.995025,2.428090
989.321000000,-0.044542,1.301613,-0.127320,-0.794165,0.085642,1.991151,2.103643
989.335000000,-0.167179,1.271416,-0.252090,-0.794875,-0.085153,1.993440,2.343113
989.356000000,-0.029897,1.301585,-0.116313,-0.793833,0.085638,1.991064,2.105857
989.370000000,-0.132693,1.281984,-0.211056,-0.795079,-0.029073,1.992041,2.271680
989.389000000,-0.014304,1.301535,-0.105982,-0.793307,0.085646,1.991067,2.108553
989.404000000,-0.095129,1.291415,-0.177006,-0.795449,0.003706,1.991311,2.219436
989.424000000,0.001500,1.301373,-0.096545,-0.792599,0.085640,1.991068,2.112126
989.439000000,-0.057908,1.298850,-0.148540,-0.795787,0.018324,1.991018,2.176941
989.458000000,0.017132,1.301052,-0.088311,-0.791989,0.085637,1.991070,2.115906
989.472000000,-0.027489,1.303458,-0.126517,-0.795663,0.024620,1.990445,2.155565
989.492000000,0.035877,1.300302,-0.079950,-0.791603,0.085644,1.991067,2.121397
989.506000000,-0.001425,1.305940,-0.109035,-0.795334,0.028920,1.990212,2.134271
989.525000000,0.053340,1.299284,-0.073504,-0.791485,0.085645,1.991068,2.127785
989.541000000,0.020824,1.306482,-0.095570,-0.794921,0.032500,1.990277,2.117584
989.560000000,0.071297,1.297978,-0.068163,-0.791285,0.085642,1.991068,2.135354
989.575000000,0.038735,1.305649,-0.085556,-0.794284,0.034077,1.990275,2.108141
989.594000000,0.089701,1.296308,-0.064051,-0.790956,0.085644,1.991068,2.144382
989.609000000,0.054554,1.303911,-0.078059,-0.793599,0.034952,1.990352,2.103123
989.627000000,0.108129,1.294085,-0.061225,-0.790860,0.085634,1.991060,2.155700
989.643000000,0.069563,1.301670,-0.072509,-0.792885,0.035478,1.990463,2.100527
989.660000000,0.126361,1.291468,-0.059504,-0.790850,0.085645,1.991051,2.166929
989.678000000,0.084904,1.299037,-0.068025,-0.792191,0.034844,1.990436,2.102861
989.693000000,0.145176,1.288406,-0.058693,-0.790739,0.085639,1.991054,2.178102
989.712000000,0.100546,1.296255,-0.065143,-0.791757,0.034873,1.990542,2.105898
989.724000000,0.163581,1.285177,-0.058594,-0.790290,0.085637,1.991042,2.188874
989.746000000,0.117062,1.293358,-0.063158,-0.791381,0.034790,1.990620,2.110883
989.758000000,0.181010,1.281952,-0.058609,-0.789529,0.085631,1.990989,2.197938
989.780000000,0.134342,1.290336,-0.061782,-0.790977,0.034622,1.990684,2.116596
989.790000000,0.199958,1.278007,-0.058654,-0.788768,0.085634,1.990974,2.205367
989.814000000,0.152172,1.287207,-0.060860,-0.790474,0.034426,1.990698,2.122519
989.822000000,0.216557,1.274029,-0.058597,-0.788233,0.085642,1.990855,2.210250
989.847000000,0.170059,1.283964,-0.060506,-0.790030,0.035003,1.990865,2.126541
989.855000000,0.232457,1.269868,-0.058582,-0.788261,0.085647,1.990162,2.213442
989.882000000,0.188680,1.280250,-0.059437,-0.789432,0.033926,1.990591,2.133040
989.885000000,0.247745,1.265683,-0.058564,-0.788320,0.085663,1.988179,2.215074
989.916000000,0.206614,1.276309,-0.058831,-0.789084,0.033677,1.990083,2.136426
989.917000000,0.261894,1.262024,-0.058533,-0.788325,0.085693,1.985076,2.218028
989.949000000,0.275671,1.259141,-0.058498,-0.788307,0.085716,1.980470,2.221199
989.950000000,0.223952,1.272194,-0.058261,-0.788757,0.033426,1.988920,2.138851
989.982000000,0.288425,1.257054,-0.058417,-0.788330,0.085721,1.976313,2.223613
989.984000000,0.238576,1.268560,-0.055344,-0.787778,0.027854,1.988248,2.140500
990.015000000,0.300887,1.255976,-0.058357,-0.788362,0.085738,1.973621,2.226921
990.018000000,0.245621,1.266714,-0.052143,-0.786505,0.010722,1.988751,2.134968
990.051000000,0.248910,1.265742,-0.051337,-0.786116,-0.003302,1.989072,2.122311
990.052000000,0.312306,1.255778,-0.058303,-0.788407,0.085734,1.972268,2.230806
990.086000000,0.253585,1.264715,-0.055313,-0.786805,0.003461,1.986452,2.129638
990.088000000,0.323379,1.255915,-0.058295,-0.789134,0.085730,1.972166,2.233436
990.121000000,0.265980,1.262556,-0.059810,-0.788156,0.016891,1.981003,2.167782
990.123000000,0.333433,1.255961,-0.058300,-0.790938,0.085722,1.972166,2.234843
990.155000000,0.282346,1.260340,-0.061265,-0.788986,0.023011,1.977892,2.197603
990.159000000,0.342559,1.255983,-0.058333,-0.792515,0.085718,1.972166,2.236221
990.192000000,0.301343,1.258219,-0.060705,-0.789788,0.026994,1.975863,2.221832
990.192000000,0.350908,1.256150,-0.058357,-0.793055,0.085716,1.972166,2.238176
990.225000000,0.318887,1.256717,-0.059311,-0.790434,0.029181,1.974678,2.239614
990.227000000,0.357834,1.256130,-0.058383,-0.792950,0.085719,1.972186,2.241044
990.258000000,0.363843,1.256052,-0.058410,-0.792303,0.085717,1.972198,2.244761
990.259000000,0.334713,1.255805,-0.057724,-0.790879,0.030531,1.973914,2.254512
990.287000000,0.368872,1.255950,-0.058410,-0.791169,0.085721,1.972203,2.248520
990.293000000,0.345843,1.255441,-0.054075,-0.790670,0.020785,1.973724,2.270436
990.318000000,0.373165,1.255883,-0.058410,-0.790191,0.085721,1.972207,2.251527
990.327000000,0.351347,1.255197,-0.051881,-0.790425,0.003520,1.973785,2.282706
990.355000000,0.376683,1.255764,-0.058407,-0.789547,0.085721,1.972206,2.253312
990.361000000,0.354077,1.255060,-0.050761,-0.790268,-0.013509,1.973782,2.291910
990.389000000,0.379406,1.255703,-0.058404,-0.789405,0.085720,1.972208,2.253973
990.395000000,0.355445,1.254956,-0.050156,-0.790192,-0.030989,1.973789,2.299493
990.423000000,0.381416,1.255731,-0.058392,-0.789454,0.085720,1.972203,2.254367
990.430000000,0.356339,1.254897,-0.050184,-0.790218,-0.048564,1.974039,2.304519
990.458000000,0.382956,1.255768,-0.058403,-0.789743,0.085720,1.972191,2.255212
990.463000000,0.356552,1.254856,-0.049702,-0.790117,-0.066967,1.973817,2.311538
990.491000000,0.383934,1.255767,-0.058403,-0.790275,0.085720,1.972187,2.256051
990.497000000,0.356753,1.254825,-0.049576,-0.790096,-0.085576,1.973781,2.316573
990.525000000,0.384246,1.255788,-0.058412,-0.790691,0.085716,1.972181,2.256676
990.531000000,0.356851,1.254806,-0.049456,-0.790071,-0.104754,1.973731,2.321290
990.551000000,0.383921,1.255799,-0.058727,-0.791064,0.085711,1.972182,2.256834
990.565000000,0.356906,1.254812,-0.049355,-0.790029,-0.123957,1.973668,2.325482
990.575000000,0.382878,1.255785,-0.060193,-0.791131,0.085701,1.972188,2.256835
990.599000000,0.356921,1.254794,-0.049254,-0.790013,-0.143944,1.973619,2.329770
990.611000000,0.380978,1.255747,-0.063222,-0.791061,0.085694,1.972195,2.256824
990.633000000,0.356926,1.254801,-0.049177,-0.789978,-0.164232,1.973539,2.333964
990.639000000,0.378385,1.255724,-0.068268,-0.790757,0.085692,1.972208,2.256827
990.668000000,0.357110,1.254782,-0.049499,-0.790067,-0.184525,1.973848,2.336665
990.675000000,0.374978,1.255729,-0.075162,-0.790372,0.085694,1.972227,2.256816
990.701000000,0.361213,1.255514,-0.057272,-0.790500,-0.115937,1.973272,2.323119
990.711000000,0.370691,1.255729,-0.083421,-0.790199,0.085695,1.972248,2.256809
990.736000000,0.366093,1.255979,-0.063690,-0.790754,-0.056030,1.972989,2.315339
990.746000000,0.365538,1.255723,-0.092240,-0.790157,0.085697,1.972274,2.256777
990.770000000,0.369814,1.256098,-0.069604,-0.790625,-0.022511,1.972685,2.313283
990.781000000,0.359714,1.255751,-0.101441,-0.790184,0.085698,1.972273,2.256686
990.804000000,0.371717,1.256024,-0.076205,-0.790413,-0.002377,1.972550,2.312615
990.816000000,0.353033,1.255767,-0.111052,-0.790239,0.085701,1.972277,2.256683
990.839000000,0.371320,1.255893,-0.083671,-0.790187,0.010239,1.972485,2.313467
990.850000000,0.345348,1.255767,-0.120711,-0.790254,0.085688,1.972280,2.256649
990.873000000,0.368267,1.255722,-0.091851,-0.789954,0.017251,1.972215,2.316990
990.884000000,0.337103,1.255724,-0.130586,-0.790182,0.085678,1.972307,2.256479
990.907000000,0.363272,1.255633,-0.100932,-0.789831,0.022105,1.972221,2.318505
990.918000000,0.328231,1.255693,-0.141026,-0.790137,0.085677,1.972385,2.256347
990.941000000,0.356426,1.255576,-0.110692,-0.789775,0.025267,1.972260,2.319185
990.952000000,0.318678,1.255726,-0.151726,-0.790092,0.085666,1.972483,2.256286
990.975000000,0.348143,1.255578,-0.120945,-0.789736,0.027169,1.972290,2.318974
990.985000000,0.308672,1.255721,-0.162655,-0.790084,0.085649,1.972600,2.256030
991.009000000,0.338821,1.255586,-0.131656,-0.789750,0.028433,1.972362,2.317724
991.020000000,0.298276,1.255700,-0.173503,-0.790047,0.085646,1.972869,2.255203
991.043000000,0.328717,1.255650,-0.142683,-0.789745,0.029088,1.972448,2.315594
