yuan18844-afk/dissertation/catkin_ws/src/franka_digital_twin/analysis/data/real_static3_20250728_064205.csv
time,panda_joint1,panda_joint2,panda_joint3,panda_joint4,panda_joint5,panda_joint6,panda_joint7
4842.153000000,0.298189,1.015168,0.063424,-1.422701,0.060967,2.668881,2.595187
4842.155000000,0.298202,1.015172,0.063431,-1.422726,0.098724,2.669012,2.466050
4842.188000000,0.298190,1.015168,0.063425,-1.422700,0.060980,2.668882,2.596705
4842.188000000,0.298204,1.015164,0.063428,-1.422729,0.098724,2.669010,2.466050
4842.221000000,0.298219,1.015166,0.063442,-1.422751,0.061619,2.669124,2.596147
4842.222000000,0.298207,1.015166,0.063426,-1.422731,0.098724,2.669011,2.466051
4842.255000000,0.298203,1.015166,0.063429,-1.422723,0.098722,2.669011,2.466043
4842.255000000,0.298220,1.015165,0.063441,-1.422751,0.061604,2.669124,2.597334
4842.287000000,0.298202,1.015169,0.063423,-1.422723,0.098724,2.669015,2.466049
4842.290000000,0.298095,1.015168,0.063389,-1.422647,0.057509,2.668870,2.603962
4842.321000000,0.298204,1.015164,0.063421,-1.422727,0.098723,2.669013,2.466049
4842.323000000,0.297919,1.015094,0.063272,-1.422687,0.046898,2.669112,2.616390
4842.353000000,0.298203,1.015170,0.063424,-1.422728,0.098724,2.669011,2.466047
4842.358000000,0.297794,1.015092,0.063201,-1.422588,0.034741,2.668878,2.635097
4842.386000000,0.298201,1.015169,0.063434,-1.422720,0.098723,2.669011,2.466045
4842.391000000,0.297742,1.015076,0.063169,-1.422567,0.023199,2.668853,2.653940
4842.420000000,0.298204,1.015169,0.063426,-1.422726,0.098722,2.669012,2.466043
4842.426000000,0.297710,1.015068,0.063149,-1.422540,0.011383,2.668807,2.675124
4842.446000000,0.298200,1.015172,0.063428,-1.422728,0.098720,2.669011,2.466050
4842.461000000,0.297692,1.015063,0.063136,-1.422516,-0.000526,2.668762,2.698456
4842.472000000,0.298204,1.015166,0.063426,-1.422731,0.098724,2.669012,2.466051
4842.494000000,0.297678,1.015059,0.063128,-1.422492,-0.012595,2.668714,2.723980
4842.508000000,0.298202,1.015169,0.063426,-1.422723,0.098721,2.669012,2.466049
4842.528000000,0.297666,1.015055,0.063121,-1.422468,-0.024842,2.668663,2.751686
4842.540000000,0.298202,1.015169,0.063424,-1.422734,0.098724,2.669013,2.466050
4842.562000000,0.297659,1.015050,0.063115,-1.422445,-0.037151,2.668611,2.781430
4842.572000000,0.298202,1.015169,0.063429,-1.422728,0.098722,2.669013,2.466053
4842.597000000,0.297679,1.015030,0.063116,-1.422513,-0.049277,2.668872,2.812322
4842.607000000,0.298207,1.015166,0.063424,-1.422723,0.098724,2.669013,2.466047
4842.630000000,0.297645,1.015042,0.063107,-1.422423,-0.062127,2.668592,2.847059
4842.644000000,0.298204,1.015169,0.063428,-1.422731,0.098724,2.669014,2.466050
4842.665000000,0.297671,1.015016,0.063110,-1.422489,-0.074481,2.668866,2.882052
4842.678000000,0.298202,1.015169,0.063425,-1.422727,0.098723,2.669011,2.466048
4842.700000000,0.297803,1.015067,0.063198,-1.422524,-0.081634,2.668785,2.897300
4842.713000000,0.298202,1.015169,0.063423,-1.422723,0.098723,2.669012,2.466044
4842.734000000,0.299300,1.015513,0.064013,-1.423042,-0.025167,2.668973,2.779401
4842.748000000,0.298202,1.015166,0.063429,-1.422727,0.098724,2.669012,2.466046
4842.767000000,0.299526,1.015608,0.064219,-1.423004,0.008752,2.669000,2.697583
4842.781000000,0.298202,1.015169,0.063426,-1.422726,0.098724,2.669011,2.466045
4842.801000000,0.299189,1.015489,0.064042,-1.422903,0.030433,2.668992,2.630555
4842.813000000,0.298212,1.015169,0.063426,-1.422721,0.098723,2.669012,2.466052
4842.837000000,0.298599,1.015322,0.063700,-1.422706,0.042751,2.668766,2.576477
4842.850000000,0.298202,1.015169,0.063423,-1.422720,0.098724,2.669010,2.466043
4842.871000000,0.298110,1.015136,0.063396,-1.422678,0.051135,2.669041,2.527855
4842.882000000,0.298198,1.015166,0.063426,-1.422723,0.098723,2.669012,2.466052
4842.904000000,0.297738,1.015030,0.063167,-1.422568,0.054722,2.668849,2.494478
4842.915000000,0.298204,1.015169,0.063426,-1.422721,0.098724,2.669011,2.466048
4842.939000000,0.297576,1.014975,0.063054,-1.422593,0.058186,2.669098,2.461068
4842.947000000,0.298196,1.015166,0.063428,-1.422727,0.098724,2.669012,2.466050
4842.973000000,0.297541,1.014966,0.063029,-1.422592,0.059780,2.669115,2.441218
4842.982000000,0.298207,1.015166,0.063429,-1.422731,0.098722,2.669013,2.466048
4843.008000000,0.297587,1.015004,0.063054,-1.422549,0.060054,2.668921,2.426816
4843.015000000,0.298207,1.015172,0.063428,-1.422721,0.098724,2.669015,2.466048
4843.043000000,0.297719,1.015042,0.063130,-1.422579,0.060587,2.668927,2.414740
4843.049000000,0.298202,1.015169,0.063426,-1.422723,0.098724,2.669011,2.466042
4843.076000000,0.297869,1.015086,0.063218,-1.422607,0.060880,2.668927,2.406187
4843.082000000,0.298204,1.015164,0.063428,-1.422726,0.098723,2.669012,2.466051
4843.110000000,0.298009,1.015124,0.063301,-1.422633,0.061025,2.668923,2.401023
4843.115000000,0.298199,1.015166,0.063426,-1.422731,0.098722,2.669014,2.466052
4843.145000000,0.298152,1.015137,0.063383,-1.422725,0.061787,2.669126,2.397225
4843.147000000,0.298201,1.015169,0.063426,-1.422728,0.098722,2.669010,2.466046
4843.180000000,0.298200,1.015157,0.063423,-1.422685,0.061120,2.668913,2.400578
4843.180000000,0.298204,1.015166,0.063429,-1.422724,0.098725,2.669010,2.466047
4843.214000000,0.298278,1.015167,0.063458,-1.422747,0.061805,2.669121,2.403062
4843.216000000,0.298199,1.015172,0.063429,-1.422725,0.098724,2.669011,2.466042
4843.248000000,0.298264,1.015172,0.063462,-1.422694,0.061102,2.668908,2.412665
4843.252000000,0.298202,1.015169,0.063429,-1.422725,0.098722,2.669011,2.466052
4843.281000000,0.298297,1.015171,0.063472,-1.422750,0.061771,2.669121,2.420860
4843.285000000,0.298209,1.015166,0.063426,-1.422729,0.098724,2.669011,2.466048
4843.315000000,0.298288,1.015167,0.063463,-1.422749,0.061749,2.669123,2.434002
4843.319000000,0.298201,1.015169,0.063425,-1.422723,0.098724,2.669011,2.466051
4843.349000000,0.298272,1.015163,0.063453,-1.422748,0.061725,2.669126,2.449837
4843.352000000,0.298207,1.015169,0.063426,-1.422728,0.098723,2.669016,2.466046
4843.384000000,0.298221,1.015161,0.063434,-1.422688,0.061010,2.668902,2.470722
4843.384000000,0.298198,1.015166,0.063426,-1.422728,0.098722,2.669012,2.466045
4843.418000000,0.298206,1.015159,0.063428,-1.422690,0.061042,2.668900,2.490956
4843.418000000,0.298207,1.015172,0.063429,-1.422726,0.098723,2.669012,2.466051
4843.450000000,0.298204,1.015166,0.063423,-1.422723,0.098722,2.669011,2.466048
4843.452000000,0.298192,1.015160,0.063427,-1.422698,0.061094,2.668895,2.508561
4843.485000000,0.298207,1.015166,0.063426,-1.422728,0.098722,2.669012,2.466052
4843.486000000,0.298112,1.015157,0.063403,-1.422664,0.058769,2.668834,2.526389
4843.518000000,0.298204,1.015166,0.063428,-1.422730,0.098723,2.669013,2.466051
4843.521000000,0.297930,1.015113,0.063268,-1.422673,0.048013,2.669047,2.552038
4843.550000000,0.298204,1.015172,0.063426,-1.422727,0.098721,2.669013,2.466050
4843.556000000,0.297781,1.015096,0.063218,-1.422591,0.036149,2.668814,2.582777
4843.585000000,0.298201,1.015169,0.063426,-1.422723,0.098724,2.669012,2.466051
4843.590000000,0.297729,1.015083,0.063189,-1.422572,0.024885,2.668796,2.613274
4843.617000000,0.298202,1.015174,0.063429,-1.422723,0.098724,2.669012,2.466054
4843.625000000,0.297735,1.015057,0.063167,-1.422628,0.013668,2.669012,2.645144
4843.651000000,0.298204,1.015172,0.063428,-1.422725,0.098725,2.669012,2.466046
4843.658000000,0.297677,1.015067,0.063164,-1.422546,0.001725,2.668765,2.680611
4843.686000000,0.298196,1.015166,0.063424,-1.422726,0.098724,2.669012,2.466042
4843.693000000,0.297713,1.015052,0.063143,-1.422605,-0.009719,2.669024,2.715237
4843.722000000,0.298202,1.015172,0.063425,-1.422723,0.098724,2.669013,2.466047
4843.726000000,0.297663,1.015042,0.063141,-1.422539,-0.021994,2.668754,2.753238
4843.756000000,0.298202,1.015166,0.063426,-1.422730,0.098725,2.669012,2.466053
4843.760000000,0.297657,1.015037,0.063138,-1.422528,-0.034013,2.668721,2.791537
4843.787000000,0.298202,1.015164,0.063423,-1.422731,0.098722,2.669012,2.466049
4843.795000000,0.297694,1.015035,0.063127,-1.422578,-0.045848,2.668983,2.830404
4843.820000000,0.298207,1.015172,0.063426,-1.422724,0.098723,2.669010,2.466042
4843.829000000,0.297693,1.015027,0.063119,-1.422581,-0.058090,2.669025,2.870908
4843.853000000,0.298201,1.015169,0.063428,-1.422724,0.098723,2.669013,2.466048
4843.863000000,0.297763,1.015047,0.063194,-1.422616,-0.066956,2.668949,2.897317
4843.888000000,0.298204,1.015169,0.063426,-1.422723,0.098722,2.669012,2.466046
4843.897000000,0.297922,1.015109,0.063303,-1.422649,-0.069794,2.668945,2.897300
4843.919000000,0.298204,1.015169,0.063424,-1.422733,0.098726,2.669012,2.466050
4843.931000000,0.298021,1.015145,0.063362,-1.422671,-0.072139,2.668944,2.897300
4843.953000000,0.298204,1.015166,0.063426,-1.422731,0.098724,2.669011,2.466046
4843.966000000,0.298089,1.015163,0.063396,-1.422684,-0.073995,2.668944,2.897300
4843.988000000,0.298204,1.015172,0.063428,-1.422728,0.098719,2.669013,2.466049
4844.000000000,0.298137,1.015188,0.063415,-1.422683,-0.075319,2.668940,2.897300
4844.021000000,0.298199,1.015169,0.063426,-1.422724,0.098724,2.669013,2.466045
4844.035000000,0.299434,1.015562,0.064131,-1.423140,-0.020019,2.669077,2.766855
4844.053000000,0.298206,1.015166,0.063426,-1.422725,0.098723,2.669015,2.466043
4844.068000000,0.299519,1.015614,0.064212,-1.423028,0.013178,2.669079,2.687822
4844.088000000,0.298202,1.015166,0.063429,-1.422728,0.098723,2.669010,2.466045
4844.104000000,0.299047,1.015462,0.063986,-1.422829,0.034328,2.668783,2.621334
4844.121000000,0.298202,1.015172,0.063428,-1.422728,0.098723,2.669012,2.466048
4844.137000000,0.298473,1.015267,0.063643,-1.422704,0.046818,2.668806,2.567240
4844.153000000,0.298204,1.015166,0.063426,-1.422728,0.098723,2.669013,2.466051
4844.171000000,0.297955,1.015104,0.063332,-1.422606,0.053849,2.668836,2.522058
4844.187000000,0.298204,1.015166,0.063424,-1.422730,0.098720,2.669011,2.466052
4844.208000000,0.297624,1.014985,0.063089,-1.422603,0.058418,2.669104,2.480382
4844.218000000,0.298204,1.015164,0.063428,-1.422723,0.098723,2.669012,2.466050
4844.241000000,0.297457,1.014960,0.062985,-1.422516,0.059801,2.668903,2.457965
4844.251000000,0.298202,1.015164,0.063426,-1.422725,0.098724,2.669011,2.466051
4844.276000000,0.297487,1.014948,0.062995,-1.422596,0.061560,2.669137,2.434848
4844.285000000,0.298205,1.015166,0.063426,-1.422726,0.098722,2.669013,2.466050
4844.311000000,0.297566,1.014983,0.063050,-1.422567,0.061435,2.668925,2.419571
4844.320000000,0.298207,1.015166,0.063429,-1.422728,0.098723,2.669011,2.466053
4844.344000000,0.297724,1.015030,0.063141,-1.422599,0.061673,2.668927,2.406597
4844.348000000,0.298199,1.015169,0.063426,-1.422725,0.098724,2.669012,2.466049
4844.384000000,0.297946,1.015082,0.063260,-1.422690,0.062403,2.669132,2.394148
4844.384000000,0.298204,1.015166,0.063426,-1.422728,0.098720,2.669013,2.466042
4844.413000000,0.298207,1.015166,0.063423,-1.422728,0.098722,2.669013,2.466045
4844.417000000,0.298058,1.015137,0.063330,-1.422645,0.061680,2.668924,2.390552
4844.446000000,0.298204,1.015166,0.063424,-1.422731,0.098724,2.669016,2.466046
4844.455000000,0.298088,1.015152,0.063387,-1.422633,0.059157,2.668867,2.390439
4844.482000000,0.298207,1.015169,0.063429,-1.422728,0.098723,2.669012,2.466053
4844.489000000,0.297921,1.015121,0.063298,-1.422595,0.048216,2.668834,2.396340
4844.514000000,0.298207,1.015166,0.063429,-1.422729,0.098725,2.669012,2.466041
4844.523000000,0.297835,1.015103,0.063249,-1.422567,0.037124,2.668804,2.404466
4844.550000000,0.298204,1.015169,0.063431,-1.422728,0.098722,2.669011,2.466047
4844.557000000,0.297789,1.015090,0.063225,-1.422543,0.025846,2.668773,2.415831
4844.582000000,0.298201,1.015166,0.063429,-1.422723,0.098725,2.669015,2.466042
4844.592000000,0.297802,1.015062,0.063204,-1.422592,0.014724,2.668952,2.429013
4844.616000000,0.298199,1.015169,0.063421,-1.422728,0.098724,2.669010,2.466043
4844.626000000,0.297791,1.015046,0.063190,-1.422590,0.003120,2.668974,2.446815
4844.650000000,0.298199,1.015169,0.063428,-1.422720,0.098723,2.669012,2.466051
4844.660000000,0.297790,1.015032,0.063181,-1.422595,-0.008474,2.669015,2.467562
4844.681000000,0.298199,1.015169,0.063423,-1.422726,0.098722,2.669013,2.466046
4844.696000000,0.297757,1.015044,0.063171,-1.422513,-0.021371,2.668824,2.494114
4844.711000000,0.298199,1.015166,0.063426,-1.422725,0.098724,2.669012,2.466046
4844.730000000,0.297776,1.015017,0.063170,-1.422570,-0.033383,2.669038,2.520394
4844.742000000,0.298204,1.015172,0.063429,-1.422728,0.098726,2.669012,2.466050
4844.764000000,0.297771,1.015006,0.063163,-1.422571,-0.045865,2.669076,2.550740
4844.774000000,0.298204,1.015172,0.063431,-1.422723,0.098723,2.669013,2.466046
4844.798000000,0.297771,1.014992,0.063161,-1.422566,-0.058445,2.669112,2.583916
4844.806000000,0.298204,1.015169,0.063424,-1.422730,0.098724,2.669012,2.466045
4844.833000000,0.297774,1.014973,0.063148,-1.422582,-0.071138,2.669163,2.618450
4844.839000000,0.298207,1.015169,0.063426,-1.422726,0.098724,2.669012,2.466053
4844.866000000,0.297734,1.014981,0.063160,-1.422503,-0.084241,2.668929,2.656200
4844.873000000,0.298204,1.015166,0.063421,-1.422724,0.098725,2.669011,2.466051
4844.899000000,0.297727,1.014975,0.063163,-1.422483,-0.097305,2.668878,2.694764
4844.904000000,0.298207,1.015172,0.063421,-1.422726,0.098724,2.669013,2.466050
4844.934000000,0.299194,1.015391,0.063877,-1.423000,-0.046482,2.669027,2.655410
4844.937000000,0.298201,1.015166,0.063426,-1.422723,0.098723,2.669015,2.466050
4844.969000000,0.299660,1.015594,0.064267,-1.422970,-0.003457,2.668874,2.628630
4844.971000000,0.298207,1.015172,0.063429,-1.422722,0.098724,2.669013,2.466053
4845.002000000,0.299357,1.015515,0.064131,-1.422850,0.021747,2.668832,2.613154
4845.005000000,0.298204,1.015166,0.063423,-1.422728,0.098724,2.669013,2.466052
4845.037000000,0.298207,1.015169,0.063426,-1.422730,0.098722,2.669012,2.466042
4845.037000000,0.298795,1.015313,0.063813,-1.422800,0.038391,2.669082,2.602135
4845.070000000,0.298204,1.015164,0.063418,-1.422727,0.098721,2.669011,2.466046
4845.071000000,0.298216,1.015144,0.063476,-1.422697,0.047241,2.669086,2.598036
4845.104000000,0.297609,1.015028,0.063149,-1.422497,0.043252,2.668855,2.609976
4845.105000000,0.298199,1.015169,0.063426,-1.422725,0.098722,2.669013,2.466047
4845.138000000,0.297375,1.014937,0.062935,-1.422565,0.036278,2.669152,2.621916
4845.140000000,0.298204,1.015166,0.063426,-1.422726,0.098725,2.669013,2.466046
4845.172000000,0.297807,1.015072,0.063246,-1.422627,0.053422,2.668926,2.573255
4845.174000000,0.298204,1.015169,0.063429,-1.422725,0.098722,2.669013,2.466045
4845.207000000,0.298204,1.015172,0.063429,-1.422731,0.098723,2.669012,2.466047
4845.207000000,0.297913,1.015094,0.063293,-1.422708,0.058787,2.669127,2.536308
4845.238000000,0.298202,1.015169,0.063431,-1.422723,0.098724,2.669013,2.466054
4845.242000000,0.297941,1.015141,0.063299,-1.422642,0.060727,2.668894,2.508638
4845.274000000,0.298207,1.015169,0.063428,-1.422722,0.098721,2.669013,2.466052
4845.275000000,0.297981,1.015122,0.063295,-1.422693,0.061444,2.669089,2.487511
4845.309000000,0.297754,1.015069,0.063170,-1.422643,0.050830,2.669079,2.492639
4845.310000000,0.298204,1.015172,0.063426,-1.422727,0.098725,2.669015,2.466047
4845.344000000,0.298199,1.015174,0.063426,-1.422726,0.098720,2.669012,2.466055
4845.344000000,0.297819,1.015086,0.063160,-1.422650,0.045802,2.668984,2.496180
4845.378000000,0.298204,1.015169,0.063429,-1.422725,0.098722,2.669012,2.466049
4845.378000000,0.298122,1.015156,0.063358,-1.422661,0.052494,2.668923,2.490099
4845.410000000,0.298202,1.015169,0.063426,-1.422723,0.098722,2.669011,2.466046
4845.413000000,0.298251,1.015171,0.063451,-1.422729,0.055889,2.669107,2.489120
4845.441000000,0.298204,1.015164,0.063426,-1.422730,0.098723,2.669011,2.466045
4845.447000000,0.298038,1.015125,0.063340,-1.422667,0.046900,2.669077,2.504162
4845.472000000,0.298204,1.015166,0.063426,-1.422720,0.098721,2.669013,2.466053
4845.481000000,0.297929,1.015090,0.063267,-1.422657,0.037133,2.669128,2.522444
4845.506000000,0.298199,1.015166,0.063426,-1.422728,0.098724,2.669015,2.466053
4845.515000000,0.297881,1.015073,0.063237,-1.422650,0.027147,2.669160,2.543376
4845.542000000,0.298202,1.015172,0.063426,-1.422731,0.098723,2.669011,2.466053
4845.549000000,0.297859,1.015061,0.063222,-1.422649,0.016912,2.669197,2.566950
4845.577000000,0.298202,1.015172,0.063426,-1.422723,0.098721,2.669012,2.466050
4845.584000000,0.297821,1.015069,0.063199,-1.422576,0.005498,2.668987,2.595753
4845.613000000,0.298204,1.015172,0.063431,-1.422733,0.098724,2.669012,2.466051
4845.618000000,0.297810,1.015062,0.063191,-1.422563,-0.005342,2.668973,2.624625
4845.646000000,0.298204,1.015169,0.063428,-1.422726,0.098722,2.669012,2.466050
4845.652000000,0.297799,1.015058,0.063184,-1.422540,-0.016426,2.668926,2.655827
4845.680000000,0.298202,1.015166,0.063424,-1.422726,0.098725,2.669013,2.466051
4845.686000000,0.297790,1.015056,0.063180,-1.422520,-0.027611,2.668881,2.688401
4845.715000000,0.298209,1.015169,0.063424,-1.422728,0.098721,2.669012,2.466052
4845.720000000,0.297780,1.015054,0.063174,-1.422498,-0.038998,2.668833,2.722751
4845.749000000,0.298199,1.015166,0.063426,-1.422731,0.098724,2.669012,2.466053
4845.754000000,0.297773,1.015052,0.063171,-1.422478,-0.050464,2.668784,2.758436
4845.783000000,0.298207,1.015169,0.063423,-1.422730,0.098724,2.669013,2.466049
4845.788000000,0.297767,1.015050,0.063167,-1.422457,-0.062044,2.668731,2.795179
4845.816000000,0.298201,1.015169,0.063423,-1.422723,0.098722,2.669012,2.466045
4845.822000000,0.297757,1.015053,0.063166,-1.422437,-0.073765,2.668680,2.833069
4845.851000000,0.298204,1.015166,0.063426,-1.422726,0.098724,2.669011,2.466048
4845.856000000,0.297753,1.015033,0.063166,-1.422431,-0.085569,2.668621,2.871626
4845.884000000,0.298204,1.015169,0.063421,-1.422726,0.098724,2.669012,2.466046
4845.891000000,0.297830,1.015042,0.063229,-1.422531,-0.094267,2.668774,2.897438
4845.918000000,0.298199,1.015174,0.063426,-1.422729,0.098723,2.669012,2.466047
4845.925000000,0.298000,1.015128,0.063322,-1.422539,-0.096745,2.668749,2.897300
4845.952000000,0.298204,1.015169,0.063431,-1.422726,0.098724,2.669013,2.466052
4845.959000000,0.298090,1.015160,0.063369,-1.422561,-0.099093,2.668749,2.897300
4845.986000000,0.298204,1.015166,0.063426,-1.422728,0.098721,2.669012,2.466045
4845.993000000,0.298148,1.015182,0.063400,-1.422568,-0.100765,2.668748,2.897300
4846.019000000,0.298199,1.015169,0.063426,-1.422725,0.098720,2.669012,2.466051
4846.027000000,0.298191,1.015181,0.063419,-1.422589,-0.102045,2.668750,2.897300
4846.053000000,0.298204,1.015166,0.063425,-1.422725,0.098723,2.669012,2.466051
4846.062000000,0.298209,1.015189,0.063435,-1.422594,-0.103049,2.668746,2.897300
4846.087000000,0.298202,1.015166,0.063431,-1.422725,0.098725,2.669013,2.466051
4846.095000000,0.298224,1.015202,0.063452,-1.422593,-0.103771,2.668750,2.897300
4846.120000000,0.298207,1.015169,0.063426,-1.422726,0.098724,2.669015,2.466054
4846.130000000,0.298237,1.015206,0.063465,-1.422588,-0.104358,2.668738,2.897300
4846.146000000,0.298200,1.015172,0.063428,-1.422728,0.098722,2.669012,2.466053
4846.163000000,0.298250,1.015201,0.063463,-1.422600,-0.104765,2.668743,2.897300
4846.182000000,0.298202,1.015169,0.063426,-1.422725,0.098723,2.669011,2.466048
4846.198000000,0.298263,1.015218,0.063465,-1.422586,-0.105200,2.668743,2.897300
4846.216000000,0.298199,1.015166,0.063426,-1.422726,0.098721,2.669013,2.466050
4846.233000000,0.298260,1.015219,0.063482,-1.422589,-0.105455,2.668749,2.897300
4846.251000000,0.298199,1.015164,0.063426,-1.422724,0.098722,2.669012,2.466052
4846.268000000,0.298276,1.015224,0.063474,-1.422582,-0.105652,2.668745,2.897300
4846.285000000,0.298202,1.015169,0.063424,-1.422723,0.098722,2.669012,2.466051
4846.303000000,0.299765,1.015670,0.064286,-1.423145,-0.037106,2.669029,2.762877
4846.320000000,0.298207,1.015172,0.063426,-1.422725,0.098722,2.669012,2.466045
4846.338000000,0.299763,1.015700,0.064379,-1.422964,0.004200,2.668695,2.681870
4846.354000000,0.298202,1.015169,0.063426,-1.422731,0.098723,2.669009,2.466052
4846.372000000,0.299228,1.015513,0.064079,-1.422796,0.030324,2.668712,2.615979
4846.389000000,0.298202,1.015169,0.063428,-1.422727,0.098724,2.669012,2.466042
4846.406000000,0.298492,1.015262,0.063648,-1.422646,0.045089,2.668752,2.564930
4846.422000000,0.298200,1.015169,0.063426,-1.422726,0.098724,2.669012,2.466049
4846.440000000,0.297858,1.015061,0.063262,-1.422541,0.053298,2.668811,2.523783
4846.455000000,0.298196,1.015169,0.063429,-1.422727,0.098722,2.669010,2.466051
4846.474000000,0.297442,1.014943,0.063005,-1.422482,0.057844,2.668857,2.489633
4846.489000000,0.298207,1.015169,0.063423,-1.422728,0.098724,2.669010,2.466051
4846.507000000,0.297261,1.014899,0.062883,-1.422469,0.060266,2.668893,2.460962
4846.522000000,0.298204,1.015169,0.063431,-1.422723,0.098724,2.669012,2.466051
4846.542000000,0.297270,1.014914,0.062876,-1.422487,0.061493,2.668916,2.436923
4846.556000000,0.298202,1.015169,0.063426,-1.422726,0.098723,2.669013,2.466054
4846.576000000,0.297405,1.014962,0.062949,-1.422521,0.062026,2.668928,2.417551
4846.590000000,0.298204,1.015172,0.063420,-1.422728,0.098724,2.669012,2.466051
4846.610000000,0.297636,1.015008,0.063079,-1.422635,0.062922,2.669137,2.400479
4846.622000000,0.298199,1.015166,0.063426,-1.422723,0.098723,2.669013,2.466054
4846.645000000,0.297844,1.015069,0.063201,-1.422677,0.062884,2.669132,2.389396
4846.655000000,0.298207,1.015169,0.063429,-1.422720,0.098723,2.669011,2.466052
4846.679000000,0.298028,1.015118,0.063310,-1.422709,0.062764,2.669126,2.381737
4846.685000000,0.298207,1.015172,0.063428,-1.422728,0.098718,2.669015,2.466052
4846.713000000,0.298171,1.015152,0.063394,-1.422732,0.062609,2.669120,2.377414
4846.718000000,0.298204,1.015172,0.063428,-1.422723,0.098718,2.669011,2.466052
4846.747000000,0.298268,1.015173,0.063452,-1.422747,0.062463,2.669118,2.376329
4846.751000000,0.298204,1.015166,0.063423,-1.422724,0.098725,2.669012,2.466043
4846.781000000,0.298320,1.015181,0.063485,-1.422745,0.062282,2.669104,2.378455
4846.785000000,0.298204,1.015169,0.063428,-1.422728,0.098724,2.669010,2.466050
4846.815000000,0.298341,1.015173,0.063486,-1.422759,0.062167,2.669108,2.383635
4846.817000000,0.298199,1.015169,0.063423,-1.422725,0.098723,2.669012,2.466043
4846.849000000,0.298335,1.015169,0.063483,-1.422758,0.062065,2.669109,2.391820
4846.851000000,0.298204,1.015169,0.063429,-1.422727,0.098724,2.669011,2.466049
4846.882000000,0.298202,1.015169,0.063424,-1.422727,0.098723,2.669012,2.466050
4846.883000000,0.298314,1.015162,0.063471,-1.422755,0.061979,2.669111,2.402925
4846.917000000,0.298202,1.015169,0.063429,-1.422723,0.098724,2.669013,2.466046
4846.918000000,0.298248,1.015152,0.063457,-1.422748,0.060742,2.669106,2.414620
4846.950000000,0.298207,1.015166,0.063426,-1.422731,0.098724,2.669013,2.466050
4846.952000000,0.297999,1.015137,0.063333,-1.422647,0.050254,2.668921,2.424174
4846.984000000,0.298209,1.015164,0.063428,-1.422721,0.098723,2.669012,2.466052
4846.986000000,0.297887,1.015113,0.063258,-1.422625,0.039602,2.668916,2.433377
4847.017000000,0.298202,1.015169,0.063426,-1.422730,0.098723,2.669012,2.466054
4847.021000000,0.297856,1.015085,0.063233,-1.422669,0.029065,2.669101,2.444261
4847.052000000,0.298202,1.015164,0.063433,-1.422724,0.098725,2.669013,2.466048
4847.056000000,0.297796,1.015076,0.063207,-1.422600,0.017045,2.668891,2.462098
4847.087000000,0.298202,1.015164,0.063429,-1.422726,0.098724,2.669011,2.466046
4847.090000000,0.297777,1.015065,0.063197,-1.422587,0.005697,2.668874,2.480825
4847.121000000,0.298204,1.015166,0.063428,-1.422723,0.098723,2.669011,2.466049
4847.124000000,0.297760,1.015055,0.063188,-1.422568,-0.005976,2.668833,2.502684
4847.155000000,0.298202,1.015164,0.063428,-1.422728,0.098723,2.669011,2.466052
4847.157000000,0.297784,1.015044,0.063185,-1.422615,-0.016700,2.669045,2.524740
4847.188000000,0.298207,1.015166,0.063431,-1.422723,0.098724,2.669010,2.466046
4847.191000000,0.297784,1.015032,0.063179,-1.422614,-0.028363,2.669071,2.552001
4847.217000000,0.298204,1.015169,0.063423,-1.422721,0.098722,2.669013,2.466051
4847.227000000,0.297751,1.015025,0.063175,-1.422549,-0.041061,2.668852,2.584746
4847.253000000,0.298201,1.015169,0.063426,-1.422726,0.098725,2.669013,2.466052
4847.259000000,0.297780,1.015014,0.063174,-1.422606,-0.052063,2.669099,2.613753
4847.288000000,0.298204,1.015169,0.063426,-1.422728,0.098719,2.669010,2.466050
4847.293000000,0.297780,1.015006,0.063170,-1.422610,-0.064103,2.669129,2.647780
4847.321000000,0.298202,1.015169,0.063426,-1.422731,0.098722,2.669012,2.466051
4847.328000000,0.297746,1.014998,0.063167,-1.422543,-0.077290,2.668884,2.686410
4847.356000000,0.298202,1.015169,0.063428,-1.422728,0.098723,2.669011,2.466045
4847.363000000,0.297785,1.014997,0.063155,-1.422592,-0.089407,2.669155,2.723141
4847.389000000,0.298199,1.015169,0.063428,-1.422728,0.098723,2.669013,2.466043
4847.397000000,0.297774,1.014977,0.063155,-1.422603,-0.102049,2.669194,2.762388
4847.423000000,0.298199,1.015169,0.063428,-1.422725,0.098723,2.669010,2.466043
4847.431000000,0.297775,1.014969,0.063150,-1.422610,-0.114765,2.669250,2.802126
4847.457000000,0.298199,1.015166,0.063424,-1.422727,0.098725,2.669012,2.466042
4847.465000000,0.297778,1.014959,0.063146,-1.422620,-0.127556,2.669307,2.843482
4847.491000000,0.298199,1.015172,0.063426,-1.422730,0.098724,2.669011,2.466047
4847.499000000,0.297781,1.014951,0.063143,-1.422630,-0.140481,2.669367,2.885826
4847.526000000,0.298204,1.015169,0.063426,-1.422729,0.098724,2.669012,2.466051
4847.533000000,0.297920,1.015003,0.063254,-1.422688,-0.146698,2.669276,2.897305
4847.560000000,0.298207,1.015169,0.063431,-1.422730,0.098722,2.669013,2.466048
4847.568000000,0.298063,1.015068,0.063339,-1.422724,-0.149632,2.669271,2.897300
4847.594000000,0.298207,1.015169,0.063420,-1.422729,0.098719,2.669013,2.466052
4847.602000000,0.298153,1.015107,0.063391,-1.422743,-0.151892,2.669273,2.897300
4847.627000000,0.298199,1.015164,0.063429,-1.422723,0.098723,2.669013,2.466052
4847.635000000,0.300043,1.015736,0.064353,-1.423412,-0.069430,2.669332,2.770405
4847.661000000,0.298204,1.015169,0.063426,-1.422728,0.098723,2.669011,2.466043
4847.670000000,0.300183,1.015862,0.064607,-1.423142,-0.015129,2.668925,2.689446
4847.695000000,0.298202,1.015166,0.063425,-1.422725,0.098723,2.669012,2.466049
4847.704000000,0.299586,1.015610,0.064302,-1.422913,0.019424,2.668825,2.627501
4847.729000000,0.298204,1.015169,0.063426,-1.422726,0.098724,2.669010,2.466046
4847.738000000,0.298681,1.015275,0.063763,-1.422705,0.038021,2.668848,2.584791
4847.762000000,0.298202,1.015166,0.063425,-1.422720,0.098723,2.669012,2.466045
4847.772000000,0.297887,1.015014,0.063298,-1.422543,0.049621,2.668860,2.552201
4847.796000000,0.298196,1.015172,0.063420,-1.422730,0.098723,2.669013,2.466050
4847.807000000,0.297336,1.014850,0.062956,-1.422455,0.055508,2.668897,2.528291
4847.830000000,0.298207,1.015169,0.063424,-1.422728,0.098721,2.669013,2.466053
4847.841000000,0.297115,1.014797,0.062785,-1.422480,0.059596,2.669159,2.507549
4847.863000000,0.298201,1.015172,0.063428,-1.422730,0.098723,2.669012,2.466053
4847.875000000,0.297105,1.014817,0.062765,-1.422501,0.061357,2.669171,2.493776
4847.895000000,0.298200,1.015169,0.063426,-1.422721,0.098724,2.669013,2.466052
4847.906000000,0.297203,1.014874,0.062842,-1.422496,0.061400,2.668942,2.486104
4847.925000000,0.298199,1.015166,0.063428,-1.422720,0.098723,2.669012,2.466041
4847.942000000,0.297437,1.014958,0.062977,-1.422551,0.061859,2.668937,2.479467
4847.959000000,0.298207,1.015166,0.063426,-1.422728,0.098725,2.669012,2.466043
4847.976000000,0.297690,1.015038,0.063124,-1.422602,0.061982,2.668928,2.476102
4847.992000000,0.298204,1.015166,0.063434,-1.422726,0.098721,2.669012,2.466052
4848.010000000,0.297919,1.015103,0.063258,-1.422646,0.061928,2.668917,2.475808
4848.013000000,0.298204,1.015172,0.063423,-1.422726,0.098723,2.669013,2.466050
4848.048000000,0.298150,1.015155,0.063366,-1.422729,0.062552,2.669134,2.476595
4848.050000000,0.298207,1.015169,0.063424,-1.422723,0.098724,2.669011,2.466049
4848.078000000,0.298223,1.015183,0.063440,-1.422688,0.061674,2.668906,2.483804
4848.085000000,0.298207,1.015169,0.063431,-1.422731,0.098725,2.669010,2.466052
4848.113000000,0.298338,1.015203,0.063481,-1.422750,0.062255,2.669130,2.490251
4848.114000000,0.298199,1.015164,0.063424,-1.422730,0.098723,2.669013,2.466043
4848.144000000,0.298204,1.015169,0.063423,-1.422730,0.098724,2.669013,2.466051
4848.147000000,0.298353,1.015193,0.063505,-1.422766,0.062072,2.669125,2.501054
4848.180000000,0.298207,1.015164,0.063431,-1.422726,0.098723,2.669012,2.466049
4848.181000000,0.298289,1.015201,0.063482,-1.422677,0.060217,2.668882,2.516800
4848.214000000,0.298207,1.015172,0.063423,-1.422728,0.098722,2.669017,2.466051
4848.215000000,0.298086,1.015131,0.063366,-1.422709,0.050013,2.669126,2.540076
4848.248000000,0.297972,1.015128,0.063295,-1.422609,0.039328,2.668873,2.566322
4848.249000000,0.298204,1.015166,0.063426,-1.422720,0.098723,2.669010,2.466050
4848.281000000,0.298204,1.015169,0.063429,-1.422723,0.098724,2.669013,2.466050
4848.284000000,0.298310,1.015155,0.063449,-1.422827,0.041981,2.669221,2.568930
4848.305000000,0.298199,1.015169,0.063426,-1.422726,0.098722,2.669012,2.466051
4848.318000000,0.298485,1.015237,0.063599,-1.422797,0.047914,2.669152,2.561445
4848.334000000,0.298206,1.015169,0.063428,-1.422728,0.098724,2.669009,2.466045
4848.351000000,0.298250,1.015176,0.063461,-1.422768,0.038560,2.669197,2.576308
4848.360000000,0.298202,1.015166,0.063431,-1.422725,0.098720,2.669011,2.466053
4848.386000000,0.298426,1.015189,0.063525,-1.422857,0.039807,2.669261,2.575846
4848.388000000,0.298204,1.015174,0.063424,-1.422728,0.098726,2.669012,2.466043
4848.416000000,0.298204,1.015172,0.063428,-1.422727,0.098724,2.669011,2.466045
4848.419000000,0.298631,1.015254,0.063661,-1.422856,0.048699,2.669184,2.564135
4848.446000000,0.298204,1.015166,0.063431,-1.422725,0.098724,2.669010,2.466045
4848.454000000,0.298539,1.015273,0.063638,-1.422741,0.051622,2.668919,2.562366
4848.483000000,0.298202,1.015172,0.063428,-1.422725,0.098720,2.669011,2.466044
4848.488000000,0.298267,1.015178,0.063475,-1.422757,0.043342,2.669149,2.571589
4848.513000000,0.298204,1.015172,0.063426,-1.422723,0.098723,2.669013,2.466053
4848.523000000,0.298103,1.015132,0.063370,-1.422729,0.033095,2.669164,2.586287
4848.551000000,0.298203,1.015166,0.063425,-1.422728,0.098720,2.669013,2.466052
4848.556000000,0.298029,1.015105,0.063320,-1.422725,0.022734,2.669209,2.603395
4848.590000000,0.297960,1.015113,0.063286,-1.422639,0.011043,2.668993,2.625621
4848.591000000,0.298204,1.015166,0.063429,-1.422728,0.098724,2.669011,2.466050
4848.624000000,0.298534,1.015196,0.063587,-1.422922,0.023484,2.669297,2.600004
4848.628000000,0.298202,1.015166,0.063423,-1.422723,0.098722,2.669013,2.466047
4848.659000000,0.298782,1.015336,0.063792,-1.422835,0.037751,2.668949,2.563674
4848.663000000,0.298201,1.015164,0.063424,-1.422725,0.098723,2.669012,2.466050
4848.694000000,0.298777,1.015317,0.063769,-1.422871,0.047769,2.669142,2.532765
4848.698000000,0.298207,1.015164,0.063429,-1.422723,0.098721,2.669013,2.466043
4848.728000000,0.298586,1.015262,0.063654,-1.422822,0.053186,2.669123,2.511467
4848.733000000,0.298204,1.015172,0.063426,-1.422724,0.098720,2.669010,2.466043
4848.763000000,0.298335,1.015202,0.063509,-1.422712,0.055904,2.668893,2.496858
4848.767000000,0.298202,1.015169,0.063428,-1.422726,0.098720,2.669012,2.466047
4848.797000000,0.298024,1.015135,0.063353,-1.422622,0.053104,2.668824,2.489920
4848.800000000,0.298202,1.015169,0.063423,-1.422720,0.098724,2.669012,2.466042
4848.832000000,0.297709,1.015039,0.063151,-1.422616,0.041813,2.669022,2.492780
4848.834000000,0.298200,1.015169,0.063426,-1.422727,0.098724,2.669012,2.466050
4848.866000000,0.297540,1.014988,0.063043,-1.422592,0.030096,2.669062,2.500279
4848.867000000,0.298207,1.015164,0.063428,-1.422723,0.098722,2.669012,2.466051
4848.900000000,0.297449,1.014954,0.062982,-1.422583,0.018074,2.669106,2.510867
4848.901000000,0.298204,1.015166,0.063423,-1.422728,0.098723,2.669012,2.466051
4848.934000000,0.298168,1.015107,0.063350,-1.422759,0.037594,2.669168,2.492505
4848.934000000,0.298204,1.015169,0.063429,-1.422720,0.098722,2.669012,2.466051
4848.968000000,0.298376,1.015171,0.063499,-1.422771,0.047132,2.669132,2.487151
4848.968000000,0.298202,1.015164,0.063428,-1.422728,0.098723,2.669012,2.466049
4848.994000000,0.298202,1.015166,0.063424,-1.422721,0.098722,2.669015,2.466048
4849.003000000,0.298372,1.015203,0.063515,-1.422686,0.052286,2.668898,2.490552
4849.034000000,0.298200,1.015169,0.063421,-1.422723,0.098721,2.669013,2.466050
4849.036000000,0.298344,1.015164,0.063493,-1.422751,0.056389,2.669112,2.494853
4849.067000000,0.298202,1.015172,0.063426,-1.422720,0.098720,2.669012,2.466052
4849.070000000,0.298078,1.015125,0.063363,-1.422665,0.050844,2.669060,2.512477
4849.100000000,0.298202,1.015169,0.063426,-1.422725,0.098724,2.669012,2.466049
4849.104000000,0.297888,1.015065,0.063240,-1.422667,0.040997,2.669125,2.533308
4849.134000000,0.298204,1.015169,0.063429,-1.422723,0.098724,2.669011,2.466046
4849.138000000,0.297845,1.015054,0.063209,-1.422661,0.032196,2.669155,2.554499
4849.168000000,0.298202,1.015164,0.063426,-1.422725,0.098723,2.669015,2.466049
4849.172000000,0.297824,1.015043,0.063195,-1.422663,0.022687,2.669187,2.578691
4849.202000000,0.298202,1.015169,0.063426,-1.422728,0.098725,2.669012,2.466049
4849.206000000,0.297819,1.015035,0.063188,-1.422668,0.013118,2.669222,2.605178
4849.237000000,0.298204,1.015166,0.063429,-1.422728,0.098721,2.669012,2.466048
4849.240000000,0.297826,1.015037,0.063174,-1.422662,0.003370,2.669266,2.633524
4849.270000000,0.298202,1.015166,0.063420,-1.422728,0.098722,2.669013,2.466043
4849.276000000,0.297791,1.015026,0.063175,-1.422609,-0.007477,2.669024,2.665863
4849.303000000,0.298209,1.015172,0.063426,-1.422720,0.098724,2.669011,2.466045
4849.308000000,0.297827,1.015027,0.063166,-1.422666,-0.016523,2.669322,2.693951
4849.336000000,0.298204,1.015172,0.063431,-1.422723,0.098722,2.669013,2.466052
4849.341000000,0.297770,1.015026,0.063175,-1.422587,-0.027915,2.669000,2.729363
4849.371000000,0.298201,1.015169,0.063429,-1.422728,0.098723,2.669012,2.466052
4849.376000000,0.297774,1.015023,0.063175,-1.422587,-0.038062,2.669024,2.762025
4849.405000000,0.298204,1.015166,0.063426,-1.422725,0.098725,2.669012,2.466049
4849.411000000,0.297762,1.015021,0.063175,-1.422567,-0.048733,2.668961,2.796484
4849.439000000,0.298202,1.015172,0.063429,-1.422723,0.098721,2.669012,2.466048
4849.445000000,0.297797,1.014998,0.063164,-1.422640,-0.058997,2.669231,2.831045
4849.473000000,0.298207,1.015169,0.063429,-1.422726,0.098722,2.669013,2.466042
4849.479000000,0.297748,1.015015,0.063177,-1.422544,-0.070060,2.668900,2.867758
4849.506000000,0.298204,1.015169,0.063426,-1.422720,0.098724,2.669013,2.466043
4849.514000000,0.297806,1.015005,0.063197,-1.422644,-0.079394,2.669140,2.898042
4849.540000000,0.298202,1.015169,0.063426,-1.422723,0.098725,2.669012,2.466051
4849.548000000,0.297985,1.015088,0.063306,-1.422652,-0.081012,2.669062,2.897300
4849.574000000,0.298202,1.015169,0.063429,-1.422725,0.098724,2.669012,2.466051
4849.582000000,0.298064,1.015112,0.063343,-1.422675,-0.083277,2.669075,2.897300
4849.607000000,0.298204,1.015164,0.063428,-1.422726,0.098725,2.669013,2.466051
4849.618000000,0.298105,1.015117,0.063373,-1.422694,-0.084828,2.669070,2.897300
4849.643000000,0.298205,1.015166,0.063425,-1.422728,0.098724,2.669013,2.466051
4849.650000000,0.298128,1.015133,0.063393,-1.422693,-0.086053,2.669074,2.897300
4849.677000000,0.298209,1.015161,0.063429,-1.422723,0.098724,2.669012,2.466045
4849.684000000,0.298150,1.015138,0.063404,-1.422698,-0.086939,2.669074,2.897300
4849.711000000,0.298204,1.015164,0.063429,-1.422718,0.098725,2.669012,2.466050
4849.719000000,0.298170,1.015150,0.063404,-1.422691,-0.087653,2.669072,2.897300
4849.744000000,0.298204,1.015174,0.063428,-1.422729,0.098724,2.669012,2.466044
4849.752000000,0.298182,1.015154,0.063410,-1.422691,-0.088192,2.669072,2.897300
4849.779000000,0.298201,1.015169,0.063431,-1.422728,0.098722,2.669011,2.466043
4849.788000000,0.298183,1.015152,0.063423,-1.422696,-0.088607,2.669075,2.897300
4849.813000000,0.298204,1.015166,0.063426,-1.422723,0.098723,2.669012,2.466047
4849.822000000,0.298190,1.015155,0.063431,-1.422689,-0.088914,2.669064,2.897300
4849.847000000,0.298204,1.015172,0.063431,-1.422721,0.098724,2.669011,2.466048
4849.856000000,0.298197,1.015149,0.063426,-1.422700,-0.089131,2.669070,2.897300
4849.881000000,0.298204,1.015169,0.063426,-1.422725,0.098723,2.669013,2.466051
4849.891000000,0.298140,1.015158,0.063451,-1.422627,-0.090566,2.668871,2.894618
4849.914000000,0.298204,1.015169,0.063429,-1.422723,0.098722,2.669012,2.466049
4849.925000000,0.297967,1.015108,0.063337,-1.422561,-0.100239,2.668840,2.896124
4849.948000000,0.298204,1.015164,0.063428,-1.422725,0.098722,2.669012,2.466043
4849.959000000,0.297968,1.015066,0.063293,-1.422672,-0.107485,2.669188,2.894433
4849.982000000,0.298199,1.015164,0.063426,-1.422726,0.098723,2.669011,2.466043
4849.993000000,0.297925,1.015069,0.063304,-1.422627,-0.114616,2.669171,2.887343
4850.015000000,0.298204,1.015166,0.063431,-1.422726,0.098723,2.669011,2.466049
4850.028000000,0.297856,1.015030,0.063248,-1.422628,-0.125418,2.669237,2.886793
4850.048000000,0.298204,1.015172,0.063428,-1.422720,0.098722,2.669012,2.466043
4850.061000000,0.297817,1.015008,0.063219,-1.422625,-0.136448,2.669293,2.889498
4850.083000000,0.298207,1.015166,0.063431,-1.422728,0.098724,2.669013,2.466046
4850.095000000,0.297758,1.015009,0.063201,-1.422525,-0.148415,2.668999,2.897511
4850.116000000,0.298202,1.015166,0.063426,-1.422727,0.098726,2.669013,2.466043
4850.129000000,0.297819,1.015039,0.063249,-1.422514,-0.156026,2.668941,2.898477
4850.150000000,0.298207,1.015164,0.063429,-1.422720,0.098720,2.669015,2.466048
4850.163000000,0.297911,1.015075,0.063312,-1.422567,-0.160836,2.668906,2.894410
4850.185000000,0.298207,1.015169,0.063421,-1.422720,0.098722,2.669011,2.466046
4850.197000000,0.297816,1.015050,0.063290,-1.422493,-0.171664,2.668830,2.890683
4850.217000000,0.298204,1.015172,0.063426,-1.422728,0.098724,2.669011,2.466052
4850.231000000,0.297750,1.015021,0.063257,-1.422458,-0.183706,2.668772,2.891633
4850.251000000,0.298202,1.015166,0.063426,-1.422725,0.098724,2.669013,2.466050
4850.266000000,0.297707,1.015003,0.063240,-1.422424,-0.196065,2.668712,2.896430
4850.285000000,0.298202,1.015166,0.063429,-1.422717,0.098723,2.669011,2.466052
4850.299000000,0.297819,1.015010,0.063272,-1.422530,-0.203621,2.668992,2.890218
4850.319000000,0.298199,1.015166,0.063426,-1.422725,0.098724,2.669012,2.466047
4850.334000000,0.299877,1.015756,0.064249,-1.423364,-0.119283,2.669069,2.774995
4850.353000000,0.298204,1.015166,0.063426,-1.422731,0.098723,2.669011,2.466050
4850.368000000,0.300432,1.016029,0.064713,-1.423266,-0.051698,2.669048,2.672164
4850.386000000,0.298202,1.015164,0.063426,-1.422726,0.098724,2.669013,2.466053
4850.402000000,0.299984,1.015794,0.064527,-1.423042,-0.005655,2.668980,2.594686
4850.419000000,0.298204,1.015169,0.063423,-1.422725,0.098723,2.669013,2.466052
4850.437000000,0.299069,1.015407,0.064007,-1.422787,0.022409,2.668984,2.539120
4850.452000000,0.298202,1.015169,0.063426,-1.422723,0.098722,2.669012,2.466045
4850.469000000,0.298121,1.015074,0.063458,-1.422533,0.037861,2.668808,2.501580
4850.486000000,0.298204,1.015161,0.063426,-1.422725,0.098724,2.669013,2.466041
4850.505000000,0.297439,1.014817,0.063010,-1.422481,0.048773,2.669089,2.468264
4850.519000000,0.298204,1.015166,0.063426,-1.422725,0.098724,2.669013,2.466053
4850.539000000,0.297010,1.014737,0.062753,-1.422357,0.053971,2.668913,2.446567
4850.553000000,0.298201,1.015172,0.063431,-1.422725,0.098723,2.669012,2.466053
4850.573000000,0.296907,1.014737,0.062680,-1.422367,0.057139,2.668938,2.429547
4850.586000000,0.298207,1.015169,0.063426,-1.422725,0.098721,2.669013,2.466045
4850.607000000,0.297018,1.014802,0.062736,-1.422416,0.059019,2.668951,2.417096
4850.619000000,0.298202,1.015169,0.063423,-1.422725,0.098724,2.669013,2.466056
4850.641000000,0.297253,1.014898,0.062866,-1.422480,0.060115,2.668950,2.408692
4850.656000000,0.298207,1.015169,0.063428,-1.422725,0.098719,2.669013,2.466048
4850.675000000,0.297533,1.014998,0.063026,-1.422545,0.060723,2.668943,2.404006
4850.690000000,0.298202,1.015169,0.063429,-1.422728,0.098726,2.669009,2.466044
4850.709000000,0.297801,1.015084,0.063182,-1.422602,0.061027,2.668933,2.402801
4850.722000000,0.298202,1.015166,0.063428,-1.422723,0.098723,2.669013,2.466051
4850.743000000,0.298023,1.015149,0.063313,-1.422645,0.061177,2.668922,2.404868
4850.757000000,0.298202,1.015166,0.063428,-1.422728,0.098724,2.669013,2.466045
4850.777000000,0.298183,1.015190,0.063408,-1.422673,0.061225,2.668914,2.410078
4850.790000000,0.298201,1.015169,0.063426,-1.422725,0.098723,2.669012,2.466051
4850.811000000,0.298281,1.015210,0.063466,-1.422689,0.061225,2.668908,2.418294
4850.824000000,0.298202,1.015169,0.063426,-1.422720,0.098725,2.669012,2.466050
4850.845000000,0.298328,1.015216,0.063493,-1.422694,0.061199,2.668904,2.429398
4850.858000000,0.298204,1.015169,0.063426,-1.422728,0.098723,2.669013,2.466051
4850.879000000,0.298336,1.015210,0.063495,-1.422692,0.061157,2.668902,2.443277
4850.891000000,0.298202,1.015169,0.063428,-1.422728,0.098723,2.669013,2.466049
4850.914000000,0.298343,1.015187,0.063500,-1.422762,0.061805,2.669121,2.458435
4850.926000000,0.298202,1.015166,0.063421,-1.422730,0.098724,2.669013,2.466046
4850.947000000,0.298287,1.015196,0.063470,-1.422685,0.061083,2.668900,2.478860
4850.959000000,0.298207,1.015166,0.063424,-1.422731,0.098724,2.669013,2.466043
4850.981000000,0.298253,1.015187,0.063453,-1.422685,0.061073,2.668898,2.498431
4850.992000000,0.298197,1.015166,0.063429,-1.422725,0.098725,2.669012,2.466045
4851.015000000,0.298224,1.015164,0.063440,-1.422701,0.061043,2.668893,2.515007
4851.026000000,0.298202,1.015164,0.063423,-1.422720,0.098725,2.669010,2.466042
4851.049000000,0.298200,1.015165,0.063429,-1.422700,0.061028,2.668889,2.529128
4851.058000000,0.298204,1.015169,0.063429,-1.422723,0.098724,2.669012,2.466049
4851.083000000,0.298186,1.015167,0.063422,-1.422700,0.061052,2.668887,2.540922
4851.092000000,0.298204,1.015169,0.063425,-1.422726,0.098723,2.669011,2.466045
4851.117000000,0.298178,1.015168,0.063418,-1.422700,0.061051,2.668886,2.550912
4851.125000000,0.298207,1.015172,0.063428,-1.422723,0.098723,2.669012,2.466046
4851.151000000,0.298162,1.015178,0.063425,-1.422691,0.061013,2.668883,2.559416
4851.159000000,0.298204,1.015172,0.063429,-1.422723,0.098723,2.669012,2.466047
4851.185000000,0.298164,1.015180,0.063427,-1.422691,0.060996,2.668884,2.566537
4851.192000000,0.298200,1.015166,0.063424,-1.422723,0.098724,2.669013,2.466049
4851.219000000,0.298169,1.015181,0.063429,-1.422691,0.061004,2.668883,2.572556
4851.226000000,0.298207,1.015169,0.063431,-1.422725,0.098722,2.669014,2.466042
4851.253000000,0.298174,1.015181,0.063431,-1.422691,0.061004,2.668883,2.577659
4851.260000000,0.298199,1.015166,0.063426,-1.422725,0.098722,2.669013,2.466052
4851.287000000,0.298178,1.015180,0.063434,-1.422691,0.061005,2.668883,2.581976
4851.293000000,0.298202,1.015169,0.063428,-1.422727,0.098721,2.669013,2.466041
4851.321000000,0.298181,1.015178,0.063436,-1.422691,0.061006,2.668883,2.585573
4851.326000000,0.298199,1.015169,0.063426,-1.422720,0.098723,2.669012,2.466046
4851.355000000,0.298183,1.015178,0.063437,-1.422690,0.061008,2.668883,2.588606
4851.358000000,0.298200,1.015169,0.063424,-1.422730,0.098725,2.669011,2.466052
4851.389000000,0.298184,1.015177,0.063436,-1.422689,0.060996,2.668883,2.591270
4851.392000000,0.298202,1.015166,0.063425,-1.422727,0.098724,2.669012,2.466042
4851.424000000,0.298223,1.015158,0.063434,-1.422762,0.061682,2.669128,2.591676
4851.426000000,0.298199,1.015164,0.063426,-1.422728,0.098722,2.669011,2.466047
4851.459000000,0.298195,1.015181,0.063421,-1.422683,0.060971,2.668885,2.595516
4851.461000000,0.298202,1.015166,0.063429,-1.422728,0.098722,2.669013,2.466048
4851.492000000,0.298224,1.015154,0.063432,-1.422764,0.061677,2.669127,2.595019
4851.494000000,0.298204,1.015172,0.063423,-1.422723,0.098722,2.669011,2.466053
4851.525000000,0.298222,1.015161,0.063434,-1.422762,0.061701,2.669133,2.596322
4851.528000000,0.298199,1.015164,0.063431,-1.422733,0.098719,2.669010,2.466048
4851.560000000,0.298221,1.015160,0.063434,-1.422762,0.061701,2.669132,2.597383
4851.562000000,0.298204,1.015169,0.063425,-1.422725,0.098724,2.669011,2.466045
4851.594000000,0.298228,1.015171,0.063426,-1.422749,0.061657,2.669136,2.598333
4851.595000000,0.298201,1.015169,0.063425,-1.422725,0.098722,2.669010,2.466049
4851.628000000,0.298204,1.015164,0.063426,-1.422724,0.098724,2.669011,2.466052
4851.628000000,0.298229,1.015171,0.063424,-1.422749,0.061647,2.669137,2.599147
4851.662000000,0.298202,1.015166,0.063429,-1.422725,0.098724,2.669010,2.466043
4851.662000000,0.298229,1.015171,0.063424,-1.422748,0.061657,2.669136,2.599810
4851.697000000,0.298199,1.015169,0.063426,-1.422720,0.098723,2.669012,2.466049
4851.697000000,0.298182,1.015173,0.063433,-1.422688,0.060928,2.668882,2.602279
4851.730000000,0.298064,1.015149,0.063364,-1.422680,0.055729,2.669055,2.607678
4851.731000000,0.298202,1.015169,0.063426,-1.422725,0.098722,2.669012,2.466052
4851.764000000,0.298196,1.015162,0.063406,-1.422751,0.057047,2.669121,2.599821
4851.765000000,0.298204,1.015169,0.063423,-1.422730,0.098722,2.669011,2.466042
4851.798000000,0.298280,1.015187,0.063454,-1.422760,0.059086,2.669120,2.591406
4851.798000000,0.298200,1.015166,0.063423,-1.422723,0.098723,2.669012,2.466046
4851.832000000,0.298209,1.015172,0.063426,-1.422731,0.098722,2.669013,2.466043
4851.833000000,0.298259,1.015196,0.063475,-1.422700,0.059618,2.668870,2.588121
4851.865000000,0.298202,1.015169,0.063426,-1.422725,0.098722,2.669011,2.466045
4851.866000000,0.298121,1.015167,0.063396,-1.422684,0.054460,2.669036,2.590621
4851.900000000,0.298204,1.015169,0.063429,-1.422726,0.098721,2.669013,2.466052
4851.900000000,0.297923,1.015111,0.063261,-1.422662,0.042603,2.669093,2.603060
4851.933000000,0.298207,1.015172,0.063431,-1.422730,0.098724,2.669013,2.466049
4851.934000000,0.297921,1.015102,0.063247,-1.422670,0.034497,2.669135,2.614054
4851.967000000,0.298204,1.015169,0.063432,-1.422723,0.098722,2.669013,2.466050
4851.969000000,0.298360,1.015225,0.063547,-1.422744,0.046303,2.668901,2.580619
4852.001000000,0.298202,1.015164,0.063426,-1.422727,0.098723,2.669010,2.466048
4852.003000000,0.298023,1.015128,0.063306,-1.422633,0.031402,2.669003,2.622173
4852.034000000,0.298204,1.015172,0.063428,-1.422726,0.098722,2.669012,2.466049
4852.039000000,0.298124,1.015160,0.063408,-1.422709,0.031058,2.669097,2.607105
4852.068000000,0.298199,1.015166,0.063426,-1.422725,0.098724,2.669011,2.466055
4852.073000000,0.297943,1.015135,0.063312,-1.422617,0.018724,2.668864,2.609107
4852.103000000,0.298202,1.015166,0.063429,-1.422720,0.098725,2.669012,2.466051
4852.107000000,0.297928,1.015127,0.063306,-1.422615,0.010060,2.668880,2.609345
4852.137000000,0.298209,1.015166,0.063429,-1.422727,0.098723,2.669015,2.466049
4852.141000000,0.297949,1.015117,0.063279,-1.422657,0.001015,2.669098,2.611591
4852.169000000,0.298204,1.015164,0.063426,-1.422720,0.098722,2.669012,2.466052
4852.175000000,0.297890,1.015115,0.063287,-1.422580,-0.009835,2.668818,2.620491
4852.203000000,0.298200,1.015169,0.063429,-1.422723,0.098724,2.669013,2.466048
4852.209000000,0.297889,1.015108,0.063280,-1.422577,-0.019755,2.668841,2.630131
4852.236000000,0.298204,1.015169,0.063429,-1.422723,0.098724,2.669013,2.466050
4852.243000000,0.297876,1.015104,0.063278,-1.422555,-0.030136,2.668787,2.642933
4852.268000000,0.298204,1.015169,0.063425,-1.422725,0.098725,2.669012,2.466045
4852.277000000,0.297868,1.015100,0.063277,-1.422538,-0.040523,2.668752,2.658442
4852.302000000,0.298204,1.015169,0.063423,-1.422725,0.098725,2.669013,2.466048
4852.311000000,0.297859,1.015092,0.063274,-1.422521,-0.051119,2.668709,2.676837
4852.335000000,0.298204,1.015169,0.063423,-1.422723,0.098723,2.669012,2.466048
4852.345000000,0.297851,1.015087,0.063274,-1.422504,-0.061808,2.668667,2.697970
4852.369000000,0.298207,1.015169,0.063429,-1.422725,0.098723,2.669012,2.466046
4852.379000000,0.297893,1.015084,0.063257,-1.422556,-0.071511,2.668932,2.719118
4852.403000000,0.298202,1.015166,0.063426,-1.422725,0.098726,2.669013,2.466042
4852.413000000,0.297842,1.015071,0.063264,-1.422481,-0.083370,2.668614,2.748240
4852.433000000,0.298202,1.015169,0.063429,-1.422733,0.098722,2.669013,2.466047
4852.446000000,0.298376,1.015151,0.063485,-1.422891,-0.074554,2.668886,2.739999
4852.467000000,0.298204,1.015166,0.063428,-1.422723,0.098722,2.669012,2.466048
4852.480000000,0.298989,1.015477,0.063897,-1.422771,-0.042952,2.668931,2.703875
4852.501000000,0.298204,1.015169,0.063423,-1.422720,0.098720,2.669015,2.466046
4852.514000000,0.298475,1.015238,0.063621,-1.422795,-0.052019,2.668996,2.730256
4852.534000000,0.298200,1.015174,0.063426,-1.422720,0.098723,2.669012,2.466054
4852.548000000,0.298224,1.015186,0.063476,-1.422694,-0.060505,2.669032,2.739176
4852.564000000,0.298202,1.015169,0.063425,-1.422725,0.098722,2.669013,2.466045
4852.584000000,0.298593,1.015235,0.063647,-1.422952,-0.051306,2.668945,2.715618
4852.596000000,0.298199,1.015166,0.063425,-1.422725,0.098719,2.669013,2.466052
4852.617000000,0.299449,1.015553,0.064136,-1.423060,-0.007535,2.669112,2.632361
4852.626000000,0.298199,1.015166,0.063425,-1.422720,0.098723,2.669010,2.466046
4852.651000000,0.299407,1.015553,0.064149,-1.422973,0.019570,2.669041,2.572265
4852.658000000,0.298202,1.015166,0.063425,-1.422723,0.098724,2.669011,2.466047
4852.685000000,0.298973,1.015407,0.063896,-1.422855,0.036078,2.669032,2.526534
4852.693000000,0.298204,1.015172,0.063428,-1.422723,0.098723,2.669011,2.466051
4852.721000000,0.298415,1.015214,0.063571,-1.422752,0.046694,2.669048,2.488835
4852.727000000,0.298201,1.015166,0.063421,-1.422725,0.098723,2.669012,2.466042
4852.755000000,0.297987,1.015081,0.063308,-1.422675,0.052870,2.669075,2.460626
4852.760000000,0.298203,1.015169,0.063429,-1.422721,0.098724,2.669013,2.466045
4852.789000000,0.297704,1.015005,0.063135,-1.422630,0.056482,2.669104,2.438356
4852.796000000,0.298204,1.015166,0.063426,-1.422727,0.098725,2.669012,2.466049
4852.823000000,0.297584,1.014970,0.063055,-1.422618,0.058638,2.669121,2.420899
4852.829000000,0.298199,1.015169,0.063423,-1.422725,0.098723,2.669011,2.466051
4852.856000000,0.297555,1.014983,0.063049,-1.422563,0.059247,2.668923,2.409828
4852.864000000,0.298202,1.015169,0.063426,-1.422723,0.098723,2.669013,2.466056
4852.891000000,0.297693,1.015019,0.063097,-1.422633,0.060795,2.669137,2.398128
4852.898000000,0.298202,1.015169,0.063431,-1.422730,0.098723,2.669010,2.466047
4852.924000000,0.297777,1.015050,0.063176,-1.422611,0.060550,2.668928,2.394294
4852.932000000,0.298202,1.015166,0.063426,-1.422723,0.098724,2.669010,2.466043
4852.959000000,0.297967,1.015096,0.063258,-1.422686,0.061546,2.669131,2.389838
4852.966000000,0.298207,1.015172,0.063431,-1.422723,0.098723,2.669012,2.466045
4852.993000000,0.298092,1.015129,0.063332,-1.422707,0.061691,2.669127,2.390706
4853.001000000,0.298207,1.015169,0.063429,-1.422725,0.098724,2.669015,2.466052
4853.027000000,0.298083,1.015139,0.063354,-1.422692,0.058308,2.669115,2.396294
4853.037000000,0.298199,1.015169,0.063428,-1.422725,0.098723,2.669010,2.466052
4853.061000000,0.297927,1.015108,0.063257,-1.422675,0.047168,2.669149,2.401507
4853.070000000,0.298204,1.015172,0.063428,-1.422730,0.098722,2.669012,2.466050
4853.094000000,0.297806,1.015083,0.063206,-1.422614,0.035365,2.668972,2.411112
4853.104000000,0.298200,1.015172,0.063426,-1.422723,0.098725,2.669012,2.466046
4853.129000000,0.297803,1.015074,0.063170,-1.422646,0.023972,2.669165,2.420850
4853.138000000,0.298204,1.015172,0.063423,-1.422723,0.098722,2.669011,2.466052
4853.163000000,0.297783,1.015061,0.063149,-1.422640,0.012146,2.669195,2.435304
4853.173000000,0.298207,1.015169,0.063428,-1.422728,0.098725,2.669013,2.466041
4853.197000000,0.297775,1.015049,0.063134,-1.422637,0.000124,2.669237,2.452952
4853.206000000,0.298199,1.015166,0.063429,-1.422725,0.098720,2.669012,2.466048
4853.231000000,0.297773,1.015038,0.063121,-1.422635,-0.012125,2.669280,2.473783
4853.240000000,0.298202,1.015166,0.063426,-1.422720,0.098721,2.669012,2.466048
4853.267000000,0.297726,1.015031,0.063128,-1.422570,-0.025552,2.669083,2.500278
4853.273000000,0.298202,1.015166,0.063426,-1.422725,0.098723,2.669013,2.466053
4853.301000000,0.298714,1.015235,0.063602,-1.422920,0.002486,2.669352,2.482941
4853.307000000,0.298204,1.015169,0.063426,-1.422728,0.098722,2.669011,2.466053
4853.335000000,0.299043,1.015368,0.063851,-1.422897,0.024484,2.669229,2.475879
4853.341000000,0.298202,1.015166,0.063426,-1.422723,0.098723,2.669013,2.466053
4853.370000000,0.298887,1.015341,0.063831,-1.422788,0.037758,2.668934,2.482364
4853.375000000,0.298201,1.015169,0.063423,-1.422725,0.098724,2.669012,2.466052
4853.404000000,0.298606,1.015262,0.063678,-1.422728,0.046239,2.668909,2.494717
4853.408000000,0.298199,1.015166,0.063426,-1.422723,0.098722,2.669013,2.466051
4853.439000000,0.298302,1.015182,0.063504,-1.422676,0.051644,2.668902,2.512051
4853.441000000,0.298202,1.015166,0.063425,-1.422720,0.098723,2.669012,2.466050
4853.473000000,0.298084,1.015105,0.063361,-1.422714,0.055849,2.669125,2.525704
4853.474000000,0.298201,1.015169,0.063431,-1.422723,0.098721,2.669012,2.466052
4853.507000000,0.297930,1.015077,0.063271,-1.422698,0.058037,2.669128,2.538049
4853.508000000,0.298204,1.015169,0.063431,-1.422720,0.098722,2.669013,2.466043
4853.541000000,0.298201,1.015172,0.063429,-1.422723,0.098723,2.669012,2.466052
4853.541000000,0.297863,1.015071,0.063231,-1.422695,0.059396,2.669131,2.548467
4853.575000000,0.298204,1.015166,0.063429,-1.422728,0.098724,2.669013,2.466042
4853.575000000,0.297862,1.015081,0.063234,-1.422701,0.060189,2.669133,2.557210
4853.609000000,0.297665,1.015048,0.063130,-1.422662,0.051740,2.669156,2.575810
4853.610000000,0.298204,1.015166,0.063426,-1.422730,0.098723,2.669013,2.466051
4853.643000000,0.297689,1.015031,0.063115,-1.422754,0.046204,2.669270,2.588856
4853.643000000,0.298202,1.015166,0.063426,-1.422723,0.098723,2.669011,2.466043
4853.677000000,0.298008,1.015118,0.063312,-1.422769,0.052783,2.669182,2.573496
4853.679000000,0.298200,1.015166,0.063425,-1.422720,0.098722,2.669013,2.466048
4853.711000000,0.298179,1.015163,0.063410,-1.422779,0.056432,2.669151,2.563836
4853.712000000,0.298202,1.015172,0.063428,-1.422728,0.098720,2.669013,2.466047
4853.745000000,0.298254,1.015185,0.063456,-1.422775,0.058607,2.669138,2.558356
4853.745000000,0.298201,1.015169,0.063429,-1.422725,0.098723,2.669012,2.466049
4853.779000000,0.298276,1.015183,0.063467,-1.422770,0.059893,2.669132,2.556393
4853.779000000,0.298204,1.015172,0.063431,-1.422725,0.098723,2.669012,2.466043
4853.813000000,0.298277,1.015184,0.063452,-1.422750,0.060656,2.669135,2.557517
4853.813000000,0.298202,1.015169,0.063424,-1.422728,0.098722,2.669013,2.466042
4853.847000000,0.298229,1.015171,0.063434,-1.422729,0.060207,2.669128,2.562309
4853.847000000,0.298202,1.015169,0.063428,-1.422725,0.098723,2.669013,2.466042
4853.881000000,0.298202,1.015172,0.063423,-1.422723,0.098722,2.669011,2.466050
4853.882000000,0.298176,1.015134,0.063401,-1.422731,0.057111,2.668951,2.566656
4853.914000000,0.298199,1.015169,0.063429,-1.422723,0.098724,2.669012,2.466053
4853.917000000,0.298223,1.015160,0.063448,-1.422752,0.058787,2.669115,2.557290
4853.949000000,0.298202,1.015164,0.063431,-1.422728,0.098724,2.669009,2.466043
4853.951000000,0.297999,1.015105,0.063313,-1.422717,0.048584,2.669118,2.563590
4853.992000000,0.297901,1.015074,0.063249,-1.422709,0.038623,2.669163,2.572080
4853.992000000,0.298202,1.015166,0.063426,-1.422720,0.098724,2.669015,2.466048
4854.017000000,0.298204,1.015166,0.063428,-1.422725,0.098724,2.669012,2.466049
4854.019000000,0.297854,1.015054,0.063216,-1.422707,0.028239,2.669200,2.583429
4854.051000000,0.298207,1.015166,0.063428,-1.422725,0.098724,2.669012,2.466051
4854.053000000,0.297832,1.015039,0.063197,-1.422709,0.017627,2.669240,2.597445
4854.085000000,0.298202,1.015169,0.063426,-1.422728,0.098724,2.669012,2.466045
4854.087000000,0.297822,1.015026,0.063185,-1.422712,0.006831,2.669280,2.614074
4854.119000000,0.298204,1.015169,0.063428,-1.422725,0.098723,2.669013,2.466048
4854.121000000,0.297816,1.015013,0.063176,-1.422716,-0.004218,2.669321,2.633360
4854.153000000,0.298199,1.015169,0.063423,-1.422723,0.098723,2.669013,2.466043
4854.155000000,0.297775,1.015018,0.063176,-1.422643,-0.015749,2.669090,2.656361
4854.186000000,0.298199,1.015164,0.063424,-1.422725,0.098720,2.669012,2.466047
4854.189000000,0.297812,1.014991,0.063166,-1.422713,-0.026766,2.669347,2.679497
4854.219000000,0.298202,1.015169,0.063431,-1.422723,0.098724,2.669012,2.466050
4854.222000000,0.297762,1.015008,0.063175,-1.422623,-0.038649,2.669082,2.707368
4854.253000000,0.298202,1.015169,0.063431,-1.422725,0.098724,2.669012,2.466050
4854.257000000,0.297811,1.014990,0.063153,-1.422688,-0.049936,2.669364,2.735506
4854.288000000,0.298202,1.015166,0.063429,-1.422723,0.098720,2.669011,2.466053
4854.291000000,0.297810,1.014983,0.063146,-1.422684,-0.061670,2.669389,2.767029
4854.321000000,0.298204,1.015172,0.063426,-1.422725,0.098725,2.669010,2.466047
4854.325000000,0.297814,1.014975,0.063137,-1.422689,-0.073531,2.669443,2.800864
4854.355000000,0.298204,1.015164,0.063429,-1.422725,0.098724,2.669013,2.466052
4854.359000000,0.297820,1.014968,0.063131,-1.422694,-0.085428,2.669496,2.835898
4854.389000000,0.298207,1.015169,0.063426,-1.422725,0.098725,2.669012,2.466054
4854.393000000,0.297826,1.014962,0.063124,-1.422700,-0.097465,2.669551,2.872355
4854.423000000,0.298202,1.015169,0.063426,-1.422730,0.098721,2.669013,2.466046
4854.426000000,0.297869,1.014963,0.063191,-1.422749,-0.106745,2.669471,2.897502
4854.456000000,0.298204,1.015169,0.063431,-1.422723,0.098719,2.669011,2.466045
4854.461000000,0.298045,1.015046,0.063299,-1.422774,-0.109472,2.669471,2.897300
4854.490000000,0.298204,1.015169,0.063426,-1.422723,0.098723,2.669013,2.466046
4854.495000000,0.298139,1.015081,0.063354,-1.422798,-0.111866,2.669470,2.897300
4854.525000000,0.298202,1.015166,0.063431,-1.422725,0.098723,2.669013,2.466045
4854.529000000,0.298201,1.015095,0.063383,-1.422817,-0.113613,2.669465,2.897300
4854.559000000,0.298207,1.015166,0.063428,-1.422727,0.098723,2.669015,2.466044
4854.563000000,0.298242,1.015108,0.063406,-1.422827,-0.114947,2.669464,2.897300
4854.593000000,0.298202,1.015169,0.063431,-1.422723,0.098722,2.669011,2.466052
4854.597000000,0.298270,1.015116,0.063422,-1.422834,-0.115979,2.669464,2.897300
4854.626000000,0.298204,1.015169,0.063429,-1.422725,0.098723,2.669012,2.466050
4854.631000000,0.298295,1.015135,0.063429,-1.422825,-0.116754,2.669464,2.897300
4854.660000000,0.298204,1.015166,0.063428,-1.422725,0.098720,2.669012,2.466048
4854.665000000,0.298311,1.015141,0.063436,-1.422824,-0.117337,2.669464,2.897300
4854.694000000,0.298201,1.015172,0.063425,-1.422728,0.098724,2.669013,2.466041
4854.698000000,0.298319,1.015131,0.063444,-1.422837,-0.117756,2.669463,2.897300
4854.728000000,0.298207,1.015169,0.063429,-1.422721,0.098724,2.669015,2.466046
4854.733000000,0.298339,1.015132,0.063445,-1.422841,-0.118105,2.669466,2.897300
4854.762000000,0.298204,1.015169,0.063426,-1.422720,0.098722,2.669013,2.466051
4854.767000000,0.298333,1.015141,0.063457,-1.422836,-0.118367,2.669467,2.897300
4854.793000000,0.298201,1.015166,0.063431,-1.422720,0.098724,2.669012,2.466048
4854.802000000,0.299906,1.015648,0.064281,-1.423346,-0.047271,2.669453,2.772869
4854.823000000,0.298207,1.015166,0.063423,-1.422723,0.098724,2.669013,2.466047
4854.836000000,0.299981,1.015736,0.064481,-1.423104,0.001117,2.668999,2.680689
4854.854000000,0.298207,1.015169,0.063429,-1.422725,0.098723,2.669012,2.466046
4854.871000000,0.299376,1.015507,0.064152,-1.422952,0.030705,2.669169,2.609020
4854.888000000,0.298207,1.015164,0.063426,-1.422725,0.098724,2.669013,2.466049
4854.904000000,0.298550,1.015255,0.063672,-1.422689,0.045177,2.668888,2.560617
4854.922000000,0.298207,1.015172,0.063428,-1.422725,0.098723,2.669011,2.466045
4854.939000000,0.297857,1.015012,0.063250,-1.422626,0.054944,2.669141,2.515840
4854.956000000,0.298202,1.015166,0.063424,-1.422728,0.098726,2.669011,2.466045
4854.973000000,0.297402,1.014886,0.062970,-1.422551,0.059637,2.669152,2.481691
4854.990000000,0.298204,1.015174,0.063426,-1.422728,0.098722,2.669012,2.466049
4855.007000000,0.297197,1.014843,0.062837,-1.422526,0.061789,2.669159,2.453627
4855.023000000,0.298199,1.015166,0.063429,-1.422723,0.098724,2.669011,2.466047
4855.041000000,0.297206,1.014866,0.062835,-1.422545,0.062812,2.669163,2.430814
4855.057000000,0.298202,1.015166,0.063429,-1.422725,0.098724,2.669011,2.466049
4855.075000000,0.297358,1.014923,0.062918,-1.422583,0.063225,2.669160,2.412232
4855.092000000,0.298207,1.015164,0.063426,-1.422730,0.098723,2.669011,2.466045
4855.109000000,0.297578,1.014992,0.063046,-1.422630,0.063306,2.669151,2.398263
4855.125000000,0.298197,1.015169,0.063426,-1.422720,0.098720,2.669012,2.466050
4855.143000000,0.297811,1.015058,0.063181,-1.422675,0.063218,2.669141,2.387829
4855.160000000,0.298204,1.015169,0.063429,-1.422728,0.098724,2.669010,2.466048
4855.177000000,0.298013,1.015112,0.063305,-1.422699,0.062996,2.669119,2.380859
4855.193000000,0.298207,1.015169,0.063428,-1.422728,0.098723,2.669011,2.466046
4855.212000000,0.298170,1.015150,0.063398,-1.422726,0.062799,2.669111,2.377159
4855.226000000,0.298204,1.015166,0.063424,-1.422728,0.098723,2.669017,2.466052
4855.246000000,0.298245,1.015178,0.063452,-1.422689,0.061926,2.668920,2.378599
4855.260000000,0.298207,1.015166,0.063423,-1.422728,0.098724,2.669012,2.466045
4855.280000000,0.298335,1.015183,0.063489,-1.422757,0.062416,2.669118,2.379634
4855.293000000,0.298202,1.015172,0.063428,-1.422723,0.098720,2.669011,2.466042
4855.315000000,0.298352,1.015184,0.063499,-1.422758,0.062267,2.669117,2.385561
4855.327000000,0.298202,1.015169,0.063428,-1.422717,0.098723,2.669013,2.466045
4855.349000000,0.298342,1.015180,0.063495,-1.422754,0.062139,2.669118,2.394469
4855.360000000,0.298204,1.015172,0.063428,-1.422723,0.098721,2.669013,2.466049
4855.383000000,0.298319,1.015173,0.063482,-1.422749,0.062033,2.669121,2.406267
4855.394000000,0.298196,1.015172,0.063426,-1.422725,0.098723,2.669012,2.466051
4855.417000000,0.298290,1.015166,0.063466,-1.422745,0.061947,2.669124,2.420855
4855.427000000,0.298202,1.015166,0.063429,-1.422720,0.098724,2.669011,2.466050
4855.451000000,0.298262,1.015161,0.063450,-1.422742,0.061875,2.669126,2.438132
4855.459000000,0.298209,1.015166,0.063431,-1.422723,0.098723,2.669013,2.466050
4855.485000000,0.298239,1.015156,0.063436,-1.422740,0.061813,2.669129,2.457986
4855.491000000,0.298207,1.015169,0.063425,-1.422723,0.098723,2.669013,2.466051
4855.520000000,0.298189,1.015155,0.063420,-1.422684,0.061102,2.668901,2.482261
4855.525000000,0.298204,1.015169,0.063429,-1.422722,0.098725,2.669011,2.466048
4855.553000000,0.298178,1.015158,0.063421,-1.422688,0.061136,2.668894,2.501369
4855.560000000,0.298202,1.015164,0.063428,-1.422725,0.098723,2.669010,2.466043
4855.588000000,0.298172,1.015163,0.063423,-1.422693,0.061143,2.668888,2.517563
4855.594000000,0.298202,1.015166,0.063426,-1.422725,0.098722,2.669013,2.466045
4855.621000000,0.298171,1.015167,0.063422,-1.422697,0.061097,2.668887,2.531231
4855.628000000,0.298199,1.015169,0.063426,-1.422723,0.098724,2.669012,2.466042
4855.655000000,0.298206,1.015169,0.063433,-1.422759,0.061775,2.669129,2.540539
4855.661000000,0.298202,1.015164,0.063424,-1.422725,0.098724,2.669013,2.466045
4855.690000000,0.298177,1.015174,0.063425,-1.422700,0.061081,2.668882,2.552384
4855.695000000,0.298202,1.015166,0.063426,-1.422728,0.098724,2.669013,2.466046
4855.723000000,0.298213,1.015173,0.063436,-1.422761,0.061758,2.669129,2.558559
4855.730000000,0.298204,1.015169,0.063424,-1.422725,0.098724,2.669012,2.466047
4855.757000000,0.298216,1.015173,0.063437,-1.422761,0.061745,2.669131,2.565554
4855.763000000,0.298204,1.015166,0.063426,-1.422725,0.098724,2.669011,2.466043
4855.792000000,0.298187,1.015173,0.063426,-1.422704,0.061015,2.668881,2.573496
4855.797000000,0.298204,1.015166,0.063428,-1.422728,0.098724,2.669012,2.466043
4855.825000000,0.298218,1.015172,0.063441,-1.422763,0.061703,2.669130,2.576334
4855.831000000,0.298201,1.015169,0.063426,-1.422723,0.098723,2.669011,2.466048
4855.860000000,0.298188,1.015174,0.063431,-1.422694,0.060992,2.668888,2.582627
4855.865000000,0.298204,1.015172,0.063431,-1.422723,0.098725,2.669012,2.466051
4855.894000000,0.298188,1.015174,0.063432,-1.422691,0.060997,2.668885,2.586102
4855.899000000,0.298197,1.015169,0.063428,-1.422723,0.098723,2.669013,2.466053
4855.928000000,0.298194,1.015185,0.063425,-1.422681,0.060960,2.668886,2.589163
4855.933000000,0.298204,1.015169,0.063423,-1.422725,0.098722,2.669015,2.466045
4855.962000000,0.298194,1.015184,0.063424,-1.422680,0.060942,2.668884,2.591642
4855.965000000,0.298209,1.015164,0.063429,-1.422725,0.098722,2.669012,2.466050
4855.996000000,0.298195,1.015183,0.063423,-1.422680,0.060951,2.668885,2.593763
4855.999000000,0.298204,1.015172,0.063431,-1.422725,0.098722,2.669010,2.466052
4856.030000000,0.298041,1.015164,0.063363,-1.422613,0.055397,2.668801,2.601492
4856.032000000,0.298202,1.015166,0.063428,-1.422723,0.098724,2.669013,2.466042
4856.064000000,0.298169,1.015178,0.063404,-1.422680,0.056895,2.668869,2.595138
4856.064000000,0.298204,1.015167,0.063429,-1.422723,0.098720,2.669013,2.466049
4856.098000000,0.298243,1.015199,0.063448,-1.422687,0.058743,2.668871,2.589572
4856.098000000,0.298202,1.015172,0.063429,-1.422723,0.098720,2.669012,2.466043
4856.132000000,0.298264,1.015203,0.063460,-1.422686,0.059851,2.668874,2.587262
4856.133000000,0.298202,1.015169,0.063426,-1.422723,0.098721,2.669013,2.466045
4856.166000000,0.298257,1.015196,0.063454,-1.422683,0.060520,2.668877,2.587401
4856.166000000,0.298204,1.015169,0.063426,-1.422725,0.098719,2.669011,2.466049
4856.200000000,0.298202,1.015169,0.063426,-1.422723,0.098724,2.669012,2.466049
4856.200000000,0.298236,1.015189,0.063442,-1.422680,0.060875,2.668880,2.588425
4856.234000000,0.298204,1.015169,0.063429,-1.422723,0.098725,2.669011,2.466052
4856.234000000,0.298212,1.015182,0.063428,-1.422677,0.061038,2.668883,2.589986
4856.267000000,0.298204,1.015166,0.063429,-1.422725,0.098725,2.669016,2.466050
4856.267000000,0.298193,1.015177,0.063418,-1.422674,0.061120,2.668884,2.591546
4856.300000000,0.298205,1.015169,0.063428,-1.422725,0.098723,2.669012,2.466051
4856.302000000,0.297972,1.015151,0.063321,-1.422591,0.053087,2.668797,2.601960
4856.334000000,0.298202,1.015166,0.063428,-1.422723,0.098722,2.669012,2.466052
4856.337000000,0.297888,1.015095,0.063248,-1.422651,0.043830,2.669047,2.614634
4856.368000000,0.298202,1.015164,0.063429,-1.422725,0.098724,2.669013,2.466049
4856.371000000,0.297852,1.015091,0.063232,-1.422626,0.034396,2.669012,2.630714
4856.402000000,0.298202,1.015169,0.063426,-1.422725,0.098723,2.669010,2.466051
4856.405000000,0.297843,1.015082,0.063222,-1.422634,0.024778,2.669068,2.649094
4856.436000000,0.298202,1.015166,0.063428,-1.422727,0.098723,2.669012,2.466047
4856.439000000,0.297840,1.015076,0.063220,-1.422635,0.015031,2.669097,2.669693
4856.468000000,0.298204,1.015169,0.063424,-1.422728,0.098722,2.669011,2.466050
4856.473000000,0.297844,1.015061,0.063209,-1.422650,0.005237,2.669139,2.692407
4856.502000000,0.298202,1.015169,0.063429,-1.422728,0.098719,2.669012,2.466050
4856.507000000,0.297845,1.015055,0.063207,-1.422654,-0.004709,2.669176,2.717284
4856.535000000,0.298204,1.015169,0.063431,-1.422725,0.098722,2.669013,2.466047
4856.541000000,0.297848,1.015046,0.063202,-1.422662,-0.014752,2.669217,2.744234
4856.569000000,0.298199,1.015169,0.063426,-1.422725,0.098724,2.669012,2.466048
4856.576000000,0.297821,1.015065,0.063196,-1.422577,-0.025843,2.668961,2.775948
4856.601000000,0.298207,1.015166,0.063430,-1.422725,0.098722,2.669012,2.466048
4856.610000000,0.297852,1.015031,0.063197,-1.422670,-0.035126,2.669275,2.803992
4856.636000000,0.298202,1.015166,0.063431,-1.422723,0.098725,2.669017,2.466045
4856.643000000,0.297848,1.015029,0.063191,-1.422655,-0.045676,2.669247,2.836578
4856.677000000,0.297856,1.015019,0.063190,-1.422672,-0.055919,2.669308,2.869250
4856.704000000,0.298204,1.015164,0.063429,-1.422720,0.098722,2.669013,2.466051
4856.711000000,0.297872,1.015034,0.063222,-1.422684,-0.065370,2.669252,2.898042
4856.738000000,0.298204,1.015172,0.063428,-1.422725,0.098722,2.669012,2.466045
4856.746000000,0.298061,1.015105,0.063326,-1.422711,-0.066667,2.669239,2.897300
4856.771000000,0.298202,1.015166,0.063428,-1.422725,0.098723,2.669012,2.466052
4856.779000000,0.298134,1.015128,0.063363,-1.422731,-0.068950,2.669240,2.897300
4856.804000000,0.298207,1.015169,0.063428,-1.422723,0.098720,2.669012,2.466052
4856.813000000,0.298166,1.015137,0.063397,-1.422740,-0.070419,2.669241,2.897300
4856.838000000,0.298207,1.015166,0.063429,-1.422720,0.098724,2.669013,2.466053
4856.847000000,0.298193,1.015146,0.063410,-1.422745,-0.071632,2.669242,2.897300
4856.872000000,0.298207,1.015169,0.063425,-1.422717,0.098723,2.669013,2.466050
4856.882000000,0.298217,1.015144,0.063416,-1.422756,-0.072488,2.669238,2.897300
4856.906000000,0.298201,1.015166,0.063429,-1.422723,0.098724,2.669012,2.466052
4856.917000000,0.298222,1.015155,0.063430,-1.422750,-0.073233,2.669243,2.897300
4856.939000000,0.298199,1.015166,0.063425,-1.422730,0.098725,2.669013,2.466046
4856.951000000,0.298233,1.015157,0.063436,-1.422753,-0.073734,2.669243,2.897300
4856.973000000,0.298199,1.015169,0.063425,-1.422725,0.098723,2.669013,2.466049
4856.984000000,0.298251,1.015166,0.063431,-1.422747,-0.074100,2.669240,2.897300
4857.007000000,0.298204,1.015169,0.063429,-1.422725,0.098723,2.669012,2.466049
4857.018000000,0.298246,1.015161,0.063445,-1.422752,-0.074403,2.669244,2.897300
4857.033000000,0.298202,1.015169,0.063426,-1.422728,0.098723,2.669013,2.466048
4857.052000000,0.298973,1.015329,0.063813,-1.423126,-0.046859,2.669392,2.831848
4857.058000000,0.298204,1.015169,0.063426,-1.422723,0.098722,2.669012,2.466051
4857.087000000,0.299587,1.015604,0.064245,-1.423075,0.001113,2.669244,2.720789
4857.091000000,0.298202,1.015166,0.063423,-1.422728,0.098723,2.669011,2.466046
4857.121000000,0.299329,1.015505,0.064116,-1.422967,0.027984,2.669135,2.645640
4857.123000000,0.298199,1.015169,0.063426,-1.422720,0.098721,2.669013,2.466046
4857.155000000,0.298753,1.015319,0.063782,-1.422821,0.043601,2.669097,2.585379
4857.156000000,0.298204,1.015166,0.063428,-1.422725,0.098723,2.669015,2.466045
4857.188000000,0.298202,1.015172,0.063429,-1.422722,0.098723,2.669012,2.466046
4857.189000000,0.298172,1.015137,0.063429,-1.422708,0.052510,2.669099,2.535338
4857.220000000,0.298202,1.015169,0.063429,-1.422720,0.098723,2.669013,2.466043
4857.223000000,0.297515,1.014959,0.063005,-1.422519,0.048103,2.669117,2.532816
4857.255000000,0.298202,1.015169,0.063429,-1.422728,0.098724,2.669012,2.466042
4857.257000000,0.297073,1.014807,0.062738,-1.422466,0.037309,2.669189,2.555459
4857.290000000,0.298199,1.015169,0.063425,-1.422730,0.098725,2.669012,2.466043
4857.291000000,0.296865,1.014747,0.062614,-1.422432,0.026735,2.669241,2.577294
4857.325000000,0.296760,1.014708,0.062546,-1.422421,0.015730,2.669290,2.601751
4857.325000000,0.298204,1.015166,0.063426,-1.422728,0.098723,2.669012,2.466054
4857.359000000,0.297364,1.014856,0.062907,-1.422578,0.030532,2.669078,2.574614
4857.360000000,0.298202,1.015166,0.063429,-1.422725,0.098724,2.669012,2.466050
4857.393000000,0.297759,1.015027,0.063165,-1.422596,0.042688,2.668992,2.539942
4857.394000000,0.298202,1.015172,0.063426,-1.422725,0.098724,2.669012,2.466050
4857.426000000,0.297994,1.015078,0.063299,-1.422704,0.050641,2.669174,2.512134
4857.427000000,0.298202,1.015169,0.063423,-1.422723,0.098724,2.669012,2.466050
4857.460000000,0.298097,1.015119,0.063359,-1.422721,0.055244,2.669144,2.491522
4857.461000000,0.298202,1.015166,0.063429,-1.422725,0.098725,2.669012,2.466043
4857.495000000,0.298110,1.015162,0.063373,-1.422653,0.057314,2.668911,2.477500
4857.496000000,0.298207,1.015166,0.063431,-1.422728,0.098724,2.669013,2.466040
4857.529000000,0.298207,1.015174,0.063426,-1.422725,0.098723,2.669015,2.466050
4857.530000000,0.298126,1.015168,0.063380,-1.422658,0.058942,2.668907,2.466274
4857.560000000,0.298204,1.015172,0.063422,-1.422723,0.098723,2.669013,2.466045
4857.563000000,0.297983,1.015153,0.063325,-1.422593,0.054703,2.668829,2.463886
4857.594000000,0.298202,1.015169,0.063425,-1.422723,0.098721,2.669012,2.466043
4857.597000000,0.297766,1.015101,0.063188,-1.422543,0.042882,2.668805,2.471813
4857.627000000,0.298202,1.015169,0.063420,-1.422725,0.098723,2.669012,2.466049
4857.631000000,0.297648,1.015073,0.063115,-1.422503,0.030938,2.668770,2.482642
4857.661000000,0.298204,1.015169,0.063429,-1.422717,0.098723,2.669011,2.466052
4857.664000000,0.297615,1.015030,0.063080,-1.422554,0.019845,2.668959,2.494108
4857.695000000,0.298204,1.015169,0.063426,-1.422728,0.098721,2.669011,2.466053
4857.699000000,0.297554,1.015038,0.063049,-1.422469,0.006717,2.668766,2.512963
4857.727000000,0.298202,1.015166,0.063429,-1.422728,0.098724,2.669013,2.466050
4857.733000000,0.297526,1.015032,0.063035,-1.422443,-0.005891,2.668727,2.532746
4857.762000000,0.298202,1.015172,0.063431,-1.422723,0.098725,2.669013,2.466051
4857.766000000,0.297540,1.014998,0.063027,-1.422502,-0.017568,2.668933,2.552781
4857.796000000,0.298196,1.015174,0.063426,-1.422725,0.098723,2.669013,2.466047
4857.800000000,0.297537,1.014986,0.063019,-1.422505,-0.030183,2.668978,2.577896
4857.830000000,0.298202,1.015166,0.063426,-1.422725,0.098724,2.669012,2.466052
4857.835000000,0.298585,1.015263,0.063560,-1.422747,0.002176,2.668882,2.562741
4857.864000000,0.298204,1.015169,0.063429,-1.422723,0.098723,2.669011,2.466042
4857.869000000,0.298886,1.015359,0.063817,-1.422772,0.024553,2.668834,2.559922
4857.898000000,0.298199,1.015166,0.063424,-1.422725,0.098722,2.669013,2.466051
4857.904000000,0.298825,1.015309,0.063787,-1.422819,0.039493,2.669061,2.560659
4857.932000000,0.298202,1.015169,0.063424,-1.422728,0.098721,2.669013,2.466050
4857.938000000,0.298561,1.015236,0.063643,-1.422778,0.048015,2.669070,2.564328
4857.967000000,0.298204,1.015169,0.063426,-1.422720,0.098722,2.669011,2.466056
4857.973000000,0.298230,1.015186,0.063466,-1.422650,0.052455,2.668837,2.570898
4858.000000000,0.298204,1.015164,0.063426,-1.422723,0.098725,2.669013,2.466050
4858.006000000,0.297828,1.015108,0.063252,-1.422562,0.046875,2.668835,2.586920
4858.035000000,0.298204,1.015172,0.063425,-1.422723,0.098723,2.669012,2.466048
4858.039000000,0.297613,1.015022,0.063102,-1.422600,0.037609,2.669063,2.606978
4858.065000000,0.298207,1.015172,0.063431,-1.422725,0.098722,2.669010,2.466049
4858.074000000,0.297642,1.015041,0.063122,-1.422614,0.032755,2.668866,2.622065
4858.097000000,0.298204,1.015166,0.063428,-1.422725,0.098724,2.669013,2.466042
4858.108000000,0.298061,1.015150,0.063373,-1.422668,0.043690,2.668843,2.604052
4858.128000000,0.298207,1.015166,0.063421,-1.422723,0.098723,2.669010,2.466050
4858.143000000,0.298274,1.015198,0.063483,-1.422754,0.050983,2.669095,2.589720
4858.160000000,0.298199,1.015164,0.063428,-1.422723,0.098724,2.669012,2.466053
4858.178000000,0.298288,1.015208,0.063493,-1.422696,0.054476,2.668846,2.584437
4858.192000000,0.298202,1.015169,0.063431,-1.422730,0.098723,2.669012,2.466050
4858.212000000,0.298263,1.015195,0.063477,-1.422691,0.057017,2.668854,2.581596
4858.224000000,0.298204,1.015166,0.063426,-1.422723,0.098721,2.669012,2.466053
4858.246000000,0.298215,1.015176,0.063446,-1.422684,0.058615,2.668862,2.582157
4858.258000000,0.298199,1.015166,0.063423,-1.422725,0.098724,2.669013,2.466045
4858.281000000,0.298209,1.015165,0.063416,-1.422731,0.060371,2.669123,2.582159
4858.293000000,0.298204,1.015169,0.063426,-1.422723,0.098723,2.669015,2.466045
4858.316000000,0.298126,1.015156,0.063402,-1.422669,0.060239,2.668878,2.586420
4858.321000000,0.298202,1.015166,0.063426,-1.422725,0.098724,2.669012,2.466049
4858.345000000,0.298207,1.015166,0.063426,-1.422725,0.098723,2.669011,2.466050
4858.350000000,0.298110,1.015152,0.063392,-1.422668,0.060619,2.668882,2.588616
4858.379000000,0.298202,1.015169,0.063429,-1.422728,0.098722,2.669012,2.466050
4858.385000000,0.298043,1.015147,0.063373,-1.422636,0.058850,2.668833,2.593032
4858.405000000,0.298204,1.015169,0.063426,-1.422720,0.098723,2.669012,2.466047
4858.419000000,0.297853,1.015080,0.063238,-1.422656,0.048194,2.669045,2.607031
4858.438000000,0.298202,1.015169,0.063426,-1.422725,0.098721,2.669013,2.466051
4858.453000000,0.297758,1.015054,0.063180,-1.422641,0.037585,2.669058,2.624165
4858.474000000,0.298204,1.015169,0.063425,-1.422723,0.098723,2.669012,2.466048
4858.486000000,0.297676,1.015053,0.063154,-1.422566,0.026392,2.668840,2.644877
4858.505000000,0.298202,1.015169,0.063426,-1.422728,0.098723,2.669015,2.466051
4858.520000000,0.297650,1.015042,0.063140,-1.422553,0.015281,2.668824,2.666595
4858.541000000,0.298202,1.015169,0.063423,-1.422725,0.098723,2.669012,2.466052
4858.554000000,0.297632,1.015037,0.063134,-1.422532,0.004040,2.668776,2.690485
4858.569000000,0.298207,1.015166,0.063428,-1.422725,0.098723,2.669011,2.466050
4858.588000000,0.297620,1.015029,0.063129,-1.422515,-0.007339,2.668729,2.716526
4858.602000000,0.298204,1.015169,0.063425,-1.422725,0.098722,2.669011,2.466050
4858.624000000,0.297650,1.015004,0.063119,-1.422578,-0.018453,2.668971,2.743598
4858.641000000,0.298204,1.015169,0.063426,-1.422725,0.098722,2.669013,2.466052
4858.657000000,0.297643,1.015001,0.063116,-1.422577,-0.029960,2.668995,2.773735
4858.677000000,0.298204,1.015166,0.063429,-1.422725,0.098724,2.669011,2.466052
4858.692000000,0.297613,1.014996,0.063107,-1.422507,-0.042659,2.668738,2.808799
4858.712000000,0.298202,1.015164,0.063424,-1.422720,0.098723,2.669013,2.466045
4858.726000000,0.297604,1.014988,0.063103,-1.422493,-0.054716,2.668699,2.843274
4858.746000000,0.298202,1.015164,0.063428,-1.422725,0.098723,2.669012,2.466043
4858.760000000,0.297584,1.014989,0.063109,-1.422467,-0.066902,2.668641,2.879664
4858.780000000,0.298199,1.015166,0.063426,-1.422728,0.098724,2.669012,2.466054
4858.793000000,0.297708,1.015011,0.063174,-1.422556,-0.074131,2.668789,2.897366
4858.815000000,0.298204,1.015166,0.063431,-1.422725,0.098724,2.669012,2.466049
4858.828000000,0.297863,1.015063,0.063272,-1.422590,-0.076867,2.668768,2.897300
4858.850000000,0.298202,1.015166,0.063426,-1.422723,0.098724,2.669012,2.466051
4858.861000000,0.297947,1.015100,0.063328,-1.422605,-0.079029,2.668772,2.897300
4858.883000000,0.298204,1.015166,0.063423,-1.422725,0.098723,2.669012,2.466046
4858.895000000,0.298004,1.015121,0.063363,-1.422619,-0.080697,2.668772,2.897300
4858.915000000,0.298202,1.015166,0.063423,-1.422723,0.098723,2.669015,2.466048
4858.930000000,0.298050,1.015138,0.063376,-1.422615,-0.082037,2.668769,2.897300
4858.951000000,0.298202,1.015172,0.063425,-1.422725,0.098724,2.669013,2.466048
4858.964000000,0.298078,1.015148,0.063390,-1.422617,-0.083022,2.668769,2.897300
4858.984000000,0.298196,1.015166,0.063429,-1.422723,0.098723,2.669015,2.466052
4858.998000000,0.298100,1.015155,0.063398,-1.422619,-0.083753,2.668768,2.897300
4859.017000000,0.298204,1.015166,0.063429,-1.422726,0.098723,2.669011,2.466053
4859.034000000,0.298110,1.015147,0.063409,-1.422630,-0.084326,2.668767,2.897300
4859.049000000,0.298207,1.015172,0.063423,-1.422728,0.098722,2.669013,2.466046
4859.067000000,0.299418,1.015536,0.064131,-1.423116,-0.027439,2.668971,2.768658
4859.082000000,0.298199,1.015164,0.063426,-1.422728,0.098724,2.669016,2.466047
4859.100000000,0.299494,1.015611,0.064233,-1.422942,0.007754,2.668726,2.689997
4859.115000000,0.298204,1.015172,0.063426,-1.422725,0.098724,2.669013,2.466053
4859.135000000,0.299100,1.015461,0.064010,-1.422823,0.031888,2.668730,2.620932
4859.149000000,0.298204,1.015173,0.063431,-1.422728,0.098724,2.669016,2.466045
4859.170000000,0.298526,1.015263,0.063644,-1.422742,0.047131,2.669025,2.561972
4859.183000000,0.298209,1.015172,0.063428,-1.422723,0.098724,2.669013,2.466042
4859.204000000,0.297976,1.015095,0.063317,-1.422640,0.055006,2.669051,2.516398
4859.218000000,0.298199,1.015169,0.063428,-1.422725,0.098723,2.669012,2.466043
4859.238000000,0.297601,1.014987,0.063074,-1.422578,0.058881,2.669085,2.479649
4859.250000000,0.298202,1.015166,0.063426,-1.422725,0.098719,2.669015,2.466042
4859.272000000,0.297423,1.014929,0.062969,-1.422571,0.061000,2.669116,2.453555
4859.284000000,0.298207,1.015166,0.063426,-1.422730,0.098720,2.669013,2.466047
4859.305000000,0.297390,1.014950,0.062947,-1.422510,0.061376,2.668913,2.434329
4859.318000000,0.298204,1.015174,0.063426,-1.422730,0.098724,2.669011,2.466049
4859.340000000,0.297531,1.014970,0.063021,-1.422611,0.062626,2.669135,2.414080
4859.351000000,0.298207,1.015169,0.063426,-1.422725,0.098723,2.669011,2.466048
4859.374000000,0.297700,1.015020,0.063117,-1.422646,0.062820,2.669135,2.400025
4859.386000000,0.298202,1.015172,0.063429,-1.422723,0.098724,2.669013,2.466053
4859.408000000,0.297881,1.015072,0.063222,-1.422680,0.062791,2.669131,2.389552
4859.419000000,0.298204,1.015166,0.063426,-1.422725,0.098722,2.669011,2.466046
4859.441000000,0.298011,1.015131,0.063303,-1.422638,0.062001,2.668924,2.384535
4859.453000000,0.298207,1.015172,0.063429,-1.422725,0.098725,2.669013,2.466051
4859.476000000,0.298170,1.015147,0.063392,-1.422729,0.062543,2.669122,2.378737
4859.491000000,0.298198,1.015169,0.063425,-1.422728,0.098723,2.669012,2.466050
4859.510000000,0.298256,1.015167,0.063444,-1.422743,0.062401,2.669119,2.378220
4859.524000000,0.298207,1.015169,0.063426,-1.422727,0.098725,2.669013,2.466052
4859.544000000,0.298305,1.015176,0.063472,-1.422751,0.062270,2.669118,2.380854
4859.558000000,0.298207,1.015166,0.063426,-1.422720,0.098724,2.669013,2.466053
4859.578000000,0.298322,1.015178,0.063483,-1.422753,0.062154,2.669118,2.386562
4859.591000000,0.298202,1.015169,0.063428,-1.422723,0.098723,2.669012,2.466052
4859.612000000,0.298321,1.015174,0.063479,-1.422751,0.062062,2.669120,2.395254
4859.625000000,0.298204,1.015172,0.063429,-1.422720,0.098723,2.669013,2.466051
4859.646000000,0.298304,1.015169,0.063471,-1.422747,0.061980,2.669122,2.406847
4859.659000000,0.298204,1.015169,0.063425,-1.422730,0.098720,2.669013,2.466047
4859.680000000,0.298282,1.015163,0.063458,-1.422744,0.061910,2.669125,2.421241
4859.693000000,0.298196,1.015166,0.063429,-1.422723,0.098724,2.669012,2.466047
4859.714000000,0.298259,1.015161,0.063448,-1.422746,0.061842,2.669126,2.438339
4859.725000000,0.298204,1.015166,0.063428,-1.422725,0.098724,2.669011,2.466046
4859.748000000,0.298239,1.015157,0.063438,-1.422745,0.061792,2.669128,2.458010
4859.759000000,0.298204,1.015172,0.063428,-1.422723,0.098725,2.669012,2.466050
4859.782000000,0.298224,1.015156,0.063433,-1.422746,0.061782,2.669128,2.479647
4859.793000000,0.298202,1.015166,0.063428,-1.422720,0.098723,2.669013,2.466050
4859.816000000,0.298214,1.015159,0.063432,-1.422750,0.061801,2.669129,2.498828
4859.826000000,0.298204,1.015169,0.063428,-1.422723,0.098723,2.669013,2.466040
4859.850000000,0.298182,1.015162,0.063420,-1.422695,0.061065,2.668894,2.516557
4859.860000000,0.298202,1.015166,0.063423,-1.422728,0.098725,2.669012,2.466046
4859.884000000,0.298204,1.015167,0.063436,-1.422749,0.061711,2.669115,2.528884
4859.894000000,0.298204,1.015166,0.063428,-1.422725,0.098724,2.669012,2.466048
4859.918000000,0.298206,1.015171,0.063438,-1.422753,0.061735,2.669116,2.540401
4859.929000000,0.298202,1.015166,0.063423,-1.422728,0.098723,2.669012,2.466053
4859.952000000,0.298211,1.015165,0.063429,-1.422766,0.061707,2.669119,2.550262
4859.963000000,0.298202,1.015169,0.063425,-1.422725,0.098725,2.669011,2.466051
4859.985000000,0.298175,1.015183,0.063433,-1.422697,0.061001,2.668884,2.560162
4859.996000000,0.298204,1.015169,0.063424,-1.422723,0.098722,2.669012,2.466052
4860.020000000,0.298218,1.015166,0.063432,-1.422766,0.061703,2.669121,2.565468
4860.029000000,0.298201,1.015169,0.063424,-1.422723,0.098725,2.669016,2.466043
4860.054000000,0.298221,1.015165,0.063432,-1.422765,0.061708,2.669123,2.571368
4860.062000000,0.298207,1.015166,0.063425,-1.422728,0.098725,2.669013,2.466047
4860.088000000,0.298222,1.015164,0.063433,-1.422764,0.061710,2.669124,2.576325
4860.096000000,0.298204,1.015166,0.063428,-1.422725,0.098722,2.669013,2.466045
4860.122000000,0.298223,1.015161,0.063433,-1.422764,0.061679,2.669125,2.580561
4860.128000000,0.298204,1.015164,0.063426,-1.422723,0.098724,2.669011,2.466050
4860.157000000,0.298195,1.015185,0.063423,-1.422683,0.060993,2.668884,2.586080
4860.161000000,0.298207,1.015169,0.063426,-1.422720,0.098724,2.669013,2.466045
4860.191000000,0.298196,1.015184,0.063423,-1.422680,0.060991,2.668884,2.589082
4860.195000000,0.298204,1.015169,0.063426,-1.422721,0.098724,2.669012,2.466053
4860.225000000,0.298197,1.015183,0.063423,-1.422678,0.060990,2.668884,2.591567
4860.229000000,0.298204,1.015166,0.063426,-1.422728,0.098721,2.669012,2.466048
4860.259000000,0.298198,1.015180,0.063421,-1.422679,0.060977,2.668886,2.593761
4860.264000000,0.298200,1.015166,0.063424,-1.422723,0.098723,2.669015,2.466046
4860.293000000,0.298198,1.015180,0.063422,-1.422679,0.060983,2.668885,2.595482
4860.298000000,0.298202,1.015172,0.063431,-1.422723,0.098722,2.669011,2.466045
4860.327000000,0.298194,1.015185,0.063424,-1.422679,0.060965,2.668885,2.597033
4860.331000000,0.298196,1.015166,0.063426,-1.422728,0.098724,2.669011,2.466043
4860.362000000,0.298219,1.015166,0.063440,-1.422756,0.061660,2.669136,2.596419
4860.366000000,0.298199,1.015166,0.063426,-1.422728,0.098722,2.669013,2.466051
4860.398000000,0.298185,1.015169,0.063429,-1.422689,0.060947,2.668887,2.599439
4860.399000000,0.298203,1.015166,0.063426,-1.422723,0.098720,2.669013,2.466048
4860.431000000,0.298005,1.015155,0.063347,-1.422607,0.054112,2.668797,2.608283
4860.434000000,0.298205,1.015169,0.063426,-1.422725,0.098724,2.669013,2.466051
4860.465000000,0.297816,1.015109,0.063225,-1.422565,0.041920,2.668771,2.624448
4860.468000000,0.298207,1.015166,0.063426,-1.422720,0.098723,2.669013,2.466045
4860.499000000,0.297710,1.015085,0.063161,-1.422528,0.029594,2.668727,2.642796
4860.501000000,0.298202,1.015169,0.063431,-1.422725,0.098724,2.669012,2.466046
4860.532000000,0.297680,1.015044,0.063131,-1.422583,0.018097,2.668948,2.660897
4860.535000000,0.298202,1.015164,0.063429,-1.422723,0.098724,2.669011,2.466043
4860.567000000,0.297624,1.015054,0.063102,-1.422497,0.004694,2.668721,2.685910
4860.569000000,0.298207,1.015172,0.063425,-1.422720,0.098723,2.669012,2.466043
4860.601000000,0.298393,1.015217,0.063514,-1.422819,0.024415,2.669107,2.633756
4860.601000000,0.298204,1.015166,0.063429,-1.422723,0.098725,2.669012,2.466045
4860.635000000,0.298679,1.015315,0.063696,-1.422837,0.037892,2.669077,2.592498
4860.635000000,0.298199,1.015172,0.063429,-1.422723,0.098724,2.669012,2.466049
4860.669000000,0.298207,1.015172,0.063426,-1.422723,0.098724,2.669015,2.466050
4860.670000000,0.298628,1.015315,0.063709,-1.422758,0.046067,2.668820,2.560405
4860.703000000,0.298207,1.015169,0.063423,-1.422730,0.098724,2.669011,2.466053
4860.704000000,0.298478,1.015270,0.063599,-1.422700,0.050859,2.668803,2.536571
4860.736000000,0.298200,1.015172,0.063424,-1.422725,0.098723,2.669012,2.466049
4860.739000000,0.298077,1.015129,0.063343,-1.422674,0.041201,2.669054,2.559627
4860.769000000,0.298204,1.015169,0.063424,-1.422720,0.098721,2.669011,2.466049
4860.773000000,0.297928,1.015088,0.063276,-1.422640,0.033409,2.669000,2.566606
4860.803000000,0.298199,1.015166,0.063429,-1.422723,0.098724,2.669015,2.466046
4860.807000000,0.297856,1.015064,0.063217,-1.422641,0.023390,2.669065,2.578261
4860.838000000,0.298199,1.015166,0.063428,-1.422725,0.098723,2.669012,2.466052
4860.841000000,0.297839,1.015052,0.063204,-1.422643,0.013754,2.669090,2.592031
4860.872000000,0.298204,1.015169,0.063428,-1.422725,0.098722,2.669011,2.466047
4860.875000000,0.297831,1.015048,0.063198,-1.422647,0.003873,2.669132,2.608526
4860.905000000,0.298204,1.015172,0.063426,-1.422723,0.098724,2.669010,2.466045
4860.909000000,0.297829,1.015038,0.063191,-1.422651,-0.006173,2.669169,2.627644
4860.938000000,0.298199,1.015169,0.063428,-1.422720,0.098722,2.669012,2.466047
4860.943000000,0.297838,1.015039,0.063178,-1.422645,-0.016344,2.669214,2.649313
4860.972000000,0.298204,1.015166,0.063426,-1.422725,0.098724,2.669012,2.466045
4860.977000000,0.297842,1.015031,0.063174,-1.422650,-0.026576,2.669254,2.673420
4861.006000000,0.298207,1.015164,0.063426,-1.422723,0.098723,2.669014,2.466047
4861.010000000,0.297800,1.015022,0.063176,-1.422587,-0.037366,2.669003,2.701111
4861.040000000,0.298204,1.015169,0.063426,-1.422723,0.098725,2.669012,2.466043
4861.045000000,0.297848,1.015020,0.063162,-1.422649,-0.047481,2.669310,2.729038
4861.073000000,0.298199,1.015169,0.063424,-1.422723,0.098722,2.669013,2.466046
4861.079000000,0.297847,1.015015,0.063161,-1.422641,-0.058088,2.669295,2.760026
4861.107000000,0.298202,1.015169,0.063428,-1.422723,0.098723,2.669012,2.466049
4861.113000000,0.297851,1.015010,0.063155,-1.422648,-0.068740,2.669355,2.791736
4861.140000000,0.298202,1.015166,0.063426,-1.422725,0.098724,2.669012,2.466044
4861.146000000,0.297809,1.015001,0.063160,-1.422586,-0.079956,2.669073,2.825707
4861.174000000,0.298206,1.015166,0.063429,-1.422725,0.098723,2.669013,2.466052
4861.181000000,0.297861,1.015000,0.063146,-1.422654,-0.090382,2.669404,2.858752
4861.209000000,0.298200,1.015166,0.063429,-1.422725,0.098721,2.669010,2.466049
4861.215000000,0.297858,1.015001,0.063146,-1.422644,-0.101362,2.669403,2.894057
4861.242000000,0.298204,1.015169,0.063428,-1.422725,0.098724,2.669017,2.466042
4861.249000000,0.298017,1.015061,0.063278,-1.422700,-0.104052,2.669311,2.897301
4861.276000000,0.298207,1.015169,0.063434,-1.422723,0.098724,2.669012,2.466045
4861.284000000,0.298121,1.015098,0.063325,-1.422721,-0.106386,2.669327,2.897300
4861.309000000,0.298204,1.015166,0.063429,-1.422725,0.098723,2.669013,2.466051
4861.317000000,0.298177,1.015129,0.063350,-1.422724,-0.108110,2.669319,2.897300
4861.343000000,0.298202,1.015172,0.063431,-1.422725,0.098724,2.669013,2.466046
4861.352000000,0.298211,1.015141,0.063368,-1.422729,-0.109393,2.669320,2.897300
4861.377000000,0.298202,1.015166,0.063426,-1.422725,0.098722,2.669012,2.466050
4861.386000000,0.298231,1.015153,0.063383,-1.422725,-0.110406,2.669320,2.897300
4861.411000000,0.298202,1.015169,0.063428,-1.422723,0.098723,2.669013,2.466047
4861.420000000,0.298241,1.015149,0.063397,-1.422737,-0.111151,2.669322,2.897300
4861.445000000,0.298209,1.015172,0.063426,-1.422725,0.098723,2.669017,2.466051
4861.454000000,0.298254,1.015155,0.063405,-1.422737,-0.111725,2.669323,2.897300
4861.479000000,0.298202,1.015169,0.063426,-1.422723,0.098723,2.669016,2.466051
4861.489000000,0.298264,1.015155,0.063409,-1.422743,-0.112153,2.669321,2.897300
4861.513000000,0.298202,1.015169,0.063423,-1.422728,0.098723,2.669013,2.466047
4861.523000000,0.298277,1.015168,0.063406,-1.422731,-0.112485,2.669321,2.897300
4861.548000000,0.298202,1.015169,0.063428,-1.422728,0.098723,2.669012,2.466042
4861.557000000,0.298284,1.015170,0.063408,-1.422729,-0.112734,2.669321,2.897300
4861.581000000,0.298204,1.015169,0.063426,-1.422725,0.098724,2.669012,2.466043
4861.592000000,0.298250,1.015174,0.063428,-1.422686,-0.113489,2.669149,2.898807
4861.615000000,0.298202,1.015172,0.063431,-1.422721,0.098724,2.669011,2.466042
4861.626000000,0.298117,1.015147,0.063392,-1.422615,-0.119075,2.669082,2.893708
4861.649000000,0.298204,1.015166,0.063431,-1.422720,0.098724,2.669013,2.466051
4861.660000000,0.297979,1.015092,0.063311,-1.422572,-0.128914,2.669034,2.894278
4861.683000000,0.298199,1.015172,0.063420,-1.422723,0.098725,2.669012,2.466046
4861.694000000,0.297894,1.015063,0.063269,-1.422531,-0.139286,2.668978,2.898365
4861.715000000,0.298209,1.015169,0.063431,-1.422723,0.098725,2.669015,2.466048
4861.728000000,0.297924,1.015088,0.063314,-1.422515,-0.145364,2.668908,2.893196
4861.749000000,0.298204,1.015166,0.063421,-1.422728,0.098725,2.669011,2.466051
4861.762000000,0.297836,1.015061,0.063272,-1.422478,-0.156762,2.668858,2.894852
4861.783000000,0.298201,1.015174,0.063428,-1.422730,0.098723,2.669011,2.466043
4861.796000000,0.297824,1.015041,0.063233,-1.422483,-0.167643,2.668908,2.898143
4861.816000000,0.298207,1.015172,0.063426,-1.422725,0.098724,2.669014,2.466045
4861.830000000,0.297814,1.015049,0.063270,-1.422441,-0.176255,2.668765,2.893483
4861.851000000,0.298199,1.015169,0.063428,-1.422725,0.098724,2.669015,2.466045
4861.864000000,0.297761,1.015020,0.063237,-1.422415,-0.188435,2.668715,2.895788
4861.884000000,0.298199,1.015172,0.063429,-1.422725,0.098723,2.669012,2.466049
4861.897000000,0.297807,1.015025,0.063273,-1.422470,-0.197205,2.668677,2.893938
4861.917000000,0.298207,1.015164,0.063429,-1.422725,0.098723,2.669012,2.466048
4861.931000000,0.297808,1.015019,0.063249,-1.422485,-0.207581,2.668958,2.887746
4861.951000000,0.298199,1.015169,0.063425,-1.422725,0.098723,2.669013,2.466053
4861.966000000,0.297733,1.014997,0.063238,-1.422395,-0.221019,2.668653,2.890030
4861.985000000,0.298207,1.015166,0.063428,-1.422723,0.098725,2.669013,2.466052
4861.999000000,0.297748,1.014974,0.063204,-1.422461,-0.232973,2.668964,2.892896
4862.018000000,0.298202,1.015169,0.063426,-1.422720,0.098720,2.669011,2.466050
4862.033000000,0.297824,1.014982,0.063247,-1.422527,-0.242037,2.669019,2.891766
4862.053000000,0.298202,1.015166,0.063429,-1.422723,0.098723,2.669013,2.466045
4862.067000000,0.297795,1.014966,0.063219,-1.422505,-0.254640,2.669074,2.890022
4862.085000000,0.298204,1.015166,0.063429,-1.422725,0.098723,2.669016,2.466043
4862.101000000,0.299903,1.015809,0.064221,-1.423437,-0.167354,2.669118,2.774115
4862.119000000,0.298202,1.015169,0.063426,-1.422723,0.098724,2.669013,2.466043
4862.135000000,0.300684,1.016150,0.064772,-1.423432,-0.089940,2.669132,2.692660
4862.153000000,0.298201,1.015166,0.063428,-1.422725,0.098724,2.669015,2.466047
4862.169000000,0.300371,1.015950,0.064704,-1.423147,-0.031866,2.669016,2.631432
4862.187000000,0.298204,1.015172,0.063428,-1.422730,0.098718,2.669015,2.466044
4862.203000000,0.299428,1.015515,0.064183,-1.422828,0.005148,2.669021,2.594851
4862.221000000,0.298204,1.015166,0.063421,-1.422725,0.098722,2.669012,2.466042
4862.237000000,0.298370,1.015079,0.063565,-1.422584,0.028029,2.669067,2.575392
4862.255000000,0.298207,1.015169,0.063425,-1.422723,0.098724,2.669013,2.466045
4862.272000000,0.297431,1.014780,0.063053,-1.422354,0.041277,2.668867,2.569262
4862.288000000,0.298204,1.015172,0.063431,-1.422720,0.098724,2.669012,2.466051
4862.306000000,0.296907,1.014637,0.062729,-1.422291,0.048974,2.668913,2.568044
4862.322000000,0.298199,1.015169,0.063426,-1.422728,0.098725,2.669012,2.466047
4862.340000000,0.296722,1.014628,0.062608,-1.422303,0.053698,2.668938,2.569614
4862.356000000,0.298204,1.015171,0.063428,-1.422728,0.098724,2.669012,2.466052
4862.373000000,0.296797,1.014705,0.062642,-1.422363,0.056576,2.668946,2.572507
4862.388000000,0.298204,1.015169,0.063431,-1.422717,0.098724,2.669012,2.466049
4862.408000000,0.297034,1.014827,0.062776,-1.422442,0.058383,2.668939,2.575695
4862.422000000,0.298209,1.015172,0.063422,-1.422725,0.098723,2.669010,2.466048
4862.443000000,0.297394,1.014940,0.062954,-1.422598,0.060171,2.669168,2.577391
4862.457000000,0.298199,1.015166,0.063428,-1.422720,0.098724,2.669012,2.466046
4862.478000000,0.297685,1.015058,0.063127,-1.422607,0.060096,2.668907,2.582739
4862.490000000,0.298204,1.015166,0.063428,-1.422730,0.098724,2.669015,2.466051
4862.512000000,0.297947,1.015140,0.063281,-1.422661,0.060493,2.668892,2.585720
4862.522000000,0.298199,1.015169,0.063428,-1.422723,0.098723,2.669015,2.466046
4862.546000000,0.298141,1.015192,0.063396,-1.422699,0.060728,2.668882,2.588384
4862.557000000,0.298196,1.015169,0.063429,-1.422720,0.098722,2.669012,2.466046
4862.583000000,0.298296,1.015219,0.063487,-1.422778,0.061556,2.669128,2.589102
4862.591000000,0.298202,1.015166,0.063421,-1.422725,0.098725,2.669013,2.466046
4862.614000000,0.298314,1.015234,0.063516,-1.422716,0.060908,2.668872,2.592883
4862.625000000,0.298202,1.015166,0.063431,-1.422725,0.098723,2.669013,2.466053
4862.648000000,0.298331,1.015228,0.063525,-1.422716,0.060961,2.668871,2.594700
4862.659000000,0.298199,1.015169,0.063429,-1.422728,0.098723,2.669013,2.466049
4862.682000000,0.298316,1.015215,0.063516,-1.422711,0.060965,2.668872,2.596284
4862.691000000,0.298202,1.015169,0.063426,-1.422725,0.098723,2.669012,2.466052
4862.717000000,0.298325,1.015183,0.063496,-1.422776,0.061674,2.669120,2.595825
4862.726000000,0.298204,1.015172,0.063428,-1.422723,0.098724,2.669013,2.466046
4862.754000000,0.298260,1.015197,0.063464,-1.422688,0.060973,2.668878,2.598887
4862.759000000,0.298204,1.015172,0.063428,-1.422720,0.098722,2.669013,2.466052
4862.786000000,0.298229,1.015188,0.063444,-1.422681,0.060983,2.668881,2.599847
4862.793000000,0.298204,1.015169,0.063423,-1.422725,0.098723,2.669015,2.466051
4862.820000000,0.298206,1.015181,0.063427,-1.422677,0.060976,2.668885,2.600735
4862.827000000,0.298202,1.015169,0.063425,-1.422725,0.098723,2.669016,2.466051
4862.855000000,0.298215,1.015161,0.063432,-1.422750,0.061684,2.669139,2.599491
4862.862000000,0.298207,1.015172,0.063423,-1.422723,0.098723,2.669013,2.466047
4862.889000000,0.298205,1.015162,0.063427,-1.422752,0.061656,2.669140,2.600145
4862.895000000,0.298202,1.015169,0.063429,-1.422720,0.098724,2.669013,2.466045
4862.924000000,0.298173,1.015163,0.063412,-1.422692,0.060985,2.668885,2.602488
4862.927000000,0.298207,1.015172,0.063426,-1.422725,0.098722,2.669011,2.466043
4862.959000000,0.298212,1.015174,0.063417,-1.422738,0.061681,2.669144,2.601066
4862.962000000,0.298204,1.015166,0.063429,-1.422723,0.098722,2.669012,2.466049
4862.993000000,0.298217,1.015175,0.063420,-1.422740,0.061691,2.669144,2.601481
4862.995000000,0.298204,1.015172,0.063428,-1.422720,0.098724,2.669017,2.466045
4863.028000000,0.298179,1.015166,0.063419,-1.422690,0.060941,2.668883,2.603732
4863.030000000,0.298199,1.015172,0.063424,-1.422728,0.098724,2.669012,2.466043
4863.062000000,0.298183,1.015167,0.063422,-1.422691,0.060942,2.668883,2.603960
4863.064000000,0.298204,1.015169,0.063426,-1.422723,0.098723,2.669012,2.466046
4863.097000000,0.298204,1.015169,0.063428,-1.422725,0.098723,2.669011,2.466050
4863.097000000,0.298229,1.015174,0.063423,-1.422745,0.061662,2.669140,2.602265
4863.131000000,0.298202,1.015169,0.063425,-1.422723,0.098722,2.669015,2.466051
4863.131000000,0.298231,1.015174,0.063425,-1.422746,0.061649,2.669138,2.602406
4863.164000000,0.298190,1.015169,0.063426,-1.422692,0.060950,2.668881,2.604461
4863.165000000,0.298207,1.015172,0.063428,-1.422724,0.098724,2.669012,2.466047
4863.199000000,0.298199,1.015164,0.063421,-1.422728,0.098723,2.669015,2.466050
4863.199000000,0.298233,1.015174,0.063426,-1.422746,0.061652,2.669139,2.602668
