yuan18844-afk/dissertation/catkin_ws/src/franka_digital_twin/analysis/data/real_slow1_20250728_064855.csv
time,panda_joint1,panda_joint2,panda_joint3,panda_joint4,panda_joint5,panda_joint6,panda_joint7
5247.811000000,0.255686,1.109342,0.138533,-1.159057,-0.116271,2.328138,2.658360
5247.838000000,0.255783,1.109372,0.138493,-1.159119,-0.159535,2.328337,2.758072
5247.848000000,0.255684,1.109345,0.138531,-1.159055,-0.116269,2.328136,2.658358
5247.872000000,0.255755,1.109349,0.138498,-1.159127,-0.159126,2.328345,2.755046
5247.884000000,0.255684,1.109345,0.138534,-1.159057,-0.116267,2.328141,2.658361
5247.906000000,0.255739,1.109338,0.138489,-1.159119,-0.158832,2.328349,2.753049
5247.917000000,0.255686,1.109345,0.138534,-1.159057,-0.116269,2.328139,2.658367
5247.941000000,0.255644,1.109351,0.138593,-1.158999,-0.159378,2.327897,2.753845
5247.949000000,0.255686,1.109342,0.138535,-1.159055,-0.116268,2.328136,2.658367
5247.974000000,0.255717,1.109322,0.138477,-1.159110,-0.158572,2.328357,2.752015
5247.984000000,0.255684,1.109342,0.138531,-1.159060,-0.116270,2.328137,2.658367
5248.008000000,0.255713,1.109317,0.138474,-1.159109,-0.158532,2.328357,2.752874
5248.016000000,0.255689,1.109345,0.138531,-1.159060,-0.116269,2.328139,2.658367
5248.042000000,0.255712,1.109319,0.138474,-1.159112,-0.158514,2.328360,2.754591
5248.050000000,0.255687,1.109342,0.138531,-1.159063,-0.116268,2.328139,2.658363
5248.078000000,0.255714,1.109317,0.138477,-1.159103,-0.158542,2.328343,2.757166
5248.083000000,0.255681,1.109342,0.138537,-1.159060,-0.116272,2.328138,2.658369
5248.111000000,0.255639,1.109359,0.138585,-1.158981,-0.159272,2.327900,2.762280
5248.115000000,0.255689,1.109339,0.138533,-1.159060,-0.116272,2.328139,2.658366
5248.145000000,0.255642,1.109362,0.138589,-1.158983,-0.159273,2.327899,2.765110
5248.147000000,0.255687,1.109342,0.138532,-1.159057,-0.116269,2.328137,2.658362
5248.179000000,0.255646,1.109365,0.138590,-1.158985,-0.159274,2.327899,2.767480
5248.182000000,0.255684,1.109342,0.138532,-1.159060,-0.116270,2.328138,2.658358
5248.213000000,0.255650,1.109367,0.138592,-1.158986,-0.159276,2.327898,2.769544
5248.214000000,0.255689,1.109347,0.138534,-1.159060,-0.116269,2.328137,2.658366
5248.244000000,0.255684,1.109342,0.138534,-1.159057,-0.116268,2.328137,2.658365
5248.247000000,0.255653,1.109367,0.138592,-1.158987,-0.159278,2.327896,2.771235
5248.275000000,0.255688,1.109342,0.138534,-1.159054,-0.116271,2.328137,2.658366
5248.281000000,0.255576,1.109355,0.138659,-1.158951,-0.161478,2.327820,2.774775
5248.304000000,0.255689,1.109347,0.138531,-1.159057,-0.116269,2.328137,2.658365
5248.315000000,0.255428,1.109271,0.138605,-1.158880,-0.175024,2.327758,2.788860
5248.340000000,0.255686,1.109339,0.138529,-1.159055,-0.116269,2.328138,2.658366
5248.350000000,0.255455,1.109204,0.138477,-1.158968,-0.186509,2.328153,2.800784
5248.374000000,0.255691,1.109345,0.138534,-1.159057,-0.116270,2.328138,2.658358
5248.384000000,0.255432,1.109183,0.138462,-1.158960,-0.198877,2.328166,2.815422
5248.408000000,0.255685,1.109345,0.138534,-1.159057,-0.116271,2.328137,2.658367
5248.418000000,0.255435,1.109160,0.138431,-1.158977,-0.211355,2.328246,2.831120
5248.442000000,0.255684,1.109345,0.138534,-1.159055,-0.116267,2.328136,2.658368
5248.452000000,0.255439,1.109152,0.138413,-1.158990,-0.224000,2.328320,2.848023
5248.476000000,0.255686,1.109337,0.138534,-1.159057,-0.116270,2.328138,2.658358
5248.487000000,0.255354,1.109173,0.138534,-1.158870,-0.237988,2.327886,2.868670
5248.509000000,0.255686,1.109345,0.138533,-1.159060,-0.116266,2.328137,2.658367
5248.524000000,0.255440,1.109132,0.138406,-1.158987,-0.251717,2.328338,2.888651
5248.544000000,0.255688,1.109339,0.138539,-1.159060,-0.116269,2.328138,2.658365
5248.558000000,0.255514,1.109186,0.138443,-1.159000,-0.258764,2.328157,2.897319
5248.578000000,0.255688,1.109339,0.138531,-1.159057,-0.116268,2.328137,2.658366
5248.593000000,0.255592,1.109261,0.138489,-1.159016,-0.261706,2.328129,2.897300
5248.607000000,0.255685,1.109345,0.138534,-1.159057,-0.116269,2.328138,2.658360
5248.627000000,0.255642,1.109294,0.138502,-1.159035,-0.264142,2.328128,2.897300
5248.642000000,0.255683,1.109342,0.138534,-1.159057,-0.116267,2.328138,2.658359
5248.661000000,0.255669,1.109323,0.138523,-1.159037,-0.265955,2.328111,2.897300
5248.675000000,0.255683,1.109342,0.138534,-1.159057,-0.116269,2.328138,2.658367
5248.695000000,0.255688,1.109328,0.138531,-1.159059,-0.267300,2.328126,2.897300
5248.711000000,0.255686,1.109339,0.138534,-1.159057,-0.116270,2.328137,2.658359
5248.728000000,0.255711,1.109348,0.138531,-1.159051,-0.268304,2.328111,2.897300
5248.744000000,0.255683,1.109345,0.138537,-1.159057,-0.116270,2.328138,2.658360
5248.762000000,0.255714,1.109349,0.138542,-1.159065,-0.269106,2.328122,2.897300
5248.778000000,0.255686,1.109342,0.138534,-1.159057,-0.116270,2.328137,2.658357
5248.797000000,0.255618,1.109358,0.138658,-1.158977,-0.272748,2.327743,2.895190
5248.807000000,0.255687,1.109342,0.138534,-1.159060,-0.116270,2.328137,2.658367
5248.831000000,0.255509,1.109277,0.138646,-1.158905,-0.284193,2.327460,2.891121
5248.841000000,0.255686,1.109345,0.138531,-1.159057,-0.116267,2.328136,2.658363
5248.865000000,0.255435,1.109229,0.138648,-1.158853,-0.296607,2.327153,2.890120
5248.876000000,0.255686,1.109339,0.138534,-1.159057,-0.116270,2.328138,2.658363
5248.899000000,0.255382,1.109194,0.138658,-1.158809,-0.309906,2.326782,2.892198
5248.909000000,0.255689,1.109342,0.138531,-1.159057,-0.116266,2.328137,2.658366
5248.934000000,0.255447,1.109148,0.138515,-1.158884,-0.323485,2.326849,2.895587
5248.939000000,0.255688,1.109345,0.138537,-1.159063,-0.116270,2.328138,2.658366
5248.969000000,0.256354,1.109701,0.138531,-1.159441,-0.265931,2.327267,2.800939
5248.973000000,0.255688,1.109339,0.138534,-1.159057,-0.116267,2.328136,2.658362
5249.002000000,0.256407,1.109914,0.138876,-1.159336,-0.228926,2.326992,2.765752
5249.007000000,0.255688,1.109339,0.138539,-1.159055,-0.116267,2.328138,2.658362
5249.037000000,0.256326,1.109786,0.138768,-1.159360,-0.201197,2.327655,2.738611
5249.040000000,0.255686,1.109339,0.138534,-1.159063,-0.116271,2.328138,2.658362
5249.072000000,0.255689,1.109345,0.138531,-1.159057,-0.116270,2.328136,2.658367
5249.073000000,0.255930,1.109609,0.138811,-1.159071,-0.185394,2.327346,2.726133
5249.106000000,0.255688,1.109339,0.138534,-1.159057,-0.116269,2.328140,2.658366
5249.107000000,0.255685,1.109336,0.138591,-1.159054,-0.175311,2.327889,2.717793
5249.139000000,0.255689,1.109345,0.138533,-1.159063,-0.116271,2.328138,2.658365
5249.141000000,0.255219,1.109128,0.138607,-1.158738,-0.184723,2.327323,2.729780
5249.173000000,0.255687,1.109342,0.138531,-1.159060,-0.116271,2.328140,2.658358
5249.175000000,0.255125,1.108964,0.138388,-1.158801,-0.195162,2.327822,2.741361
5249.204000000,0.255686,1.109342,0.138539,-1.159063,-0.116270,2.328137,2.658365
5249.210000000,0.254972,1.108963,0.138492,-1.158628,-0.207219,2.327302,2.757684
5249.238000000,0.255684,1.109339,0.138534,-1.159055,-0.116270,2.328139,2.658363
5249.243000000,0.254955,1.108939,0.138471,-1.158624,-0.218569,2.327328,2.773173
5249.272000000,0.255692,1.109342,0.138536,-1.159060,-0.116271,2.328138,2.658360
5249.277000000,0.255016,1.108886,0.138361,-1.158731,-0.229296,2.327709,2.787875
5249.307000000,0.255682,1.109345,0.138531,-1.159060,-0.116270,2.328139,2.658361
5249.314000000,0.254922,1.108926,0.138492,-1.158578,-0.242364,2.327200,2.808632
5249.322000000,0.255686,1.109342,0.138534,-1.159055,-0.116268,2.328138,2.658358
5249.346000000,0.255283,1.108978,0.138268,-1.158893,-0.238320,2.327505,2.807372
5249.351000000,0.255691,1.109342,0.138532,-1.159057,-0.116268,2.328137,2.658361
5249.378000000,0.255678,1.109342,0.138534,-1.159057,-0.116269,2.328136,2.658363
5249.380000000,0.255655,1.109354,0.138610,-1.158963,-0.209212,2.327548,2.772750
5249.407000000,0.255686,1.109342,0.138534,-1.159060,-0.116270,2.328136,2.658366
5249.414000000,0.255644,1.109383,0.138686,-1.158983,-0.200697,2.327925,2.768014
5249.440000000,0.255678,1.109345,0.138537,-1.159060,-0.116266,2.328137,2.658361
5249.447000000,0.255370,1.109233,0.138643,-1.158815,-0.215450,2.327452,2.792109
5249.477000000,0.255689,1.109345,0.138531,-1.159057,-0.116269,2.328138,2.658369
5249.483000000,0.255359,1.109156,0.138515,-1.158895,-0.226412,2.327954,2.797747
5249.504000000,0.255692,1.109342,0.138532,-1.159057,-0.116266,2.328135,2.658360
5249.515000000,0.255241,1.109146,0.138620,-1.158753,-0.239197,2.327438,2.808827
5249.538000000,0.255683,1.109342,0.138531,-1.159063,-0.116267,2.328139,2.658359
5249.552000000,0.255311,1.109096,0.138472,-1.158876,-0.251244,2.327952,2.818374
5249.571000000,0.255692,1.109339,0.138531,-1.159062,-0.116265,2.328138,2.658360
5249.586000000,0.255215,1.109136,0.138611,-1.158721,-0.264980,2.327424,2.833402
5249.605000000,0.255689,1.109339,0.138537,-1.159057,-0.116272,2.328135,2.658369
5249.619000000,0.255212,1.109127,0.138610,-1.158715,-0.277830,2.327411,2.848156
5249.639000000,0.255681,1.109342,0.138529,-1.159060,-0.116269,2.328138,2.658361
5249.653000000,0.255196,1.109121,0.138634,-1.158680,-0.291220,2.327238,2.865161
5249.675000000,0.255689,1.109342,0.138531,-1.159063,-0.116272,2.328137,2.658364
5249.687000000,0.255186,1.109100,0.138656,-1.158668,-0.304744,2.326982,2.884180
5249.708000000,0.255684,1.109342,0.138534,-1.159060,-0.116268,2.328141,2.658362
5249.720000000,0.255299,1.109108,0.138529,-1.158764,-0.314923,2.327074,2.897372
5249.742000000,0.255686,1.109339,0.138534,-1.159055,-0.116270,2.328137,2.658360
5249.755000000,0.255367,1.109187,0.138626,-1.158796,-0.317607,2.326958,2.897300
5249.777000000,0.255689,1.109342,0.138531,-1.159063,-0.116270,2.328137,2.658362
5249.790000000,0.255428,1.109246,0.138634,-1.158809,-0.320281,2.326930,2.897300
5249.811000000,0.255687,1.109345,0.138531,-1.159057,-0.116271,2.328137,2.658360
5249.824000000,0.255463,1.109270,0.138641,-1.158824,-0.322227,2.326909,2.897300
5249.845000000,0.255686,1.109344,0.138534,-1.159060,-0.116271,2.328136,2.658365
5249.858000000,0.255475,1.109281,0.138656,-1.158841,-0.323770,2.326900,2.897300
5249.878000000,0.255686,1.109342,0.138534,-1.159055,-0.116269,2.328136,2.658363
5249.892000000,0.255491,1.109294,0.138662,-1.158847,-0.324919,2.326885,2.897300
5249.912000000,0.255689,1.109342,0.138534,-1.159060,-0.116271,2.328138,2.658359
5249.927000000,0.255509,1.109295,0.138656,-1.158862,-0.325781,2.326876,2.897300
5249.943000000,0.255692,1.109342,0.138539,-1.159057,-0.116270,2.328139,2.658368
5249.962000000,0.255510,1.109308,0.138670,-1.158859,-0.326457,2.326869,2.897300
5249.978000000,0.255684,1.109342,0.138529,-1.159057,-0.116268,2.328136,2.658360
5249.996000000,0.255495,1.109278,0.138660,-1.158873,-0.329329,2.326929,2.895449
5250.014000000,0.255689,1.109344,0.138534,-1.159060,-0.116269,2.328139,2.658367
5250.029000000,0.255329,1.109222,0.138738,-1.158698,-0.341604,2.326114,2.899105
5250.046000000,0.255686,1.109342,0.138531,-1.159055,-0.116271,2.328138,2.658361
5250.064000000,0.255375,1.109157,0.138619,-1.158796,-0.350168,2.326114,2.893516
5250.079000000,0.255684,1.109339,0.138531,-1.159057,-0.116270,2.328139,2.658358
5250.098000000,0.255345,1.109096,0.138569,-1.158784,-0.363220,2.325682,2.896483
5250.102000000,0.255689,1.109339,0.138534,-1.159057,-0.116271,2.328137,2.658367
5250.132000000,0.255349,1.109087,0.138575,-1.158786,-0.373729,2.325124,2.890267
5250.133000000,0.255684,1.109339,0.138531,-1.159055,-0.116271,2.328137,2.658360
5250.166000000,0.255686,1.109339,0.138534,-1.159057,-0.116271,2.328137,2.658365
5250.167000000,0.256417,1.109706,0.138387,-1.159498,-0.308168,2.325977,2.822788
5250.201000000,0.255685,1.109342,0.138537,-1.159057,-0.116270,2.328136,2.658367
5250.201000000,0.256665,1.110091,0.138816,-1.159530,-0.247700,2.326372,2.771570
5250.235000000,0.255715,1.109511,0.138792,-1.159038,-0.272603,2.325970,2.788508
5250.236000000,0.255684,1.109339,0.138534,-1.159055,-0.116271,2.328137,2.658358
5250.270000000,0.256112,1.109617,0.138591,-1.159249,-0.232427,2.326409,2.744002
5250.270000000,0.255685,1.109339,0.138531,-1.159057,-0.116270,2.328140,2.658366
5250.304000000,0.256030,1.109629,0.138736,-1.159163,-0.202574,2.326783,2.713306
5250.305000000,0.255686,1.109342,0.138534,-1.159060,-0.116271,2.328137,2.658369
5250.338000000,0.255807,1.109463,0.138702,-1.159048,-0.184906,2.327068,2.695249
5250.339000000,0.255689,1.109344,0.138534,-1.159060,-0.116270,2.328137,2.658368
5250.372000000,0.255560,1.109285,0.138628,-1.158933,-0.174663,2.327290,2.685167
5250.374000000,0.255683,1.109342,0.138534,-1.159057,-0.116272,2.328137,2.658360
5250.406000000,0.255380,1.109151,0.138546,-1.158857,-0.168467,2.327467,2.679852
5250.406000000,0.255684,1.109345,0.138539,-1.159055,-0.116267,2.328136,2.658360
5250.441000000,0.255691,1.109345,0.138537,-1.159057,-0.116270,2.328136,2.658367
5250.442000000,0.255277,1.109083,0.138496,-1.158814,-0.164457,2.327617,2.677618
5250.476000000,0.255236,1.109071,0.138501,-1.158797,-0.162505,2.327642,2.678113
5250.477000000,0.255684,1.109339,0.138534,-1.159060,-0.116269,2.328138,2.658359
5250.510000000,0.255198,1.109025,0.138404,-1.158821,-0.167476,2.327655,2.683310
5250.511000000,0.255686,1.109339,0.138534,-1.159057,-0.116267,2.328139,2.658363
5250.543000000,0.255381,1.109080,0.138367,-1.158953,-0.162464,2.328145,2.673395
5250.546000000,0.255684,1.109342,0.138534,-1.159057,-0.116271,2.328137,2.658367
5250.577000000,0.255479,1.109155,0.138404,-1.158997,-0.160368,2.328202,2.668171
5250.580000000,0.255688,1.109345,0.138531,-1.159053,-0.116269,2.328138,2.658368
5250.612000000,0.255488,1.109243,0.138547,-1.158929,-0.159826,2.327814,2.666466
5250.613000000,0.255686,1.109339,0.138526,-1.159050,-0.116270,2.328138,2.658366
5250.646000000,0.255561,1.109295,0.138570,-1.158960,-0.159154,2.327840,2.664568
5250.646000000,0.255683,1.109345,0.138534,-1.159060,-0.116267,2.328138,2.658360
5250.678000000,0.255688,1.109339,0.138534,-1.159060,-0.116270,2.328136,2.658363
5250.682000000,0.255611,1.109340,0.138598,-1.158981,-0.158844,2.327860,2.663959
5250.715000000,0.255686,1.109342,0.138537,-1.159060,-0.116271,2.328137,2.658361
5250.717000000,0.255649,1.109332,0.138539,-1.159041,-0.161398,2.328197,2.665699
5250.745000000,0.255687,1.109345,0.138531,-1.159057,-0.116272,2.328137,2.658367
5250.750000000,0.255448,1.109269,0.138589,-1.158904,-0.175224,2.327783,2.680433
5250.777000000,0.255689,1.109344,0.138531,-1.159063,-0.116272,2.328138,2.658362
5250.785000000,0.255498,1.109228,0.138447,-1.158983,-0.186731,2.328209,2.691735
5250.808000000,0.255686,1.109345,0.138531,-1.159060,-0.116271,2.328141,2.658362
5250.819000000,0.255479,1.109208,0.138431,-1.158974,-0.199223,2.328217,2.705926
5250.841000000,0.255692,1.109342,0.138534,-1.159057,-0.116270,2.328139,2.658362
5250.853000000,0.255484,1.109192,0.138401,-1.158982,-0.211785,2.328292,2.721203
5250.873000000,0.255684,1.109339,0.138537,-1.159055,-0.116271,2.328135,2.658367
5250.887000000,0.255493,1.109185,0.138378,-1.158988,-0.224547,2.328361,2.737762
5250.910000000,0.255686,1.109337,0.138534,-1.159057,-0.116271,2.328137,2.658362
5250.921000000,0.255493,1.109163,0.138366,-1.159012,-0.237648,2.328435,2.755828
5250.945000000,0.255687,1.109339,0.138534,-1.159063,-0.116267,2.328137,2.658366
5250.955000000,0.255506,1.109153,0.138345,-1.159026,-0.250837,2.328509,2.775284
5250.977000000,0.255689,1.109342,0.138534,-1.159055,-0.116273,2.328138,2.658368
5250.990000000,0.255431,1.109165,0.138457,-1.158918,-0.265359,2.328083,2.798782
5251.010000000,0.255684,1.109345,0.138531,-1.159060,-0.116271,2.328140,2.658359
5251.024000000,0.255424,1.109160,0.138472,-1.158904,-0.279245,2.328035,2.821817
5251.044000000,0.255684,1.109342,0.138534,-1.159057,-0.116270,2.328138,2.658368
5251.058000000,0.255411,1.109156,0.138496,-1.158883,-0.293377,2.327917,2.846698
5251.078000000,0.255686,1.109339,0.138529,-1.159060,-0.116268,2.328138,2.658362
5251.092000000,0.255400,1.109150,0.138521,-1.158850,-0.307639,2.327700,2.873441
5251.112000000,0.255688,1.109337,0.138531,-1.159057,-0.116271,2.328137,2.658365
5251.126000000,0.255452,1.109148,0.138466,-1.158889,-0.320924,2.327600,2.897559
5251.146000000,0.255689,1.109342,0.138531,-1.159055,-0.116271,2.328137,2.658365
5251.160000000,0.255577,1.109222,0.138500,-1.158974,-0.323915,2.327601,2.897300
5251.180000000,0.255689,1.109345,0.138534,-1.159057,-0.116269,2.328141,2.658364
5251.195000000,0.255635,1.109277,0.138522,-1.159005,-0.326911,2.327565,2.897300
5251.211000000,0.255687,1.109342,0.138531,-1.159057,-0.116269,2.328138,2.658363
5251.229000000,0.255675,1.109309,0.138538,-1.159026,-0.329143,2.327535,2.897300
5251.240000000,0.255683,1.109345,0.138534,-1.159060,-0.116270,2.328137,2.658358
5251.262000000,0.255701,1.109328,0.138545,-1.159041,-0.330780,2.327516,2.897300
5251.268000000,0.255679,1.109345,0.138534,-1.159057,-0.116272,2.328138,2.658361
5251.297000000,0.255727,1.109358,0.138549,-1.159035,-0.332072,2.327501,2.897300
5251.302000000,0.255691,1.109342,0.138534,-1.159060,-0.116270,2.328136,2.658369
5251.326000000,0.255692,1.109342,0.138531,-1.159055,-0.116269,2.328139,2.658365
5251.331000000,0.255740,1.109369,0.138556,-1.159037,-0.333043,2.327477,2.897300
5251.360000000,0.255683,1.109342,0.138534,-1.159057,-0.116268,2.328137,2.658369
5251.364000000,0.255744,1.109370,0.138565,-1.159049,-0.333776,2.327484,2.897300
5251.392000000,0.255688,1.109342,0.138534,-1.159057,-0.116272,2.328137,2.658365
5251.398000000,0.255743,1.109350,0.138543,-1.159055,-0.336558,2.327521,2.894704
5251.425000000,0.255689,1.109344,0.138536,-1.159057,-0.116268,2.328137,2.658357
5251.433000000,0.255558,1.109274,0.138640,-1.158898,-0.349577,2.326680,2.896660
5251.458000000,0.255686,1.109345,0.138534,-1.159055,-0.116270,2.328138,2.658360
5251.467000000,0.255534,1.109239,0.138625,-1.158888,-0.359995,2.326173,2.895505
5251.490000000,0.255692,1.109342,0.138534,-1.159057,-0.116268,2.328137,2.658369
5251.502000000,0.256596,1.109814,0.138442,-1.159601,-0.293512,2.327030,2.811800
5251.522000000,0.255686,1.109350,0.138534,-1.159057,-0.116268,2.328139,2.658358
5251.536000000,0.256647,1.110110,0.138934,-1.159463,-0.239580,2.326709,2.758520
5251.551000000,0.255689,1.109345,0.138534,-1.159060,-0.116267,2.328137,2.658361
5251.571000000,0.256395,1.109971,0.138973,-1.159291,-0.205581,2.326939,2.725027
5251.576000000,0.255686,1.109339,0.138534,-1.159055,-0.116270,2.328136,2.658366
5251.604000000,0.255977,1.109650,0.138841,-1.159089,-0.186203,2.327156,2.706350
5251.608000000,0.255684,1.109347,0.138533,-1.159055,-0.116270,2.328139,2.658360
5251.638000000,0.255583,1.109341,0.138674,-1.158912,-0.174955,2.327348,2.696272
5251.640000000,0.255689,1.109345,0.138529,-1.159060,-0.116270,2.328135,2.658366
5251.671000000,0.255689,1.109347,0.138532,-1.159060,-0.116267,2.328137,2.658368
5251.673000000,0.255372,1.109073,0.138417,-1.158920,-0.167370,2.327958,2.689475
5251.707000000,0.255686,1.109342,0.138537,-1.159057,-0.116266,2.328139,2.658367
5251.708000000,0.255123,1.108979,0.138458,-1.158737,-0.164334,2.327613,2.690068
5251.742000000,0.254972,1.108812,0.138257,-1.158760,-0.173961,2.328040,2.700197
5251.742000000,0.255686,1.109339,0.138534,-1.159055,-0.116271,2.328140,2.658365
5251.776000000,0.254944,1.108821,0.138234,-1.158700,-0.179701,2.327653,2.707827
5251.776000000,0.255684,1.109345,0.138537,-1.159060,-0.116270,2.328138,2.658362
5251.809000000,0.255223,1.108931,0.138275,-1.158885,-0.170504,2.328136,2.691932
5251.811000000,0.255685,1.109339,0.138531,-1.159055,-0.116270,2.328138,2.658360
5251.844000000,0.255319,1.109117,0.138482,-1.158826,-0.166126,2.327758,2.683537
5251.845000000,0.255689,1.109345,0.138531,-1.159060,-0.116267,2.328136,2.658360
5251.877000000,0.255535,1.109169,0.138417,-1.159020,-0.162434,2.328223,2.674907
5251.879000000,0.255685,1.109347,0.138531,-1.159057,-0.116270,2.328137,2.658367
5251.911000000,0.255632,1.109256,0.138459,-1.159064,-0.160620,2.328251,2.670036
5251.913000000,0.255688,1.109347,0.138531,-1.159057,-0.116270,2.328136,2.658369
5251.946000000,0.255624,1.109334,0.138598,-1.158985,-0.160307,2.327849,2.668647
5251.947000000,0.255685,1.109341,0.138537,-1.159057,-0.116269,2.328138,2.658361
5251.979000000,0.255749,1.109352,0.138484,-1.159103,-0.158963,2.328283,2.665134
5251.980000000,0.255683,1.109339,0.138533,-1.159060,-0.116271,2.328140,2.658359
5252.013000000,0.255769,1.109368,0.138490,-1.159114,-0.158620,2.328295,2.664574
5252.013000000,0.255686,1.109342,0.138537,-1.159060,-0.116270,2.328138,2.658361
5252.047000000,0.255689,1.109342,0.138534,-1.159060,-0.116270,2.328137,2.658365
5252.049000000,0.255675,1.109392,0.138626,-1.159014,-0.159173,2.327884,2.666920
5252.081000000,0.255718,1.109362,0.138536,-1.159081,-0.159904,2.328242,2.667949
5252.082000000,0.255681,1.109345,0.138531,-1.159060,-0.116270,2.328138,2.658365
5252.115000000,0.255684,1.109345,0.138534,-1.159057,-0.116270,2.328137,2.658365
5252.116000000,0.255619,1.109326,0.138563,-1.159000,-0.166443,2.327842,2.677366
5252.150000000,0.255683,1.109339,0.138536,-1.159057,-0.116271,2.328138,2.658361
5252.151000000,0.255714,1.109358,0.138533,-1.159074,-0.164612,2.328205,2.678055
5252.183000000,0.255692,1.109342,0.138534,-1.159060,-0.116270,2.328138,2.658366
5252.185000000,0.255576,1.109270,0.138467,-1.159021,-0.177376,2.328214,2.693505
5252.218000000,0.255689,1.109339,0.138534,-1.159057,-0.116270,2.328136,2.658367
5252.220000000,0.255430,1.109249,0.138561,-1.158901,-0.190234,2.327844,2.711130
5252.251000000,0.255688,1.109345,0.138537,-1.159063,-0.116270,2.328137,2.658365
5252.254000000,0.255398,1.109228,0.138557,-1.158879,-0.202677,2.327814,2.727973
5252.284000000,0.255686,1.109345,0.138534,-1.159057,-0.116267,2.328138,2.658368
5252.288000000,0.255370,1.109217,0.138576,-1.158851,-0.215515,2.327729,2.746134
5252.319000000,0.255686,1.109347,0.138534,-1.159057,-0.116269,2.328137,2.658366
5252.323000000,0.255438,1.109178,0.138458,-1.158952,-0.228290,2.328126,2.764407
5252.353000000,0.255685,1.109342,0.138532,-1.159057,-0.116270,2.328136,2.658369
5252.358000000,0.255355,1.109190,0.138576,-1.158832,-0.242706,2.327678,2.787706
5252.386000000,0.255689,1.109342,0.138534,-1.159059,-0.116267,2.328138,2.658369
5252.392000000,0.255329,1.109191,0.138600,-1.158808,-0.256459,2.327625,2.810278
5252.420000000,0.255686,1.109347,0.138534,-1.159057,-0.116270,2.328137,2.658360
5252.426000000,0.255311,1.109186,0.138626,-1.158780,-0.270578,2.327533,2.834572
5252.454000000,0.255688,1.109342,0.138534,-1.159057,-0.116268,2.328137,2.658359
5252.460000000,0.255295,1.109183,0.138654,-1.158752,-0.284828,2.327408,2.860494
5252.488000000,0.255689,1.109342,0.138537,-1.159057,-0.116271,2.328139,2.658360
5252.496000000,0.255383,1.109132,0.138522,-1.158863,-0.298915,2.327687,2.887235
5252.521000000,0.255683,1.109342,0.138534,-1.159057,-0.116269,2.328136,2.658366
5252.529000000,0.255456,1.109212,0.138567,-1.158870,-0.306363,2.327439,2.897302
5252.555000000,0.255689,1.109339,0.138537,-1.159057,-0.116269,2.328136,2.658363
5252.564000000,0.255527,1.109282,0.138625,-1.158915,-0.309620,2.327411,2.897300
5252.587000000,0.255689,1.109342,0.138537,-1.159055,-0.116270,2.328138,2.658368
5252.597000000,0.255579,1.109318,0.138639,-1.158939,-0.312149,2.327400,2.897300
5252.620000000,0.255688,1.109342,0.138533,-1.159057,-0.116269,2.328139,2.658360
5252.632000000,0.255617,1.109339,0.138649,-1.158959,-0.314116,2.327374,2.897300
5252.651000000,0.255692,1.109344,0.138531,-1.159052,-0.116267,2.328137,2.658367
5252.666000000,0.255645,1.109359,0.138652,-1.158971,-0.315536,2.327381,2.897300
5252.686000000,0.255686,1.109342,0.138534,-1.159057,-0.116272,2.328137,2.658365
5252.700000000,0.255658,1.109367,0.138660,-1.158981,-0.316603,2.327358,2.897300
5252.720000000,0.255689,1.109345,0.138531,-1.159057,-0.116270,2.328139,2.658363
5252.734000000,0.256363,1.109822,0.138711,-1.159352,-0.263500,2.327381,2.808772
5252.752000000,0.255688,1.109345,0.138534,-1.159057,-0.116265,2.328138,2.658360
5252.767000000,0.256520,1.109902,0.138770,-1.159457,-0.223841,2.327906,2.768272
5252.784000000,0.255689,1.109342,0.138534,-1.159063,-0.116267,2.328135,2.658359
5252.801000000,0.256305,1.109762,0.138780,-1.159333,-0.196970,2.327981,2.744662
5252.817000000,0.255685,1.109339,0.138534,-1.159055,-0.116267,2.328137,2.658367
5252.835000000,0.255977,1.109510,0.138664,-1.159183,-0.180765,2.328067,2.732115
5252.851000000,0.255689,1.109339,0.138534,-1.159060,-0.116269,2.328137,2.658365
5252.869000000,0.255659,1.109279,0.138529,-1.159047,-0.171403,2.328152,2.726850
5252.884000000,0.255691,1.109345,0.138537,-1.159057,-0.116267,2.328138,2.658369
5252.904000000,0.255444,1.109119,0.138403,-1.158945,-0.165762,2.328223,2.725912
5252.918000000,0.255689,1.109345,0.138535,-1.159054,-0.116271,2.328137,2.658365
5252.936000000,0.255685,1.109342,0.138537,-1.159057,-0.116268,2.328136,2.658364
5252.945000000,0.255296,1.109008,0.138341,-1.158907,-0.161862,2.328274,2.728681
5252.971000000,0.255691,1.109337,0.138537,-1.159057,-0.116270,2.328137,2.658367
5252.979000000,0.255265,1.108999,0.138340,-1.158901,-0.160643,2.328296,2.733542
5253.005000000,0.255686,1.109345,0.138534,-1.159055,-0.116270,2.328137,2.658363
5253.014000000,0.255028,1.108954,0.138394,-1.158719,-0.173573,2.327893,2.752902
5253.042000000,0.255689,1.109342,0.138531,-1.159057,-0.116270,2.328138,2.658368
5253.047000000,0.255051,1.108874,0.138246,-1.158832,-0.183820,2.328359,2.767823
5253.077000000,0.255686,1.109342,0.138534,-1.159057,-0.116269,2.328141,2.658362
5253.081000000,0.254940,1.108878,0.138356,-1.158692,-0.196809,2.327876,2.788701
5253.111000000,0.255684,1.109342,0.138534,-1.159057,-0.116271,2.328136,2.658365
5253.115000000,0.255016,1.108847,0.138214,-1.158796,-0.207782,2.328359,2.805847
5253.146000000,0.255688,1.109342,0.138534,-1.159057,-0.116266,2.328139,2.658363
5253.150000000,0.254903,1.108863,0.138365,-1.158666,-0.221253,2.327841,2.829019
5253.179000000,0.255686,1.109345,0.138534,-1.159055,-0.116270,2.328137,2.658360
5253.185000000,0.255000,1.108815,0.138214,-1.158797,-0.233275,2.328357,2.849751
5253.213000000,0.255689,1.109339,0.138534,-1.159057,-0.116267,2.328139,2.658365
5253.220000000,0.254908,1.108853,0.138348,-1.158646,-0.247241,2.327839,2.875759
5253.248000000,0.255683,1.109342,0.138534,-1.159060,-0.116270,2.328137,2.658367
5253.255000000,0.254986,1.108817,0.138240,-1.158752,-0.259698,2.328164,2.897879
5253.282000000,0.255689,1.109339,0.138534,-1.159055,-0.116270,2.328137,2.658359
5253.289000000,0.255081,1.108897,0.138310,-1.158788,-0.262185,2.328034,2.897300
5253.317000000,0.255691,1.109347,0.138534,-1.159060,-0.116269,2.328136,2.658359
5253.323000000,0.255146,1.108953,0.138322,-1.158801,-0.264984,2.328041,2.897300
5253.351000000,0.255681,1.109339,0.138531,-1.159060,-0.116270,2.328138,2.658360
5253.357000000,0.255183,1.108981,0.138338,-1.158814,-0.266955,2.328030,2.897300
5253.385000000,0.255684,1.109342,0.138539,-1.159057,-0.116269,2.328136,2.658367
5253.391000000,0.255212,1.108997,0.138342,-1.158821,-0.268480,2.328029,2.897300
5253.418000000,0.255686,1.109345,0.138531,-1.159063,-0.116269,2.328136,2.658371
5253.425000000,0.255219,1.109004,0.138357,-1.158836,-0.269645,2.328035,2.897300
5253.452000000,0.255686,1.109345,0.138537,-1.159060,-0.116268,2.328136,2.658360
5253.459000000,0.255232,1.109013,0.138362,-1.158839,-0.270534,2.328034,2.897300
5253.485000000,0.255684,1.109342,0.138537,-1.159063,-0.116270,2.328138,2.658365
5253.493000000,0.255241,1.109024,0.138367,-1.158843,-0.271183,2.328048,2.897300
5253.520000000,0.255686,1.109342,0.138534,-1.159063,-0.116271,2.328137,2.658361
5253.527000000,0.255153,1.109043,0.138499,-1.158729,-0.273549,2.327618,2.893501
5253.551000000,0.255686,1.109342,0.138534,-1.159057,-0.116269,2.328136,2.658359
5253.560000000,0.255043,1.108972,0.138467,-1.158663,-0.285159,2.327396,2.892058
5253.582000000,0.255684,1.109347,0.138531,-1.159057,-0.116266,2.328137,2.658366
5253.594000000,0.254964,1.108917,0.138484,-1.158615,-0.296930,2.327078,2.892951
5253.618000000,0.255689,1.109347,0.138534,-1.159060,-0.116270,2.328136,2.658362
5253.628000000,0.254913,1.108886,0.138497,-1.158570,-0.309741,2.326713,2.897034
5253.652000000,0.255685,1.109339,0.138534,-1.159060,-0.116272,2.328138,2.658365
5253.663000000,0.255003,1.108855,0.138391,-1.158682,-0.319322,2.326754,2.891580
5253.685000000,0.255687,1.109345,0.138534,-1.159055,-0.116269,2.328138,2.658367
5253.697000000,0.254989,1.108815,0.138349,-1.158686,-0.332940,2.326433,2.889633
5253.719000000,0.255686,1.109345,0.138537,-1.159057,-0.116269,2.328138,2.658358
5253.731000000,0.254981,1.108790,0.138321,-1.158689,-0.346958,2.326050,2.890768
5253.754000000,0.255688,1.109342,0.138529,-1.159060,-0.116271,2.328138,2.658365
5253.765000000,0.254999,1.108770,0.138277,-1.158684,-0.361343,2.325584,2.895064
5253.780000000,0.255684,1.109342,0.138533,-1.159055,-0.116271,2.328138,2.658365
5253.799000000,0.255032,1.108778,0.138279,-1.158699,-0.373111,2.325037,2.892588
5253.814000000,0.255688,1.109342,0.138537,-1.159063,-0.116266,2.328137,2.658365
5253.835000000,0.254926,1.108774,0.138420,-1.158584,-0.389250,2.323898,2.894339
5253.851000000,0.255685,1.109345,0.138537,-1.159063,-0.116270,2.328139,2.658358
5253.868000000,0.256211,1.109530,0.138164,-1.159458,-0.313766,2.325462,2.819161
5253.885000000,0.255689,1.109345,0.138534,-1.159057,-0.116271,2.328136,2.658363
5253.902000000,0.256483,1.109952,0.138679,-1.159518,-0.251942,2.325991,2.767673
5253.920000000,0.255686,1.109345,0.138537,-1.159057,-0.116269,2.328137,2.658365
5253.937000000,0.256235,1.109901,0.138904,-1.159247,-0.215229,2.326079,2.742523
5253.953000000,0.255686,1.109350,0.138529,-1.159057,-0.116271,2.328138,2.658367
5253.971000000,0.255909,1.109622,0.138815,-1.159067,-0.193435,2.326541,2.731098
5253.986000000,0.255686,1.109347,0.138537,-1.159063,-0.116269,2.328138,2.658362
5254.005000000,0.255582,1.109334,0.138672,-1.158906,-0.180085,2.326902,2.728454
5254.021000000,0.255680,1.109342,0.138531,-1.159057,-0.116270,2.328137,2.658360
5254.039000000,0.255326,1.109105,0.138561,-1.158811,-0.171972,2.327176,2.730803
5254.055000000,0.255686,1.109345,0.138531,-1.159057,-0.116271,2.328138,2.658365
5254.072000000,0.255273,1.108975,0.138349,-1.158860,-0.166358,2.327827,2.732963
5254.088000000,0.255686,1.109345,0.138531,-1.159060,-0.116270,2.328139,2.658359
5254.107000000,0.255131,1.108965,0.138447,-1.158739,-0.163973,2.327532,2.739726
5254.123000000,0.255686,1.109342,0.138534,-1.159060,-0.116271,2.328138,2.658358
5254.141000000,0.255169,1.108999,0.138446,-1.158766,-0.162043,2.327636,2.744471
5254.157000000,0.255688,1.109347,0.138531,-1.159055,-0.116271,2.328136,2.658367
5254.175000000,0.255257,1.109068,0.138468,-1.158817,-0.160856,2.327707,2.748999
5254.189000000,0.255686,1.109345,0.138537,-1.159060,-0.116271,2.328139,2.658361
5254.209000000,0.255357,1.109163,0.138510,-1.158864,-0.160140,2.327756,2.753282
5254.223000000,0.255684,1.109339,0.138531,-1.159057,-0.116271,2.328137,2.658367
5254.243000000,0.255469,1.109232,0.138533,-1.158925,-0.159743,2.327788,2.757167
5254.256000000,0.255686,1.109339,0.138531,-1.159060,-0.116268,2.328137,2.658365
5254.277000000,0.255557,1.109299,0.138567,-1.158967,-0.159499,2.327810,2.760570
5254.287000000,0.255689,1.109345,0.138534,-1.159060,-0.116270,2.328142,2.658368
5254.311000000,0.255623,1.109348,0.138593,-1.158998,-0.159355,2.327826,2.763489
5254.321000000,0.255692,1.109339,0.138534,-1.159060,-0.116268,2.328139,2.658361
5254.345000000,0.255667,1.109378,0.138609,-1.159016,-0.159276,2.327840,2.766026
5254.355000000,0.255684,1.109339,0.138534,-1.159055,-0.116268,2.328138,2.658357
5254.379000000,0.255691,1.109393,0.138617,-1.159029,-0.159238,2.327850,2.768237
5254.389000000,0.255689,1.109345,0.138531,-1.159060,-0.116269,2.328137,2.658363
5254.413000000,0.255700,1.109397,0.138619,-1.159024,-0.159224,2.327873,2.770169
5254.423000000,0.255692,1.109342,0.138531,-1.159055,-0.116271,2.328137,2.658370
5254.447000000,0.255698,1.109406,0.138615,-1.159006,-0.159259,2.327864,2.771798
5254.456000000,0.255683,1.109339,0.138529,-1.159055,-0.116269,2.328138,2.658362
5254.481000000,0.255689,1.109397,0.138610,-1.159000,-0.159262,2.327871,2.773200
5254.489000000,0.255681,1.109344,0.138534,-1.159057,-0.116266,2.328140,2.658366
5254.515000000,0.255677,1.109387,0.138604,-1.158994,-0.159265,2.327877,2.774328
5254.520000000,0.255694,1.109339,0.138536,-1.159060,-0.116270,2.328137,2.658363
5254.549000000,0.255665,1.109378,0.138600,-1.158989,-0.159268,2.327882,2.775349
5254.554000000,0.255686,1.109342,0.138534,-1.159055,-0.116266,2.328135,2.658366
5254.582000000,0.255740,1.109320,0.138476,-1.159126,-0.158528,2.328341,2.774312
5254.588000000,0.255692,1.109342,0.138534,-1.159057,-0.116272,2.328138,2.658365
5254.616000000,0.255730,1.109323,0.138478,-1.159120,-0.158530,2.328347,2.775043
5254.622000000,0.255686,1.109345,0.138537,-1.159059,-0.116270,2.328139,2.658363
5254.650000000,0.255736,1.109330,0.138465,-1.159105,-0.158553,2.328351,2.775726
5254.656000000,0.255684,1.109342,0.138531,-1.159057,-0.116270,2.328139,2.658365
5254.684000000,0.255735,1.109330,0.138465,-1.159105,-0.158554,2.328354,2.776195
5254.689000000,0.255682,1.109342,0.138534,-1.159057,-0.116265,2.328138,2.658363
5254.718000000,0.255735,1.109330,0.138465,-1.159105,-0.158554,2.328355,2.776651
5254.722000000,0.255689,1.109342,0.138537,-1.159060,-0.116269,2.328137,2.658366
5254.753000000,0.255636,1.109354,0.138603,-1.158994,-0.159307,2.327898,2.778805
5254.756000000,0.255686,1.109342,0.138535,-1.159055,-0.116271,2.328138,2.658360
5254.787000000,0.255638,1.109356,0.138604,-1.158994,-0.159306,2.327899,2.779138
5254.791000000,0.255686,1.109342,0.138531,-1.159060,-0.116271,2.328139,2.658369
5254.821000000,0.255641,1.109355,0.138603,-1.158998,-0.159302,2.327898,2.779371
5254.825000000,0.255694,1.109345,0.138537,-1.159057,-0.116269,2.328138,2.658369
5254.855000000,0.255638,1.109364,0.138609,-1.158993,-0.159295,2.327900,2.779597
5254.859000000,0.255689,1.109339,0.138534,-1.159057,-0.116271,2.328137,2.658358
5254.889000000,0.255648,1.109351,0.138593,-1.159003,-0.159327,2.327898,2.779867
5254.893000000,0.255681,1.109347,0.138537,-1.159055,-0.116269,2.328136,2.658357
5254.924000000,0.255743,1.109336,0.138468,-1.159108,-0.158575,2.328356,2.778165
5254.927000000,0.255692,1.109345,0.138535,-1.159060,-0.116270,2.328137,2.658365
5254.959000000,0.255643,1.109360,0.138606,-1.158996,-0.159326,2.327899,2.780135
5254.961000000,0.255692,1.109342,0.138531,-1.159057,-0.116270,2.328138,2.658361
5254.992000000,0.255744,1.109337,0.138468,-1.159109,-0.158566,2.328357,2.778381
5254.995000000,0.255686,1.109342,0.138531,-1.159057,-0.116265,2.328137,2.658366
5255.026000000,0.255745,1.109337,0.138467,-1.159108,-0.158561,2.328357,2.778492
5255.028000000,0.255686,1.109342,0.138534,-1.159060,-0.116269,2.328137,2.658363
5255.061000000,0.255646,1.109358,0.138604,-1.159000,-0.159309,2.327898,2.780372
5255.062000000,0.255684,1.109337,0.138531,-1.159057,-0.116270,2.328139,2.658359
5255.094000000,0.255743,1.109340,0.138468,-1.159106,-0.158536,2.328361,2.778614
5255.097000000,0.255689,1.109342,0.138537,-1.159055,-0.116270,2.328137,2.658363
5255.128000000,0.255729,1.109328,0.138481,-1.159118,-0.158613,2.328363,2.778761
5255.131000000,0.255689,1.109339,0.138534,-1.159060,-0.116269,2.328139,2.658366
5255.162000000,0.255729,1.109327,0.138482,-1.159118,-0.158610,2.328363,2.778791
5255.165000000,0.255689,1.109345,0.138531,-1.159057,-0.116270,2.328136,2.658362
5255.196000000,0.255730,1.109326,0.138481,-1.159118,-0.158605,2.328363,2.778849
5255.199000000,0.255686,1.109342,0.138531,-1.159060,-0.116271,2.328138,2.658358
5255.231000000,0.255493,1.109288,0.138603,-1.158935,-0.168675,2.327914,2.789084
5255.233000000,0.255692,1.109342,0.138531,-1.159055,-0.116270,2.328139,2.658363
5255.264000000,0.255684,1.109342,0.138531,-1.159055,-0.116270,2.328137,2.658360
5255.266000000,0.255746,1.109306,0.138407,-1.159133,-0.165695,2.328444,2.779000
5255.299000000,0.255689,1.109339,0.138534,-1.159055,-0.116268,2.328138,2.658365
5255.301000000,0.255616,1.109272,0.138464,-1.159074,-0.173772,2.328449,2.787673
5255.332000000,0.255689,1.109342,0.138533,-1.159060,-0.116271,2.328139,2.658360
5255.335000000,0.255595,1.109208,0.138357,-1.159091,-0.184953,2.328551,2.801247
5255.366000000,0.255684,1.109339,0.138531,-1.159057,-0.116271,2.328136,2.658363
5255.369000000,0.255791,1.109383,0.138538,-1.159107,-0.174501,2.328066,2.769726
5255.400000000,0.255694,1.109345,0.138534,-1.159055,-0.116270,2.328137,2.658363
5255.403000000,0.255605,1.109272,0.138469,-1.159017,-0.189387,2.328212,2.803462
5255.434000000,0.255686,1.109337,0.138537,-1.159060,-0.116268,2.328137,2.658358
5255.437000000,0.255557,1.109269,0.138525,-1.158987,-0.196532,2.328009,2.795949
5255.469000000,0.255684,1.109342,0.138531,-1.159063,-0.116270,2.328141,2.658362
5255.471000000,0.255515,1.109260,0.138511,-1.158941,-0.208402,2.327980,2.793939
5255.502000000,0.255686,1.109339,0.138534,-1.159052,-0.116271,2.328136,2.658365
5255.505000000,0.255495,1.109257,0.138534,-1.158919,-0.219275,2.327893,2.792450
5255.537000000,0.255686,1.109342,0.138534,-1.159057,-0.116270,2.328136,2.658365
5255.539000000,0.255480,1.109257,0.138546,-1.158893,-0.230787,2.327831,2.793027
5255.570000000,0.255686,1.109345,0.138534,-1.159060,-0.116269,2.328138,2.658367
5255.573000000,0.255469,1.109256,0.138565,-1.158869,-0.242315,2.327758,2.795201
5255.604000000,0.255684,1.109345,0.138534,-1.159065,-0.116268,2.328139,2.658357
5255.607000000,0.255454,1.109264,0.138586,-1.158844,-0.254118,2.327688,2.799281
5255.638000000,0.255686,1.109339,0.138534,-1.159058,-0.116271,2.328137,2.658367
5255.641000000,0.255446,1.109242,0.138601,-1.158838,-0.266136,2.327620,2.805307
5255.672000000,0.255686,1.109341,0.138534,-1.159055,-0.116271,2.328138,2.658360
5255.675000000,0.255420,1.109253,0.138634,-1.158806,-0.278275,2.327546,2.813260
5255.705000000,0.255686,1.109345,0.138534,-1.159055,-0.116270,2.328137,2.658366
5255.710000000,0.255409,1.109250,0.138654,-1.158787,-0.290623,2.327468,2.823324
5255.739000000,0.255686,1.109342,0.138534,-1.159060,-0.116270,2.328138,2.658359
5255.743000000,0.255396,1.109249,0.138679,-1.158762,-0.303114,2.327348,2.835520
5255.774000000,0.255684,1.109342,0.138537,-1.159060,-0.116270,2.328138,2.658366
5255.778000000,0.255488,1.109201,0.138540,-1.158879,-0.315304,2.327677,2.848534
5255.807000000,0.255689,1.109345,0.138534,-1.159060,-0.116270,2.328140,2.658359
5255.812000000,0.255490,1.109210,0.138540,-1.158850,-0.328029,2.327447,2.865301
5255.841000000,0.255686,1.109345,0.138534,-1.159062,-0.116270,2.328139,2.658360
5255.847000000,0.255509,1.109191,0.138507,-1.158868,-0.340763,2.327242,2.884378
5255.875000000,0.255689,1.109342,0.138532,-1.159055,-0.116271,2.328136,2.658366
5255.880000000,0.255566,1.109222,0.138508,-1.158894,-0.349753,2.326894,2.897348
5255.909000000,0.255689,1.109342,0.138537,-1.159057,-0.116270,2.328134,2.658361
5255.915000000,0.255630,1.109309,0.138580,-1.158933,-0.351839,2.326861,2.897300
5255.943000000,0.255692,1.109342,0.138532,-1.159057,-0.116266,2.328137,2.658369
5255.948000000,0.255671,1.109341,0.138586,-1.158955,-0.354675,2.326788,2.897300
5255.977000000,0.255692,1.109342,0.138537,-1.159057,-0.116271,2.328136,2.658365
5255.983000000,0.255698,1.109369,0.138597,-1.158968,-0.356290,2.326774,2.897300
5256.011000000,0.255689,1.109347,0.138534,-1.159063,-0.116270,2.328138,2.658362
5256.016000000,0.255718,1.109371,0.138592,-1.158983,-0.357634,2.326733,2.897300
5256.044000000,0.255684,1.109339,0.138534,-1.159057,-0.116267,2.328137,2.658361
5256.051000000,0.255759,1.109374,0.138550,-1.159006,-0.358961,2.326767,2.896997
5256.078000000,0.255689,1.109342,0.138531,-1.159060,-0.116266,2.328137,2.658358
5256.084000000,0.255574,1.109319,0.138703,-1.158850,-0.368645,2.325826,2.894397
5256.111000000,0.255686,1.109342,0.138531,-1.159057,-0.116271,2.328139,2.658363
5256.118000000,0.255524,1.109256,0.138676,-1.158812,-0.380219,2.325319,2.894181
5256.144000000,0.255686,1.109345,0.138534,-1.159055,-0.116272,2.328136,2.658361
5256.153000000,0.255591,1.109204,0.138524,-1.158887,-0.391929,2.325159,2.895920
5256.179000000,0.255689,1.109342,0.138537,-1.159063,-0.116271,2.328137,2.658356
5256.187000000,0.255586,1.109206,0.138562,-1.158890,-0.401141,2.324499,2.891774
5256.213000000,0.255686,1.109345,0.138532,-1.159060,-0.116270,2.328138,2.658359
5256.221000000,0.255582,1.109163,0.138508,-1.158897,-0.414377,2.323898,2.891427
5256.247000000,0.255689,1.109342,0.138531,-1.159057,-0.116270,2.328137,2.658362
5256.255000000,0.255586,1.109137,0.138482,-1.158900,-0.427567,2.323195,2.894549
5256.281000000,0.255692,1.109339,0.138531,-1.159055,-0.116270,2.328138,2.658358
5256.289000000,0.255612,1.109138,0.138484,-1.158917,-0.438600,2.322423,2.893912
5256.315000000,0.255692,1.109342,0.138537,-1.159057,-0.116269,2.328136,2.658366
5256.324000000,0.255619,1.109113,0.138443,-1.158930,-0.452637,2.321614,2.895592
5256.350000000,0.255686,1.109342,0.138539,-1.159060,-0.116272,2.328138,2.658369
5256.357000000,0.255655,1.109111,0.138441,-1.158956,-0.463390,2.320691,2.891970
5256.383000000,0.255692,1.109342,0.138537,-1.159059,-0.116271,2.328138,2.658369
5256.393000000,0.255556,1.109131,0.138585,-1.158815,-0.478999,2.319171,2.892177
5256.417000000,0.255689,1.109339,0.138534,-1.159057,-0.116267,2.328137,2.658360
5256.427000000,0.255646,1.109071,0.138425,-1.158927,-0.493397,2.318517,2.893378
5256.451000000,0.255689,1.109345,0.138529,-1.159063,-0.116270,2.328136,2.658367
5256.461000000,0.255689,1.109072,0.138401,-1.158970,-0.505485,2.317417,2.893174
5256.485000000,0.255692,1.109339,0.138531,-1.159057,-0.116270,2.328139,2.658363
5256.495000000,0.255689,1.109055,0.138389,-1.158962,-0.520529,2.316216,2.890983
5256.518000000,0.255684,1.109339,0.138534,-1.159057,-0.116269,2.328137,2.658366
5256.529000000,0.255710,1.109016,0.138348,-1.158973,-0.535887,2.314940,2.893563
5256.551000000,0.255686,1.109345,0.138534,-1.159055,-0.116271,2.328137,2.658359
5256.564000000,0.255647,1.109070,0.138522,-1.158880,-0.549647,2.313078,2.894616
5256.585000000,0.255686,1.109345,0.138537,-1.159055,-0.116271,2.328139,2.658366
5256.598000000,0.255625,1.109062,0.138568,-1.158829,-0.565620,2.311473,2.892652
5256.619000000,0.255684,1.109339,0.138531,-1.159057,-0.116271,2.328141,2.658368
5256.632000000,0.255611,1.109045,0.138605,-1.158791,-0.581963,2.309788,2.895839
5256.653000000,0.255686,1.109339,0.138531,-1.159060,-0.116271,2.328138,2.658361
5256.666000000,0.255607,1.109065,0.138672,-1.158770,-0.595771,2.308068,2.895119
5256.687000000,0.255689,1.109342,0.138531,-1.159053,-0.116272,2.328137,2.658359
5256.702000000,0.255708,1.109004,0.138490,-1.158876,-0.612120,2.306742,2.894176
5256.721000000,0.255692,1.109342,0.138534,-1.159060,-0.116266,2.328137,2.658365
5256.736000000,0.256670,1.110320,0.138228,-1.159945,-0.511872,2.313398,2.813286
5256.755000000,0.255689,1.109345,0.138534,-1.159060,-0.116267,2.328136,2.658367
5256.770000000,0.257178,1.111072,0.138617,-1.160217,-0.402940,2.318310,2.753944
5256.789000000,0.255689,1.109337,0.138537,-1.159055,-0.116267,2.328137,2.658363
5256.804000000,0.257116,1.110909,0.138918,-1.159973,-0.321028,2.321097,2.724427
5256.823000000,0.255686,1.109337,0.138537,-1.159060,-0.116273,2.328139,2.658366
5256.838000000,0.256676,1.110296,0.138991,-1.159536,-0.262220,2.323202,2.716278
5256.856000000,0.255689,1.109342,0.138531,-1.159060,-0.116270,2.328138,2.658360
5256.872000000,0.256056,1.109522,0.138845,-1.159116,-0.225620,2.324718,2.717716
5256.890000000,0.255684,1.109345,0.138536,-1.159057,-0.116269,2.328137,2.658360
5256.906000000,0.255498,1.108890,0.138614,-1.158781,-0.202849,2.325820,2.721824
5256.924000000,0.255689,1.109342,0.138534,-1.159060,-0.116270,2.328137,2.658358
5256.940000000,0.255102,1.108498,0.138420,-1.158581,-0.188028,2.326606,2.727117
5256.958000000,0.255686,1.109339,0.138534,-1.159055,-0.116272,2.328138,2.658360
5256.974000000,0.254888,1.108341,0.138296,-1.158508,-0.178649,2.327146,2.733063
5256.992000000,0.255689,1.109342,0.138534,-1.159063,-0.116271,2.328136,2.658359
5257.009000000,0.254854,1.108360,0.138228,-1.158541,-0.172192,2.327515,2.738616
5257.027000000,0.255686,1.109345,0.138531,-1.159063,-0.116269,2.328137,2.658362
5257.042000000,0.254937,1.108510,0.138230,-1.158635,-0.167882,2.327767,2.743805
5257.061000000,0.255686,1.109342,0.138534,-1.159055,-0.116267,2.328137,2.658365
5257.076000000,0.255091,1.108717,0.138269,-1.158757,-0.164972,2.327934,2.748434
5257.094000000,0.255684,1.109345,0.138534,-1.159057,-0.116270,2.328137,2.658368
5257.110000000,0.255274,1.108929,0.138323,-1.158882,-0.162978,2.328042,2.752397
5257.129000000,0.255686,1.109342,0.138531,-1.159057,-0.116272,2.328135,2.658366
5257.144000000,0.255442,1.109124,0.138387,-1.158988,-0.161627,2.328118,2.756235
5257.163000000,0.255689,1.109342,0.138534,-1.159055,-0.116270,2.328139,2.658367
5257.179000000,0.255513,1.109295,0.138555,-1.158956,-0.161443,2.327717,2.761570
5257.195000000,0.255686,1.109342,0.138531,-1.159060,-0.116268,2.328140,2.658367
5257.212000000,0.255701,1.109373,0.138466,-1.159113,-0.160080,2.328204,2.762506
5257.229000000,0.255689,1.109347,0.138531,-1.159055,-0.116268,2.328138,2.658362
5257.246000000,0.255769,1.109425,0.138491,-1.159146,-0.159632,2.328233,2.765009
5257.264000000,0.255689,1.109347,0.138537,-1.159063,-0.116267,2.328139,2.658367
5257.281000000,0.255805,1.109443,0.138503,-1.159158,-0.159318,2.328256,2.767142
5257.297000000,0.255686,1.109339,0.138531,-1.159057,-0.116272,2.328138,2.658366
5257.314000000,0.255816,1.109437,0.138507,-1.159158,-0.159093,2.328276,2.768912
5257.331000000,0.255692,1.109337,0.138529,-1.159057,-0.116270,2.328138,2.658368
5257.348000000,0.255812,1.109416,0.138500,-1.159153,-0.158938,2.328291,2.770468
5257.365000000,0.255690,1.109342,0.138541,-1.159060,-0.116267,2.328138,2.658365
5257.383000000,0.255692,1.109419,0.138636,-1.159023,-0.159569,2.327852,2.773643
5257.399000000,0.255684,1.109342,0.138534,-1.159057,-0.116268,2.328137,2.658366
5257.417000000,0.255594,1.109373,0.138680,-1.158960,-0.162641,2.327758,2.777664
5257.432000000,0.255686,1.109342,0.138531,-1.159057,-0.116271,2.328137,2.658365
5257.452000000,0.255709,1.109305,0.138437,-1.159095,-0.167042,2.328284,2.778342
5257.466000000,0.255689,1.109342,0.138534,-1.159060,-0.116271,2.328138,2.658367
5257.485000000,0.255682,1.109371,0.138610,-1.159013,-0.164568,2.327840,2.772156
5257.499000000,0.255689,1.109339,0.138534,-1.159052,-0.116270,2.328138,2.658367
5257.519000000,0.255605,1.109377,0.138695,-1.158948,-0.166354,2.327743,2.771208
5257.533000000,0.255694,1.109342,0.138537,-1.159060,-0.116271,2.328138,2.658369
5257.553000000,0.255649,1.109332,0.138569,-1.159001,-0.170322,2.327816,2.771963
5257.567000000,0.255689,1.109342,0.138534,-1.159057,-0.116267,2.328139,2.658358
5257.587000000,0.255626,1.109389,0.138678,-1.158937,-0.169738,2.327709,2.770711
5257.601000000,0.255689,1.109345,0.138534,-1.159057,-0.116272,2.328137,2.658359
5257.621000000,0.255477,1.109300,0.138625,-1.158865,-0.183021,2.327643,2.786201
5257.636000000,0.255691,1.109345,0.138539,-1.159057,-0.116268,2.328136,2.658358
5257.655000000,0.255406,1.109264,0.138622,-1.158814,-0.195234,2.327562,2.801518
5257.669000000,0.255689,1.109342,0.138534,-1.159060,-0.116270,2.328137,2.658360
5257.689000000,0.255361,1.109253,0.138631,-1.158776,-0.207994,2.327484,2.818198
5257.703000000,0.255694,1.109345,0.138531,-1.159063,-0.116270,2.328137,2.658362
5257.723000000,0.255336,1.109222,0.138643,-1.158760,-0.221097,2.327405,2.836182
5257.737000000,0.255686,1.109345,0.138534,-1.159063,-0.116270,2.328137,2.658360
5257.759000000,0.255309,1.109234,0.138661,-1.158711,-0.235203,2.327310,2.856632
5257.771000000,0.255684,1.109344,0.138531,-1.159057,-0.116269,2.328136,2.658365
5257.792000000,0.255378,1.109178,0.138544,-1.158830,-0.247793,2.327737,2.875123
5257.805000000,0.255691,1.109345,0.138531,-1.159057,-0.116271,2.328138,2.658366
5257.826000000,0.255382,1.109163,0.138526,-1.158836,-0.261575,2.327721,2.897427
5257.838000000,0.255686,1.109342,0.138534,-1.159057,-0.116269,2.328137,2.658367
5257.860000000,0.255487,1.109267,0.138591,-1.158850,-0.264882,2.327564,2.897300
5257.872000000,0.255689,1.109347,0.138531,-1.159063,-0.116267,2.328135,2.658366
5257.894000000,0.255557,1.109315,0.138613,-1.158878,-0.267819,2.327568,2.897300
5257.905000000,0.255688,1.109342,0.138534,-1.159057,-0.116270,2.328136,2.658360
5257.928000000,0.255592,1.109339,0.138638,-1.158904,-0.269909,2.327570,2.897300
5257.939000000,0.255694,1.109339,0.138534,-1.159057,-0.116271,2.328137,2.658357
5257.962000000,0.255621,1.109359,0.138648,-1.158916,-0.271568,2.327570,2.897300
5257.974000000,0.255692,1.109342,0.138534,-1.159063,-0.116267,2.328138,2.658366
5257.996000000,0.255643,1.109371,0.138654,-1.158927,-0.272768,2.327572,2.897300
5258.006000000,0.255686,1.109345,0.138534,-1.159057,-0.116267,2.328138,2.658365
5258.031000000,0.255661,1.109391,0.138654,-1.158918,-0.273750,2.327558,2.897300
5258.041000000,0.255689,1.109347,0.138529,-1.159063,-0.116271,2.328136,2.658359
5258.065000000,0.255673,1.109399,0.138657,-1.158919,-0.274480,2.327556,2.897300
5258.075000000,0.255689,1.109339,0.138534,-1.159063,-0.116271,2.328137,2.658362
5258.099000000,0.255640,1.109355,0.138626,-1.158920,-0.279418,2.327607,2.897359
5258.108000000,0.255689,1.109342,0.138531,-1.159057,-0.116270,2.328137,2.658365
5258.133000000,0.255585,1.109293,0.138576,-1.158907,-0.288613,2.327475,2.890441
5258.142000000,0.255686,1.109345,0.138531,-1.159055,-0.116268,2.328138,2.658361
5258.168000000,0.255542,1.109229,0.138515,-1.158891,-0.301025,2.327319,2.888817
5258.176000000,0.255692,1.109342,0.138534,-1.159060,-0.116270,2.328139,2.658368
5258.202000000,0.256328,1.109665,0.138508,-1.159396,-0.252300,2.327701,2.801394
5258.211000000,0.255686,1.109340,0.138534,-1.159060,-0.116271,2.328138,2.658359
5258.236000000,0.256441,1.109838,0.138732,-1.159396,-0.216809,2.327754,2.753438
5258.244000000,0.255689,1.109347,0.138531,-1.159063,-0.116268,2.328138,2.658359
5258.270000000,0.256274,1.109735,0.138743,-1.159320,-0.193837,2.327863,2.719660
5258.278000000,0.255686,1.109339,0.138531,-1.159060,-0.116267,2.328135,2.658367
5258.304000000,0.255992,1.109535,0.138655,-1.159196,-0.179906,2.327963,2.695716
5258.312000000,0.255686,1.109345,0.138535,-1.159057,-0.116269,2.328138,2.658362
5258.338000000,0.255722,1.109334,0.138537,-1.159084,-0.171370,2.328058,2.678065
5258.346000000,0.255689,1.109345,0.138536,-1.159057,-0.116270,2.328136,2.658359
5258.373000000,0.255425,1.109223,0.138560,-1.158863,-0.167014,2.327705,2.666352
5258.381000000,0.255684,1.109345,0.138531,-1.159055,-0.116271,2.328138,2.658360
5258.407000000,0.255311,1.109144,0.138496,-1.158824,-0.163887,2.327774,2.656063
5258.413000000,0.255684,1.109339,0.138531,-1.159057,-0.116270,2.328138,2.658359
5258.442000000,0.255270,1.109104,0.138476,-1.158827,-0.161942,2.327827,2.647963
5258.448000000,0.255689,1.109342,0.138531,-1.159055,-0.116267,2.328139,2.658363
5258.475000000,0.255298,1.109122,0.138476,-1.158845,-0.160727,2.327860,2.641617
5258.483000000,0.255681,1.109342,0.138531,-1.159055,-0.116271,2.328139,2.658359
5258.509000000,0.255362,1.109166,0.138495,-1.158874,-0.160002,2.327882,2.636779
5258.516000000,0.255689,1.109342,0.138533,-1.159063,-0.116271,2.328138,2.658365
5258.543000000,0.255439,1.109220,0.138524,-1.158909,-0.159563,2.327894,2.633238
5258.550000000,0.255689,1.109342,0.138531,-1.159060,-0.116269,2.328138,2.658361
5258.577000000,0.255517,1.109271,0.138552,-1.158947,-0.159318,2.327900,2.630896
5258.584000000,0.255689,1.109345,0.138534,-1.159057,-0.116269,2.328138,2.658365
5258.611000000,0.255578,1.109323,0.138584,-1.158969,-0.159169,2.327904,2.629633
5258.616000000,0.255684,1.109342,0.138534,-1.159057,-0.116270,2.328137,2.658365
5258.645000000,0.255634,1.109343,0.138588,-1.158999,-0.159124,2.327905,2.629460
5258.651000000,0.255679,1.109342,0.138534,-1.159063,-0.116269,2.328138,2.658363
5258.680000000,0.255759,1.109351,0.138477,-1.159109,-0.158341,2.328317,2.628471
5258.685000000,0.255692,1.109342,0.138534,-1.159052,-0.116266,2.328138,2.658361
5258.714000000,0.255775,1.109361,0.138483,-1.159116,-0.158326,2.328319,2.630233
5258.719000000,0.255684,1.109345,0.138531,-1.159057,-0.116270,2.328138,2.658359
5258.748000000,0.255780,1.109364,0.138484,-1.159117,-0.158323,2.328321,2.632920
5258.753000000,0.255684,1.109345,0.138534,-1.159063,-0.116271,2.328139,2.658362
5258.782000000,0.255777,1.109360,0.138482,-1.159115,-0.158328,2.328325,2.636503
5258.787000000,0.255695,1.109337,0.138537,-1.159063,-0.116266,2.328136,2.658358
5258.817000000,0.255671,1.109373,0.138613,-1.159013,-0.159093,2.327913,2.642913
5258.821000000,0.255681,1.109339,0.138534,-1.159057,-0.116269,2.328139,2.658367
5258.851000000,0.255658,1.109373,0.138616,-1.159004,-0.159099,2.327915,2.648231
5258.854000000,0.255692,1.109342,0.138531,-1.159057,-0.116270,2.328137,2.658361
5258.885000000,0.255658,1.109354,0.138595,-1.159009,-0.159145,2.327915,2.654431
5258.888000000,0.255692,1.109339,0.138531,-1.159055,-0.116270,2.328139,2.658365
5258.919000000,0.255653,1.109349,0.138591,-1.159006,-0.159158,2.327915,2.661394
5258.921000000,0.255687,1.109345,0.138531,-1.159057,-0.116269,2.328137,2.658365
5258.953000000,0.255649,1.109345,0.138589,-1.159003,-0.159172,2.327915,2.669138
5258.955000000,0.255693,1.109342,0.138529,-1.159055,-0.116268,2.328137,2.658359
5258.987000000,0.255647,1.109344,0.138587,-1.159001,-0.159184,2.327914,2.677644
5258.990000000,0.255684,1.109345,0.138534,-1.159062,-0.116270,2.328136,2.658362
5259.021000000,0.255647,1.109343,0.138587,-1.159000,-0.159197,2.327913,2.686889
5259.024000000,0.255686,1.109342,0.138532,-1.159055,-0.116269,2.328138,2.658358
5259.056000000,0.255741,1.109330,0.138461,-1.159105,-0.158462,2.328342,2.695344
5259.058000000,0.255692,1.109342,0.138534,-1.159055,-0.116270,2.328137,2.658365
5259.090000000,0.255739,1.109336,0.138464,-1.159099,-0.158461,2.328349,2.706005
5259.092000000,0.255692,1.109342,0.138537,-1.159055,-0.116270,2.328136,2.658365
5259.124000000,0.255727,1.109326,0.138478,-1.159113,-0.158539,2.328353,2.717104
5259.126000000,0.255689,1.109342,0.138537,-1.159058,-0.116271,2.328137,2.658356
5259.158000000,0.255728,1.109327,0.138482,-1.159115,-0.158536,2.328354,2.726680
5259.160000000,0.255689,1.109345,0.138534,-1.159057,-0.116270,2.328139,2.658359
5259.192000000,0.255729,1.109329,0.138484,-1.159117,-0.158536,2.328355,2.734776
5259.194000000,0.255686,1.109342,0.138531,-1.159057,-0.116271,2.328137,2.658367
5259.227000000,0.255649,1.109353,0.138597,-1.159005,-0.159252,2.327902,2.743584
5259.227000000,0.255689,1.109342,0.138537,-1.159063,-0.116265,2.328137,2.658369
5259.261000000,0.255650,1.109353,0.138596,-1.159006,-0.159252,2.327901,2.749303
5259.262000000,0.255686,1.109337,0.138534,-1.159057,-0.116267,2.328140,2.658366
5259.295000000,0.255650,1.109354,0.138597,-1.159011,-0.159249,2.327901,2.754156
5259.296000000,0.255686,1.109345,0.138534,-1.159055,-0.116270,2.328138,2.658367
5259.329000000,0.255694,1.109342,0.138531,-1.159060,-0.116267,2.328138,2.658360
5259.330000000,0.255743,1.109343,0.138472,-1.159107,-0.158488,2.328357,2.756572
5259.362000000,0.255686,1.109347,0.138529,-1.159057,-0.116267,2.328136,2.658366
5259.364000000,0.255584,1.109278,0.138496,-1.159051,-0.167152,2.328374,2.767922
5259.396000000,0.255684,1.109342,0.138534,-1.159060,-0.116272,2.328135,2.658358
5259.397000000,0.255414,1.109236,0.138525,-1.158898,-0.181331,2.327987,2.785809
5259.429000000,0.255692,1.109345,0.138534,-1.159060,-0.116269,2.328137,2.658360
5259.430000000,0.255345,1.109201,0.138520,-1.158850,-0.195418,2.327913,2.803271
5259.462000000,0.255684,1.109339,0.138532,-1.159057,-0.116270,2.328138,2.658370
5259.466000000,0.255383,1.109140,0.138407,-1.158947,-0.209378,2.328319,2.820501
5259.495000000,0.255686,1.109342,0.138534,-1.159063,-0.116270,2.328137,2.658366
5259.501000000,0.255289,1.109142,0.138503,-1.158836,-0.224993,2.327898,2.842589
5259.529000000,0.255687,1.109337,0.138537,-1.159060,-0.116266,2.328140,2.658358
5259.534000000,0.255816,1.109428,0.138569,-1.159106,-0.200785,2.327982,2.795260
5259.563000000,0.255692,1.109342,0.138531,-1.159060,-0.116270,2.328136,2.658360
5259.569000000,0.256046,1.109536,0.138570,-1.159252,-0.184785,2.328377,2.754752
5259.596000000,0.255689,1.109339,0.138537,-1.159063,-0.116270,2.328138,2.658362
5259.603000000,0.256013,1.109536,0.138607,-1.159225,-0.175503,2.328327,2.723958
5259.630000000,0.255692,1.109342,0.138531,-1.159057,-0.116272,2.328137,2.658361
5259.637000000,0.255918,1.109475,0.138579,-1.159181,-0.169594,2.328312,2.697812
5259.663000000,0.255689,1.109342,0.138537,-1.159057,-0.116271,2.328142,2.658359
5259.671000000,0.255809,1.109400,0.138531,-1.159131,-0.165770,2.328309,2.675033
5259.696000000,0.255689,1.109345,0.138531,-1.159057,-0.116271,2.328139,2.658360
5259.706000000,0.255617,1.109351,0.138616,-1.158987,-0.163956,2.327896,2.656100
5259.730000000,0.255689,1.109342,0.138531,-1.159060,-0.116268,2.328139,2.658361
5259.740000000,0.255550,1.109312,0.138586,-1.158957,-0.162291,2.327910,2.638063
5259.764000000,0.255689,1.109339,0.138531,-1.159057,-0.116271,2.328138,2.658368
5259.774000000,0.255527,1.109273,0.138547,-1.158954,-0.161225,2.327920,2.622181
5259.797000000,0.255692,1.109342,0.138531,-1.159057,-0.116271,2.328136,2.658360
5259.808000000,0.255522,1.109265,0.138540,-1.158952,-0.160486,2.327927,2.609196
5259.831000000,0.255686,1.109339,0.138531,-1.159060,-0.116269,2.328136,2.658361
5259.842000000,0.255536,1.109272,0.138542,-1.158957,-0.159998,2.327931,2.598762
5259.865000000,0.255689,1.109345,0.138534,-1.159063,-0.116269,2.328138,2.658360
5259.876000000,0.255560,1.109284,0.138551,-1.158967,-0.159667,2.327933,2.590397
5259.899000000,0.255689,1.109345,0.138535,-1.159052,-0.116270,2.328141,2.658362
5259.910000000,0.255588,1.109303,0.138563,-1.158983,-0.159439,2.327934,2.583274
5259.933000000,0.255692,1.109339,0.138534,-1.159058,-0.116269,2.328137,2.658367
5259.944000000,0.255577,1.109322,0.138614,-1.158959,-0.160135,2.327886,2.578071
5259.967000000,0.255684,1.109342,0.138537,-1.159057,-0.116271,2.328137,2.658366
5259.978000000,0.255425,1.109264,0.138581,-1.158881,-0.173165,2.327815,2.580749
5260.000000000,0.255692,1.109347,0.138537,-1.159057,-0.116269,2.328136,2.658370
5260.012000000,0.255372,1.109238,0.138580,-1.158842,-0.184383,2.327756,2.580510
5260.034000000,0.255689,1.109345,0.138529,-1.159057,-0.116268,2.328138,2.658359
5260.046000000,0.255340,1.109228,0.138587,-1.158813,-0.196380,2.327696,2.582161
5260.068000000,0.255689,1.109339,0.138531,-1.159055,-0.116271,2.328137,2.658367
5260.080000000,0.255323,1.109224,0.138601,-1.158787,-0.208384,2.327632,2.585096
5260.101000000,0.255684,1.109342,0.138531,-1.159052,-0.116271,2.328139,2.658356
5260.114000000,0.255305,1.109230,0.138620,-1.158762,-0.220646,2.327570,2.589601
5260.135000000,0.255689,1.109342,0.138534,-1.159055,-0.116270,2.328138,2.658358
5260.148000000,0.255283,1.109216,0.138648,-1.158748,-0.233075,2.327509,2.595666
5260.169000000,0.255689,1.109337,0.138531,-1.159055,-0.116269,2.328136,2.658367
5260.182000000,0.255270,1.109217,0.138670,-1.158724,-0.245627,2.327443,2.603327
5260.202000000,0.255692,1.109339,0.138534,-1.159060,-0.116264,2.328138,2.658362
5260.216000000,0.255255,1.109216,0.138694,-1.158703,-0.258411,2.327375,2.612744
5260.236000000,0.255691,1.109345,0.138531,-1.159057,-0.116271,2.328138,2.658360
5260.250000000,0.255242,1.109215,0.138718,-1.158681,-0.271339,2.327307,2.623913
5260.271000000,0.255686,1.109345,0.138531,-1.159057,-0.116267,2.328138,2.658368
5260.284000000,0.255225,1.109219,0.138748,-1.158655,-0.284419,2.327236,2.636909
5260.304000000,0.255684,1.109345,0.138531,-1.159060,-0.116270,2.328137,2.658359
5260.318000000,0.255219,1.109204,0.138758,-1.158642,-0.297705,2.327164,2.651880
5260.340000000,0.255689,1.109345,0.138533,-1.159055,-0.116272,2.328139,2.658365
5260.352000000,0.255205,1.109202,0.138784,-1.158619,-0.311132,2.327089,2.668819
5260.373000000,0.255684,1.109345,0.138531,-1.159057,-0.116270,2.328136,2.658366
5260.386000000,0.255192,1.109198,0.138807,-1.158597,-0.324800,2.327012,2.687911
5260.405000000,0.255692,1.109345,0.138534,-1.159060,-0.116271,2.328140,2.658369
5260.421000000,0.255284,1.109176,0.138670,-1.158685,-0.338330,2.327423,2.708072
5260.439000000,0.255689,1.109339,0.138534,-1.159052,-0.116272,2.328136,2.658358
5260.455000000,0.255291,1.109164,0.138656,-1.158689,-0.352319,2.327453,2.731686
5260.473000000,0.255687,1.109342,0.138529,-1.159055,-0.116270,2.328140,2.658363
5260.489000000,0.255294,1.109144,0.138640,-1.158708,-0.366536,2.327525,2.757732
5260.507000000,0.255686,1.109342,0.138537,-1.159057,-0.116270,2.328138,2.658367
5260.523000000,0.255312,1.109128,0.138616,-1.158718,-0.380911,2.327475,2.786274
5260.541000000,0.255684,1.109342,0.138534,-1.159057,-0.116271,2.328138,2.658365
5260.556000000,0.255236,1.109154,0.138756,-1.158586,-0.395693,2.326761,2.816851
5260.574000000,0.255686,1.109345,0.138537,-1.159060,-0.116271,2.328139,2.658359
5260.591000000,0.255332,1.109102,0.138612,-1.158709,-0.410020,2.326833,2.847290
5260.608000000,0.255694,1.109345,0.138534,-1.159063,-0.116271,2.328137,2.658362
5260.625000000,0.255345,1.109087,0.138603,-1.158712,-0.424761,2.326297,2.879903
5260.642000000,0.255689,1.109342,0.138529,-1.159060,-0.116268,2.328138,2.658366
5260.659000000,0.255419,1.109124,0.138598,-1.158769,-0.434052,2.325806,2.897302
5260.676000000,0.255686,1.109342,0.138534,-1.159060,-0.116270,2.328139,2.658362
5260.693000000,0.255484,1.109232,0.138659,-1.158808,-0.437259,2.325670,2.897300
5260.709000000,0.255689,1.109347,0.138534,-1.159063,-0.116266,2.328136,2.658359
5260.727000000,0.255540,1.109299,0.138663,-1.158828,-0.440045,2.325573,2.897300
5260.743000000,0.255684,1.109339,0.138533,-1.159057,-0.116267,2.328141,2.658366
5260.761000000,0.255571,1.109334,0.138674,-1.158844,-0.442146,2.325489,2.897300
5260.777000000,0.255681,1.109342,0.138532,-1.159055,-0.116272,2.328137,2.658365
5260.795000000,0.255595,1.109363,0.138678,-1.158854,-0.443718,2.325435,2.897300
5260.809000000,0.255689,1.109342,0.138537,-1.159060,-0.116266,2.328138,2.658359
5260.829000000,0.255601,1.109369,0.138692,-1.158869,-0.444909,2.325390,2.897300
5260.844000000,0.255684,1.109342,0.138534,-1.159057,-0.116266,2.328136,2.658367
5260.863000000,0.255611,1.109382,0.138699,-1.158874,-0.445835,2.325349,2.897300
5260.876000000,0.255692,1.109342,0.138534,-1.159057,-0.116270,2.328137,2.658359
5260.897000000,0.255621,1.109395,0.138699,-1.158881,-0.446485,2.325345,2.897300
5260.911000000,0.255692,1.109345,0.138531,-1.159057,-0.116267,2.328138,2.658362
5260.931000000,0.255582,1.109320,0.138676,-1.158852,-0.453174,2.325059,2.897398
5260.945000000,0.255689,1.109347,0.138534,-1.159057,-0.116269,2.328136,2.658365
5260.965000000,0.255551,1.109228,0.138625,-1.158843,-0.462661,2.324322,2.892111
5260.979000000,0.255684,1.109345,0.138533,-1.159060,-0.116270,2.328138,2.658364
5260.999000000,0.255523,1.109142,0.138569,-1.158824,-0.475843,2.323490,2.894234
5261.013000000,0.255691,1.109339,0.138531,-1.159057,-0.116269,2.328138,2.658360
5261.034000000,0.255525,1.109105,0.138555,-1.158827,-0.487380,2.322527,2.894114
5261.046000000,0.255686,1.109339,0.138537,-1.159057,-0.116268,2.328137,2.658366
5261.068000000,0.256720,1.110047,0.138327,-1.159739,-0.398444,2.324144,2.815168
5261.079000000,0.255689,1.109339,0.138531,-1.159063,-0.116270,2.328137,2.658365
5261.102000000,0.257044,1.110503,0.138763,-1.159849,-0.316752,2.325172,2.778012
5261.113000000,0.255694,1.109345,0.138534,-1.159055,-0.116270,2.328136,2.658360
5261.136000000,0.256787,1.110435,0.139138,-1.159522,-0.255759,2.325349,2.757693
5261.147000000,0.255689,1.109342,0.138531,-1.159057,-0.116270,2.328141,2.658366
5261.171000000,0.256341,1.109896,0.138921,-1.159337,-0.216192,2.326492,2.744184
5261.181000000,0.255689,1.109339,0.138529,-1.159057,-0.116271,2.328135,2.658366
5261.203000000,0.255718,1.109417,0.138815,-1.158915,-0.195666,2.326510,2.742278
5261.215000000,0.255684,1.109345,0.138531,-1.159055,-0.116271,2.328139,2.658358
5261.238000000,0.255340,1.108961,0.138479,-1.158826,-0.180849,2.327370,2.740714
5261.249000000,0.255684,1.109345,0.138534,-1.159057,-0.116268,2.328137,2.658363
5261.272000000,0.255060,1.108722,0.138328,-1.158718,-0.172557,2.327658,2.742851
5261.282000000,0.255689,1.109342,0.138531,-1.159063,-0.116271,2.328138,2.658368
5261.306000000,0.254955,1.108648,0.138248,-1.158692,-0.167320,2.327867,2.746073
5261.316000000,0.255700,1.109345,0.138534,-1.159055,-0.116267,2.328138,2.658366
5261.340000000,0.254988,1.108693,0.138228,-1.158731,-0.163944,2.328015,2.749389
5261.350000000,0.255686,1.109345,0.138537,-1.159059,-0.116271,2.328139,2.658360
5261.374000000,0.255103,1.108815,0.138257,-1.158803,-0.161837,2.328113,2.752994
5261.384000000,0.255689,1.109347,0.138534,-1.159060,-0.116273,2.328137,2.658368
5261.408000000,0.255270,1.108971,0.138300,-1.158879,-0.160515,2.328179,2.756311
5261.418000000,0.255689,1.109339,0.138532,-1.159057,-0.116271,2.328137,2.658360
5261.442000000,0.255431,1.109114,0.138361,-1.158965,-0.159720,2.328217,2.759225
5261.450000000,0.255678,1.109345,0.138531,-1.159063,-0.116269,2.328139,2.658367
5261.477000000,0.255479,1.109261,0.138553,-1.158928,-0.159956,2.327792,2.763840
5261.483000000,0.255694,1.109342,0.138534,-1.159057,-0.116270,2.328138,2.658363
5261.511000000,0.255587,1.109348,0.138596,-1.158982,-0.159657,2.327810,2.766292
5261.517000000,0.255687,1.109342,0.138531,-1.159060,-0.116268,2.328138,2.658367
5261.545000000,0.255661,1.109404,0.138624,-1.159015,-0.159472,2.327824,2.768376
5261.551000000,0.255689,1.109345,0.138537,-1.159057,-0.116271,2.328137,2.658358
5261.578000000,0.255802,1.109406,0.138500,-1.159147,-0.158616,2.328288,2.768336
5261.585000000,0.255692,1.109337,0.138529,-1.159055,-0.116271,2.328138,2.658362
5261.613000000,0.255714,1.109441,0.138649,-1.159033,-0.159304,2.327846,2.771791
5261.619000000,0.255686,1.109342,0.138529,-1.159057,-0.116270,2.328137,2.658358
5261.649000000,0.255728,1.109416,0.138627,-1.159040,-0.159299,2.327858,2.773310
5261.653000000,0.255689,1.109347,0.138534,-1.159055,-0.116268,2.328139,2.658360
5261.683000000,0.255701,1.109409,0.138632,-1.159023,-0.159295,2.327866,2.774437
5261.687000000,0.255697,1.109345,0.138531,-1.159060,-0.116265,2.328137,2.658368
5261.717000000,0.255684,1.109392,0.138623,-1.159013,-0.159286,2.327874,2.775431
5261.721000000,0.255689,1.109339,0.138534,-1.159057,-0.116270,2.328136,2.658369
5261.751000000,0.255668,1.109376,0.138615,-1.159005,-0.159281,2.327880,2.776216
5261.755000000,0.255695,1.109339,0.138534,-1.159060,-0.116270,2.328136,2.658357
5261.786000000,0.255746,1.109324,0.138479,-1.159125,-0.158545,2.328339,2.775163
5261.788000000,0.255692,1.109339,0.138534,-1.159057,-0.116270,2.328139,2.658370
5261.819000000,0.255648,1.109352,0.138603,-1.158998,-0.159279,2.327889,2.777509
5261.821000000,0.255689,1.109339,0.138534,-1.159063,-0.116267,2.328136,2.658365
5261.854000000,0.255729,1.109315,0.138476,-1.159119,-0.158541,2.328349,2.776231
5261.856000000,0.255695,1.109342,0.138534,-1.159060,-0.116267,2.328137,2.658361
5261.887000000,0.255643,1.109339,0.138589,-1.158999,-0.159309,2.327893,2.778535
5261.889000000,0.255692,1.109345,0.138531,-1.159060,-0.116270,2.328138,2.658368
5261.922000000,0.255737,1.109324,0.138462,-1.159105,-0.158559,2.328354,2.777046
5261.923000000,0.255689,1.109342,0.138534,-1.159055,-0.116270,2.328138,2.658359
5261.956000000,0.255739,1.109327,0.138463,-1.159105,-0.158559,2.328355,2.777367
5261.957000000,0.255695,1.109342,0.138531,-1.159055,-0.116269,2.328137,2.658361
5261.991000000,0.255642,1.109354,0.138601,-1.158994,-0.159312,2.327898,2.779404
5261.991000000,0.255687,1.109345,0.138531,-1.159063,-0.116270,2.328138,2.658367
5262.024000000,0.255697,1.109347,0.138534,-1.159055,-0.116269,2.328137,2.658361
5262.026000000,0.255644,1.109356,0.138603,-1.158995,-0.159310,2.327899,2.779637
5262.059000000,0.255501,1.109333,0.138675,-1.158904,-0.165712,2.327781,2.786049
5262.062000000,0.255697,1.109345,0.138534,-1.159057,-0.116270,2.328138,2.658367
5262.093000000,0.255617,1.109335,0.138577,-1.158985,-0.165714,2.327864,2.781571
5262.095000000,0.255687,1.109345,0.138534,-1.159060,-0.116270,2.328137,2.658359
5262.127000000,0.255679,1.109371,0.138604,-1.159013,-0.163159,2.327869,2.773974
5262.128000000,0.255689,1.109347,0.138532,-1.159063,-0.116267,2.328139,2.658361
5262.161000000,0.255692,1.109342,0.138531,-1.159057,-0.116270,2.328138,2.658363
5262.162000000,0.255793,1.109372,0.138491,-1.159126,-0.160761,2.328332,2.766263
5262.195000000,0.255692,1.109342,0.138534,-1.159060,-0.116272,2.328138,2.658365
5262.197000000,0.255542,1.109341,0.138647,-1.158941,-0.169429,2.327884,2.771553
5262.229000000,0.255689,1.109345,0.138532,-1.159055,-0.116270,2.328136,2.658362
5262.232000000,0.255508,1.109221,0.138462,-1.159011,-0.183040,2.328287,2.779729
5262.264000000,0.255684,1.109342,0.138534,-1.159063,-0.116269,2.328138,2.658370
5262.267000000,0.255370,1.109219,0.138540,-1.158861,-0.198078,2.327884,2.792437
5262.297000000,0.255689,1.109342,0.138534,-1.159063,-0.116270,2.328137,2.658365
5262.301000000,0.255773,1.109419,0.138583,-1.159060,-0.180887,2.327954,2.756695
5262.331000000,0.255692,1.109339,0.138537,-1.159057,-0.116269,2.328139,2.658368
5262.336000000,0.255852,1.109499,0.138666,-1.159081,-0.172692,2.327917,2.730336
5262.365000000,0.255687,1.109342,0.138534,-1.159052,-0.116270,2.328137,2.658359
5262.369000000,0.255839,1.109478,0.138685,-1.159085,-0.167622,2.327897,2.708289
5262.399000000,0.255695,1.109345,0.138531,-1.159057,-0.116269,2.328138,2.658359
5262.404000000,0.255858,1.109412,0.138546,-1.159170,-0.163624,2.328323,2.686995
5262.432000000,0.255689,1.109342,0.138534,-1.159055,-0.116270,2.328137,2.658366
5262.438000000,0.255790,1.109367,0.138515,-1.159140,-0.161612,2.328321,2.670444
5262.465000000,0.255692,1.109339,0.138534,-1.159055,-0.116270,2.328137,2.658368
5262.472000000,0.255732,1.109325,0.138485,-1.159114,-0.160401,2.328324,2.655876
5262.499000000,0.255687,1.109342,0.138531,-1.159057,-0.116271,2.328136,2.658361
5262.506000000,0.255693,1.109292,0.138461,-1.159098,-0.159608,2.328325,2.642916
5262.533000000,0.255692,1.109342,0.138529,-1.159057,-0.116272,2.328138,2.658368
5262.540000000,0.255667,1.109282,0.138452,-1.159087,-0.159100,2.328330,2.631408
5262.567000000,0.255689,1.109342,0.138531,-1.159055,-0.116267,2.328136,2.658363
5262.574000000,0.255656,1.109285,0.138450,-1.159065,-0.159109,2.328326,2.621545
5262.600000000,0.255697,1.109345,0.138535,-1.159055,-0.116269,2.328138,2.658363
5262.608000000,0.255505,1.109199,0.138390,-1.159015,-0.171164,2.328382,2.623380
5262.633000000,0.255692,1.109339,0.138537,-1.159057,-0.116269,2.328138,2.658369
5262.642000000,0.255594,1.109177,0.138236,-1.159073,-0.178089,2.328514,2.625343
5262.667000000,0.255689,1.109344,0.138537,-1.159057,-0.116268,2.328139,2.658358
5262.676000000,0.255650,1.109308,0.138531,-1.158999,-0.172334,2.328032,2.639098
5262.700000000,0.255692,1.109342,0.138537,-1.159063,-0.116271,2.328139,2.658363
5262.710000000,0.255529,1.109269,0.138542,-1.158952,-0.181412,2.328026,2.651300
5262.734000000,0.255689,1.109339,0.138534,-1.159060,-0.116270,2.328137,2.658365
5262.744000000,0.255457,1.109212,0.138503,-1.158917,-0.193000,2.327953,2.660176
5262.766000000,0.255695,1.109342,0.138534,-1.159060,-0.116270,2.328139,2.658371
5262.779000000,0.255631,1.109238,0.138384,-1.159032,-0.195455,2.328017,2.665716
5262.800000000,0.255692,1.109342,0.138531,-1.159059,-0.116269,2.328138,2.658367
5262.813000000,0.255744,1.109397,0.138641,-1.159007,-0.185269,2.327873,2.672788
5262.833000000,0.255692,1.109339,0.138534,-1.159057,-0.116270,2.328138,2.658366
5262.847000000,0.255755,1.109347,0.138522,-1.159075,-0.188246,2.327923,2.682527
5262.867000000,0.255689,1.109339,0.138534,-1.159060,-0.116270,2.328139,2.658359
5262.881000000,0.255775,1.109432,0.138677,-1.159036,-0.179837,2.327814,2.674546
5262.901000000,0.255692,1.109337,0.138529,-1.159060,-0.116266,2.328139,2.658368
5262.915000000,0.255660,1.109301,0.138482,-1.159046,-0.190898,2.328187,2.683743
5262.934000000,0.255692,1.109342,0.138534,-1.159052,-0.116270,2.328136,2.658363
5262.950000000,0.255561,1.109234,0.138455,-1.159024,-0.201957,2.328200,2.695081
5262.967000000,0.255692,1.109345,0.138534,-1.159057,-0.116267,2.328136,2.658363
5262.984000000,0.255448,1.109221,0.138532,-1.158907,-0.214573,2.327821,2.710143
5263.002000000,0.255695,1.109337,0.138534,-1.159060,-0.116269,2.328139,2.658358
5263.019000000,0.255423,1.109203,0.138534,-1.158890,-0.226726,2.327793,2.724732
5263.036000000,0.255689,1.109345,0.138534,-1.159057,-0.116271,2.328137,2.658361
5263.053000000,0.255398,1.109194,0.138552,-1.158863,-0.239364,2.327710,2.740996
5263.071000000,0.255689,1.109339,0.138532,-1.159060,-0.116270,2.328136,2.658358
5263.087000000,0.255378,1.109186,0.138570,-1.158842,-0.252302,2.327632,2.758875
5263.105000000,0.255689,1.109347,0.138534,-1.159060,-0.116270,2.328136,2.658362
5263.121000000,0.255361,1.109182,0.138589,-1.158812,-0.265547,2.327563,2.778460
5263.138000000,0.255689,1.109339,0.138534,-1.159057,-0.116270,2.328138,2.658360
5263.155000000,0.255345,1.109191,0.138611,-1.158772,-0.279039,2.327465,2.799814
5263.171000000,0.255692,1.109342,0.138537,-1.159060,-0.116269,2.328136,2.658365
5263.189000000,0.255330,1.109189,0.138634,-1.158743,-0.292730,2.327378,2.822988
5263.204000000,0.255689,1.109339,0.138534,-1.159055,-0.116269,2.328138,2.658358
5263.222000000,0.255315,1.109186,0.138658,-1.158711,-0.306678,2.327222,2.848149
5263.238000000,0.255695,1.109342,0.138529,-1.159057,-0.116270,2.328136,2.658368
5263.257000000,0.255304,1.109180,0.138682,-1.158679,-0.320732,2.326947,2.875284
5263.272000000,0.255684,1.109347,0.138526,-1.159065,-0.116270,2.328135,2.658355
5263.291000000,0.255368,1.109181,0.138622,-1.158747,-0.332934,2.326835,2.897626
5263.306000000,0.255659,1.109358,0.138524,-1.159073,-0.116269,2.328134,2.658366
5263.325000000,0.255470,1.109262,0.138672,-1.158810,-0.335767,2.326827,2.897300
5263.339000000,0.255670,1.109355,0.138526,-1.159068,-0.116272,2.328136,2.658360
5263.359000000,0.255529,1.109319,0.138690,-1.158841,-0.338572,2.326802,2.897300
5263.374000000,0.255683,1.109339,0.138529,-1.159052,-0.116271,2.328134,2.658359
5263.393000000,0.255568,1.109341,0.138698,-1.158865,-0.340631,2.326756,2.897300
5263.408000000,0.255667,1.109350,0.138524,-1.159071,-0.116271,2.328135,2.658367
5263.426000000,0.255588,1.109369,0.138715,-1.158874,-0.342146,2.326742,2.897300
5263.441000000,0.255669,1.109368,0.138523,-1.159078,-0.116271,2.328134,2.658362
5263.460000000,0.255609,1.109375,0.138712,-1.158888,-0.343331,2.326720,2.897300
5263.475000000,0.255692,1.109350,0.138534,-1.159060,-0.116271,2.328136,2.658361
5263.494000000,0.255622,1.109384,0.138716,-1.158895,-0.344249,2.326706,2.897300
5263.509000000,0.255678,1.109329,0.138531,-1.159057,-0.116268,2.328135,2.658367
5263.529000000,0.255639,1.109404,0.138714,-1.158886,-0.344950,2.326696,2.897300
5263.543000000,0.255678,1.109358,0.138528,-1.159068,-0.116271,2.328134,2.658359
5263.563000000,0.255635,1.109402,0.138726,-1.158896,-0.345477,2.326694,2.897300
5263.577000000,0.255688,1.109365,0.138531,-1.159070,-0.116271,2.328136,2.658358
5263.597000000,0.255599,1.109350,0.138707,-1.158891,-0.350436,2.326657,2.896016
5263.611000000,0.255684,1.109337,0.138531,-1.159055,-0.116269,2.328136,2.658364
5263.631000000,0.255555,1.109278,0.138662,-1.158875,-0.359639,2.326280,2.892705
5263.645000000,0.255673,1.109331,0.138529,-1.159060,-0.116270,2.328135,2.658360
5263.666000000,0.255414,1.109232,0.138763,-1.158735,-0.373128,2.325305,2.894586
5263.678000000,0.255678,1.109363,0.138529,-1.159081,-0.116267,2.328129,2.658368
5263.700000000,0.255366,1.109187,0.138776,-1.158688,-0.386660,2.324599,2.898764
5263.713000000,0.255692,1.109370,0.138529,-1.159091,-0.116270,2.328130,2.658368
5263.734000000,0.256591,1.109851,0.138469,-1.159567,-0.311257,2.325974,2.830335
5263.746000000,0.255684,1.109355,0.138531,-1.159064,-0.116272,2.328135,2.658361
5263.768000000,0.256778,1.110196,0.138883,-1.159583,-0.250114,2.326348,2.784735
5263.780000000,0.255657,1.109342,0.138521,-1.159045,-0.116267,2.328138,2.658367
5263.803000000,0.256402,1.110040,0.139050,-1.159308,-0.213576,2.326347,2.761391
5263.814000000,0.255670,1.109345,0.138528,-1.159054,-0.116269,2.328136,2.658359
5263.837000000,0.255979,1.109693,0.138896,-1.159099,-0.191750,2.326745,2.749487
5263.848000000,0.255667,1.109345,0.138529,-1.159063,-0.116268,2.328138,2.658363
5263.871000000,0.255566,1.109350,0.138709,-1.158916,-0.178691,2.327053,2.745205
5263.882000000,0.255672,1.109342,0.138526,-1.159063,-0.116268,2.328137,2.658365
5263.905000000,0.255255,1.109094,0.138555,-1.158788,-0.170867,2.327276,2.745049
5263.916000000,0.255696,1.109337,0.138531,-1.159050,-0.116270,2.328137,2.658366
5263.939000000,0.255090,1.108956,0.138449,-1.158727,-0.166083,2.327461,2.746946
5263.949000000,0.255697,1.109338,0.138534,-1.159055,-0.116270,2.328137,2.658368
5263.973000000,0.255051,1.108919,0.138400,-1.158718,-0.163153,2.327597,2.749805
5263.984000000,0.255692,1.109342,0.138534,-1.159065,-0.116270,2.328137,2.658363
5264.007000000,0.255103,1.108952,0.138400,-1.158747,-0.161403,2.327687,2.753047
5264.017000000,0.255689,1.109339,0.138534,-1.159052,-0.116271,2.328138,2.658362
5264.041000000,0.255210,1.109031,0.138433,-1.158806,-0.160307,2.327748,2.756260
5264.050000000,0.255673,1.109334,0.138531,-1.159045,-0.116266,2.328139,2.658363
5264.075000000,0.255336,1.109129,0.138478,-1.158856,-0.159743,2.327799,2.759410
5264.083000000,0.255668,1.109342,0.138524,-1.159055,-0.116270,2.328137,2.658362
5264.110000000,0.255538,1.109196,0.138416,-1.159029,-0.158712,2.328271,2.760602
5264.116000000,0.255691,1.109342,0.138534,-1.159057,-0.116270,2.328137,2.658366
5264.143000000,0.255556,1.109309,0.138564,-1.158941,-0.159261,2.327825,2.764896
5264.150000000,0.255752,1.109337,0.138540,-1.159060,-0.116269,2.328138,2.658362
5264.177000000,0.255631,1.109363,0.138592,-1.158975,-0.159180,2.327836,2.767145
5264.184000000,0.255807,1.109334,0.138550,-1.159060,-0.116272,2.328137,2.658357
5264.211000000,0.255689,1.109397,0.138606,-1.158996,-0.159140,2.327845,2.769086
5264.219000000,0.255786,1.109345,0.138549,-1.159068,-0.116269,2.328135,2.658359
5264.246000000,0.255814,1.109370,0.138504,-1.159142,-0.158412,2.328317,2.769068
5264.254000000,0.255733,1.109339,0.138530,-1.159057,-0.116270,2.328138,2.658365
5264.280000000,0.255841,1.109376,0.138515,-1.159149,-0.158418,2.328326,2.770547
5264.288000000,0.255733,1.109329,0.138529,-1.159046,-0.116269,2.328138,2.658363
5264.314000000,0.255849,1.109368,0.138521,-1.159136,-0.158468,2.328314,2.771864
5264.321000000,0.255735,1.109341,0.138532,-1.159052,-0.116269,2.328138,2.658363
5264.348000000,0.255846,1.109349,0.138505,-1.159140,-0.158474,2.328330,2.772966
5264.354000000,0.255754,1.109347,0.138532,-1.159065,-0.116270,2.328137,2.658368
5264.383000000,0.255750,1.109385,0.138615,-1.158995,-0.159234,2.327878,2.775695
5264.388000000,0.255784,1.109332,0.138545,-1.159052,-0.116270,2.328137,2.658365
5264.419000000,0.255733,1.109357,0.138606,-1.159008,-0.159241,2.327886,2.776543
5264.421000000,0.255779,1.109337,0.138546,-1.159060,-0.116271,2.328138,2.658365
5264.454000000,0.255820,1.109334,0.138475,-1.159109,-0.158502,2.328347,2.775356
5264.455000000,0.255760,1.109345,0.138540,-1.159068,-0.116269,2.328136,2.658359
5264.488000000,0.255817,1.109328,0.138474,-1.159107,-0.158510,2.328350,2.775938
5264.488000000,0.255760,1.109339,0.138540,-1.159063,-0.116266,2.328137,2.658366
5264.522000000,0.255816,1.109325,0.138473,-1.159111,-0.158513,2.328351,2.776389
5264.523000000,0.255752,1.109337,0.138538,-1.159047,-0.116271,2.328136,2.658368
5264.556000000,0.255813,1.109331,0.138475,-1.159103,-0.158504,2.328357,2.776781
5264.558000000,0.255749,1.109339,0.138535,-1.159057,-0.116270,2.328139,2.658359
5264.590000000,0.255798,1.109320,0.138487,-1.159115,-0.158589,2.328360,2.777214
5264.591000000,0.255770,1.109339,0.138545,-1.159063,-0.116269,2.328136,2.658366
5264.624000000,0.255797,1.109320,0.138486,-1.159117,-0.158589,2.328361,2.777458
5264.626000000,0.255771,1.109339,0.138540,-1.159057,-0.116269,2.328137,2.658366
5264.659000000,0.255718,1.109345,0.138597,-1.159002,-0.159307,2.327897,2.779530
5264.659000000,0.255760,1.109333,0.138540,-1.159060,-0.116269,2.328135,2.658358
5264.691000000,0.255763,1.109342,0.138540,-1.159063,-0.116270,2.328136,2.658362
5264.694000000,0.255814,1.109330,0.138472,-1.159108,-0.158555,2.328355,2.777870
5264.724000000,0.255760,1.109339,0.138543,-1.159063,-0.116271,2.328138,2.658360
5264.728000000,0.255678,1.109279,0.138489,-1.159043,-0.166560,2.328363,2.785352
5264.759000000,0.255757,1.109339,0.138540,-1.159052,-0.116270,2.328137,2.658361
5264.762000000,0.255590,1.109201,0.138394,-1.159021,-0.180245,2.328460,2.798518
5264.793000000,0.255765,1.109337,0.138543,-1.159057,-0.116270,2.328138,2.658366
5264.796000000,0.255537,1.109148,0.138362,-1.159026,-0.193880,2.328541,2.812419
5264.827000000,0.255765,1.109337,0.138538,-1.159060,-0.116269,2.328137,2.658359
5264.830000000,0.255522,1.109119,0.138329,-1.159031,-0.207770,2.328623,2.827465
5264.860000000,0.255763,1.109337,0.138540,-1.159057,-0.116271,2.328136,2.658363
5264.865000000,0.255435,1.109122,0.138426,-1.158920,-0.222962,2.328204,2.846002
5264.894000000,0.255760,1.109337,0.138540,-1.159055,-0.116270,2.328138,2.658367
5264.899000000,0.255417,1.109112,0.138444,-1.158895,-0.237498,2.328128,2.863853
5264.929000000,0.255757,1.109336,0.138538,-1.159055,-0.116269,2.328137,2.658359
5264.933000000,0.255397,1.109105,0.138467,-1.158870,-0.252467,2.328023,2.883382
5264.961000000,0.255760,1.109337,0.138540,-1.159057,-0.116271,2.328138,2.658358
5264.967000000,0.255478,1.109111,0.138391,-1.158932,-0.264969,2.328129,2.897483
5264.995000000,0.255765,1.109339,0.138538,-1.159057,-0.116271,2.328138,2.658359
5265.001000000,0.256195,1.109489,0.138427,-1.159340,-0.227843,2.328393,2.824797
5265.028000000,0.255763,1.109342,0.138543,-1.159057,-0.116270,2.328138,2.658361
5265.036000000,0.256331,1.109669,0.138637,-1.159355,-0.202335,2.328285,2.765263
5265.062000000,0.255763,1.109342,0.138543,-1.159063,-0.116270,2.328136,2.658359
5265.070000000,0.256132,1.109658,0.138811,-1.159178,-0.186900,2.327781,2.720621
5265.096000000,0.255760,1.109342,0.138543,-1.159060,-0.116270,2.328138,2.658362
5265.104000000,0.255938,1.109543,0.138764,-1.159085,-0.177198,2.327792,2.688640
5265.130000000,0.255757,1.109337,0.138543,-1.159057,-0.116270,2.328139,2.658369
5265.138000000,0.255758,1.109398,0.138668,-1.159015,-0.170894,2.327814,2.661381
5265.163000000,0.255765,1.109339,0.138543,-1.159057,-0.116271,2.328140,2.658367
5265.172000000,0.255614,1.109291,0.138592,-1.158955,-0.166779,2.327851,2.638809
5265.197000000,0.255763,1.109337,0.138543,-1.159057,-0.116271,2.328137,2.658360
5265.207000000,0.255616,1.109207,0.138412,-1.159013,-0.163305,2.328290,2.619018
5265.230000000,0.255760,1.109335,0.138543,-1.159060,-0.116270,2.328141,2.658357
5265.241000000,0.255582,1.109177,0.138387,-1.158998,-0.161522,2.328305,2.605076
5265.264000000,0.255765,1.109342,0.138543,-1.159054,-0.116271,2.328138,2.658363
5265.274000000,0.255496,1.109190,0.138509,-1.158910,-0.161161,2.327916,2.596490
5265.299000000,0.255760,1.109337,0.138538,-1.159060,-0.116270,2.328134,2.658368
5265.308000000,0.255531,1.109227,0.138519,-1.158901,-0.160456,2.327921,2.589178
5265.333000000,0.255760,1.109339,0.138532,-1.159057,-0.116270,2.328136,2.658366
5265.343000000,0.255579,1.109257,0.138538,-1.158922,-0.159943,2.327923,2.583173
5265.367000000,0.255763,1.109339,0.138543,-1.159052,-0.116269,2.328138,2.658368
5265.377000000,0.255596,1.109290,0.138590,-1.158920,-0.160409,2.327873,2.579125
5265.400000000,0.255757,1.109336,0.138540,-1.159063,-0.116270,2.328138,2.658360
5265.410000000,0.255453,1.109232,0.138571,-1.158853,-0.173271,2.327802,2.581875
5265.435000000,0.255763,1.109337,0.138543,-1.159055,-0.116269,2.328137,2.658358
5265.445000000,0.255483,1.109179,0.138456,-1.158941,-0.184052,2.328153,2.579260
5265.463000000,0.255765,1.109336,0.138540,-1.159057,-0.116268,2.328139,2.658365
5265.487000000,0.255762,1.109252,0.138345,-1.159030,-0.184244,2.328253,2.592378
5265.496000000,0.255754,1.109339,0.138538,-1.159059,-0.116270,2.328137,2.658366
5265.520000000,0.255825,1.109379,0.138611,-1.158991,-0.176106,2.327865,2.623936
5265.524000000,0.255765,1.109337,0.138540,-1.159060,-0.116270,2.328139,2.658366
5265.554000000,0.255953,1.109396,0.138563,-1.159135,-0.169148,2.328281,2.651522
5265.554000000,0.255760,1.109339,0.138540,-1.159063,-0.116271,2.328137,2.658361
5265.588000000,0.255797,1.109427,0.138728,-1.158984,-0.168565,2.327837,2.674167
5265.597000000,0.255760,1.109337,0.138538,-1.159060,-0.116270,2.328139,2.658360
5265.623000000,0.255909,1.109371,0.138520,-1.159159,-0.166741,2.328364,2.678784
5265.631000000,0.255760,1.109339,0.138540,-1.159055,-0.116271,2.328137,2.658359
5265.658000000,0.255908,1.109386,0.138538,-1.159157,-0.162674,2.328345,2.682196
5265.665000000,0.255760,1.109334,0.138540,-1.159060,-0.116270,2.328137,2.658363
5265.692000000,0.255788,1.109393,0.138637,-1.159035,-0.161118,2.327904,2.690100
5265.699000000,0.255760,1.109334,0.138543,-1.159057,-0.116271,2.328137,2.658367
5265.726000000,0.255744,1.109371,0.138617,-1.159012,-0.159884,2.327915,2.697692
5265.732000000,0.255765,1.109337,0.138538,-1.159057,-0.116271,2.328137,2.658368
5265.760000000,0.255708,1.109361,0.138598,-1.158982,-0.159256,2.327900,2.706569
5265.767000000,0.255760,1.109339,0.138540,-1.159055,-0.116267,2.328137,2.658361
5265.794000000,0.255685,1.109344,0.138585,-1.158971,-0.158937,2.327901,2.716419
5265.798000000,0.255757,1.109337,0.138543,-1.159057,-0.116269,2.328137,2.658363
5265.828000000,0.255672,1.109335,0.138580,-1.158966,-0.158805,2.327901,2.726465
5265.830000000,0.255757,1.109337,0.138540,-1.159057,-0.116269,2.328137,2.658363
5265.862000000,0.255672,1.109332,0.138580,-1.158967,-0.158767,2.327900,2.734998
5265.862000000,0.255760,1.109339,0.138538,-1.159057,-0.116267,2.328136,2.658365
5265.894000000,0.255763,1.109339,0.138543,-1.159057,-0.116270,2.328137,2.658365
5265.896000000,0.255677,1.109342,0.138585,-1.158971,-0.158783,2.327902,2.742188
5265.928000000,0.255763,1.109334,0.138540,-1.159055,-0.116271,2.328139,2.658358
5265.929000000,0.255511,1.109292,0.138652,-1.158881,-0.167338,2.327779,2.756376
5265.961000000,0.255757,1.109337,0.138543,-1.159055,-0.116270,2.328137,2.658363
5265.965000000,0.255486,1.109182,0.138475,-1.158952,-0.180954,2.328168,2.774685
5265.996000000,0.255765,1.109337,0.138540,-1.159055,-0.116270,2.328137,2.658365
5265.998000000,0.255345,1.109177,0.138570,-1.158816,-0.195234,2.327762,2.796126
5266.030000000,0.255754,1.109339,0.138543,-1.159057,-0.116271,2.328138,2.658368
5266.033000000,0.255394,1.109115,0.138441,-1.158912,-0.209284,2.328163,2.816330
5266.064000000,0.255763,1.109334,0.138540,-1.159055,-0.116269,2.328137,2.658365
5266.066000000,0.255289,1.109137,0.138561,-1.158784,-0.224033,2.327741,2.839860
5266.098000000,0.255760,1.109339,0.138535,-1.159062,-0.116267,2.328138,2.658365
5266.101000000,0.255373,1.109098,0.138424,-1.158879,-0.238534,2.328165,2.862519
5266.132000000,0.255754,1.109336,0.138540,-1.159063,-0.116267,2.328138,2.658363
5266.136000000,0.255899,1.109440,0.138605,-1.159103,-0.209695,2.327825,2.807974
5266.167000000,0.255765,1.109339,0.138540,-1.159057,-0.116268,2.328136,2.658363
5266.172000000,0.256058,1.109566,0.138710,-1.159176,-0.191379,2.328102,2.765831
5266.199000000,0.255763,1.109339,0.138540,-1.159057,-0.116267,2.328137,2.658360
5266.206000000,0.255785,1.109368,0.138513,-1.159074,-0.206342,2.328205,2.793470
5266.234000000,0.255760,1.109339,0.138543,-1.159060,-0.116267,2.328139,2.658359
5266.240000000,0.255676,1.109295,0.138541,-1.159052,-0.214412,2.328214,2.788617
5266.267000000,0.255763,1.109337,0.138545,-1.159060,-0.116270,2.328139,2.658362
5266.274000000,0.255649,1.109252,0.138471,-1.159046,-0.226220,2.328301,2.788541
5266.300000000,0.255763,1.109337,0.138540,-1.159057,-0.116270,2.328137,2.658366
5266.307000000,0.255559,1.109280,0.138587,-1.158914,-0.237777,2.327856,2.791182
5266.334000000,0.255757,1.109342,0.138543,-1.159054,-0.116270,2.328137,2.658366
5266.343000000,0.255645,1.109226,0.138442,-1.159057,-0.249063,2.328388,2.792430
5266.368000000,0.255763,1.109339,0.138540,-1.159057,-0.116271,2.328136,2.658363
5266.375000000,0.255548,1.109274,0.138593,-1.158894,-0.261308,2.327825,2.798937
5266.402000000,0.255754,1.109342,0.138538,-1.159057,-0.116270,2.328138,2.658368
5266.409000000,0.255545,1.109249,0.138586,-1.158915,-0.273369,2.327879,2.805750
5266.435000000,0.255763,1.109342,0.138540,-1.159057,-0.116269,2.328136,2.658363
5266.444000000,0.255630,1.109213,0.138462,-1.159018,-0.285310,2.328280,2.813161
5266.469000000,0.255763,1.109336,0.138540,-1.159055,-0.116271,2.328138,2.658362
5266.478000000,0.255627,1.109207,0.138466,-1.159013,-0.297720,2.328257,2.824207
5266.503000000,0.255763,1.109339,0.138540,-1.159057,-0.116272,2.328136,2.658366
5266.512000000,0.255642,1.109190,0.138437,-1.159031,-0.310251,2.328271,2.837445
5266.537000000,0.255765,1.109336,0.138540,-1.159060,-0.116271,2.328137,2.658362
5266.546000000,0.255654,1.109180,0.138419,-1.159042,-0.322923,2.328187,2.852965
5266.571000000,0.255763,1.109337,0.138538,-1.159055,-0.116270,2.328137,2.658358
5266.580000000,0.255680,1.109173,0.138386,-1.159041,-0.335696,2.328005,2.870847
5266.604000000,0.255765,1.109342,0.138540,-1.159057,-0.116269,2.328137,2.658367
5266.614000000,0.255698,1.109157,0.138363,-1.159051,-0.348623,2.327734,2.891215
5266.638000000,0.255760,1.109339,0.138545,-1.159057,-0.116269,2.328139,2.658361
5266.647000000,0.255694,1.109214,0.138489,-1.159034,-0.355984,2.327075,2.897524
5266.671000000,0.255759,1.109339,0.138540,-1.159057,-0.116271,2.328137,2.658366
5266.682000000,0.255825,1.109285,0.138444,-1.159120,-0.358212,2.327255,2.897300
5266.705000000,0.255763,1.109339,0.138543,-1.159063,-0.116272,2.328139,2.658366
5266.715000000,0.255856,1.109331,0.138472,-1.159118,-0.360563,2.327116,2.897300
5266.739000000,0.255760,1.109339,0.138540,-1.159055,-0.116268,2.328138,2.658367
5266.750000000,0.255875,1.109347,0.138485,-1.159146,-0.362299,2.327092,2.897300
5266.772000000,0.255760,1.109336,0.138540,-1.159057,-0.116267,2.328137,2.658363
5266.784000000,0.255893,1.109353,0.138483,-1.159153,-0.363565,2.327043,2.897300
5266.806000000,0.255757,1.109342,0.138543,-1.159063,-0.116270,2.328138,2.658363
5266.818000000,0.255918,1.109334,0.138450,-1.159186,-0.365284,2.327038,2.897405
5266.840000000,0.255757,1.109337,0.138538,-1.159060,-0.116269,2.328139,2.658368
5266.851000000,0.255842,1.109252,0.138422,-1.159152,-0.374966,2.326605,2.893481
5266.874000000,0.255757,1.109337,0.138535,-1.159055,-0.116271,2.328136,2.658357
5266.886000000,0.255811,1.109185,0.138369,-1.159140,-0.386424,2.326164,2.894455
5266.908000000,0.255763,1.109339,0.138545,-1.159052,-0.116270,2.328141,2.658361
5266.920000000,0.255839,1.109157,0.138316,-1.159183,-0.396123,2.325668,2.894239
5266.941000000,0.255760,1.109342,0.138540,-1.159055,-0.116269,2.328136,2.658366
5266.954000000,0.255812,1.109131,0.138317,-1.159155,-0.408627,2.325027,2.894091
5266.975000000,0.255763,1.109339,0.138538,-1.159062,-0.116272,2.328138,2.658360
5266.988000000,0.255822,1.109115,0.138282,-1.159140,-0.421448,2.324304,2.896837
5267.009000000,0.255760,1.109342,0.138540,-1.159057,-0.116271,2.328138,2.658369
5267.022000000,0.255844,1.109107,0.138265,-1.159160,-0.432488,2.323607,2.892128
5267.043000000,0.255763,1.109342,0.138540,-1.159055,-0.116271,2.328138,2.658360
5267.056000000,0.255854,1.109076,0.138221,-1.159162,-0.446301,2.322824,2.893572
5267.077000000,0.255760,1.109337,0.138540,-1.159057,-0.116270,2.328136,2.658363
5267.090000000,0.255912,1.109070,0.138145,-1.159214,-0.458559,2.322108,2.895117
5267.109000000,0.255762,1.109342,0.138540,-1.159057,-0.116272,2.328138,2.658361
5267.125000000,0.255777,1.109088,0.138373,-1.159068,-0.473101,2.320527,2.894214
5267.144000000,0.255760,1.109337,0.138538,-1.159057,-0.116269,2.328138,2.658361
5267.158000000,0.255884,1.109032,0.138186,-1.159180,-0.486615,2.319974,2.894950
5267.177000000,0.255763,1.109337,0.138543,-1.159052,-0.116271,2.328137,2.658359
5267.193000000,0.255801,1.109069,0.138383,-1.159067,-0.499757,2.318297,2.894691
5267.211000000,0.255763,1.109340,0.138540,-1.159057,-0.116270,2.328138,2.658359
5267.227000000,0.255787,1.109048,0.138395,-1.159047,-0.514981,2.317027,2.894902
5267.244000000,0.255760,1.109339,0.138540,-1.159057,-0.116270,2.328138,2.658366
5267.261000000,0.255784,1.109031,0.138407,-1.159051,-0.529897,2.315745,2.897512
5267.278000000,0.255763,1.109342,0.138540,-1.159055,-0.116269,2.328136,2.658365
5267.295000000,0.255768,1.109045,0.138477,-1.159002,-0.543366,2.314229,2.894633
5267.312000000,0.255760,1.109339,0.138543,-1.159055,-0.116269,2.328138,2.658359
5267.329000000,0.255752,1.109037,0.138505,-1.158957,-0.559234,2.312679,2.897385
5267.346000000,0.255760,1.109342,0.138540,-1.159057,-0.116267,2.328138,2.658367
5267.362000000,0.255860,1.109010,0.138361,-1.159075,-0.571330,2.311700,2.893488
5267.379000000,0.255763,1.109339,0.138541,-1.159059,-0.116269,2.328137,2.658363
5267.396000000,0.255875,1.108979,0.138325,-1.159083,-0.587105,2.310197,2.895106
5267.414000000,0.255763,1.109337,0.138540,-1.159060,-0.116272,2.328137,2.658362
5267.431000000,0.255788,1.109031,0.138530,-1.158958,-0.601821,2.308058,2.894941
5267.448000000,0.255760,1.109339,0.138540,-1.159065,-0.116271,2.328137,2.658365
5267.464000000,0.255902,1.108980,0.138330,-1.159057,-0.616898,2.306863,2.893629
5267.482000000,0.255757,1.109341,0.138538,-1.159052,-0.116272,2.328137,2.658359
5267.498000000,0.255950,1.108980,0.138270,-1.159099,-0.631310,2.305272,2.895000
5267.515000000,0.255763,1.109342,0.138538,-1.159055,-0.116270,2.328136,2.658366
5267.532000000,0.255965,1.108958,0.138262,-1.159083,-0.647389,2.303439,2.896502
5267.549000000,0.255760,1.109339,0.138538,-1.159057,-0.116270,2.328137,2.658366
5267.567000000,0.255857,1.108990,0.138486,-1.158982,-0.663279,2.301043,2.896736
5267.582000000,0.255765,1.109339,0.138540,-1.159057,-0.116268,2.328138,2.658366
5267.601000000,0.255863,1.108982,0.138524,-1.158989,-0.677876,2.298963,2.895543
5267.616000000,0.255763,1.109339,0.138540,-1.159055,-0.116269,2.328137,2.658359
5267.634000000,0.256734,1.110323,0.137960,-1.160133,-0.582959,2.308051,2.816247
5267.649000000,0.255763,1.109337,0.138535,-1.159057,-0.116270,2.328137,2.658362
5267.669000000,0.256157,1.109948,0.138545,-1.159453,-0.592712,2.306921,2.826618
5267.683000000,0.255757,1.109334,0.138543,-1.159057,-0.116270,2.328136,2.658368
5267.703000000,0.257025,1.110681,0.138044,-1.160348,-0.499106,2.313615,2.769974
5267.718000000,0.255760,1.109337,0.138543,-1.159057,-0.116270,2.328137,2.658370
5267.737000000,0.257395,1.111144,0.138512,-1.160362,-0.391084,2.317948,2.732568
5267.752000000,0.255763,1.109340,0.138543,-1.159057,-0.116270,2.328136,2.658368
5267.772000000,0.257090,1.110834,0.139088,-1.159836,-0.304792,2.320450,2.720826
5267.785000000,0.255765,1.109339,0.138538,-1.159058,-0.116267,2.328140,2.658369
5267.806000000,0.256542,1.110069,0.139117,-1.159326,-0.249273,2.322662,2.721950
5267.819000000,0.255757,1.109337,0.138540,-1.159055,-0.116271,2.328138,2.658367
5267.840000000,0.255872,1.109256,0.138926,-1.158858,-0.216502,2.324244,2.725562
5267.856000000,0.255768,1.109340,0.138540,-1.159063,-0.116269,2.328137,2.658358
5267.874000000,0.255300,1.108648,0.138689,-1.158522,-0.197065,2.325370,2.730820
5267.888000000,0.255763,1.109337,0.138540,-1.159063,-0.116268,2.328137,2.658357
5267.908000000,0.254940,1.108302,0.138484,-1.158358,-0.184862,2.326154,2.736427
5267.922000000,0.255763,1.109334,0.138543,-1.159057,-0.116271,2.328138,2.658361
5267.942000000,0.254788,1.108221,0.138369,-1.158329,-0.176674,2.326704,2.741753
5267.955000000,0.255760,1.109337,0.138538,-1.159062,-0.116271,2.328139,2.658362
5267.976000000,0.254805,1.108322,0.138329,-1.158397,-0.171185,2.327078,2.746602
5267.990000000,0.255757,1.109339,0.138538,-1.159052,-0.116266,2.328136,2.658357
5268.010000000,0.254932,1.108529,0.138347,-1.158522,-0.167437,2.327325,2.751310
5268.023000000,0.255757,1.109339,0.138540,-1.159057,-0.116268,2.328137,2.658359
5268.045000000,0.255198,1.108758,0.138289,-1.158775,-0.164171,2.327947,2.753663
5268.057000000,0.255760,1.109339,0.138540,-1.159055,-0.116271,2.328136,2.658358
5268.079000000,0.255391,1.108990,0.138353,-1.158908,-0.162467,2.328051,2.757184
5268.090000000,0.255763,1.109335,0.138540,-1.159057,-0.116268,2.328136,2.658365
5268.114000000,0.255488,1.109208,0.138528,-1.158904,-0.161998,2.327662,2.762259
5268.124000000,0.255763,1.109334,0.138540,-1.159055,-0.116268,2.328137,2.658366
5268.148000000,0.255625,1.109343,0.138578,-1.158983,-0.161181,2.327709,2.764986
5268.158000000,0.255760,1.109339,0.138538,-1.159057,-0.116271,2.328137,2.658360
5268.183000000,0.255817,1.109410,0.138488,-1.159137,-0.159864,2.328201,2.765621
5268.191000000,0.255763,1.109344,0.138543,-1.159063,-0.116270,2.328138,2.658358
5268.217000000,0.255872,1.109445,0.138507,-1.159164,-0.159477,2.328229,2.767632
5268.226000000,0.255763,1.109339,0.138540,-1.159063,-0.116269,2.328137,2.658367
5268.251000000,0.255894,1.109454,0.138517,-1.159164,-0.159187,2.328259,2.769375
5268.259000000,0.255760,1.109337,0.138540,-1.159057,-0.116271,2.328137,2.658367
5268.286000000,0.255800,1.109449,0.138641,-1.159056,-0.159792,2.327819,2.772760
5268.292000000,0.255760,1.109334,0.138540,-1.159057,-0.116271,2.328136,2.658369
5268.321000000,0.255880,1.109406,0.138508,-1.159148,-0.158907,2.328294,2.772219
5268.326000000,0.255762,1.109342,0.138540,-1.159063,-0.116267,2.328137,2.658365
5268.355000000,0.255862,1.109378,0.138499,-1.159134,-0.158807,2.328309,2.773227
5268.360000000,0.255768,1.109337,0.138540,-1.159055,-0.116270,2.328139,2.658366
5268.389000000,0.255843,1.109354,0.138489,-1.159121,-0.158736,2.328322,2.774135
5268.394000000,0.255763,1.109336,0.138543,-1.159063,-0.116269,2.328137,2.658365
5268.423000000,0.255828,1.109334,0.138482,-1.159111,-0.158681,2.328332,2.774838
5268.428000000,0.255757,1.109337,0.138543,-1.159057,-0.116270,2.328137,2.658362
5268.458000000,0.255718,1.109343,0.138613,-1.158996,-0.159399,2.327882,2.777332
5268.462000000,0.255760,1.109339,0.138543,-1.159060,-0.116270,2.328137,2.658362
5268.492000000,0.255705,1.109345,0.138617,-1.158986,-0.159362,2.327888,2.777885
5268.496000000,0.255760,1.109338,0.138538,-1.159060,-0.116267,2.328136,2.658366
5268.526000000,0.255710,1.109330,0.138597,-1.158995,-0.159375,2.327889,2.778365
5268.530000000,0.255760,1.109339,0.138540,-1.159054,-0.116268,2.328137,2.658363
5268.560000000,0.255709,1.109332,0.138596,-1.158995,-0.159358,2.327892,2.778767
5268.563000000,0.255760,1.109337,0.138535,-1.159057,-0.116271,2.328139,2.658361
5268.594000000,0.255711,1.109335,0.138595,-1.158996,-0.159345,2.327894,2.779050
5268.598000000,0.255760,1.109337,0.138540,-1.159052,-0.116271,2.328136,2.658358
5268.628000000,0.255713,1.109339,0.138596,-1.158997,-0.159334,2.327894,2.779345
5268.631000000,0.255763,1.109337,0.138540,-1.159057,-0.116267,2.328136,2.658357
5268.662000000,0.255716,1.109341,0.138597,-1.158999,-0.159323,2.327895,2.779531
5268.665000000,0.255757,1.109332,0.138538,-1.159057,-0.116270,2.328137,2.658357
