yuan18844-afk/dissertation/catkin_ws/src/franka_digital_twin/analysis/data/real_smooth1_20250728_072246.csv
time,panda_joint1,panda_joint2,panda_joint3,panda_joint4,panda_joint5,panda_joint6,panda_joint7
898.318000000,0.457040,1.141225,-0.162364,-1.143697,0.073646,2.414770,2.314367
898.322000000,0.456784,1.141129,-0.162370,-1.143590,0.012692,2.414566,2.378787
898.351000000,0.457028,1.141232,-0.162366,-1.143700,0.073649,2.414773,2.314375
898.356000000,0.456710,1.141082,-0.162369,-1.143561,0.001042,2.414522,2.393469
898.387000000,0.457030,1.141229,-0.162364,-1.143700,0.073648,2.414766,2.314374
898.398000000,0.456665,1.141053,-0.162371,-1.143526,-0.013838,2.414468,2.416371
898.418000000,0.457035,1.141232,-0.162361,-1.143697,0.073649,2.414768,2.314374
898.432000000,0.456628,1.141019,-0.162372,-1.143502,-0.027039,2.414411,2.439467
898.452000000,0.457027,1.141227,-0.162361,-1.143700,0.073649,2.414769,2.314371
898.466000000,0.456603,1.141014,-0.162370,-1.143458,-0.040682,2.414353,2.466113
898.486000000,0.457038,1.141231,-0.162364,-1.143700,0.073647,2.414772,2.314377
898.502000000,0.456660,1.140975,-0.162453,-1.143539,-0.054296,2.414602,2.495123
898.519000000,0.457033,1.141231,-0.162366,-1.143695,0.073647,2.414771,2.314376
898.535000000,0.457286,1.141437,-0.162227,-1.143762,-0.024730,2.414513,2.450100
898.553000000,0.457027,1.141230,-0.162366,-1.143697,0.073646,2.414773,2.314369
898.570000000,0.457533,1.141612,-0.162119,-1.143876,-0.002247,2.414761,2.412279
898.586000000,0.457032,1.141225,-0.162363,-1.143700,0.073646,2.414768,2.314374
898.603000000,0.457394,1.141574,-0.162043,-1.143766,0.009697,2.414508,2.391424
898.621000000,0.457030,1.141232,-0.162364,-1.143700,0.073648,2.414772,2.314372
898.638000000,0.457314,1.141446,-0.162226,-1.143787,0.019160,2.414782,2.373813
898.655000000,0.457030,1.141232,-0.162364,-1.143702,0.073647,2.414768,2.314377
898.672000000,0.457130,1.141295,-0.162316,-1.143737,0.024492,2.414816,2.365010
898.689000000,0.457040,1.141225,-0.162361,-1.143697,0.073649,2.414768,2.314377
898.706000000,0.456994,1.141167,-0.162416,-1.143703,0.027963,2.414839,2.361365
898.722000000,0.457036,1.141225,-0.162361,-1.143700,0.073648,2.414771,2.314368
898.740000000,0.456908,1.141107,-0.162483,-1.143658,0.030265,2.414863,2.362110
898.749000000,0.457033,1.141227,-0.162363,-1.143700,0.073648,2.414766,2.314370
898.774000000,0.456862,1.141062,-0.162502,-1.143654,0.031716,2.414888,2.366843
898.775000000,0.457038,1.141230,-0.162364,-1.143697,0.073648,2.414769,2.314376
898.807000000,0.457024,1.141231,-0.162366,-1.143697,0.073647,2.414767,2.314372
898.808000000,0.456868,1.141048,-0.162512,-1.143663,0.032650,2.414889,2.375205
898.841000000,0.456791,1.141064,-0.162392,-1.143585,0.032096,2.414620,2.385798
898.843000000,0.457035,1.141230,-0.162366,-1.143700,0.073648,2.414767,2.314376
898.875000000,0.456732,1.141021,-0.162531,-1.143580,0.022520,2.414716,2.403268
898.878000000,0.457041,1.141230,-0.162364,-1.143697,0.073647,2.414771,2.314374
898.909000000,0.456875,1.141103,-0.162422,-1.143629,0.026667,2.414679,2.404144
898.913000000,0.457022,1.141225,-0.162366,-1.143695,0.073648,2.414769,2.314376
898.944000000,0.457041,1.141186,-0.162431,-1.143725,0.030106,2.414918,2.404670
898.948000000,0.457040,1.141225,-0.162366,-1.143697,0.073648,2.414767,2.314375
898.979000000,0.457016,1.141240,-0.162321,-1.143648,0.031005,2.414640,2.409618
898.983000000,0.457043,1.141227,-0.162364,-1.143702,0.073648,2.414768,2.314369
899.013000000,0.457027,1.141251,-0.162295,-1.143663,0.032000,2.414635,2.412676
899.018000000,0.457030,1.141229,-0.162369,-1.143700,0.073647,2.414765,2.314373
899.048000000,0.457116,1.141259,-0.162390,-1.143740,0.033377,2.414884,2.413857
899.053000000,0.457042,1.141229,-0.162361,-1.143697,0.073646,2.414767,2.314369
899.082000000,0.457101,1.141249,-0.162383,-1.143746,0.033732,2.414890,2.416648
899.087000000,0.457035,1.141231,-0.162361,-1.143697,0.073648,2.414770,2.314367
899.117000000,0.457018,1.141254,-0.162313,-1.143652,0.033277,2.414621,2.420937
899.121000000,0.457032,1.141230,-0.162366,-1.143695,0.073647,2.414771,2.314373
899.150000000,0.457087,1.141244,-0.162404,-1.143732,0.034148,2.414885,2.421181
899.154000000,0.457036,1.141232,-0.162366,-1.143702,0.073648,2.414773,2.314368
899.185000000,0.456997,1.141226,-0.162320,-1.143663,0.033521,2.414626,2.424963
899.188000000,0.457041,1.141229,-0.162363,-1.143708,0.073646,2.414767,2.314371
899.220000000,0.457068,1.141226,-0.162403,-1.143738,0.034274,2.414897,2.424826
899.223000000,0.457037,1.141227,-0.162361,-1.143702,0.073645,2.414770,2.314368
899.254000000,0.457070,1.141214,-0.162409,-1.143747,0.034280,2.414888,2.426275
899.256000000,0.457027,1.141228,-0.162364,-1.143695,0.073646,2.414766,2.314375
899.287000000,0.457074,1.141230,-0.162415,-1.143730,0.034320,2.414890,2.427415
899.290000000,0.457030,1.141232,-0.162369,-1.143702,0.073648,2.414767,2.314377
899.321000000,0.457066,1.141223,-0.162402,-1.143737,0.034296,2.414896,2.428446
899.324000000,0.457046,1.141229,-0.162364,-1.143695,0.073649,2.414768,2.314373
899.356000000,0.457072,1.141215,-0.162409,-1.143745,0.034299,2.414888,2.429313
899.359000000,0.457031,1.141227,-0.162361,-1.143700,0.073646,2.414768,2.314373
899.389000000,0.457077,1.141233,-0.162412,-1.143729,0.034318,2.414889,2.430050
899.392000000,0.457027,1.141232,-0.162364,-1.143702,0.073647,2.414766,2.314369
899.424000000,0.457073,1.141226,-0.162400,-1.143738,0.034299,2.414898,2.430701
899.426000000,0.457036,1.141227,-0.162364,-1.143700,0.073650,2.414766,2.314368
899.458000000,0.457077,1.141217,-0.162404,-1.143746,0.034278,2.414888,2.431295
899.460000000,0.457032,1.141226,-0.162361,-1.143698,0.073648,2.414767,2.314372
899.492000000,0.457081,1.141235,-0.162410,-1.143731,0.034304,2.414889,2.431685
899.494000000,0.457035,1.141232,-0.162361,-1.143700,0.073648,2.414769,2.314369
899.526000000,0.457074,1.141228,-0.162397,-1.143738,0.034272,2.414897,2.432081
899.527000000,0.457040,1.141230,-0.162361,-1.143700,0.073647,2.414767,2.314376
899.560000000,0.457079,1.141219,-0.162403,-1.143747,0.034274,2.414888,2.432398
899.561000000,0.457033,1.141232,-0.162366,-1.143702,0.073649,2.414768,2.314376
899.594000000,0.457083,1.141236,-0.162408,-1.143731,0.034292,2.414890,2.432664
899.596000000,0.457024,1.141227,-0.162364,-1.143700,0.073648,2.414766,2.314375
899.627000000,0.457004,1.141241,-0.162323,-1.143647,0.033564,2.414625,2.434766
899.630000000,0.457038,1.141227,-0.162361,-1.143697,0.073647,2.414767,2.314375
899.661000000,0.456995,1.141233,-0.162311,-1.143654,0.033556,2.414628,2.434935
899.663000000,0.457033,1.141230,-0.162369,-1.143700,0.073645,2.414770,2.314373
899.696000000,0.457083,1.141236,-0.162411,-1.143730,0.034283,2.414891,2.433303
899.696000000,0.457030,1.141232,-0.162364,-1.143700,0.073647,2.414766,2.314375
899.731000000,0.456999,1.141223,-0.162321,-1.143663,0.033560,2.414627,2.435236
899.731000000,0.457049,1.141231,-0.162361,-1.143697,0.073647,2.414771,2.314369
899.764000000,0.457027,1.141229,-0.162366,-1.143697,0.073648,2.414768,2.314379
899.765000000,0.457078,1.141219,-0.162406,-1.143746,0.034257,2.414890,2.433547
899.798000000,0.456906,1.141114,-0.162442,-1.143698,0.024333,2.414884,2.444453
899.798000000,0.457027,1.141234,-0.162366,-1.143697,0.073648,2.414768,2.314376
899.832000000,0.456815,1.141044,-0.162537,-1.143664,0.011120,2.414946,2.461525
899.832000000,0.457046,1.141229,-0.162364,-1.143697,0.073648,2.414770,2.314366
899.866000000,0.457017,1.141233,-0.162364,-1.143700,0.073648,2.414771,2.314371
899.866000000,0.457047,1.141233,-0.162343,-1.143716,0.021034,2.414696,2.432066
899.899000000,0.457038,1.141231,-0.162361,-1.143697,0.073648,2.414772,2.314366
899.902000000,0.456960,1.141154,-0.162425,-1.143688,0.011048,2.414882,2.454347
899.933000000,0.457051,1.141228,-0.162358,-1.143697,0.073648,2.414768,2.314369
899.935000000,0.457147,1.141325,-0.162271,-1.143722,0.021161,2.414638,2.419672
899.966000000,0.457019,1.141232,-0.162361,-1.143702,0.073646,2.414768,2.314375
899.969000000,0.457174,1.141365,-0.162214,-1.143728,0.026162,2.414616,2.389786
900.000000000,0.457046,1.141225,-0.162366,-1.143700,0.073648,2.414768,2.314373
900.003000000,0.456944,1.141175,-0.162356,-1.143630,0.012208,2.414638,2.425397
900.034000000,0.457030,1.141229,-0.162366,-1.143700,0.073647,2.414769,2.314375
900.037000000,0.456867,1.141159,-0.162299,-1.143606,0.005146,2.414520,2.419465
900.068000000,0.457030,1.141225,-0.162364,-1.143705,0.073647,2.414770,2.314374
900.071000000,0.456827,1.141122,-0.162343,-1.143590,-0.005980,2.414510,2.420837
900.102000000,0.457044,1.141227,-0.162358,-1.143695,0.073649,2.414771,2.314366
900.105000000,0.456812,1.141131,-0.162329,-1.143555,-0.016105,2.414462,2.424744
900.135000000,0.457027,1.141232,-0.162364,-1.143702,0.073648,2.414770,2.314371
900.139000000,0.456792,1.141114,-0.162312,-1.143546,-0.026777,2.414430,2.432604
900.170000000,0.457040,1.141227,-0.162361,-1.143697,0.073648,2.414767,2.314370
900.174000000,0.456873,1.141112,-0.162409,-1.143605,-0.037044,2.414672,2.442492
900.204000000,0.457041,1.141228,-0.162364,-1.143700,0.073647,2.414770,2.314376
900.207000000,0.456781,1.141108,-0.162307,-1.143500,-0.048469,2.414359,2.458983
900.238000000,0.457024,1.141228,-0.162361,-1.143705,0.073645,2.414771,2.314374
900.241000000,0.456785,1.141094,-0.162315,-1.143508,-0.059508,2.414395,2.477510
900.272000000,0.457041,1.141229,-0.162360,-1.143700,0.073651,2.414764,2.314365
900.276000000,0.456864,1.141092,-0.162404,-1.143570,-0.070402,2.414639,2.498214
900.306000000,0.457035,1.141230,-0.162366,-1.143698,0.073647,2.414766,2.314370
900.310000000,0.456853,1.141077,-0.162391,-1.143570,-0.081861,2.414643,2.522034
900.340000000,0.457027,1.141232,-0.162366,-1.143702,0.073649,2.414766,2.314375
900.344000000,0.456870,1.141060,-0.162419,-1.143590,-0.093355,2.414696,2.547158
900.373000000,0.457043,1.141227,-0.162364,-1.143700,0.073648,2.414769,2.314377
900.378000000,0.456885,1.141070,-0.162438,-1.143585,-0.104937,2.414745,2.573575
900.408000000,0.457035,1.141227,-0.162361,-1.143705,0.073648,2.414768,2.314372
900.412000000,0.456891,1.141054,-0.162444,-1.143604,-0.116746,2.414803,2.601604
900.441000000,0.457035,1.141232,-0.162361,-1.143700,0.073647,2.414768,2.314368
900.447000000,0.456824,1.141064,-0.162365,-1.143496,-0.129754,2.414474,2.633550
900.476000000,0.457036,1.141228,-0.162361,-1.143705,0.073648,2.414770,2.314376
900.480000000,0.456914,1.141051,-0.162472,-1.143603,-0.140794,2.414856,2.660767
900.510000000,0.457038,1.141232,-0.162366,-1.143697,0.073647,2.414769,2.314366
900.514000000,0.456905,1.141037,-0.162463,-1.143600,-0.153385,2.414855,2.692844
900.544000000,0.457033,1.141227,-0.162366,-1.143705,0.073649,2.414769,2.314366
900.548000000,0.456924,1.141021,-0.162491,-1.143625,-0.165820,2.414922,2.724869
900.578000000,0.457038,1.141227,-0.162361,-1.143708,0.073648,2.414770,2.314368
900.583000000,0.456841,1.141032,-0.162382,-1.143511,-0.179513,2.414556,2.760615
900.612000000,0.457033,1.141227,-0.162360,-1.143697,0.073648,2.414770,2.314370
900.618000000,0.456940,1.141022,-0.162509,-1.143618,-0.192118,2.414973,2.794013
900.646000000,0.457030,1.141230,-0.162361,-1.143699,0.073648,2.414770,2.314371
900.651000000,0.456842,1.141024,-0.162386,-1.143486,-0.205781,2.414518,2.830290
900.680000000,0.457033,1.141230,-0.162361,-1.143695,0.073649,2.414769,2.314371
900.685000000,0.456836,1.141011,-0.162374,-1.143484,-0.219210,2.414506,2.866245
900.714000000,0.457034,1.141232,-0.162369,-1.143702,0.073648,2.414765,2.314379
900.720000000,0.456939,1.141032,-0.162475,-1.143570,-0.231360,2.414773,2.897534
900.748000000,0.457038,1.141230,-0.162364,-1.143700,0.073647,2.414771,2.314376
900.754000000,0.457019,1.141148,-0.162356,-1.143609,-0.233865,2.414686,2.897300
900.781000000,0.457035,1.141230,-0.162364,-1.143700,0.073647,2.414769,2.314375
900.788000000,0.457086,1.141201,-0.162347,-1.143647,-0.236733,2.414696,2.897300
900.815000000,0.457035,1.141227,-0.162366,-1.143700,0.073648,2.414767,2.314375
900.822000000,0.457116,1.141248,-0.162319,-1.143655,-0.238902,2.414696,2.897300
900.849000000,0.457038,1.141229,-0.162361,-1.143700,0.073647,2.414767,2.314376
900.859000000,0.457141,1.141272,-0.162308,-1.143668,-0.240525,2.414698,2.897300
900.883000000,0.457035,1.141227,-0.162364,-1.143700,0.073648,2.414766,2.314372
900.893000000,0.457160,1.141279,-0.162304,-1.143682,-0.241648,2.414694,2.897300
900.918000000,0.457032,1.141228,-0.162364,-1.143697,0.073647,2.414767,2.314370
900.929000000,0.457173,1.141306,-0.162301,-1.143670,-0.242556,2.414688,2.897300
900.951000000,0.457038,1.141229,-0.162366,-1.143700,0.073647,2.414771,2.314375
900.962000000,0.457182,1.141298,-0.162296,-1.143689,-0.243256,2.414693,2.897300
900.985000000,0.457033,1.141227,-0.162361,-1.143702,0.073648,2.414768,2.314372
900.996000000,0.457191,1.141320,-0.162295,-1.143674,-0.243765,2.414687,2.897300
901.018000000,0.457030,1.141227,-0.162364,-1.143700,0.073648,2.414767,2.314369
901.031000000,0.457196,1.141309,-0.162292,-1.143691,-0.244168,2.414691,2.897300
901.052000000,0.457033,1.141227,-0.162364,-1.143700,0.073650,2.414772,2.314372
901.065000000,0.457203,1.141328,-0.162292,-1.143676,-0.244466,2.414685,2.897300
901.084000000,0.457034,1.141225,-0.162358,-1.143700,0.073647,2.414773,2.314377
901.100000000,0.457161,1.141272,-0.162318,-1.143680,-0.248885,2.414893,2.893644
901.115000000,0.457034,1.141232,-0.162361,-1.143700,0.073648,2.414767,2.314375
901.134000000,0.458401,1.142354,-0.162020,-1.144360,-0.158342,2.414891,2.716159
901.149000000,0.457033,1.141230,-0.162364,-1.143700,0.073648,2.414770,2.314377
901.168000000,0.458600,1.142602,-0.161730,-1.144351,-0.089162,2.414861,2.594504
901.183000000,0.457034,1.141228,-0.162361,-1.143700,0.073649,2.414767,2.314374
901.203000000,0.458231,1.142248,-0.161732,-1.144145,-0.039706,2.414728,2.503106
901.218000000,0.457033,1.141227,-0.162364,-1.143700,0.073648,2.414765,2.314374
901.236000000,0.457609,1.141664,-0.162027,-1.143857,-0.010374,2.414724,2.435994
901.252000000,0.457037,1.141227,-0.162361,-1.143700,0.073647,2.414767,2.314371
901.271000000,0.456887,1.141081,-0.162263,-1.143542,0.006984,2.414494,2.386340
901.285000000,0.457033,1.141232,-0.162364,-1.143702,0.073648,2.414767,2.314373
901.305000000,0.456443,1.140708,-0.162526,-1.143369,0.017643,2.414558,2.349151
901.317000000,0.457035,1.141229,-0.162358,-1.143700,0.073647,2.414770,2.314371
901.339000000,0.456192,1.140501,-0.162670,-1.143307,0.024130,2.414624,2.321686
901.348000000,0.457030,1.141227,-0.162364,-1.143700,0.073646,2.414766,2.314377
901.373000000,0.456140,1.140456,-0.162738,-1.143314,0.028097,2.414669,2.300290
901.380000000,0.457030,1.141235,-0.162366,-1.143702,0.073649,2.414768,2.314366
901.407000000,0.456216,1.140554,-0.162716,-1.143338,0.030596,2.414682,2.283834
901.413000000,0.457032,1.141230,-0.162364,-1.143700,0.073646,2.414767,2.314369
901.441000000,0.456363,1.140692,-0.162634,-1.143414,0.032130,2.414694,2.271733
901.446000000,0.457032,1.141229,-0.162364,-1.143700,0.073647,2.414768,2.314366
901.475000000,0.456552,1.140850,-0.162551,-1.143497,0.033109,2.414688,2.263529
901.479000000,0.457033,1.141232,-0.162366,-1.143700,0.073647,2.414769,2.314369
901.509000000,0.456732,1.141022,-0.162463,-1.143547,0.033667,2.414677,2.258993
901.514000000,0.457031,1.141225,-0.162361,-1.143702,0.073648,2.414767,2.314368
901.542000000,0.456956,1.141142,-0.162478,-1.143674,0.034716,2.414879,2.256028
901.549000000,0.457033,1.141230,-0.162361,-1.143700,0.073645,2.414770,2.314379
901.576000000,0.457058,1.141223,-0.162408,-1.143721,0.034870,2.414878,2.258083
901.583000000,0.457038,1.141225,-0.162364,-1.143697,0.073648,2.414767,2.314377
901.611000000,0.457057,1.141288,-0.162294,-1.143661,0.034266,2.414653,2.265261
901.617000000,0.457035,1.141235,-0.162364,-1.143700,0.073647,2.414767,2.314375
901.645000000,0.457035,1.141227,-0.162364,-1.143695,0.073646,2.414768,2.314377
901.645000000,0.457085,1.141303,-0.162266,-1.143679,0.034303,2.414653,2.273568
901.680000000,0.457040,1.141224,-0.162361,-1.143705,0.073647,2.414766,2.314365
901.680000000,0.457113,1.141287,-0.162319,-1.143722,0.033086,2.414802,2.283336
901.711000000,0.457038,1.141229,-0.162366,-1.143697,0.073647,2.414769,2.314365
901.714000000,0.457090,1.141237,-0.162421,-1.143743,0.026734,2.414863,2.288916
901.741000000,0.457033,1.141229,-0.162356,-1.143700,0.073648,2.414767,2.314369
901.748000000,0.457116,1.141278,-0.162334,-1.143733,0.027985,2.414832,2.296124
901.773000000,0.457035,1.141231,-0.162361,-1.143697,0.073647,2.414768,2.314376
901.783000000,0.456898,1.141179,-0.162354,-1.143626,0.014820,2.414635,2.310734
901.812000000,0.457035,1.141230,-0.162361,-1.143705,0.073649,2.414766,2.314369
901.816000000,0.456927,1.141143,-0.162469,-1.143682,0.005267,2.414867,2.320702
901.849000000,0.457035,1.141232,-0.162366,-1.143705,0.073648,2.414767,2.314367
901.851000000,0.456818,1.141107,-0.162394,-1.143602,-0.007021,2.414628,2.338758
901.885000000,0.457038,1.141235,-0.162364,-1.143703,0.073647,2.414773,2.314374
901.885000000,0.456810,1.141108,-0.162404,-1.143573,-0.018472,2.414616,2.357818
901.920000000,0.457035,1.141227,-0.162366,-1.143694,0.073649,2.414770,2.314372
901.920000000,0.456870,1.141075,-0.162482,-1.143651,-0.029986,2.414831,2.379194
901.954000000,0.457034,1.141230,-0.162364,-1.143697,0.073647,2.414772,2.314370
901.954000000,0.456873,1.141079,-0.162499,-1.143633,-0.041955,2.414849,2.403808
901.988000000,0.456877,1.141061,-0.162509,-1.143649,-0.054066,2.414905,2.430238
901.990000000,0.457038,1.141231,-0.162364,-1.143700,0.073647,2.414769,2.314368
902.022000000,0.457423,1.141392,-0.162482,-1.143856,-0.036896,2.415053,2.424115
902.023000000,0.457034,1.141225,-0.162364,-1.143700,0.073647,2.414769,2.314367
902.057000000,0.457598,1.141651,-0.162082,-1.143825,-0.010715,2.414651,2.410565
902.059000000,0.457036,1.141221,-0.162364,-1.143702,0.073647,2.414771,2.314374
902.090000000,0.457622,1.141622,-0.162134,-1.143885,0.005478,2.414871,2.406227
902.091000000,0.457030,1.141232,-0.162364,-1.143697,0.073648,2.414770,2.314373
902.125000000,0.457034,1.141230,-0.162364,-1.143700,0.073651,2.414771,2.314377
902.125000000,0.457425,1.141483,-0.162189,-1.143833,0.015844,2.414861,2.407317
902.158000000,0.457074,1.141258,-0.162266,-1.143724,0.016083,2.414808,2.416298
902.159000000,0.457035,1.141228,-0.162366,-1.143700,0.073646,2.414772,2.314377
902.193000000,0.457035,1.141229,-0.162364,-1.143700,0.073647,2.414767,2.314376
902.193000000,0.457007,1.141220,-0.162321,-1.143683,0.021476,2.414648,2.409638
902.227000000,0.456764,1.141121,-0.162306,-1.143560,0.018494,2.414527,2.411619
902.227000000,0.457030,1.141230,-0.162364,-1.143702,0.073649,2.414768,2.314377
902.260000000,0.456988,1.141230,-0.162377,-1.143710,0.073648,2.414766,2.314376
902.262000000,0.456845,1.141118,-0.162416,-1.143621,0.020982,2.414644,2.409905
902.294000000,0.456988,1.141232,-0.162381,-1.143710,0.073649,2.414768,2.314375
902.296000000,0.456773,1.141065,-0.162445,-1.143617,0.017673,2.414778,2.413579
902.327000000,0.457010,1.141229,-0.162378,-1.143710,0.073648,2.414768,2.314370
902.330000000,0.456640,1.140950,-0.162553,-1.143597,0.005398,2.414847,2.429818
902.361000000,0.456978,1.141232,-0.162386,-1.143723,0.073649,2.414770,2.314373
902.364000000,0.456583,1.140883,-0.162612,-1.143592,-0.006593,2.414889,2.448926
902.395000000,0.456985,1.141246,-0.162392,-1.143728,0.073648,2.414769,2.314373
902.398000000,0.456557,1.140858,-0.162660,-1.143574,-0.019239,2.414942,2.471790
902.428000000,0.456988,1.141251,-0.162392,-1.143734,0.073650,2.414764,2.314376
902.432000000,0.456542,1.140825,-0.162682,-1.143581,-0.032096,2.415003,2.498017
902.462000000,0.456980,1.141251,-0.162391,-1.143716,0.073649,2.414766,2.314373
902.466000000,0.456542,1.140792,-0.162712,-1.143593,-0.045390,2.415052,2.527740
902.496000000,0.457001,1.141240,-0.162387,-1.143710,0.073645,2.414765,2.314377
902.500000000,0.456549,1.140788,-0.162742,-1.143587,-0.059018,2.415109,2.559460
902.529000000,0.456967,1.141251,-0.162405,-1.143742,0.073650,2.414766,2.314368
902.535000000,0.457242,1.141283,-0.162502,-1.143894,-0.027692,2.415132,2.484955
902.563000000,0.456870,1.141269,-0.162400,-1.143769,0.073642,2.414769,2.314370
902.569000000,0.457350,1.141507,-0.162189,-1.143836,-0.006904,2.414703,2.430674
902.596000000,0.456857,1.141251,-0.162416,-1.143753,0.073651,2.414761,2.314369
902.602000000,0.457299,1.141510,-0.162141,-1.143825,0.007409,2.414631,2.386259
902.630000000,0.456804,1.141280,-0.162442,-1.143756,0.073651,2.414757,2.314372
902.636000000,0.457136,1.141441,-0.162200,-1.143763,0.016594,2.414605,2.350829
902.665000000,0.456821,1.141298,-0.162458,-1.143771,0.073649,2.414751,2.314375
902.670000000,0.456936,1.141323,-0.162286,-1.143719,0.022543,2.414615,2.322532
902.698000000,0.456829,1.141332,-0.162451,-1.143804,0.073648,2.414742,2.314379
902.704000000,0.456774,1.141217,-0.162396,-1.143691,0.026384,2.414629,2.302787
902.732000000,0.456851,1.141375,-0.162434,-1.143841,0.073639,2.414744,2.314371
902.739000000,0.456730,1.141161,-0.162549,-1.143741,0.029731,2.414862,2.285579
902.767000000,0.456900,1.141348,-0.162423,-1.143806,0.073639,2.414749,2.314375
902.773000000,0.456662,1.141130,-0.162580,-1.143750,0.031161,2.414850,2.275147
902.800000000,0.456858,1.141278,-0.162441,-1.143754,0.073638,2.414753,2.314374
902.807000000,0.456455,1.141028,-0.162689,-1.143686,0.019360,2.414880,2.280086
902.834000000,0.456868,1.141282,-0.162441,-1.143766,0.073637,2.414751,2.314374
902.842000000,0.456324,1.140967,-0.162651,-1.143618,0.008459,2.414693,2.288445
902.868000000,0.456893,1.141348,-0.162428,-1.143808,0.073631,2.414745,2.314375
902.876000000,0.456307,1.140963,-0.162673,-1.143588,-0.002197,2.414698,2.298643
902.902000000,0.456887,1.141367,-0.162431,-1.143814,0.073634,2.414737,2.314371
902.910000000,0.456280,1.140943,-0.162650,-1.143576,-0.013123,2.414659,2.312130
902.937000000,0.456890,1.141323,-0.162428,-1.143791,0.073638,2.414741,2.314375
902.944000000,0.456275,1.140928,-0.162651,-1.143563,-0.024090,2.414624,2.328731
902.971000000,0.456885,1.141304,-0.162431,-1.143788,0.073638,2.414741,2.314379
902.979000000,0.456341,1.140925,-0.162725,-1.143621,-0.034839,2.414847,2.347323
903.005000000,0.456885,1.141341,-0.162428,-1.143801,0.073639,2.414740,2.314368
903.013000000,0.456341,1.140905,-0.162730,-1.143625,-0.046141,2.414840,2.369388
903.039000000,0.456868,1.141326,-0.162433,-1.143783,0.073642,2.414742,2.314369
903.047000000,0.456355,1.140911,-0.162757,-1.143619,-0.057557,2.414892,2.393007
903.073000000,0.456881,1.141282,-0.162433,-1.143764,0.073650,2.414742,2.314377
903.080000000,0.456282,1.140908,-0.162672,-1.143534,-0.069527,2.414639,2.419413
903.106000000,0.456911,1.141286,-0.162422,-1.143766,0.073654,2.414749,2.314380
903.115000000,0.456366,1.140880,-0.162770,-1.143636,-0.081001,2.414933,2.445614
903.140000000,0.456839,1.141296,-0.162439,-1.143764,0.073656,2.414758,2.314379
903.150000000,0.456276,1.140891,-0.162659,-1.143523,-0.094023,2.414617,2.476670
903.173000000,0.456900,1.141255,-0.162433,-1.143738,0.073655,2.414764,2.314375
903.185000000,0.456369,1.140883,-0.162775,-1.143610,-0.105852,2.414931,2.505589
903.208000000,0.456885,1.141233,-0.162431,-1.143718,0.073652,2.414766,2.314372
903.219000000,0.456359,1.140866,-0.162767,-1.143612,-0.118463,2.414947,2.537210
903.241000000,0.456831,1.141249,-0.162455,-1.143739,0.073654,2.414760,2.314374
903.253000000,0.456375,1.140847,-0.162794,-1.143633,-0.131144,2.415001,2.569521
903.275000000,0.456853,1.141275,-0.162439,-1.143762,0.073651,2.414753,2.314373
903.286000000,0.456297,1.140846,-0.162702,-1.143537,-0.144348,2.414685,2.603420
903.309000000,0.456982,1.141293,-0.162368,-1.143777,0.073647,2.414752,2.314372
903.320000000,0.456297,1.140854,-0.162698,-1.143511,-0.157524,2.414651,2.638011
903.343000000,0.457129,1.141314,-0.162345,-1.143799,0.073648,2.414746,2.314373
903.355000000,0.456375,1.140824,-0.162789,-1.143619,-0.170462,2.414978,2.672332
903.378000000,0.457200,1.141322,-0.162304,-1.143792,0.073647,2.414745,2.314373
903.389000000,0.456381,1.140832,-0.162804,-1.143606,-0.183873,2.415007,2.707895
903.412000000,0.457231,1.141314,-0.162295,-1.143774,0.073647,2.414749,2.314379
903.423000000,0.456387,1.140813,-0.162818,-1.143628,-0.197588,2.415085,2.744503
903.446000000,0.457232,1.141317,-0.162280,-1.143771,0.073653,2.414754,2.314382
903.458000000,0.456313,1.140820,-0.162723,-1.143509,-0.212573,2.414700,2.784685
903.480000000,0.457219,1.141309,-0.162291,-1.143763,0.073654,2.414757,2.314394
903.492000000,0.456299,1.140808,-0.162698,-1.143497,-0.226810,2.414649,2.823027
903.513000000,0.457226,1.141270,-0.162285,-1.143735,0.073662,2.414767,2.314401
903.526000000,0.456287,1.140793,-0.162680,-1.143478,-0.241346,2.414559,2.862230
903.548000000,0.457288,1.141231,-0.162264,-1.143707,0.073660,2.414762,2.314403
903.559000000,0.456373,1.140773,-0.162793,-1.143586,-0.254941,2.414969,2.899258
903.582000000,0.457410,1.141227,-0.162246,-1.143717,0.073659,2.414758,2.314401
903.593000000,0.456467,1.140929,-0.162683,-1.143604,-0.258371,2.414789,2.897301
903.614000000,0.457522,1.141184,-0.162298,-1.143579,0.073659,2.414772,2.314508
903.627000000,0.456534,1.141000,-0.162644,-1.143647,-0.261353,2.414807,2.897300
903.648000000,0.457658,1.140687,-0.162331,-1.142558,0.073675,2.415049,2.315315
903.662000000,0.456582,1.141056,-0.162629,-1.143657,-0.263775,2.414794,2.897300
903.683000000,0.457980,1.139558,-0.162317,-1.140847,0.073689,2.415186,2.315862
903.696000000,0.456606,1.141081,-0.162608,-1.143676,-0.265527,2.414803,2.897300
903.717000000,0.458183,1.137153,-0.162316,-1.138934,0.073760,2.415185,2.315965
903.732000000,0.456631,1.141111,-0.162605,-1.143674,-0.266912,2.414793,2.897300
903.751000000,0.458299,1.134036,-0.162312,-1.136783,0.074097,2.415171,2.316047
903.766000000,0.456646,1.141111,-0.162597,-1.143696,-0.267959,2.414797,2.897300
903.785000000,0.458280,1.130637,-0.162318,-1.134435,0.074392,2.415149,2.316095
903.800000000,0.456658,1.141138,-0.162594,-1.143684,-0.268739,2.414791,2.897300
903.817000000,0.458060,1.127289,-0.162320,-1.132437,0.074909,2.415018,2.316409
903.834000000,0.457925,1.141748,-0.162282,-1.142836,-0.178772,2.414582,2.739926
903.852000000,0.457548,1.124044,-0.162326,-1.131580,0.075406,2.414669,2.316589
903.869000000,0.458486,1.139830,-0.161845,-1.140657,-0.100157,2.414368,2.617789
903.886000000,0.456503,1.121159,-0.162369,-1.131618,0.075502,2.414209,2.316596
903.903000000,0.458385,1.135943,-0.161658,-1.138191,-0.047027,2.414084,2.522055
903.919000000,0.454758,1.118944,-0.162609,-1.131612,0.075530,2.413734,2.316588
903.937000000,0.457853,1.130984,-0.161766,-1.135960,-0.015111,2.413963,2.452031
903.954000000,0.452354,1.117353,-0.163450,-1.131619,0.075542,2.413652,2.316588
903.972000000,0.456853,1.125838,-0.161865,-1.133877,0.004236,2.413643,2.399489
903.987000000,0.449267,1.116237,-0.165160,-1.131613,0.075567,2.413653,2.316586
904.006000000,0.455650,1.121397,-0.162267,-1.132341,0.016061,2.413735,2.363517
904.021000000,0.445512,1.115475,-0.167825,-1.131599,0.075578,2.413660,2.316591
904.040000000,0.454083,1.117901,-0.163045,-1.131188,0.023378,2.413897,2.335574
904.055000000,0.441260,1.115059,-0.171632,-1.131601,0.075601,2.413660,2.316602
904.074000000,0.452034,1.115393,-0.164360,-1.130455,0.027986,2.414043,2.313783
904.089000000,0.436449,1.114890,-0.176334,-1.131599,0.075701,2.413660,2.316627
904.107000000,0.449614,1.113876,-0.166511,-1.130145,0.031473,2.414363,2.295871
904.122000000,0.430912,1.114899,-0.181519,-1.131650,0.075956,2.413649,2.316647
904.142000000,0.446180,1.113103,-0.169488,-1.129933,0.032683,2.414171,2.285197
904.157000000,0.424313,1.114913,-0.187299,-1.131948,0.076127,2.413609,2.316656
904.176000000,0.442102,1.112936,-0.173224,-1.130042,0.033907,2.414162,2.277185
904.190000000,0.416769,1.114916,-0.193032,-1.132361,0.076185,2.413297,2.316649
904.210000000,0.437125,1.113133,-0.177669,-1.130363,0.034693,2.414073,2.272980
904.224000000,0.408462,1.114930,-0.198772,-1.132782,0.076189,2.412792,2.316653
904.244000000,0.431108,1.113534,-0.182600,-1.130810,0.035168,2.413850,2.272324
904.258000000,0.399148,1.114933,-0.204669,-1.133136,0.076192,2.412417,2.316654
904.277000000,0.424056,1.113967,-0.187874,-1.131355,0.035452,2.413510,2.275078
904.291000000,0.388796,1.114936,-0.210687,-1.133333,0.076182,2.412187,2.316639
904.312000000,0.415996,1.114393,-0.193448,-1.131876,0.035618,2.413137,2.281191
904.325000000,0.377703,1.114945,-0.216636,-1.133387,0.076175,2.412111,2.316631
904.345000000,0.406907,1.114760,-0.199256,-1.132312,0.035693,2.412804,2.290611
904.359000000,0.365590,1.114956,-0.222584,-1.133433,0.076165,2.412062,2.316610
904.379000000,0.396818,1.115029,-0.205221,-1.132639,0.035694,2.412549,2.303297
904.393000000,0.353230,1.114957,-0.228092,-1.133449,0.076159,2.411993,2.316605
904.414000000,0.385773,1.115213,-0.211228,-1.132837,0.035625,2.412353,2.319206
904.426000000,0.339921,1.114962,-0.233095,-1.133555,0.076157,2.411948,2.316600
904.448000000,0.373859,1.115276,-0.217150,-1.132983,0.035595,2.412205,2.336967
904.461000000,0.326370,1.114969,-0.237296,-1.133786,0.076153,2.411845,2.316589
904.482000000,0.361123,1.115226,-0.222766,-1.133107,0.035529,2.412086,2.352474
904.494000000,0.312017,1.114971,-0.240711,-1.134253,0.076147,2.411441,2.316575
904.517000000,0.347319,1.115091,-0.228201,-1.133366,0.036162,2.412183,2.363959
904.528000000,0.297551,1.114999,-0.242902,-1.134739,0.076142,2.410739,2.316358
904.551000000,0.333172,1.114938,-0.232759,-1.133597,0.036099,2.411916,2.374858
904.562000000,0.282583,1.115007,-0.244276,-1.135341,0.076129,2.409815,2.316299
904.585000000,0.318511,1.114747,-0.236473,-1.133939,0.035983,2.411464,2.384126
904.596000000,0.267674,1.115027,-0.245003,-1.135891,0.076120,2.408617,2.316226
904.619000000,0.303478,1.114585,-0.239392,-1.134367,0.035906,2.410793,2.391944
904.630000000,0.252876,1.115026,-0.245536,-1.136387,0.076107,2.407366,2.315939
904.653000000,0.288239,1.114510,-0.241625,-1.134835,0.035867,2.409927,2.398476
904.664000000,0.238182,1.115049,-0.246005,-1.136737,0.076094,2.406692,2.315786
904.686000000,0.272995,1.114497,-0.243306,-1.135350,0.035776,2.409016,2.404010
904.698000000,0.223921,1.115062,-0.246437,-1.136810,0.076076,2.406616,2.315486
904.727000000,0.257875,1.114577,-0.244566,-1.135812,0.035678,2.408269,2.408672
904.731000000,0.209829,1.115030,-0.247148,-1.136777,0.076055,2.406615,2.314992
904.755000000,0.242938,1.114747,-0.245603,-1.136152,0.035654,2.407758,2.412341
904.765000000,0.196442,1.115018,-0.248073,-1.136705,0.076033,2.406616,2.314766
904.789000000,0.228294,1.114906,-0.246566,-1.136409,0.035557,2.407400,2.415406
904.798000000,0.183314,1.115013,-0.249328,-1.136673,0.075980,2.406612,2.314751
904.823000000,0.214032,1.115045,-0.247598,-1.136584,0.035484,2.407152,2.418022
904.832000000,0.170916,1.115023,-0.250437,-1.136731,0.075694,2.406418,2.314566
904.857000000,0.200175,1.115149,-0.248734,-1.136692,0.035400,2.406950,2.420248
904.866000000,0.158799,1.115039,-0.251549,-1.137020,0.075581,2.405415,2.314288
904.891000000,0.189723,1.115166,-0.252413,-1.137358,0.034238,2.406736,2.425738
904.899000000,0.147390,1.115026,-0.252502,-1.137580,0.075534,2.403592,2.314272
904.925000000,0.181227,1.115150,-0.251892,-1.137342,0.033716,2.406046,2.416640
904.933000000,0.136455,1.115032,-0.253331,-1.138243,0.075519,2.401065,2.314261
904.959000000,0.170039,1.115055,-0.250732,-1.137230,0.034791,2.404704,2.403062
904.967000000,0.126065,1.115015,-0.253894,-1.139009,0.075497,2.398349,2.314267
904.993000000,0.161161,1.115054,-0.253745,-1.137842,0.033049,2.404236,2.403727
904.999000000,0.116344,1.115026,-0.254526,-1.139656,0.075435,2.396276,2.314260
905.027000000,0.156740,1.114998,-0.256116,-1.138294,0.021159,2.404166,2.421612
905.033000000,0.106991,1.115033,-0.255796,-1.140174,0.075268,2.395398,2.314122
905.061000000,0.150353,1.114920,-0.253129,-1.138127,0.024248,2.402206,2.415314
905.066000000,0.098369,1.115029,-0.257683,-1.140468,0.075101,2.395404,2.313908
905.095000000,0.139285,1.114837,-0.251474,-1.138259,0.028471,2.400095,2.408182
905.099000000,0.090304,1.115006,-0.260648,-1.140425,0.075105,2.395431,2.313905
905.129000000,0.126238,1.114919,-0.252805,-1.138666,0.031035,2.398647,2.406276
905.132000000,0.082735,1.114989,-0.265042,-1.140372,0.075107,2.395473,2.313925
905.160000000,0.075866,1.114989,-0.270469,-1.140279,0.075107,2.395541,2.313937
905.163000000,0.112702,1.115057,-0.256227,-1.139198,0.032643,2.397631,2.406569
905.189000000,0.069698,1.114987,-0.277040,-1.140227,0.075105,2.395751,2.313955
905.196000000,0.102369,1.115082,-0.260790,-1.139967,0.029447,2.397003,2.415217
905.223000000,0.064272,1.114997,-0.284673,-1.140117,0.075110,2.396112,2.314058
905.231000000,0.096732,1.115038,-0.263793,-1.140615,0.017674,2.397087,2.435592
905.247000000,0.059186,1.114992,-0.293362,-1.139918,0.075120,2.396488,2.314576
905.266000000,0.093853,1.115018,-0.265244,-1.140917,0.005059,2.397010,2.462398
905.286000000,0.054627,1.115000,-0.302312,-1.139736,0.075123,2.397100,2.314922
905.300000000,0.092196,1.115025,-0.265971,-1.140979,-0.009190,2.396647,2.495914
905.322000000,0.050495,1.115016,-0.310849,-1.139741,0.075128,2.397610,2.314975
905.333000000,0.090673,1.116130,-0.272189,-1.140158,0.003993,2.396908,2.469693
905.356000000,0.046568,1.115041,-0.319414,-1.139757,0.075128,2.397682,2.314989
905.368000000,0.084573,1.115650,-0.275750,-1.140375,-0.004829,2.397059,2.497810
905.390000000,0.042742,1.115121,-0.327526,-1.139821,0.075128,2.397688,2.314996
905.402000000,0.081076,1.116504,-0.285335,-1.139748,0.007431,2.397127,2.470478
905.426000000,0.039126,1.115309,-0.334872,-1.139933,0.075130,2.397688,2.315007
905.436000000,0.073111,1.116705,-0.297211,-1.139404,0.016754,2.397363,2.447432
905.461000000,0.035414,1.115601,-0.341545,-1.139988,0.075135,2.397701,2.315018
905.470000000,0.062818,1.116429,-0.309454,-1.139383,0.022764,2.397451,2.431517
905.496000000,0.031649,1.115997,-0.347338,-1.140020,0.075135,2.397723,2.315015
905.504000000,0.052191,1.115987,-0.321162,-1.139559,0.026748,2.397500,2.421914
905.529000000,0.027934,1.116439,-0.351926,-1.140037,0.075127,2.397791,2.315022
905.539000000,0.042223,1.115612,-0.332049,-1.139901,0.030186,2.397820,2.416432
905.562000000,0.024288,1.116883,-0.355166,-1.140040,0.075129,2.397915,2.315022
905.574000000,0.033833,1.115395,-0.340735,-1.140127,0.031861,2.397832,2.416606
905.596000000,0.020692,1.117322,-0.356928,-1.140050,0.075132,2.398079,2.315024
905.607000000,0.027029,1.115392,-0.347565,-1.140298,0.032988,2.397874,2.417611
905.630000000,0.017259,1.117816,-0.357258,-1.140049,0.075134,2.398315,2.315028
905.642000000,0.021387,1.115596,-0.352454,-1.140281,0.033032,2.397665,2.420947
905.664000000,0.014538,1.118497,-0.356977,-1.140039,0.075144,2.398464,2.315147
905.676000000,0.017175,1.115943,-0.355445,-1.140325,0.033490,2.397813,2.422315
905.698000000,0.013010,1.119510,-0.356453,-1.140036,0.075146,2.398534,2.315481
905.711000000,0.013990,1.116496,-0.357152,-1.140406,0.034499,2.398269,2.422190
905.732000000,0.012754,1.120800,-0.355789,-1.140042,0.075147,2.398600,2.315575
905.745000000,0.011814,1.117238,-0.357833,-1.140362,0.034650,2.398393,2.423711
905.767000000,0.013424,1.122193,-0.354348,-1.140033,0.075146,2.398654,2.315590
905.779000000,0.010573,1.118221,-0.357888,-1.140307,0.034803,2.398511,2.424980
905.800000000,0.014734,1.123651,-0.351684,-1.140028,0.075155,2.398825,2.315753
905.813000000,0.010170,1.119241,-0.357491,-1.140391,0.032796,2.398501,2.428528
905.834000000,0.016640,1.125163,-0.347614,-1.140048,0.075170,2.398912,2.316372
905.847000000,0.010139,1.119619,-0.357605,-1.140725,0.019443,2.398443,2.446871
905.867000000,0.019010,1.126754,-0.342215,-1.140057,0.075175,2.398946,2.316888
905.881000000,0.010101,1.119825,-0.357592,-1.140791,0.008538,2.398451,2.468093
905.900000000,0.021766,1.128478,-0.336024,-1.140043,0.075183,2.398958,2.317195
905.916000000,0.009997,1.119874,-0.357526,-1.140738,-0.004267,2.398132,2.497743
905.935000000,0.024801,1.130229,-0.328907,-1.140071,0.075190,2.398964,2.317577
905.951000000,0.010064,1.119901,-0.357614,-1.140860,-0.015807,2.398451,2.525909
905.968000000,0.028125,1.131959,-0.320627,-1.140191,0.075195,2.398967,2.317764
905.984000000,0.009955,1.119906,-0.357519,-1.140737,-0.028381,2.398064,2.557242
905.997000000,0.031648,1.133514,-0.311307,-1.140386,0.075195,2.398961,2.317769
906.018000000,0.008882,1.120093,-0.353053,-1.140662,-0.023205,2.398748,2.531915
906.026000000,0.035218,1.134840,-0.301243,-1.140701,0.075202,2.398957,2.317773
906.052000000,0.009890,1.122036,-0.341061,-1.140237,-0.003308,2.398953,2.467238
906.061000000,0.039024,1.135781,-0.290382,-1.141042,0.075199,2.398960,2.317777
906.086000000,0.014715,1.125161,-0.327919,-1.140333,0.010011,2.399038,2.429316
906.097000000,0.042863,1.136342,-0.279295,-1.141233,0.075194,2.398955,2.317772
906.121000000,0.021719,1.128744,-0.313580,-1.140638,0.018017,2.398726,2.402834
906.132000000,0.047249,1.136497,-0.268324,-1.141214,0.075189,2.398955,2.317770
906.155000000,0.029430,1.132048,-0.299683,-1.141098,0.023495,2.398663,2.383489
906.167000000,0.052314,1.136361,-0.258366,-1.140945,0.075188,2.398962,2.317765
906.190000000,0.038624,1.135032,-0.291438,-1.141520,0.020292,2.398667,2.381964
906.201000000,0.058064,1.136182,-0.249705,-1.139843,0.075190,2.398969,2.317775
906.224000000,0.043962,1.136553,-0.289071,-1.141635,0.006795,2.398649,2.398286
906.235000000,0.064767,1.136129,-0.242294,-1.138155,0.075195,2.398985,2.317768
906.259000000,0.046396,1.137249,-0.287584,-1.141576,-0.006719,2.398351,2.419173
906.269000000,0.072089,1.136081,-0.236161,-1.136124,0.075196,2.399004,2.317776
906.293000000,0.047604,1.137551,-0.286950,-1.141575,-0.019905,2.398292,2.442189
906.304000000,0.080083,1.136020,-0.231167,-1.133830,0.075198,2.399020,2.317778
906.327000000,0.048232,1.137715,-0.286594,-1.141542,-0.033382,2.398212,2.469174
906.337000000,0.088907,1.135729,-0.227046,-1.131927,0.075201,2.399043,2.317784
906.362000000,0.048670,1.137781,-0.286483,-1.141647,-0.046536,2.398481,2.496749
906.371000000,0.098092,1.135164,-0.223892,-1.130772,0.075208,2.399095,2.317795
906.396000000,0.048873,1.137831,-0.286404,-1.141645,-0.060101,2.398520,2.526530
906.405000000,0.107996,1.134457,-0.221685,-1.130150,0.075206,2.399223,2.317818
906.431000000,0.048899,1.137837,-0.286264,-1.141545,-0.075102,2.398200,2.561134
906.440000000,0.118715,1.133706,-0.220134,-1.129888,0.075207,2.399501,2.317851
906.465000000,0.048948,1.137853,-0.286217,-1.141509,-0.089472,2.398126,2.594713
906.473000000,0.129802,1.133060,-0.219478,-1.129702,0.075202,2.399872,2.317861
906.500000000,0.049064,1.137834,-0.286284,-1.141620,-0.103820,2.398450,2.629520
906.507000000,0.141596,1.132512,-0.219414,-1.129350,0.075203,2.400246,2.317871
906.533000000,0.053008,1.137842,-0.276351,-1.141080,-0.053626,2.398020,2.546300
906.541000000,0.153193,1.132057,-0.219425,-1.128832,0.075205,2.400602,2.317910
906.568000000,0.064323,1.137312,-0.269439,-1.139426,-0.055797,2.398119,2.566126
906.575000000,0.165096,1.131708,-0.219377,-1.128161,0.075214,2.400987,2.318050
906.603000000,0.077967,1.136771,-0.260936,-1.138208,-0.023646,2.398313,2.493416
906.609000000,0.177025,1.131467,-0.219337,-1.127564,0.075216,2.401341,2.318364
906.637000000,0.099675,1.135880,-0.250720,-1.135834,0.001122,2.398699,2.436077
906.643000000,0.189087,1.131249,-0.219275,-1.127147,0.075220,2.401646,2.318672
906.671000000,0.124793,1.134608,-0.240714,-1.133082,0.014142,2.399406,2.395594
906.676000000,0.201308,1.131100,-0.219231,-1.126885,0.075229,2.401872,2.318949
906.705000000,0.149930,1.133225,-0.232031,-1.130510,0.021691,2.400194,2.364093
906.711000000,0.213601,1.131011,-0.219088,-1.126747,0.075236,2.402050,2.319034
906.741000000,0.174272,1.131875,-0.224888,-1.128311,0.026649,2.400989,2.336455
906.745000000,0.226062,1.130978,-0.219024,-1.126575,0.075232,2.402192,2.319052
906.775000000,0.194162,1.130866,-0.220190,-1.126824,0.029636,2.401615,2.314098
906.778000000,0.238356,1.130966,-0.218906,-1.126370,0.075241,2.402635,2.319058
906.810000000,0.211398,1.130152,-0.217205,-1.125786,0.030781,2.401888,2.296217
906.812000000,0.250822,1.130944,-0.218772,-1.126112,0.075250,2.403616,2.319058
906.844000000,0.225662,1.129824,-0.215882,-1.125268,0.032005,2.402395,2.280181
906.847000000,0.263000,1.130909,-0.218695,-1.125821,0.075251,2.405542,2.319067
906.879000000,0.238117,1.129762,-0.215587,-1.125059,0.032813,2.403124,2.267954
906.880000000,0.275392,1.130893,-0.218648,-1.125670,0.075253,2.408888,2.319065
906.912000000,0.249472,1.129901,-0.215941,-1.125037,0.033367,2.404383,2.259207
906.914000000,0.287409,1.130844,-0.218599,-1.125548,0.075250,2.412401,2.319062
906.946000000,0.260284,1.130162,-0.216587,-1.125106,0.033725,2.406357,2.254205
906.948000000,0.299634,1.130777,-0.218581,-1.125222,0.075251,2.415113,2.319071
906.980000000,0.270998,1.130423,-0.217299,-1.125212,0.033981,2.408762,2.253058
906.982000000,0.311284,1.130703,-0.218562,-1.124773,0.075249,2.416549,2.319062
907.014000000,0.281923,1.130650,-0.217940,-1.125216,0.034156,2.411096,2.255857
907.016000000,0.323030,1.130623,-0.218533,-1.123985,0.075251,2.416809,2.319069
907.048000000,0.293087,1.130830,-0.218376,-1.125024,0.034246,2.412953,2.262526
907.050000000,0.334295,1.130583,-0.218533,-1.122874,0.075253,2.416801,2.319072
907.083000000,0.345239,1.130552,-0.218522,-1.121520,0.075258,2.416802,2.319069
907.083000000,0.304271,1.130929,-0.218722,-1.124700,0.035041,2.414425,2.270828
907.116000000,0.314220,1.130779,-0.216596,-1.123824,0.029081,2.414762,2.284574
907.117000000,0.355910,1.130483,-0.218548,-1.120236,0.075271,2.416802,2.319071
907.150000000,0.320605,1.130750,-0.216239,-1.123308,0.025910,2.415078,2.292832
907.151000000,0.366064,1.130228,-0.218529,-1.119289,0.075295,2.416800,2.319068
907.184000000,0.330444,1.131000,-0.218935,-1.122579,0.029220,2.415496,2.314602
907.184000000,0.376182,1.129932,-0.218523,-1.118624,0.075349,2.416798,2.319075
907.218000000,0.341900,1.130989,-0.220056,-1.121629,0.031367,2.415800,2.335961
907.218000000,0.385682,1.129634,-0.218516,-1.118217,0.075450,2.416795,2.319084
907.251000000,0.394849,1.129418,-0.218518,-1.117856,0.075473,2.416793,2.319081
907.252000000,0.354204,1.130725,-0.220089,-1.120640,0.032626,2.416040,2.353147
907.284000000,0.403906,1.129291,-0.218526,-1.117542,0.075488,2.416796,2.319103
907.287000000,0.365123,1.130160,-0.217586,-1.119599,0.027709,2.416489,2.370364
907.318000000,0.412239,1.129252,-0.218536,-1.117378,0.075501,2.416784,2.319110
907.320000000,0.369791,1.129634,-0.214754,-1.118860,0.013911,2.416454,2.393418
907.351000000,0.420200,1.129241,-0.218520,-1.117349,0.075516,2.416771,2.319155
907.354000000,0.372236,1.129392,-0.213631,-1.118508,0.001623,2.416562,2.417313
907.385000000,0.427994,1.129262,-0.218514,-1.117376,0.075536,2.416754,2.319256
907.389000000,0.373465,1.129227,-0.213139,-1.118432,-0.010634,2.416882,2.443589
907.418000000,0.435113,1.129265,-0.218501,-1.117386,0.075557,2.416687,2.319339
907.423000000,0.374009,1.129147,-0.212888,-1.118356,-0.023329,2.416965,2.472433
907.452000000,0.441860,1.129263,-0.218491,-1.117386,0.075590,2.416600,2.319461
907.457000000,0.374302,1.129114,-0.212782,-1.118315,-0.036113,2.417061,2.502604
907.485000000,0.448220,1.129249,-0.218485,-1.117375,0.075656,2.416489,2.319766
907.491000000,0.374458,1.129084,-0.212731,-1.118304,-0.049094,2.417142,2.533876
907.519000000,0.454310,1.129257,-0.218478,-1.117388,0.075843,2.416422,2.320248
907.525000000,0.374551,1.129064,-0.212716,-1.118300,-0.062324,2.417221,2.566359
907.553000000,0.459773,1.129276,-0.218447,-1.117422,0.075966,2.416148,2.321327
907.559000000,0.374606,1.129043,-0.212703,-1.118311,-0.075716,2.417302,2.600085
907.586000000,0.464796,1.129290,-0.218242,-1.117493,0.076016,2.415755,2.322413
907.594000000,0.374556,1.129028,-0.212600,-1.118213,-0.090443,2.416994,2.637213
907.619000000,0.469415,1.129288,-0.217914,-1.117636,0.076189,2.415424,2.323205
907.628000000,0.374562,1.129016,-0.212578,-1.118191,-0.104621,2.416947,2.673718
907.652000000,0.473598,1.129298,-0.217326,-1.117764,0.076217,2.415244,2.323783
907.662000000,0.374558,1.129019,-0.212556,-1.118151,-0.119012,2.416876,2.711138
907.686000000,0.477342,1.129307,-0.216486,-1.117894,0.076240,2.415205,2.324129
907.697000000,0.374641,1.128995,-0.212647,-1.118251,-0.133416,2.417235,2.748756
907.719000000,0.480544,1.129306,-0.215398,-1.117936,0.076252,2.415191,2.324311
907.731000000,0.374653,1.128979,-0.212666,-1.118261,-0.148348,2.417305,2.788098
907.753000000,0.483215,1.129288,-0.214266,-1.117922,0.076256,2.415195,2.324356
907.765000000,0.374673,1.128958,-0.212692,-1.118286,-0.163307,2.417382,2.827802
907.787000000,0.485341,1.129272,-0.213383,-1.117919,0.076261,2.415198,2.324376
907.799000000,0.374691,1.128943,-0.212714,-1.118305,-0.178627,2.417464,2.868348
907.821000000,0.487001,1.129269,-0.212964,-1.117909,0.076268,2.415207,2.324375
907.834000000,0.374722,1.128999,-0.212656,-1.118299,-0.190940,2.417320,2.897321
907.854000000,0.487985,1.129263,-0.212984,-1.117906,0.076270,2.415215,2.324387
907.869000000,0.391055,1.130337,-0.223612,-1.120637,-0.104943,2.415597,2.750054
907.887000000,0.488099,1.129252,-0.213025,-1.117895,0.076273,2.415224,2.324392
907.903000000,0.413819,1.130786,-0.224911,-1.120830,-0.043886,2.414693,2.644586
907.920000000,0.487510,1.129258,-0.213388,-1.117909,0.076275,2.415224,2.324384
907.937000000,0.437801,1.130505,-0.221562,-1.119899,-0.009453,2.414495,2.560534
907.953000000,0.486183,1.129293,-0.213813,-1.117937,0.076287,2.415214,2.324401
907.971000000,0.459269,1.129881,-0.216476,-1.118617,0.007765,2.414668,2.496833
907.986000000,0.484150,1.129312,-0.213860,-1.118054,0.076314,2.415209,2.324462
908.005000000,0.476098,1.129262,-0.211792,-1.117461,0.018266,2.414961,2.443189
908.020000000,0.481818,1.129313,-0.213839,-1.118627,0.076348,2.415193,2.324711
908.039000000,0.487350,1.128749,-0.208297,-1.116672,0.024830,2.415241,2.397759
908.053000000,0.479593,1.129346,-0.213797,-1.119784,0.076401,2.415169,2.325070
908.073000000,0.493225,1.128364,-0.206337,-1.116439,0.028963,2.415449,2.367159
908.086000000,0.477728,1.129429,-0.213499,-1.121389,0.076461,2.415143,2.325608
908.108000000,0.494708,1.128112,-0.205920,-1.116950,0.032277,2.415809,2.338396
908.120000000,0.476401,1.129688,-0.213122,-1.123081,0.076476,2.415125,2.326060
908.142000000,0.492860,1.128007,-0.206553,-1.118000,0.033979,2.415833,2.316165
908.154000000,0.475714,1.130001,-0.212994,-1.124796,0.076472,2.415131,2.326088
908.176000000,0.489195,1.128123,-0.207863,-1.119453,0.035115,2.415809,2.298008
908.187000000,0.475359,1.130200,-0.213018,-1.126620,0.076470,2.415145,2.326091
908.210000000,0.484904,1.128397,-0.209491,-1.121228,0.035854,2.415750,2.284177
908.221000000,0.475033,1.130242,-0.213186,-1.128250,0.076465,2.415154,2.326087
908.245000000,0.480665,1.128826,-0.211094,-1.123162,0.035733,2.415428,2.276397
908.255000000,0.474516,1.130229,-0.213662,-1.129212,0.076458,2.415162,2.326089
908.278000000,0.477350,1.129291,-0.212501,-1.125112,0.036093,2.415311,2.271847
908.288000000,0.473584,1.130226,-0.214181,-1.129442,0.076459,2.415169,2.326072
908.314000000,0.474910,1.129843,-0.213727,-1.126864,0.037012,2.415400,2.270334
908.321000000,0.472166,1.130167,-0.214581,-1.129395,0.076461,2.415178,2.326078
908.348000000,0.473193,1.130345,-0.214471,-1.128045,0.037158,2.415287,2.275263
908.354000000,0.470142,1.130142,-0.215048,-1.129382,0.076466,2.415185,2.326076
908.383000000,0.471817,1.130736,-0.214803,-1.128717,0.036493,2.414977,2.286728
908.387000000,0.467730,1.130182,-0.215653,-1.129418,0.076467,2.415176,2.326070
908.417000000,0.470719,1.130934,-0.215006,-1.129136,0.036504,2.414932,2.300224
908.421000000,0.464815,1.130213,-0.216479,-1.129479,0.076468,2.415178,2.326077
908.452000000,0.469548,1.130960,-0.215267,-1.129444,0.037153,2.415148,2.316322
908.454000000,0.461320,1.130211,-0.217430,-1.129631,0.076469,2.415175,2.326075
908.485000000,0.457260,1.130212,-0.218556,-1.129701,0.076469,2.415179,2.326068
908.485000000,0.467961,1.130898,-0.215406,-1.129441,0.036420,2.414937,2.336963
908.518000000,0.452417,1.130236,-0.219963,-1.129898,0.076470,2.415179,2.326072
908.520000000,0.466203,1.130718,-0.216075,-1.129563,0.032936,2.415075,2.355136
908.552000000,0.446988,1.130241,-0.221755,-1.130401,0.076469,2.415179,2.326068
908.554000000,0.465235,1.130573,-0.216639,-1.129576,0.020246,2.415090,2.372514
908.586000000,0.441033,1.130258,-0.223648,-1.131079,0.076468,2.415181,2.326071
908.588000000,0.464794,1.130500,-0.216883,-1.129603,0.008602,2.415108,2.392469
908.620000000,0.434508,1.130296,-0.225797,-1.132037,0.076465,2.415188,2.326075
908.622000000,0.464592,1.130465,-0.217011,-1.129618,-0.003422,2.415141,2.416432
908.654000000,0.427284,1.130399,-0.227987,-1.133061,0.076457,2.415198,2.326071
908.655000000,0.464417,1.130448,-0.216985,-1.129543,-0.015942,2.414893,2.442807
908.688000000,0.419083,1.130617,-0.230207,-1.133797,0.076454,2.415209,2.326066
908.691000000,0.464450,1.130449,-0.217110,-1.129613,-0.027999,2.415153,2.469181
908.722000000,0.410298,1.130960,-0.232116,-1.134100,0.076450,2.415221,2.326032
908.724000000,0.464334,1.130423,-0.217031,-1.129534,-0.041837,2.414864,2.501472
908.756000000,0.400697,1.131355,-0.233825,-1.134152,0.076445,2.415260,2.325851
908.759000000,0.464314,1.130414,-0.217034,-1.129521,-0.054893,2.414828,2.532059
908.789000000,0.390234,1.131833,-0.235344,-1.134158,0.076436,2.415346,2.325628
908.793000000,0.464290,1.130407,-0.217020,-1.129498,-0.068108,2.414774,2.564728
908.823000000,0.379321,1.132332,-0.236388,-1.134155,0.076428,2.415459,2.325518
908.827000000,0.464271,1.130410,-0.217011,-1.129463,-0.081682,2.414693,2.598501
908.852000000,0.367523,1.132874,-0.237151,-1.134195,0.076425,2.415478,2.325467
908.862000000,0.464340,1.130393,-0.217098,-1.129558,-0.095051,2.415001,2.632668
908.881000000,0.355425,1.133440,-0.237429,-1.134234,0.076413,2.415486,2.325445
908.896000000,0.464345,1.130369,-0.217119,-1.129571,-0.108951,2.415041,2.668639
908.911000000,0.342833,1.134027,-0.237643,-1.134428,0.076406,2.415532,2.325430
908.930000000,0.464357,1.130353,-0.217142,-1.129590,-0.123054,2.415105,2.705566
908.944000000,0.330179,1.134594,-0.237737,-1.134715,0.076392,2.415674,2.325416
908.963000000,0.464374,1.130359,-0.217171,-1.129591,-0.137302,2.415173,2.743455
908.979000000,0.317316,1.135145,-0.237965,-1.134999,0.076368,2.415911,2.325389
908.998000000,0.464390,1.130348,-0.217194,-1.129603,-0.151789,2.415243,2.781985
909.012000000,0.304563,1.135662,-0.238159,-1.135085,0.076357,2.416167,2.325311
909.031000000,0.464399,1.130332,-0.217209,-1.129624,-0.166577,2.415325,2.821507
909.048000000,0.291736,1.136078,-0.238407,-1.135098,0.076339,2.416309,2.325114
909.066000000,0.464416,1.130323,-0.217230,-1.129640,-0.181471,2.415405,2.861586
909.082000000,0.279129,1.136417,-0.238719,-1.135092,0.076323,2.416408,2.324864
909.099000000,0.464388,1.130331,-0.217167,-1.129609,-0.195627,2.415241,2.897522
909.117000000,0.266593,1.136653,-0.239247,-1.135091,0.076290,2.416469,2.324685
909.133000000,0.464531,1.130471,-0.217116,-1.129671,-0.199629,2.415261,2.897300
909.153000000,0.254272,1.136721,-0.239885,-1.135081,0.076180,2.416583,2.324513
909.167000000,0.443735,1.132075,-0.203648,-1.128090,-0.119071,2.417911,2.737357
909.186000000,0.242073,1.136704,-0.240810,-1.135045,0.076088,2.416859,2.324144
909.201000000,0.401787,1.133279,-0.203529,-1.127839,-0.061231,2.418274,2.624062
909.220000000,0.230125,1.136671,-0.242457,-1.134846,0.076057,2.417107,2.323790
909.235000000,0.353931,1.134075,-0.212624,-1.128930,-0.025770,2.418289,2.531755
909.254000000,0.218717,1.136673,-0.245112,-1.134424,0.076033,2.417286,2.323741
909.270000000,0.306921,1.134701,-0.225078,-1.130537,-0.002696,2.418040,2.465421
909.288000000,0.207769,1.136645,-0.249333,-1.134027,0.076018,2.417490,2.323735
909.304000000,0.265677,1.135233,-0.237323,-1.132238,0.014444,2.417683,2.413415
909.322000000,0.197675,1.136618,-0.254405,-1.133452,0.076015,2.417841,2.323741
909.338000000,0.232482,1.135719,-0.247963,-1.133712,0.026292,2.417371,2.372269
909.356000000,0.187962,1.136608,-0.260187,-1.132817,0.076012,2.418700,2.323737
909.371000000,0.208361,1.136170,-0.256404,-1.134768,0.033265,2.417474,2.342211
909.390000000,0.178856,1.136583,-0.266924,-1.132274,0.076004,2.420521,2.323744
909.405000000,0.190712,1.136591,-0.263063,-1.135196,0.035692,2.417679,2.324235
909.423000000,0.170337,1.136551,-0.274379,-1.131799,0.076004,2.423353,2.323738
909.440000000,0.178492,1.136988,-0.268388,-1.134992,0.036135,2.418269,2.316394
909.457000000,0.162342,1.136544,-0.282438,-1.131536,0.076006,2.427345,2.323747
909.474000000,0.170737,1.137257,-0.273039,-1.134536,0.036483,2.419944,2.314492
909.491000000,0.154877,1.136537,-0.290960,-1.131515,0.075999,2.432115,2.323742
909.507000000,0.165545,1.137403,-0.277709,-1.134005,0.037191,2.422737,2.316811
909.526000000,0.147798,1.136533,-0.299738,-1.131507,0.076004,2.436583,2.323745
909.541000000,0.161091,1.137416,-0.282956,-1.133333,0.036990,2.426165,2.326353
909.558000000,0.141193,1.136541,-0.308451,-1.131513,0.076002,2.440779,2.323743
909.575000000,0.156778,1.137331,-0.288936,-1.132719,0.036730,2.429994,2.340636
909.593000000,0.134793,1.136536,-0.317371,-1.131495,0.076002,2.445277,2.323742
909.610000000,0.151876,1.137158,-0.295880,-1.132119,0.035706,2.433942,2.358428
909.626000000,0.128907,1.136536,-0.326380,-1.131496,0.076004,2.451111,2.323747
909.644000000,0.146621,1.137002,-0.303516,-1.131746,0.035427,2.438346,2.371777
909.661000000,0.123619,1.136557,-0.335242,-1.131513,0.076000,2.457458,2.323742
909.677000000,0.141145,1.136860,-0.311596,-1.131633,0.035927,2.443407,2.380948
909.691000000,0.118643,1.136548,-0.343996,-1.131506,0.075998,2.463470,2.323739
909.711000000,0.135145,1.136755,-0.320329,-1.131529,0.035697,2.448882,2.390590
909.723000000,0.113975,1.136548,-0.352509,-1.131492,0.075996,2.470055,2.323740
909.745000000,0.129001,1.136734,-0.329778,-1.131479,0.035487,2.454989,2.398971
909.754000000,0.109696,1.136555,-0.360705,-1.131505,0.075997,2.476500,2.323749
909.779000000,0.122782,1.136647,-0.338821,-1.131528,0.035408,2.460922,2.406095
909.798000000,0.105692,1.136550,-0.368277,-1.131495,0.076000,2.483124,2.323741
909.814000000,0.116728,1.136567,-0.347858,-1.131520,0.034575,2.466989,2.414201
909.832000000,0.101897,1.136548,-0.375142,-1.131492,0.076000,2.490806,2.323755
909.847000000,0.111402,1.136529,-0.356273,-1.131595,0.034482,2.473453,2.419477
909.866000000,0.098503,1.136564,-0.381415,-1.131502,0.075994,2.498367,2.323753
909.882000000,0.106561,1.136489,-0.364113,-1.131664,0.034398,2.480341,2.423990
909.899000000,0.095523,1.136551,-0.387353,-1.131496,0.075986,2.505002,2.323753
909.916000000,0.102267,1.136457,-0.371448,-1.131716,0.034351,2.487404,2.427758
909.932000000,0.092984,1.136537,-0.393449,-1.131473,0.075984,2.510405,2.323753
909.950000000,0.098519,1.136445,-0.378334,-1.131719,0.034286,2.494172,2.431066
909.967000000,0.090873,1.136545,-0.399672,-1.131479,0.075981,2.514263,2.323755
909.983000000,0.094513,1.135894,-0.382605,-1.131653,0.029353,2.496986,2.437179
909.999000000,0.089020,1.136545,-0.405768,-1.131489,0.075980,2.516417,2.323744
910.018000000,0.091762,1.135126,-0.383633,-1.131815,0.015968,2.496382,2.454877
910.032000000,0.087513,1.136551,-0.411450,-1.131502,0.075979,2.517025,2.323750
910.053000000,0.092149,1.135777,-0.387970,-1.131929,0.017567,2.500125,2.447296
910.067000000,0.086209,1.136549,-0.416882,-1.131532,0.075981,2.517020,2.323749
910.088000000,0.091079,1.135912,-0.391881,-1.131763,0.013464,2.502868,2.446469
910.100000000,0.085136,1.136562,-0.422424,-1.131614,0.075987,2.517014,2.323743
910.121000000,0.089512,1.135386,-0.392164,-1.131754,-0.000242,2.502240,2.474869
910.134000000,0.084205,1.136556,-0.427804,-1.131832,0.075990,2.517000,2.323752
910.155000000,0.088867,1.135211,-0.392545,-1.131744,-0.012728,2.502246,2.503770
910.168000000,0.083416,1.136584,-0.433075,-1.132181,0.075992,2.516961,2.323753
910.191000000,0.088603,1.135108,-0.392789,-1.131853,-0.026059,2.502493,2.535710
910.202000000,0.082593,1.136577,-0.437909,-1.132713,0.075996,2.516832,2.323752
910.224000000,0.088460,1.135073,-0.392888,-1.131856,-0.039245,2.502526,2.568314
910.235000000,0.081531,1.136581,-0.442069,-1.133077,0.075994,2.516447,2.323744
910.260000000,0.088383,1.135035,-0.392937,-1.131879,-0.052670,2.502580,2.602247
910.267000000,0.080175,1.136593,-0.445465,-1.133217,0.075994,2.515610,2.323740
910.296000000,0.088266,1.135020,-0.392901,-1.131766,-0.067483,2.502262,2.640550
910.302000000,0.078594,1.136557,-0.448033,-1.133184,0.075997,2.514401,2.323740
910.329000000,0.088223,1.134998,-0.392891,-1.131743,-0.081742,2.502196,2.677470
910.336000000,0.076913,1.136556,-0.449687,-1.133176,0.076000,2.512567,2.323608
910.363000000,0.088200,1.134980,-0.392895,-1.131723,-0.096178,2.502124,2.715845
910.369000000,0.075098,1.136554,-0.450174,-1.133182,0.076002,2.509793,2.323279
910.396000000,0.073622,1.136573,-0.450082,-1.133188,0.076003,2.505350,2.323213
910.398000000,0.088263,1.134971,-0.392970,-1.131821,-0.110566,2.502461,2.754395
910.430000000,0.072872,1.136620,-0.449874,-1.133208,0.076001,2.498492,2.323106
910.432000000,0.088266,1.134945,-0.392998,-1.131842,-0.125596,2.502521,2.795073
910.464000000,0.072857,1.136615,-0.449525,-1.133181,0.076012,2.488696,2.323053
910.466000000,0.088280,1.134944,-0.393029,-1.131851,-0.140705,2.502601,2.836229
910.497000000,0.073328,1.136601,-0.448584,-1.133144,0.076022,2.477900,2.323057
910.500000000,0.088285,1.134923,-0.393042,-1.131871,-0.156123,2.502681,2.878524
910.531000000,0.074189,1.136614,-0.446937,-1.133129,0.076033,2.466326,2.323059
910.535000000,0.092944,1.137816,-0.406603,-1.131978,-0.086676,2.494645,2.738830
910.564000000,0.075261,1.136606,-0.444138,-1.133124,0.076055,2.453475,2.323057
910.568000000,0.090914,1.138404,-0.418491,-1.132068,-0.041851,2.485278,2.625578
910.598000000,0.076324,1.136604,-0.439899,-1.133124,0.076069,2.439744,2.323066
910.602000000,0.085673,1.137670,-0.427062,-1.132157,-0.016164,2.474320,2.541053
910.631000000,0.077162,1.136612,-0.434031,-1.133143,0.076093,2.425286,2.323075
910.636000000,0.079703,1.136456,-0.433091,-1.132581,0.002773,2.462337,2.472718
910.664000000,0.077931,1.136603,-0.426435,-1.133128,0.076109,2.409810,2.323082
910.670000000,0.074751,1.135313,-0.435496,-1.132901,0.014150,2.449434,2.420968
910.697000000,0.078562,1.136607,-0.417118,-1.133116,0.076121,2.394819,2.323089
910.704000000,0.071382,1.134483,-0.434546,-1.133136,0.021564,2.435387,2.379773
910.731000000,0.078939,1.136573,-0.406320,-1.133057,0.076124,2.380769,2.323090
910.738000000,0.069709,1.134039,-0.430475,-1.133303,0.026442,2.421030,2.348845
910.764000000,0.079451,1.136580,-0.394271,-1.132789,0.076133,2.367525,2.323087
910.772000000,0.069460,1.133962,-0.423581,-1.133374,0.029647,2.406668,2.325751
910.796000000,0.079942,1.136551,-0.381412,-1.132678,0.076135,2.356951,2.323092
910.807000000,0.070212,1.134205,-0.413917,-1.133198,0.031114,2.391999,2.310964
910.829000000,0.080620,1.136565,-0.367794,-1.132423,0.076136,2.348887,2.323097
910.841000000,0.071755,1.134635,-0.402791,-1.133124,0.032549,2.379272,2.301090
910.856000000,0.081368,1.136526,-0.353883,-1.132174,0.076129,2.343083,2.323097
910.876000000,0.073690,1.135206,-0.390393,-1.132978,0.033488,2.368220,2.296811
910.891000000,0.082574,1.136477,-0.339794,-1.131599,0.076141,2.338791,2.323107
910.909000000,0.075720,1.135766,-0.377016,-1.132808,0.034122,2.359023,2.297449
910.925000000,0.084102,1.136373,-0.325905,-1.131082,0.076156,2.335394,2.323151
910.943000000,0.077798,1.136291,-0.363125,-1.132538,0.034573,2.351571,2.302620
910.957000000,0.086196,1.136155,-0.311823,-1.130784,0.076169,2.332493,2.323398
910.978000000,0.080074,1.136721,-0.348751,-1.132287,0.035569,2.345673,2.310556
910.991000000,0.088220,1.135784,-0.299093,-1.130727,0.076176,2.329774,2.323408
911.013000000,0.082235,1.136930,-0.334119,-1.131866,0.035072,2.340356,2.326025
911.025000000,0.090989,1.135337,-0.283788,-1.130716,0.076181,2.325770,2.323411
911.047000000,0.084495,1.136892,-0.320108,-1.131628,0.035216,2.336063,2.342370
911.060000000,0.093609,1.134817,-0.269925,-1.130675,0.076200,2.320254,2.323422
911.081000000,0.086772,1.136605,-0.305849,-1.131455,0.035358,2.331693,2.356960
911.095000000,0.096589,1.134165,-0.255807,-1.130572,0.076208,2.312487,2.323466
911.115000000,0.089220,1.136172,-0.291565,-1.131263,0.035451,2.326587,2.369267
911.130000000,0.099744,1.133317,-0.241657,-1.130269,0.076227,2.302235,2.323751
911.149000000,0.091865,1.135576,-0.277241,-1.131063,0.035538,2.320203,2.379714
911.165000000,0.103179,1.132393,-0.227618,-1.129555,0.076244,2.288755,2.324039
911.183000000,0.094753,1.134866,-0.262969,-1.130763,0.035639,2.311901,2.388580
911.199000000,0.106953,1.131260,-0.213420,-1.128472,0.076277,2.273687,2.324153
911.217000000,0.099713,1.134688,-0.253552,-1.130541,0.035422,2.306796,2.399488
911.230000000,0.111051,1.130068,-0.199005,-1.126604,0.076283,2.257845,2.324283
911.252000000,0.101993,1.134387,-0.245776,-1.129627,0.029872,2.299429,2.412230
911.263000000,0.115618,1.128927,-0.184457,-1.123797,0.076280,2.242607,2.324285
911.285000000,0.101940,1.132912,-0.229597,-1.128711,0.033297,2.282945,2.410671
911.289000000,0.120350,1.127991,-0.170508,-1.119618,0.076281,2.229194,2.324294
911.319000000,0.125838,1.127127,-0.156742,-1.114540,0.076284,2.218103,2.324391
911.319000000,0.104425,1.131777,-0.213047,-1.126794,0.034995,2.266512,2.411891
911.348000000,0.131446,1.126341,-0.143973,-1.108862,0.076289,2.210452,2.324427
911.353000000,0.110781,1.131144,-0.202116,-1.125330,0.035887,2.258567,2.416410
911.381000000,0.137879,1.125571,-0.130925,-1.102566,0.076282,2.206447,2.324469
911.388000000,0.116554,1.131018,-0.200381,-1.124786,0.022086,2.259741,2.438062
911.409000000,0.144611,1.124709,-0.118453,-1.096611,0.076285,2.205802,2.324567
911.423000000,0.118845,1.130887,-0.199010,-1.124518,0.010656,2.259579,2.455833
911.448000000,0.151746,1.123896,-0.106518,-1.091070,0.076288,2.205794,2.324694
911.457000000,0.120103,1.130791,-0.198549,-1.124494,-0.001104,2.259915,2.474011
911.484000000,0.159057,1.123023,-0.095261,-1.086444,0.076293,2.205794,2.324956
911.491000000,0.120673,1.130760,-0.198284,-1.124425,-0.013295,2.259967,2.494702
911.519000000,0.166746,1.122589,-0.084471,-1.081834,0.076305,2.205786,2.325479
911.525000000,0.120973,1.130718,-0.198146,-1.124414,-0.025828,2.260045,2.517122
911.554000000,0.174404,1.122489,-0.074427,-1.077590,0.076326,2.205786,2.326285
911.558000000,0.121044,1.130710,-0.197952,-1.124287,-0.038852,2.259738,2.542285
911.585000000,0.182134,1.122485,-0.065184,-1.074143,0.076353,2.205783,2.326877
911.592000000,0.121138,1.130691,-0.197902,-1.124269,-0.051764,2.259705,2.568300
911.620000000,0.190178,1.122477,-0.056300,-1.071602,0.076368,2.205747,2.327126
911.627000000,0.121275,1.130679,-0.197976,-1.124356,-0.064645,2.260038,2.595519
911.653000000,0.198107,1.122481,-0.048032,-1.069689,0.076363,2.205433,2.327157
911.660000000,0.121203,1.130678,-0.197835,-1.124232,-0.078348,2.259666,2.626282
911.685000000,0.205837,1.122468,-0.040256,-1.068393,0.076369,2.204930,2.327191
911.695000000,0.121333,1.130668,-0.197966,-1.124337,-0.091602,2.260048,2.655940
911.720000000,0.213648,1.122392,-0.032932,-1.067473,0.076374,2.204432,2.327251
911.728000000,0.121238,1.130668,-0.197830,-1.124208,-0.105865,2.259648,2.688885
911.753000000,0.221591,1.122341,-0.026059,-1.066941,0.076374,2.203377,2.327332
911.762000000,0.121230,1.130656,-0.197797,-1.124189,-0.120036,2.259584,2.721779
911.787000000,0.229192,1.122250,-0.020133,-1.066712,0.076372,2.201484,2.327389
911.796000000,0.121224,1.130648,-0.197776,-1.124166,-0.134470,2.259496,2.755994
911.820000000,0.236731,1.122161,-0.015027,-1.066539,0.076366,2.199334,2.327471
911.831000000,0.121318,1.130631,-0.197891,-1.124277,-0.148894,2.259905,2.790443
911.852000000,0.244436,1.122096,-0.010597,-1.066441,0.076367,2.197231,2.327523
911.864000000,0.121216,1.130634,-0.197750,-1.124142,-0.163877,2.259450,2.826594
911.884000000,0.251830,1.122072,-0.006956,-1.066345,0.076364,2.196089,2.327609
911.899000000,0.121332,1.130623,-0.197898,-1.124260,-0.178515,2.259806,2.862153
911.916000000,0.259079,1.122051,-0.003828,-1.066009,0.076364,2.196031,2.327724
911.933000000,0.121341,1.130597,-0.197912,-1.124275,-0.193776,2.259619,2.899444
911.947000000,0.266202,1.122025,-0.001305,-1.065398,0.076366,2.196031,2.327804
911.967000000,0.121416,1.130711,-0.197859,-1.124315,-0.198020,2.259465,2.897301
911.980000000,0.273294,1.122004,0.000685,-1.064414,0.076363,2.196036,2.327922
912.001000000,0.118686,1.133143,-0.157574,-1.110989,-0.114494,2.235901,2.737907
912.015000000,0.280002,1.122001,0.002058,-1.063004,0.076363,2.196037,2.328019
912.035000000,0.144006,1.133180,-0.116180,-1.097508,-0.043425,2.220245,2.620345
912.050000000,0.286519,1.121995,0.003075,-1.061285,0.076364,2.196034,2.328087
912.069000000,0.183416,1.130883,-0.078493,-1.085766,-0.005476,2.211177,2.538298
912.085000000,0.292763,1.121989,0.004078,-1.059297,0.076362,2.196037,2.328150
912.102000000,0.224330,1.127561,-0.047939,-1.076584,0.015532,2.206306,2.471141
912.118000000,0.298654,1.122029,0.005294,-1.056865,0.076362,2.196034,2.328199
912.137000000,0.262735,1.123905,-0.022351,-1.068863,0.025034,2.202675,2.422154
912.153000000,0.303913,1.122019,0.006658,-1.054586,0.076365,2.196032,2.328297
912.171000000,0.291838,1.120980,-0.004550,-1.063193,0.030638,2.200571,2.387797
912.186000000,0.308855,1.121978,0.008325,-1.052923,0.076364,2.196034,2.328502
912.205000000,0.311926,1.118966,0.007139,-1.058975,0.033591,2.199255,2.357255
912.220000000,0.313468,1.121992,0.010034,-1.051814,0.076362,2.196030,2.328737
912.238000000,0.323754,1.117940,0.013680,-1.056001,0.036042,2.198579,2.332271
912.255000000,0.317866,1.122038,0.011790,-1.051668,0.076363,2.196017,2.328963
912.273000000,0.329691,1.117676,0.017204,-1.053700,0.036292,2.197701,2.314231
912.288000000,0.322031,1.122110,0.013349,-1.052040,0.076356,2.195962,2.329149
912.307000000,0.331349,1.117954,0.018148,-1.052449,0.036784,2.197271,2.299139
912.323000000,0.326068,1.122233,0.014221,-1.052761,0.076358,2.195885,2.329329
912.341000000,0.330858,1.118571,0.017804,-1.051933,0.037154,2.196942,2.287409
912.356000000,0.329754,1.122269,0.014509,-1.053664,0.076359,2.195606,2.329556
912.374000000,0.329912,1.119294,0.016685,-1.052091,0.038078,2.196901,2.276465
912.389000000,0.333281,1.122487,0.014527,-1.054427,0.076353,2.195151,2.329628
912.409000000,0.329093,1.120137,0.015601,-1.052504,0.037558,2.196321,2.270135
912.422000000,0.336380,1.122823,0.014530,-1.054817,0.076356,2.194621,2.329677
912.443000000,0.329281,1.120953,0.014562,-1.053148,0.037640,2.195899,2.263786
912.456000000,0.339093,1.123359,0.014538,-1.054890,0.076353,2.194206,2.329747
912.477000000,0.330447,1.121756,0.013846,-1.053740,0.037680,2.195404,2.258662
912.488000000,0.341464,1.123934,0.014551,-1.054904,0.076353,2.194065,2.329851
912.511000000,0.332423,1.122511,0.013525,-1.054209,0.037715,2.194951,2.254391
912.522000000,0.343492,1.124554,0.014543,-1.054937,0.076350,2.194071,2.329982
912.545000000,0.334964,1.123255,0.013538,-1.054499,0.037701,2.194598,2.250905
912.556000000,0.345134,1.125112,0.014531,-1.054947,0.076346,2.194080,2.330054
912.579000000,0.337763,1.123913,0.013784,-1.054719,0.037642,2.194375,2.248045
912.589000000,0.346309,1.125540,0.014541,-1.054956,0.076345,2.194085,2.330169
912.613000000,0.340557,1.124521,0.014141,-1.054850,0.037619,2.194223,2.245701
912.623000000,0.346869,1.125667,0.014579,-1.054968,0.076340,2.194093,2.330217
912.647000000,0.343099,1.125031,0.014537,-1.054961,0.037572,2.194112,2.244739
912.657000000,0.346805,1.125642,0.014536,-1.054954,0.076336,2.194099,2.330208
912.681000000,0.345164,1.125440,0.014949,-1.055051,0.037556,2.194033,2.243448
912.691000000,0.346533,1.125527,0.014427,-1.054890,0.076335,2.194117,2.330188
912.714000000,0.346699,1.125703,0.015120,-1.055181,0.038227,2.194197,2.240873
912.724000000,0.346440,1.125548,0.014347,-1.054899,0.076332,2.194118,2.330179
912.749000000,0.347495,1.125853,0.015436,-1.055134,0.037546,2.193940,2.241645
912.758000000,0.346451,1.125627,0.014340,-1.054936,0.076331,2.194120,2.330179
912.783000000,0.347840,1.125907,0.015434,-1.055101,0.037514,2.193921,2.240611
912.791000000,0.346462,1.125608,0.014338,-1.054926,0.076331,2.194116,2.330177
912.818000000,0.347912,1.125861,0.015157,-1.055150,0.038220,2.194148,2.238631
912.824000000,0.346468,1.125528,0.014340,-1.054887,0.076332,2.194130,2.330181
912.852000000,0.347670,1.125804,0.014965,-1.055104,0.038241,2.194157,2.238358
912.858000000,0.346479,1.125522,0.014348,-1.054864,0.076330,2.194137,2.330166
912.886000000,0.347338,1.125726,0.014755,-1.055049,0.038263,2.194171,2.237944
912.892000000,0.346476,1.125532,0.014348,-1.054866,0.076327,2.194146,2.330176
912.920000000,0.347003,1.125650,0.014563,-1.054996,0.038280,2.194191,2.237469
912.927000000,0.346449,1.125493,0.014328,-1.054825,0.076326,2.194160,2.330172
912.954000000,0.346720,1.125580,0.014412,-1.054935,0.038263,2.194193,2.237099
912.959000000,0.346398,1.125430,0.014302,-1.054721,0.076321,2.194177,2.330166
912.989000000,0.346514,1.125517,0.014282,-1.054896,0.038288,2.194220,2.236755
912.993000000,0.346344,1.125372,0.014271,-1.054647,0.076316,2.194195,2.330162
913.022000000,0.346374,1.125471,0.014203,-1.054835,0.038295,2.194239,2.236482
913.026000000,0.346329,1.125323,0.014264,-1.054587,0.076318,2.194212,2.330165
913.056000000,0.346181,1.125448,0.014324,-1.054693,0.037602,2.194051,2.237924
913.060000000,0.346362,1.125286,0.014278,-1.054561,0.076314,2.194220,2.330163
913.089000000,0.346143,1.125399,0.014301,-1.054635,0.037605,2.194069,2.237713
913.093000000,0.346369,1.125251,0.014278,-1.054538,0.076312,2.194227,2.330156
913.121000000,0.346356,1.125188,0.014270,-1.054490,0.076310,2.194241,2.330159
913.128000000,0.346148,1.125340,0.014298,-1.054580,0.037603,2.194086,2.237559
913.154000000,0.346347,1.125106,0.014272,-1.054402,0.076309,2.194256,2.330158
913.164000000,0.346133,1.125228,0.014231,-1.054581,0.030464,2.194200,2.235036
913.195000000,0.346350,1.125017,0.014275,-1.054387,0.076307,2.194271,2.330149
913.199000000,0.345977,1.125169,0.014316,-1.054464,0.016975,2.194024,2.231014
913.229000000,0.346350,1.124933,0.014272,-1.054338,0.076306,2.194279,2.330154
913.233000000,0.345928,1.125106,0.014327,-1.054443,0.004094,2.193992,2.225929
913.258000000,0.346350,1.124897,0.014267,-1.054316,0.076304,2.194285,2.330153
913.266000000,0.345999,1.125084,0.014175,-1.054478,-0.007813,2.194172,2.219583
913.291000000,0.346353,1.124879,0.014272,-1.054297,0.076304,2.194303,2.330146
913.300000000,0.346005,1.125066,0.014141,-1.054477,-0.020705,2.194204,2.215000
913.320000000,0.346366,1.124847,0.014278,-1.054270,0.076303,2.194307,2.330141
913.335000000,0.346341,1.125266,0.014223,-1.054507,-0.002295,2.194194,2.240457
913.352000000,0.346393,1.124832,0.014292,-1.054256,0.076307,2.194313,2.330150
913.369000000,0.346459,1.125289,0.014386,-1.054483,0.011788,2.194143,2.268936
913.385000000,0.346407,1.124846,0.014300,-1.054271,0.076304,2.194313,2.330139
913.404000000,0.346477,1.125203,0.014440,-1.054414,0.020778,2.194140,2.300699
913.419000000,0.346429,1.124841,0.014311,-1.054268,0.076306,2.194318,2.330146
913.437000000,0.346436,1.125057,0.014448,-1.054350,0.026673,2.194117,2.325827
913.449000000,0.346431,1.124833,0.014317,-1.054257,0.076302,2.194313,2.330140
913.472000000,0.346488,1.124925,0.014270,-1.054348,0.031105,2.194382,2.343969
913.483000000,0.346412,1.124832,0.014314,-1.054260,0.076304,2.194319,2.330142
913.506000000,0.346441,1.124824,0.014248,-1.054295,0.033372,2.194398,2.359344
913.519000000,0.346417,1.124841,0.014312,-1.054268,0.076304,2.194315,2.330132
913.540000000,0.346409,1.124758,0.014229,-1.054260,0.034843,2.194417,2.371630
913.554000000,0.346419,1.124838,0.014314,-1.054263,0.076301,2.194319,2.330133
913.574000000,0.346396,1.124724,0.014213,-1.054249,0.035782,2.194428,2.381737
913.589000000,0.346422,1.124827,0.014309,-1.054260,0.076302,2.194317,2.330141
913.608000000,0.346393,1.124725,0.014210,-1.054239,0.036374,2.194442,2.389970
913.623000000,0.346460,1.124827,0.014330,-1.054270,0.076296,2.194320,2.330132
913.642000000,0.346392,1.124725,0.014223,-1.054259,0.036657,2.194450,2.396770
913.656000000,0.346483,1.124829,0.014343,-1.054283,0.076294,2.194310,2.330138
913.676000000,0.346413,1.124746,0.014229,-1.054273,0.036869,2.194452,2.402343
913.690000000,0.346452,1.124889,0.014325,-1.054307,0.076295,2.194305,2.330139
913.711000000,0.346442,1.124770,0.014239,-1.054291,0.037001,2.194449,2.406907
913.724000000,0.346427,1.124918,0.014311,-1.054338,0.076295,2.194296,2.330131
913.745000000,0.346371,1.124809,0.014396,-1.054229,0.036390,2.194162,2.412525
913.751000000,0.346445,1.124924,0.014321,-1.054356,0.076295,2.194290,2.330131
913.779000000,0.346390,1.124841,0.014402,-1.054253,0.036431,2.194156,2.415698
913.790000000,0.346441,1.124963,0.014318,-1.054392,0.076293,2.194274,2.330134
913.820000000,0.346403,1.124876,0.014402,-1.054284,0.036450,2.194147,2.418339
913.824000000,0.346440,1.125021,0.014318,-1.054433,0.076294,2.194263,2.330124
913.847000000,0.346408,1.124911,0.014405,-1.054306,0.036447,2.194150,2.420519
913.857000000,0.346435,1.125054,0.014310,-1.054467,0.076297,2.194253,2.330131
913.880000000,0.346409,1.124962,0.014404,-1.054321,0.036407,2.194123,2.422443
913.891000000,0.346442,1.125023,0.014326,-1.054593,0.076302,2.194246,2.330132
913.915000000,0.346406,1.124995,0.014402,-1.054366,0.036406,2.194114,2.423979
913.925000000,0.346478,1.125067,0.014348,-1.054628,0.076302,2.194231,2.330123
913.949000000,0.346403,1.125018,0.014403,-1.054431,0.036402,2.194102,2.425250
913.956000000,0.346493,1.125136,0.014360,-1.054719,0.076303,2.194216,2.330125
913.983000000,0.346404,1.125046,0.014407,-1.054489,0.036401,2.194091,2.426284
913.989000000,0.346499,1.125155,0.014365,-1.054795,0.076306,2.194204,2.330127
914.017000000,0.346412,1.125075,0.014413,-1.054556,0.036400,2.194079,2.427079
914.019000000,0.346513,1.125157,0.014358,-1.054812,0.076307,2.194192,2.330128
914.051000000,0.346423,1.125115,0.014421,-1.054624,0.036401,2.194067,2.427637
914.058000000,0.346502,1.125177,0.014358,-1.054841,0.076308,2.194178,2.330130
914.084000000,0.346545,1.125128,0.014264,-1.054768,0.037105,2.194338,2.426260
914.093000000,0.346505,1.125210,0.014363,-1.054900,0.076313,2.194163,2.330133
914.119000000,0.346440,1.125168,0.014444,-1.054741,0.036375,2.194044,2.428093
914.126000000,0.346523,1.125229,0.014366,-1.055007,0.076314,2.194144,2.330131
914.153000000,0.346450,1.125192,0.014449,-1.054800,0.036381,2.194030,2.427967
914.158000000,0.346485,1.125249,0.014348,-1.055197,0.076323,2.194117,2.329934
914.187000000,0.346568,1.125179,0.014286,-1.054986,0.037099,2.194290,2.425887
914.192000000,0.346436,1.125193,0.014339,-1.056210,0.076317,2.194072,2.329332
914.222000000,0.346564,1.125127,0.014288,-1.055249,0.037109,2.194283,2.425250
914.226000000,0.346421,1.125158,0.014338,-1.057471,0.076319,2.194032,2.329337
914.256000000,0.346550,1.125010,0.014285,-1.055783,0.037126,2.194274,2.424302
914.260000000,0.346382,1.125147,0.014314,-1.059195,0.076325,2.194038,2.329337
914.290000000,0.346522,1.124861,0.014283,-1.056644,0.037153,2.194283,2.423011
914.294000000,0.346178,1.125108,0.014279,-1.061155,0.076324,2.194040,2.329328
914.324000000,0.346488,1.124711,0.014270,-1.057840,0.037170,2.194298,2.421377
914.324000000,0.345718,1.125109,0.013945,-1.062791,0.076325,2.194045,2.329335
914.355000000,0.344943,1.125096,0.013378,-1.064001,0.076328,2.194045,2.329331
914.358000000,0.346307,1.124624,0.014391,-1.059145,0.036484,2.194021,2.421163
914.388000000,0.343682,1.125018,0.012912,-1.064653,0.076334,2.194051,2.329326
914.392000000,0.346185,1.124918,0.014255,-1.059755,0.030891,2.194112,2.422842
914.422000000,0.341841,1.124890,0.012712,-1.064767,0.076337,2.194049,2.329322
914.426000000,0.346067,1.125133,0.014141,-1.059825,0.018319,2.194127,2.431504
914.457000000,0.339568,1.124684,0.012730,-1.064832,0.076352,2.194043,2.329333
914.460000000,0.346017,1.125231,0.014084,-1.059888,0.006173,2.194146,2.439553
914.491000000,0.337111,1.124468,0.012733,-1.065056,0.076358,2.194037,2.329329
914.494000000,0.346003,1.125279,0.014037,-1.059927,-0.006248,2.194175,2.447635
914.525000000,0.334485,1.124352,0.012719,-1.065577,0.076363,2.193994,2.329335
914.529000000,0.346001,1.125306,0.014002,-1.059943,-0.018903,2.194217,2.455776
914.559000000,0.331603,1.124211,0.012695,-1.066889,0.076369,2.193688,2.329336
914.563000000,0.345897,1.125314,0.014136,-1.059883,-0.032976,2.193935,2.466102
914.594000000,0.328418,1.124114,0.012720,-1.068933,0.076371,2.193102,2.329333
914.598000000,0.345995,1.125318,0.013988,-1.059954,-0.046026,2.194205,2.473361
914.628000000,0.325020,1.124067,0.012661,-1.071593,0.076375,2.191794,2.329330
914.632000000,0.346006,1.125314,0.013961,-1.059965,-0.059609,2.194246,2.482416
914.662000000,0.321059,1.123813,0.012428,-1.075119,0.076373,2.190158,2.329333
914.667000000,0.345903,1.125322,0.014116,-1.059882,-0.074478,2.193956,2.493840
914.696000000,0.316626,1.123285,0.011927,-1.079345,0.076371,2.188858,2.329338
914.700000000,0.343560,1.124040,0.015879,-1.064578,-0.035368,2.193442,2.437327
914.730000000,0.311654,1.122444,0.011256,-1.083926,0.076367,2.187890,2.329338
914.736000000,0.338081,1.123030,0.016466,-1.069342,-0.008910,2.192008,2.393879
914.762000000,0.306134,1.121285,0.010216,-1.088335,0.076372,2.187383,2.329340
914.770000000,0.330701,1.122324,0.015820,-1.074162,0.007416,2.190392,2.362254
914.790000000,0.300087,1.119459,0.009094,-1.093433,0.076372,2.187244,2.329338
914.804000000,0.322892,1.121729,0.014330,-1.079030,0.017981,2.189360,2.338580
914.819000000,0.293142,1.116875,0.008227,-1.099224,0.076373,2.186936,2.329340
914.837000000,0.315218,1.121021,0.012487,-1.084069,0.025490,2.188862,2.316506
914.849000000,0.285600,1.113523,0.008002,-1.105921,0.076367,2.186564,2.329338
914.872000000,0.306880,1.119869,0.010962,-1.089673,0.029528,2.187975,2.301977
914.885000000,0.277632,1.109151,0.007996,-1.113687,0.076367,2.185660,2.329331
914.906000000,0.298878,1.118116,0.009778,-1.095748,0.032611,2.187378,2.289719
914.917000000,0.269328,1.103850,0.008004,-1.122919,0.076362,2.184236,2.329338
914.940000000,0.290858,1.115489,0.009044,-1.102619,0.034705,2.186632,2.280390
914.943000000,0.260578,1.098004,0.008037,-1.133054,0.076352,2.182045,2.329327
914.974000000,0.282832,1.111902,0.008607,-1.110385,0.036174,2.185590,2.272285
914.980000000,0.251839,1.091745,0.008002,-1.143954,0.076349,2.178969,2.329319
915.008000000,0.274677,1.107385,0.008442,-1.119055,0.037214,2.184075,2.265748
915.012000000,0.242730,1.084222,0.007969,-1.155825,0.076338,2.175937,2.329125
915.042000000,0.266338,1.102005,0.008397,-1.128595,0.038029,2.182037,2.260376
915.045000000,0.233223,1.076373,0.007947,-1.168706,0.076330,2.173777,2.328666
915.076000000,0.257790,1.095812,0.008386,-1.139045,0.038678,2.179716,2.255875
915.082000000,0.223588,1.068342,0.007932,-1.181821,0.076311,2.173153,2.327860
915.110000000,0.249280,1.089058,0.008315,-1.150174,0.039883,2.177836,2.250640
915.117000000,0.213755,1.060226,0.007786,-1.194758,0.076292,2.173174,2.326974
915.145000000,0.239710,1.081383,0.008500,-1.162485,0.039710,2.175980,2.248911
915.152000000,0.203753,1.051624,0.007723,-1.207446,0.076265,2.173184,2.325520
915.179000000,0.230042,1.073336,0.008324,-1.175275,0.040842,2.175148,2.244166
915.187000000,0.193662,1.043696,0.007645,-1.219386,0.076133,2.173202,2.324125
915.213000000,0.220428,1.065497,0.008404,-1.187366,0.040528,2.174261,2.243121
915.222000000,0.183364,1.036117,0.007302,-1.229951,0.076073,2.173255,2.322811
915.246000000,0.210368,1.057351,0.008301,-1.199660,0.040878,2.173796,2.240487
915.256000000,0.173219,1.028263,0.006932,-1.239821,0.076003,2.173298,2.321235
915.281000000,0.199954,1.049136,0.007920,-1.211694,0.041884,2.173721,2.236266
915.290000000,0.162914,1.021440,0.006176,-1.248321,0.075728,2.173332,2.318920
915.316000000,0.189186,1.041042,0.007694,-1.222932,0.041473,2.173316,2.235416
915.325000000,0.152545,1.015177,0.005154,-1.255912,0.075655,2.173372,2.316080
915.350000000,0.178705,1.033445,0.007166,-1.232997,0.041667,2.173197,2.232834
915.358000000,0.142230,1.009129,0.003940,-1.262881,0.075617,2.173424,2.312818
915.384000000,0.168182,1.026237,0.006403,-1.242041,0.041889,2.173162,2.229961
915.392000000,0.131766,1.003673,0.002029,-1.268893,0.075525,2.173452,2.310116
915.418000000,0.157695,1.019427,0.005353,-1.250195,0.042097,2.173167,2.226853
915.426000000,0.121635,0.998828,-0.000414,-1.274326,0.075445,2.173568,2.309008
915.451000000,0.147632,1.013215,0.003879,-1.257386,0.042913,2.173413,2.222571
915.461000000,0.111449,0.994736,-0.003371,-1.279072,0.075379,2.173860,2.308653
915.485000000,0.137262,1.007345,0.002035,-1.263911,0.043107,2.173540,2.220343
915.494000000,0.101183,0.991667,-0.006841,-1.282650,0.075189,2.173980,2.308408
915.519000000,0.126908,1.002074,-0.000248,-1.269601,0.043187,2.173711,2.218776
915.529000000,0.091123,0.989463,-0.010964,-1.285073,0.074899,2.174071,2.307972
915.554000000,0.116209,0.997465,-0.003041,-1.274405,0.042613,2.173663,2.219186
915.562000000,0.081153,0.988361,-0.016230,-1.285909,0.074842,2.174337,2.307276
915.588000000,0.105999,0.993919,-0.006528,-1.277986,0.042647,2.173848,2.218117
915.593000000,0.071550,0.988005,-0.022407,-1.285809,0.074829,2.174902,2.306444
915.618000000,0.061988,0.987966,-0.029631,-1.285547,0.074824,2.175623,2.305757
915.626000000,0.094747,0.991112,-0.011401,-1.280645,0.042695,2.174180,2.217071
915.657000000,0.052815,0.987984,-0.037286,-1.285272,0.074822,2.176361,2.304931
915.659000000,0.086597,0.990072,-0.015941,-1.280974,0.041044,2.174425,2.214536
915.690000000,0.043132,0.987982,-0.046067,-1.285032,0.074829,2.177412,2.304424
915.693000000,0.082104,0.989711,-0.018537,-1.280699,0.032111,2.174536,2.211578
915.723000000,0.033701,0.987986,-0.055276,-1.284593,0.074830,2.178741,2.304418
915.728000000,0.079723,0.989529,-0.019790,-1.280535,0.021668,2.174396,2.210003
915.757000000,0.024134,0.987984,-0.065024,-1.284016,0.074838,2.180461,2.304418
915.762000000,0.078545,0.989427,-0.020432,-1.280481,0.011741,2.174395,2.206127
915.792000000,0.014874,0.987987,-0.074738,-1.283237,0.074845,2.182888,2.304419
915.795000000,0.077905,0.989369,-0.020789,-1.280446,0.001544,2.174375,2.201133
915.824000000,0.005552,0.987973,-0.084682,-1.282449,0.074844,2.186123,2.304412
915.830000000,0.077533,0.989351,-0.020973,-1.280406,-0.008877,2.174343,2.194846
915.858000000,-0.003764,0.987981,-0.094371,-1.281600,0.074841,2.189984,2.304415
915.864000000,0.077298,0.989328,-0.021063,-1.280387,-0.019373,2.174311,2.187106
915.890000000,-0.012972,0.988001,-0.103744,-1.280588,0.074842,2.194449,2.304419
915.898000000,0.077162,0.989313,-0.021129,-1.280373,-0.029928,2.174279,2.177923
915.926000000,-0.022286,0.988002,-0.113267,-1.279461,0.074846,2.199009,2.304419
915.931000000,0.077159,0.989289,-0.021266,-1.280442,-0.039685,2.174457,2.166047
915.959000000,-0.031211,0.988000,-0.122436,-1.278099,0.074844,2.203020,2.304413
915.966000000,0.077020,0.989303,-0.021184,-1.280363,-0.051201,2.174267,2.155284
915.993000000,-0.039814,0.987993,-0.131454,-1.276699,0.074844,2.206868,2.304419
915.999000000,0.077064,0.989285,-0.021302,-1.280430,-0.061134,2.174452,2.140761
916.027000000,-0.048356,0.988003,-0.140572,-1.275106,0.074842,2.211620,2.304430
916.033000000,0.077059,0.989273,-0.021341,-1.280444,-0.071830,2.174478,2.125999
916.061000000,-0.056374,0.988011,-0.149204,-1.273181,0.074835,2.217780,2.304445
916.068000000,0.077069,0.989281,-0.021380,-1.280450,-0.082509,2.174512,2.109849
916.094000000,-0.064024,0.988017,-0.157267,-1.270758,0.074842,2.224242,2.304460
916.101000000,0.072719,0.990623,-0.041229,-1.279069,-0.041222,2.189605,2.154131
916.128000000,-0.071273,0.988022,-0.164952,-1.267816,0.074840,2.230735,2.304501
916.136000000,0.047490,0.991214,-0.068826,-1.276092,-0.011885,2.201870,2.201637
916.162000000,-0.077968,0.988081,-0.172122,-1.264301,0.074838,2.237227,2.304541
916.170000000,0.012425,0.991041,-0.098701,-1.272807,0.007670,2.212082,2.243594
916.196000000,-0.083998,0.988061,-0.178450,-1.260970,0.074841,2.243435,2.304571
916.204000000,-0.023800,0.990479,-0.127002,-1.269473,0.020652,2.221052,2.275966
916.229000000,-0.089422,0.988075,-0.184394,-1.257793,0.074833,2.249789,2.304577
916.239000000,-0.056692,0.989611,-0.151748,-1.266238,0.029355,2.228985,2.302250
916.262000000,-0.094200,0.988082,-0.189948,-1.255080,0.074830,2.256718,2.304575
916.273000000,-0.081572,0.988705,-0.170795,-1.263412,0.035099,2.236358,2.322162
916.297000000,-0.098424,0.988086,-0.195260,-1.252397,0.074828,2.262469,2.304580
916.307000000,-0.098972,0.987906,-0.184829,-1.260767,0.038507,2.243470,2.338333
916.331000000,-0.101746,0.988080,-0.200431,-1.249959,0.074832,2.267015,2.304584
916.341000000,-0.109601,0.987377,-0.194692,-1.258084,0.040033,2.250123,2.350961
916.365000000,-0.104263,0.988056,-0.205273,-1.247662,0.074830,2.270632,2.304587
916.376000000,-0.114925,0.987074,-0.201396,-1.255395,0.040724,2.256057,2.361459
916.398000000,-0.106119,0.988091,-0.209720,-1.245334,0.074828,2.273158,2.304609
916.409000000,-0.116547,0.986996,-0.205939,-1.252684,0.040869,2.261166,2.369888
916.431000000,-0.107232,0.988088,-0.213626,-1.243151,0.074828,2.274531,2.304647
916.443000000,-0.115953,0.987048,-0.209160,-1.249994,0.040783,2.265358,2.376720
916.464000000,-0.107627,0.988148,-0.216715,-1.240823,0.074833,2.274821,2.304749
916.477000000,-0.114264,0.987169,-0.211678,-1.247397,0.040545,2.268473,2.382345
916.499000000,-0.107538,0.988277,-0.218396,-1.238573,0.074836,2.274829,2.304945
916.511000000,-0.112307,0.987355,-0.213744,-1.244821,0.040248,2.270606,2.387232
916.527000000,-0.107123,0.988346,-0.218269,-1.236928,0.074839,2.274828,2.305053
916.545000000,-0.110598,0.987511,-0.215308,-1.242373,0.039968,2.272037,2.391332
916.555000000,-0.105789,0.988525,-0.217503,-1.236019,0.074838,2.274839,2.305116
916.580000000,-0.109143,0.987582,-0.216372,-1.240306,0.040412,2.273336,2.393173
916.582000000,-0.103634,0.988869,-0.216014,-1.235812,0.074839,2.274853,2.305187
916.614000000,-0.108011,0.987597,-0.216780,-1.238638,0.040145,2.273984,2.396177
916.619000000,-0.100774,0.989536,-0.213736,-1.235812,0.074847,2.274861,2.305306
916.648000000,-0.106780,0.987634,-0.216675,-1.237472,0.039992,2.274429,2.398660
916.654000000,-0.097051,0.990540,-0.210864,-1.235813,0.074850,2.274906,2.305401
916.682000000,-0.105235,0.987840,-0.215945,-1.236689,0.039905,2.274741,2.400825
916.689000000,-0.092539,0.991814,-0.207618,-1.235806,0.074857,2.274994,2.305489
916.716000000,-0.103139,0.988305,-0.214538,-1.236195,0.039767,2.274960,2.402756
916.725000000,-0.087527,0.993277,-0.204065,-1.235794,0.074860,2.275299,2.305579
916.750000000,-0.100237,0.989108,-0.212535,-1.235898,0.039701,2.275160,2.404386
916.758000000,-0.081938,0.994786,-0.200060,-1.235793,0.074868,2.275679,2.305725
916.784000000,-0.096505,0.990252,-0.209912,-1.235729,0.039683,2.275408,2.405702
916.792000000,-0.075850,0.996331,-0.195733,-1.235747,0.074872,2.276276,2.305992
916.818000000,-0.091975,0.991649,-0.206662,-1.235666,0.039579,2.275713,2.406884
916.827000000,-0.069017,0.998006,-0.191229,-1.235456,0.074880,2.277260,2.306100
916.852000000,-0.086628,0.993262,-0.202939,-1.235638,0.039542,2.276154,2.407974
916.861000000,-0.061840,0.999687,-0.186826,-1.235046,0.074889,2.278684,2.306278
916.886000000,-0.080513,0.995064,-0.198845,-1.235534,0.039538,2.276865,2.408887
916.894000000,-0.054105,1.001163,-0.182607,-1.234707,0.074895,2.280717,2.306482
916.920000000,-0.073701,0.996930,-0.194496,-1.235388,0.039440,2.277915,2.409686
916.928000000,-0.045884,1.002398,-0.178435,-1.234442,0.074905,2.283372,2.306790
916.954000000,-0.066220,0.998770,-0.190077,-1.235235,0.039401,2.279402,2.410433
916.963000000,-0.037243,1.003411,-0.174393,-1.234367,0.074911,2.287260,2.307014
916.988000000,-0.058190,1.000491,-0.185651,-1.235109,0.039370,2.281543,2.411050
916.996000000,-0.028168,1.004246,-0.170700,-1.234354,0.074916,2.292843,2.307050
917.022000000,-0.049677,1.002006,-0.181291,-1.235053,0.039258,2.284648,2.411697
917.030000000,-0.018465,1.004950,-0.167443,-1.234343,0.074918,2.298872,2.307061
917.055000000,-0.041020,1.003298,-0.177196,-1.234907,0.038518,2.288264,2.414063
917.064000000,-0.008489,1.005615,-0.164840,-1.234349,0.074919,2.304249,2.307109
917.090000000,-0.031168,1.004411,-0.173430,-1.234971,0.039126,2.293354,2.412892
917.099000000,0.001725,1.006352,-0.162747,-1.234344,0.074935,2.309142,2.307346
917.127000000,-0.021046,1.005324,-0.169920,-1.234797,0.038319,2.298042,2.415237
917.132000000,0.012236,1.007210,-0.160703,-1.234347,0.074975,2.313571,2.307826
917.159000000,-0.010805,1.006080,-0.166977,-1.234673,0.038192,2.302838,2.415916
917.166000000,0.022192,1.008231,-0.158948,-1.234338,0.075164,2.316973,2.308363
917.193000000,-0.000583,1.006760,-0.164323,-1.234519,0.038123,2.307307,2.416691
917.199000000,0.032533,1.009515,-0.157024,-1.234247,0.075208,2.319707,2.308719
917.227000000,0.010138,1.007482,-0.161934,-1.234321,0.038073,2.311295,2.417482
917.233000000,0.042821,1.011175,-0.155098,-1.233718,0.075219,2.321987,2.308807
917.262000000,0.021015,1.008401,-0.159687,-1.234079,0.038661,2.315158,2.416444
917.267000000,0.052888,1.013271,-0.152972,-1.232525,0.075216,2.323857,2.308825
917.295000000,0.028255,1.008908,-0.156012,-1.233668,0.028453,2.315333,2.426123
917.301000000,0.062858,1.015775,-0.150488,-1.230596,0.075218,2.324972,2.308824
917.330000000,0.032326,1.009081,-0.153878,-1.233627,0.016367,2.315614,2.435756
917.335000000,0.072326,1.018666,-0.147786,-1.227853,0.075227,2.325785,2.308815
917.364000000,0.034320,1.009154,-0.152772,-1.233565,0.004060,2.315679,2.448265
917.369000000,0.081648,1.022024,-0.144900,-1.224073,0.075227,2.326256,2.308823
917.398000000,0.035405,1.009183,-0.152207,-1.233546,-0.008370,2.315749,2.462734
917.403000000,0.091019,1.025856,-0.141547,-1.219707,0.075228,2.326859,2.308835
917.432000000,0.036008,1.009208,-0.151914,-1.233529,-0.020982,2.315827,2.479390
917.437000000,0.099937,1.029935,-0.137981,-1.214896,0.075223,2.327327,2.308831
917.466000000,0.036335,1.009203,-0.151738,-1.233532,-0.033761,2.315894,2.498326
917.471000000,0.108677,1.034156,-0.133869,-1.209533,0.075230,2.327547,2.308830
917.500000000,0.036537,1.009194,-0.151663,-1.233545,-0.046723,2.315961,2.519675
917.505000000,0.117483,1.038489,-0.129468,-1.203908,0.075230,2.327609,2.308832
917.534000000,0.044808,1.014952,-0.154461,-1.225782,-0.014384,2.319356,2.462702
917.539000000,0.125907,1.042787,-0.124735,-1.197882,0.075231,2.327641,2.308848
917.568000000,0.059867,1.021745,-0.151361,-1.218035,0.015125,2.322185,2.410117
917.573000000,0.134289,1.046905,-0.119459,-1.191629,0.075237,2.327682,2.308873
917.601000000,0.077568,1.028245,-0.144955,-1.211184,0.028627,2.324265,2.374140
917.607000000,0.142801,1.051288,-0.113640,-1.184886,0.075247,2.327701,2.308931
917.636000000,0.096901,1.034918,-0.136203,-1.204072,0.032656,2.325255,2.349364
917.641000000,0.150921,1.055515,-0.107403,-1.178195,0.075265,2.327799,2.309193
917.670000000,0.114789,1.041075,-0.127243,-1.197304,0.035167,2.326024,2.326706
917.673000000,0.159071,1.059731,-0.100870,-1.171875,0.075264,2.328284,2.309592
917.703000000,0.130336,1.046612,-0.118812,-1.190856,0.037061,2.326801,2.304898
917.706000000,0.167097,1.063395,-0.093779,-1.166111,0.075264,2.329280,2.309935
917.738000000,0.144258,1.051997,-0.110237,-1.183937,0.036989,2.327119,2.287365
917.740000000,0.174995,1.066845,-0.086828,-1.160302,0.075266,2.330107,2.310195
917.772000000,0.155588,1.056598,-0.102627,-1.177698,0.037205,2.327799,2.272594
917.775000000,0.183077,1.070082,-0.080142,-1.154643,0.075268,2.330670,2.310288
917.805000000,0.164910,1.060666,-0.095854,-1.171779,0.037933,2.328738,2.259912
917.808000000,0.191150,1.072915,-0.073672,-1.149697,0.075271,2.331220,2.310298
917.842000000,0.198811,1.075595,-0.067815,-1.145283,0.075278,2.331546,2.310348
917.843000000,0.173805,1.064787,-0.088648,-1.165188,0.037178,2.329244,2.251009
917.876000000,0.181335,1.067539,-0.082919,-1.160591,0.036375,2.329903,2.243611
917.876000000,0.206712,1.077897,-0.062301,-1.141365,0.075280,2.331784,2.310369
917.910000000,0.186346,1.067929,-0.080283,-1.160511,0.027720,2.329655,2.250183
917.910000000,0.214726,1.079937,-0.057365,-1.138182,0.075282,2.331834,2.310376
917.944000000,0.190659,1.071495,-0.075348,-1.153575,0.031093,2.330360,2.275336
917.944000000,0.222653,1.081580,-0.052998,-1.135459,0.075284,2.331842,2.310380
917.977000000,0.230300,1.082976,-0.049531,-1.133080,0.075284,2.331865,2.310387
917.977000000,0.197075,1.074528,-0.070070,-1.147975,0.033181,2.330845,2.300581
918.011000000,0.237693,1.083789,-0.046578,-1.131584,0.075287,2.331906,2.310399
918.012000000,0.204838,1.076494,-0.064988,-1.144543,0.033591,2.331200,2.320232
918.045000000,0.244946,1.084114,-0.044041,-1.130947,0.075285,2.331949,2.310410
918.046000000,0.209699,1.076181,-0.062699,-1.145364,0.020860,2.331002,2.331476
918.079000000,0.251736,1.084135,-0.042236,-1.130713,0.075290,2.332088,2.310423
918.081000000,0.211795,1.076285,-0.061683,-1.145198,0.010765,2.331280,2.338948
918.113000000,0.258387,1.084144,-0.041145,-1.130699,0.075298,2.332366,2.310448
918.115000000,0.212610,1.076267,-0.061289,-1.145217,-0.000364,2.331280,2.350037
918.147000000,0.264715,1.084175,-0.040571,-1.130702,0.075304,2.332499,2.310502
918.150000000,0.212965,1.076256,-0.061111,-1.145214,-0.011539,2.331341,2.363043
918.181000000,0.270894,1.084297,-0.040321,-1.130711,0.075301,2.332541,2.310540
918.184000000,0.213062,1.076268,-0.060936,-1.145116,-0.023923,2.331092,2.380436
918.216000000,0.276515,1.084498,-0.040306,-1.130716,0.075313,2.332554,2.310596
918.219000000,0.213235,1.076234,-0.061004,-1.145215,-0.035287,2.331381,2.396794
918.250000000,0.281741,1.084901,-0.040191,-1.130730,0.075321,2.332557,2.310738
918.252000000,0.213289,1.076242,-0.060991,-1.145197,-0.047247,2.331394,2.416737
918.284000000,0.286644,1.085429,-0.040020,-1.130727,0.075329,2.332555,2.310826
918.287000000,0.213321,1.076224,-0.060985,-1.145216,-0.059373,2.331454,2.438955
918.317000000,0.291296,1.086163,-0.039597,-1.130726,0.075351,2.332561,2.310978
918.321000000,0.213357,1.076208,-0.061005,-1.145231,-0.071699,2.331502,2.463533
918.352000000,0.295731,1.087125,-0.038819,-1.130728,0.075363,2.332567,2.311022
918.355000000,0.213389,1.076212,-0.061026,-1.145232,-0.084161,2.331560,2.489967
918.386000000,0.299943,1.088343,-0.037929,-1.130711,0.075373,2.332579,2.311024
918.390000000,0.213308,1.076206,-0.060914,-1.145146,-0.097961,2.331255,2.520476
918.419000000,0.303827,1.089825,-0.036917,-1.130700,0.075375,2.332606,2.311025
918.424000000,0.213308,1.076215,-0.060900,-1.145115,-0.111147,2.331210,2.550049
918.453000000,0.307693,1.091484,-0.035836,-1.130691,0.075375,2.332635,2.311035
918.458000000,0.213287,1.076204,-0.060864,-1.145096,-0.124587,2.331139,2.581280
918.487000000,0.311449,1.093275,-0.034732,-1.130680,0.075375,2.332674,2.311027
918.492000000,0.213280,1.076194,-0.060852,-1.145079,-0.138236,2.331067,2.613683
918.521000000,0.315007,1.095075,-0.033459,-1.130645,0.075371,2.332732,2.311029
918.526000000,0.213265,1.076203,-0.060828,-1.145039,-0.152179,2.330985,2.647396
918.555000000,0.318363,1.096842,-0.031933,-1.130565,0.075366,2.332797,2.311028
918.560000000,0.213240,1.076192,-0.060792,-1.145019,-0.166268,2.330905,2.681834
918.588000000,0.321592,1.098362,-0.030539,-1.130419,0.075366,2.332936,2.311035
918.594000000,0.213230,1.076183,-0.060779,-1.145000,-0.180596,2.330825,2.717161
918.623000000,0.324720,1.099666,-0.029713,-1.130222,0.075371,2.333308,2.311038
918.628000000,0.213213,1.076192,-0.060753,-1.144958,-0.195222,2.330731,2.753513
918.657000000,0.327612,1.100547,-0.029508,-1.130118,0.075367,2.333782,2.311028
918.662000000,0.213187,1.076181,-0.060714,-1.144936,-0.209992,2.330640,2.790521
918.691000000,0.330028,1.101176,-0.029511,-1.129879,0.075370,2.334447,2.311024
918.696000000,0.213174,1.076171,-0.060698,-1.144915,-0.225017,2.330548,2.828430
918.724000000,0.331847,1.101530,-0.029526,-1.129507,0.075366,2.335187,2.311025
918.729000000,0.213269,1.076140,-0.060829,-1.145028,-0.239097,2.330913,2.864151
918.758000000,0.332952,1.101632,-0.029541,-1.129108,0.075370,2.335894,2.311034
918.765000000,0.213244,1.076166,-0.060758,-1.144995,-0.253253,2.330509,2.897477
918.792000000,0.333245,1.101636,-0.029553,-1.128599,0.075373,2.336771,2.311030
918.799000000,0.213369,1.076280,-0.060730,-1.145054,-0.257116,2.330529,2.897300
918.825000000,0.332936,1.101639,-0.029921,-1.128060,0.075374,2.337582,2.311023
918.833000000,0.213435,1.076341,-0.060708,-1.145100,-0.260263,2.330541,2.897301
918.859000000,0.332211,1.101650,-0.030976,-1.127701,0.075374,2.338171,2.311031
918.868000000,0.213489,1.076395,-0.060706,-1.145118,-0.262643,2.330532,2.897309
918.892000000,0.330901,1.101677,-0.032653,-1.127660,0.075374,2.338644,2.311025
918.902000000,0.227076,1.082133,-0.064488,-1.139064,-0.168972,2.332376,2.738987
918.927000000,0.328913,1.101866,-0.034898,-1.127658,0.075368,2.339072,2.311021
918.937000000,0.251439,1.088184,-0.059606,-1.134542,-0.081301,2.334589,2.609153
918.961000000,0.326450,1.102288,-0.037949,-1.127664,0.075367,2.339579,2.311011
918.971000000,0.277328,1.092846,-0.051435,-1.131830,-0.035653,2.336182,2.528650
918.995000000,0.323537,1.102985,-0.042146,-1.127675,0.075365,2.340325,2.311002
919.004000000,0.299935,1.096431,-0.043662,-1.130186,-0.009163,2.337004,2.469700
919.029000000,0.320193,1.103968,-0.047411,-1.127686,0.075362,2.341272,2.311002
919.039000000,0.318603,1.099327,-0.038031,-1.129349,0.009032,2.338366,2.415261
919.063000000,0.316447,1.105243,-0.053782,-1.127702,0.075357,2.342137,2.310995
919.072000000,0.329772,1.101390,-0.035743,-1.128792,0.017972,2.339048,2.375885
919.095000000,0.312181,1.106800,-0.060977,-1.127712,0.075351,2.343147,2.310982
919.108000000,0.335377,1.103137,-0.037212,-1.128503,0.025117,2.340314,2.342872
919.129000000,0.307705,1.108645,-0.069039,-1.127744,0.075345,2.344539,2.310936
919.142000000,0.335213,1.104679,-0.041756,-1.128111,0.028512,2.341136,2.316908
919.162000000,0.302967,1.110780,-0.078061,-1.127749,0.075340,2.346405,2.310753
919.176000000,0.331194,1.106117,-0.048799,-1.127858,0.031076,2.342393,2.296466
919.195000000,0.297705,1.113134,-0.087806,-1.127759,0.075335,2.349113,2.310672
919.209000000,0.325020,1.107625,-0.057600,-1.127716,0.033426,2.344152,2.280181
919.228000000,0.292003,1.115774,-0.098183,-1.127741,0.075321,2.352743,2.310580
919.244000000,0.316867,1.109478,-0.068012,-1.127443,0.033968,2.346063,2.268727
919.259000000,0.285956,1.118451,-0.109105,-1.127724,0.075316,2.357197,2.310460
919.278000000,0.308496,1.111572,-0.079057,-1.127299,0.034696,2.348816,2.258369
919.294000000,0.279652,1.121294,-0.120521,-1.127721,0.075308,2.362377,2.310391
919.312000000,0.300100,1.113920,-0.090529,-1.127256,0.035120,2.352264,2.250537
919.328000000,0.273130,1.124118,-0.132223,-1.127701,0.075302,2.368767,2.310338
919.345000000,0.292322,1.116442,-0.102042,-1.127347,0.036068,2.356541,2.243699
919.363000000,0.266049,1.126939,-0.144439,-1.127687,0.075291,2.376480,2.310181
919.379000000,0.284595,1.119234,-0.113907,-1.127421,0.036198,2.361593,2.241195
919.397000000,0.258940,1.129716,-0.156387,-1.127520,0.075264,2.384510,2.310038
919.413000000,0.277189,1.122199,-0.125911,-1.127474,0.036258,2.367692,2.241539
