yuan18844-afk/dissertation/catkin_ws/src/franka_digital_twin/analysis/data/unity_fast1_20250728_065921.csv
time,panda_joint1,panda_joint2,panda_joint3,panda_joint4,panda_joint5,panda_joint6,panda_joint7
5866.454000,0.32443341612815857,1.094909429550171,0.03382154181599617,-1.3117952346801758,0.17284399271011353,2.4931817054748535,1.5827841758728027
5866.468000,0.32553234696388245,1.094799518585205,0.03417687490582466,-1.3117470741271973,0.16770322620868683,2.4932451248168945,1.5904736518859863
5866.488000,0.32679125666618347,1.0946863889694214,0.03450509160757065,-1.3117015361785889,0.16180409491062164,2.4933125972747803,1.599434494972229
5866.512000,0.3281629681587219,1.0945897102355957,0.03456119820475578,-1.3116711378097534,0.15614256262779236,2.4933717250823975,1.6085264682769775
5866.535000,0.32936134934425354,1.0945510864257812,0.03400890901684761,-1.3116799592971802,0.15274207293987274,2.493398666381836,1.615100383758545
5866.555000,0.33007216453552246,1.09455144405365,0.0334479920566082,-1.3117035627365112,0.15070512890815735,2.4934139251708984,1.6196843385696411
5866.576000,0.33040663599967957,1.094571828842163,0.03294901177287102,-1.3117311000823975,0.14967598021030426,2.493422031402588,1.6226997375488281
5866.596000,0.3304806649684906,1.0946018695831299,0.03251642733812332,-1.3117581605911255,0.1494111865758896,2.493425130844116,1.6244832277297974
5866.613000,0.3304072916507721,1.0946226119995117,0.0323333665728569,-1.3117738962173462,0.14899790287017822,2.4934327602386475,1.6261489391326904
5866.633000,0.33032137155532837,1.094648838043213,0.0320119634270668,-1.3117938041687012,0.14931611716747284,2.4934327602386475,1.6268662214279175
5866.654000,0.330130934715271,1.0946804285049438,0.03171084448695183,-1.311814546585083,0.15007847547531128,2.4934298992156982,1.626846194267273
5866.675000,0.32986345887184143,1.0947144031524658,0.03144364431500435,-1.3118348121643066,0.15115894377231598,2.4934253692626953,1.6262571811676025
5866.696000,0.32954806089401245,1.094749093055725,0.03120771050453186,-1.3118540048599243,0.15246964991092682,2.493419647216797,1.6252328157424927
5866.712000,0.32920601963996887,1.0947834253311157,0.030998747795820236,-1.3118720054626465,0.15394335985183716,2.493412971496582,1.6238796710968018
5866.733000,0.32885199785232544,1.0948169231414795,0.030812719836831093,-1.3118886947631836,0.15552811324596405,2.493405818939209,1.6222821474075317
5866.752000,0.32849588990211487,1.0948491096496582,0.030646158382296562,-1.3119041919708252,0.15718388557434082,2.4933981895446777,1.6205071210861206
5866.772000,0.32814428210258484,1.0948799848556519,0.030496206134557724,-1.3119184970855713,0.15887992084026337,2.4933903217315674,1.6186074018478394
5866.789000,0.32771873474121094,1.0949124097824097,0.03041665256023407,-1.3119338750839233,0.1605837345123291,2.493375301361084,1.6164677143096924
5866.810000,0.3272295296192169,1.0949461460113525,0.03041834756731987,-1.3119498491287231,0.16220945119857788,2.493356704711914,1.6141576766967773
5866.832000,0.3267017900943756,1.0949811935424805,0.030470246449112892,-1.3119667768478394,0.16377852857112885,2.493335247039795,1.6116669178009033
5866.851000,0.3261488378047943,1.0950173139572144,0.030559750273823738,-1.3119844198226929,0.16529060900211334,2.4933114051818848,1.6090112924575806
5866.872000,0.32568472623825073,1.0950483083724976,0.030634600669145584,-1.3119982481002808,0.1666613519191742,2.493295907974243,1.6065120697021484
5866.892000,0.3252275884151459,1.0950791835784912,0.03069348819553852,-1.3120129108428955,0.16806519031524658,2.4932749271392822,1.603873610496521
5866.910000,0.3247436285018921,1.0951107740402222,0.030788907781243324,-1.312027931213379,0.16941088438034058,2.4932520389556885,1.6011459827423096
5866.931000,0.3242536783218384,1.0951417684555054,0.03091287985444069,-1.312042474746704,0.17067167162895203,2.4932289123535156,1.5983856916427612
5866.950000,0.323781281709671,1.0951707363128662,0.03105480596423149,-1.3120558261871338,0.1718222051858902,2.493206739425659,1.5956650972366333
5866.971000,0.3233376741409302,1.0951975584030151,0.031198803335428238,-1.3120681047439575,0.17288249731063843,2.49318528175354,1.592994213104248
5866.990000,0.32293424010276794,1.0952212810516357,0.0313444621860981,-1.312078595161438,0.173825204372406,2.493165969848633,1.5904431343078613
5867.006000,0.32265186309814453,1.095239520072937,0.03142731264233589,-1.3120852708816528,0.174685999751091,2.4931554794311523,1.5881544351577759
5867.026000,0.32247692346572876,1.0952527523040771,0.03143494203686714,-1.3120890855789185,0.1755446046590805,2.493149518966675,1.586084246635437
5867.046000,0.3223722577095032,1.0952626466751099,0.031391043215990067,-1.3120907545089722,0.17641854286193848,2.4931464195251465,1.5841972827911377
5867.067000,0.32226890325546265,1.0952688455581665,0.031383346766233444,-1.3120903968811035,0.1771676391363144,2.4931423664093018,1.582535982131958
5867.082000,0.3221736550331116,1.0952730178833008,0.03139644116163254,-1.312089204788208,0.17780768871307373,2.493137836456299,1.581060528755188
5867.103000,0.32210659980773926,1.0952738523483276,0.03142984211444855,-1.3120862245559692,0.17828309535980225,2.493135690689087,1.5798518657684326
5867.126000,0.3220767676830292,1.095272421836853,0.03145681321620941,-1.3120824098587036,0.17864999175071716,2.4931344985961914,1.578857660293579
5867.146000,0.32207420468330383,1.0952695608139038,0.03147604689002037,-1.3120782375335693,0.17893457412719727,2.493134021759033,1.5780359506607056
5867.167000,0.32211801409721375,1.0952626466751099,0.031502462923526764,-1.3120715618133545,0.17904452979564667,2.493138074874878,1.577530026435852
5867.187000,0.32221561670303345,1.0952527523040771,0.03150424361228943,-1.3120636940002441,0.17906008660793304,2.4931440353393555,1.5772714614868164
5867.204000,0.32235878705978394,1.0952401161193848,0.031491126865148544,-1.3120545148849487,0.17897066473960876,2.493152618408203,1.5772743225097656
5867.225000,0.32254794239997864,1.0952246189117432,0.03146331384778023,-1.3120437860488892,0.17877501249313354,2.493163824081421,1.5775513648986816
5867.245000,0.3227732479572296,1.0952075719833374,0.031412914395332336,-1.3120325803756714,0.17852267622947693,2.493176221847534,1.5780380964279175
5867.266000,0.32302436232566833,1.0951894521713257,0.031347744166851044,-1.312021017074585,0.17821761965751648,2.493190050125122,1.5787183046340942
5867.287000,0.3232916295528412,1.0951710939407349,0.03126739710569382,-1.312009572982788,0.17788849771022797,2.493204355239868,1.579543113708496
5867.304000,0.32357141375541687,1.0951519012451172,0.031182900071144104,-1.311997652053833,0.1775127649307251,2.4932196140289307,1.5805293321609497
5867.325000,0.3238663077354431,1.0951319932937622,0.031090466305613518,-1.3119854927062988,0.1770985871553421,2.4932358264923096,1.5816679000854492
5867.346000,0.3241701126098633,1.0951119661331177,0.03098721243441105,-1.3119735717773438,0.1766720414161682,2.4932522773742676,1.5829161405563354
5867.366000,0.32447823882102966,1.0950919389724731,0.030879691243171692,-1.3119616508483887,0.17622628808021545,2.4932689666748047,1.5842705965042114
5867.387000,0.3247881829738617,1.0950722694396973,0.03076396882534027,-1.3119500875473022,0.1757829636335373,2.493285655975342,1.5856975317001343
5867.403000,0.3250955045223236,1.09505295753479,0.030647331848740578,-1.311938762664795,0.1753319948911667,2.493302345275879,1.587195873260498
5867.423000,0.3253991901874542,1.0950342416763306,0.030526097863912582,-1.3119280338287354,0.17488999664783478,2.493318796157837,1.5887389183044434
5867.443000,0.3256957232952118,1.0950162410736084,0.030403394252061844,-1.311917781829834,0.17445796728134155,2.493335008621216,1.590314507484436
5867.463000,0.32598522305488586,1.094998836517334,0.030281249433755875,-1.3119077682495117,0.1740313470363617,2.4933509826660156,1.5919221639633179
5867.484000,0.3262089490890503,1.0949952602386475,0.030040420591831207,-1.311907172203064,0.17416353523731232,2.4933555126190186,1.5928337574005127
5867.501000,0.32635149359703064,1.0949878692626953,0.02995283342897892,-1.3119016885757446,0.1740371137857437,2.4933667182922363,1.5939394235610962
5867.522000,0.3264659345149994,1.0949900150299072,0.029750298708677292,-1.3119029998779297,0.1743871420621872,2.493367910385132,1.5944494009017944
5867.542000,0.3264710009098053,1.0949995517730713,0.0295743178576231,-1.3119075298309326,0.1749856024980545,2.4933652877807617,1.5944958925247192
5867.562000,0.3263956308364868,1.095012903213501,0.029432423412799835,-1.311913251876831,0.1757502406835556,2.4933602809906006,1.5941842794418335
5867.584000,0.3262687921524048,1.095028042793274,0.029318835586309433,-1.311919093132019,0.1766287088394165,2.493353843688965,1.5935982465744019
5867.600000,0.32611116766929626,1.095043659210205,0.029227575287222862,-1.311924695968628,0.17758265137672424,2.4933462142944336,1.5928046703338623
5867.621000,0.32593679428100586,1.0950591564178467,0.029153766110539436,-1.3119299411773682,0.17858348786830902,2.493338108062744,1.5918562412261963
5867.641000,0.3257550299167633,1.09507417678833,0.029093626886606216,-1.3119345903396606,0.17960992455482483,2.4933295249938965,1.5907949209213257
5867.663000,0.32557201385498047,1.0950886011123657,0.029044268652796745,-1.311938762664795,0.1806461066007614,2.4933207035064697,1.5896538496017456
5867.682000,0.3253917396068573,1.095102310180664,0.029003499075770378,-1.3119423389434814,0.1816803216934204,2.493311882019043,1.5884592533111572
5867.699000,0.32521671056747437,1.0951151847839355,0.028969667851924896,-1.3119454383850098,0.18270398676395416,2.493303060531616,1.5872316360473633
5867.720000,0.32504841685295105,1.0951273441314697,0.028941534459590912,-1.3119480609893799,0.18371082842350006,2.4932942390441895,1.5859870910644531
5867.741000,0.3248877227306366,1.095138669013977,0.02891816943883896,-1.3119502067565918,0.18469634652137756,2.493285655975342,1.5847382545471191
5867.762000,0.3247350752353668,1.0951491594314575,0.028898848220705986,-1.3119518756866455,0.18565736711025238,2.493277072906494,1.583494782447815
5867.783000,0.3245905935764313,1.0951589345932007,0.02888300083577633,-1.311953067779541,0.18659178912639618,2.4932687282562256,1.5822640657424927
5867.799000,0.32445427775382996,1.0951679944992065,0.028870195150375366,-1.3119537830352783,0.18749821186065674,2.493260622024536,1.5810518264770508
5867.822000,0.32432594895362854,1.095176339149475,0.02886008471250534,-1.311954140663147,0.1883758008480072,2.4932525157928467,1.579862356185913
5867.841000,0.32420408725738525,1.0951839685440063,0.02885390631854534,-1.311954140663147,0.18922176957130432,2.4932444095611572,1.578698754310608
5867.862000,0.3240780234336853,1.0951817035675049,0.028982477262616158,-1.3119484186172485,0.18959841132164001,2.4932403564453125,1.5780194997787476
5867.883000,0.32402291893959045,1.0951825380325317,0.029002975672483444,-1.311945915222168,0.190103679895401,2.4932336807250977,1.5772626399993896
5867.900000,0.32396626472473145,1.0951859951019287,0.02900334820151329,-1.311944842338562,0.19065377116203308,2.493227005004883,1.576451301574707
5867.919000,0.32390323281288147,1.0951906442642212,0.028997687622904778,-1.3119442462921143,0.19123026728630066,2.493220329284668,1.5756034851074219
5867.941000,0.32383593916893005,1.0951956510543823,0.028990164399147034,-1.311943531036377,0.19182299077510834,2.4932138919830322,1.5747334957122803
5867.961000,0.3236878216266632,1.0952022075653076,0.029049227014183998,-1.3119447231292725,0.19236931204795837,2.493199586868286,1.5737531185150146
5867.983000,0.3235534429550171,1.095208764076233,0.029109833762049675,-1.3119454383850098,0.19287025928497314,2.493189573287964,1.57279372215271
5867.999000,0.32345059514045715,1.0952143669128418,0.02914741076529026,-1.3119454383850098,0.19336868822574615,2.4931814670562744,1.5718570947647095
5868.019000,0.3233706057071686,1.0952190160751343,0.02916770987212658,-1.3119447231292725,0.19387024641036987,2.4931745529174805,1.5709446668624878
5868.040000,0.32330599427223206,1.0952228307724,0.029176941141486168,-1.3119434118270874,0.19437457621097565,2.493168354034424,1.5700573921203613
5868.061000,0.32325276732444763,1.0952259302139282,0.029179880395531654,-1.3119415044784546,0.19487623870372772,2.4931628704071045,1.569201111793518
5868.082000,0.32320836186408997,1.0952284336090088,0.029178371652960777,-1.3119391202926636,0.1953747719526291,2.4931578636169434,1.568374752998352
5868.098000,0.3231705129146576,1.0952304601669312,0.02917437255382538,-1.3119364976882935,0.19586829841136932,2.4931533336639404,1.5675772428512573
5868.119000,0.32313770055770874,1.0952320098876953,0.029169222339987755,-1.3119336366653442,0.19635486602783203,2.4931490421295166,1.5668076276779175
5868.140000,0.3231090009212494,1.0952332019805908,0.029163775965571404,-1.311930537223816,0.19683270156383514,2.4931447505950928,1.5660648345947266
5868.161000,0.3230838179588318,1.0952341556549072,0.029158558696508408,-1.311927318572998,0.19730030000209808,2.493140697479248,1.5653480291366577
5868.182000,0.3230617642402649,1.095234751701355,0.02915387600660324,-1.3119239807128906,0.19775646924972534,2.4931368827819824,1.5646562576293945
5868.197000,0.3230425715446472,1.0952351093292236,0.029149891808629036,-1.3119205236434937,0.1982002854347229,2.493133068084717,1.5639886856079102
5868.216000,0.32302477955818176,1.0952352285385132,0.029148176312446594,-1.3119169473648071,0.1986287385225296,2.493129253387451,1.5633443593978882
5868.238000,0.32300865650177,1.0952352285385132,0.029148388653993607,-1.3119133710861206,0.19904117286205292,2.4931254386901855,1.5627225637435913
5868.259000,0.32299450039863586,1.095234990119934,0.029150059446692467,-1.3119096755981445,0.19943758845329285,2.493121862411499,1.5621224641799927
5868.280000,0.32298246026039124,1.0952345132827759,0.02915283665060997,-1.3119059801101685,0.19981823861598969,2.4931182861328125,1.561543345451355
5868.296000,0.3229725956916809,1.0952339172363281,0.02915646694600582,-1.3119022846221924,0.2001834660768509,2.493114948272705,1.560984492301941
5868.318000,0.3229648768901825,1.0952332019805908,0.029160769656300545,-1.3118985891342163,0.20053371787071228,2.4931116104125977,1.5604451894760132
5868.338000,0.3229592442512512,1.0952322483062744,0.029165606945753098,-1.3118947744369507,0.20086948573589325,2.4931082725524902,1.5599247217178345
5868.359000,0.32295557856559753,1.0952311754226685,0.02917088195681572,-1.311890959739685,0.2011912614107132,2.493105173110962,1.5594223737716675
5868.380000,0.32295382022857666,1.095229983329773,0.029176512733101845,-1.3118871450424194,0.20149953663349152,2.4931020736694336,1.558937668800354
5868.397000,0.32295385003089905,1.095228672027588,0.0291824359446764,-1.3118833303451538,0.20179483294487,2.4930992126464844,1.5584698915481567
5868.417000,0.32290926575660706,1.095200538635254,0.029560189694166183,-1.311864972114563,0.20087511837482452,2.493105888366699,1.5592403411865234
5868.437000,0.3229939639568329,1.095157265663147,0.03001287393271923,-1.3118420839309692,0.19916047155857086,2.493114471435547,1.560961365699768
5868.459000,0.3232358396053314,1.0951346158981323,0.030104467645287514,-1.3118342161178589,0.1980583816766739,2.493115186691284,1.5621769428253174
5868.479000,0.32339659333229065,1.0950952768325806,0.030517635866999626,-1.3118159770965576,0.1959327906370163,2.4931282997131348,1.5644227266311646
5868.496000,0.3236948251724243,1.0950758457183838,0.030555900186300278,-1.311811923980713,0.19456294178962708,2.493131399154663,1.5660191774368286
5868.517000,0.32391658425331116,1.095070242881775,0.030513741075992584,-1.3118140697479248,0.19362974166870117,2.493133306503296,1.5671032667160034
5868.538000,0.32406529784202576,1.0950326919555664,0.030929336324334145,-1.3117951154708862,0.19131335616111755,2.493155002593994,1.5696702003479004
5868.559000,0.3244020342826843,1.0949755907058716,0.03138361871242523,-1.3117685317993164,0.18820352852344513,2.4931817054748535,1.573364019393921
5868.580000,0.32490646839141846,1.0949063301086426,0.03185463696718216,-1.31173837184906,0.18435566127300262,2.4932148456573486,1.5781351327896118
5868.595000,0.3255678117275238,1.0948289632797241,0.032318972051143646,-1.311706781387329,0.17984038591384888,2.4932541847229004,1.5839351415634155
5868.616000,0.3263132572174072,1.0947953462600708,0.03216098994016647,-1.3117061853408813,0.17697322368621826,2.493269443511963,1.588139295578003
5868.636000,0.3267973065376282,1.0947911739349365,0.03191637247800827,-1.3117185831069946,0.1750793606042862,2.4932780265808105,1.591081976890564
5868.657000,0.32705989480018616,1.0948020219802856,0.03166661784052849,-1.3117350339889526,0.1739169955253601,2.4932827949523926,1.5930302143096924
5868.678000,0.32716304063796997,1.0948200225830078,0.03143157809972763,-1.3117518424987793,0.17332178354263306,2.4932847023010254,1.5941970348358154
5868.694000,0.3271558880805969,1.0948412418365479,0.031217435374855995,-1.3117676973342896,0.173164501786232,2.4932844638824463,1.5947524309158325
5868.715000,0.32717591524124146,1.0948065519332886,0.031710244715213776,-1.311745285987854,0.17070642113685608,2.493318557739258,1.597914695739746
5868.736000,0.32763540744781494,1.0947306156158447,0.03226209804415703,-1.3117051124572754,0.16676518321037292,2.4933664798736572,1.6033202409744263
5868.757000,0.32833361625671387,1.0946955680847168,0.03201047703623772,-1.3117010593414307,0.16465434432029724,2.493382453918457,1.6070843935012817
5868.777000,0.32889142632484436,1.0946297645568848,0.032457929104566574,-1.3116707801818848,0.160462886095047,2.4934301376342773,1.6131483316421509
5868.794000,0.3296220600605011,1.0946024656295776,0.03213021159172058,-1.3116744756698608,0.15823045372962952,2.493445873260498,1.6173521280288696
5868.814000,0.3301922082901001,1.094541072845459,0.0325646847486496,-1.311647653579712,0.15381349623203278,2.4934940338134766,1.6239441633224487
5868.835000,0.33110031485557556,1.0944534540176392,0.03299727663397789,-1.311611294746399,0.14829234778881073,2.493549108505249,1.6323339939117432
5868.857000,0.3322840631008148,1.094352126121521,0.03339515998959541,-1.3115730285644531,0.1418381631374359,2.4936084747314453,1.6423226594924927
5868.876000,0.33368727564811707,1.0942444801330566,0.03374717757105827,-1.3115367889404297,0.1345893293619156,2.4936697483062744,1.653741478919983
5868.893000,0.33524417877197266,1.0941388607025146,0.03400625288486481,-1.3115075826644897,0.1268627792596817,2.493727922439575,1.6661845445632935
5868.913000,0.33689403533935547,1.094036340713501,0.034229785203933716,-1.3114842176437378,0.11865086853504181,2.493783473968506,1.679602861404419
5868.934000,0.3386272192001343,1.093936800956726,0.034423038363456726,-1.3114662170410156,0.1099875196814537,2.493835210800171,1.6939560174942017
5868.954000,0.3404169976711273,1.0938440561294556,0.0345393642783165,-1.3114564418792725,0.10112074762582779,2.493880033493042,1.7089306116104126
5868.975000,0.3422320485115051,1.0937567949295044,0.03464137390255928,-1.3114523887634277,0.09196167439222336,2.4939184188842773,1.7245835065841675
5868.991000,0.3437836170196533,1.093733787536621,0.03363212198019028,-1.3115063905715942,0.0870203822851181,2.493924617767334,1.7354116439819336
5869.012000,0.3444410562515259,1.0937623977661133,0.032664187252521515,-1.3115731477737427,0.08454090356826782,2.4939210414886475,1.7424392700195312
5869.032000,0.34441879391670227,1.0938175916671753,0.031851187348365784,-1.3116381168365479,0.08384881913661957,2.493912696838379,1.746483564376831
5869.054000,0.34426623582839966,1.093827247619629,0.032330967485904694,-1.3116437196731567,0.07974741607904434,2.4939231872558594,1.7540159225463867
5869.074000,0.34479308128356934,1.093790054321289,0.03281388059258461,-1.3116321563720703,0.07397790253162384,2.49393630027771,1.7641886472702026
5869.091000,0.3458001911640167,1.0937402248382568,0.03288710489869118,-1.3116310834884644,0.06818495690822601,2.4939444065093994,1.775091528892517
5869.111000,0.3469446301460266,1.0936917066574097,0.03283468261361122,-1.311637282371521,0.062290407717227936,2.493948459625244,1.7864820957183838
5869.132000,0.3478374183177948,1.0936850309371948,0.031849391758441925,-1.3116886615753174,0.06004982441663742,2.49394154548645,1.7935869693756104
5869.153000,0.34816688299179077,1.0936964750289917,0.03138530254364014,-1.3117259740829468,0.05782600864768028,2.4939358234405518,1.8000481128692627
5869.174000,0.3481767177581787,1.0937302112579346,0.030521634966135025,-1.3117808103561401,0.05806916952133179,2.493926763534546,1.8032523393630981
5869.190000,0.3478328585624695,1.093768835067749,0.030124329030513763,-1.3118188381195068,0.05815728008747101,2.4939191341400146,1.806062936782837
5869.209000,0.34746792912483215,1.0938050746917725,0.029694218188524246,-1.3118547201156616,0.05880933254957199,2.4939115047454834,1.8080593347549438
5869.230000,0.34704992175102234,1.093841314315796,0.029294675216078758,-1.3118879795074463,0.05984614044427872,2.4939041137695312,1.8094133138656616
5869.252000,0.34654784202575684,1.0938808917999268,0.028875431045889854,-1.3119221925735474,0.061454299837350845,2.493896484375,1.8098602294921875
5869.271000,0.3458329439163208,1.0939350128173828,0.02831181138753891,-1.3119651079177856,0.06436455249786377,2.493886947631836,1.8083527088165283
5869.288000,0.3448813557624817,1.0939953327178955,0.028023693710565567,-1.31200110912323,0.06729471683502197,2.493877649307251,1.8062598705291748
5869.309000,0.34385526180267334,1.0940577983856201,0.0277846809476614,-1.3120360374450684,0.07051711529493332,2.4938676357269287,1.8034449815750122
5869.329000,0.3427686095237732,1.0941218137741089,0.02761632762849331,-1.312069058418274,0.07388516515493393,2.493856906890869,1.8000922203063965
5869.349000,0.34162676334381104,1.0941886901855469,0.027478240430355072,-1.3121020793914795,0.0774831771850586,2.493844509124756,1.7961080074310303
5869.370000,0.3404373824596405,1.0942604541778564,0.027299508452415466,-1.312137484550476,0.08152946829795837,2.4938302040100098,1.7912756204605103
5869.388000,0.3391844630241394,1.094335913658142,0.02715902216732502,-1.3121726512908936,0.08582030981779099,2.493814468383789,1.7858220338821411
5869.407000,0.33790454268455505,1.0944128036499023,0.027059009298682213,-1.312206745147705,0.09025034308433533,2.4937973022460938,1.7799270153045654
5869.427000,0.336573988199234,1.0944904088974,0.02706293947994709,-1.3122386932373047,0.0946233794093132,2.4937777519226074,1.773756504058838
5869.448000,0.3352344334125519,1.0945672988891602,0.02714339829981327,-1.3122687339782715,0.09888317435979843,2.493756055831909,1.7674163579940796
5869.464000,0.33397021889686584,1.0946416854858398,0.027205729857087135,-1.3122974634170532,0.10312363505363464,2.493734359741211,1.7609655857086182
5869.485000,0.33269160985946655,1.0947167873382568,0.027302414178848267,-1.3123263120651245,0.10735718905925751,2.493708848953247,1.7542701959609985
5869.506000,0.3314817249774933,1.0947885513305664,0.027414442971348763,-1.3123522996902466,0.11145240068435669,2.493684768676758,1.7476370334625244
5869.526000,0.3303681015968323,1.094855785369873,0.027501512318849564,-1.3123760223388672,0.11546269804239273,2.4936611652374268,1.741098165512085
5869.547000,0.32933691143989563,1.0949188470840454,0.027570363134145737,-1.3123975992202759,0.1193883940577507,2.493637800216675,1.7346779108047485
5869.568000,0.3282737731933594,1.0949832201004028,0.027671076357364655,-1.3124200105667114,0.12330671399831772,2.4936084747314453,1.7280977964401245
5869.584000,0.327163964509964,1.0950490236282349,0.027845321223139763,-1.312442421913147,0.12710773944854736,2.4935758113861084,1.7214186191558838
5869.606000,0.3260427713394165,1.0951144695281982,0.028075959533452988,-1.3124641180038452,0.1307528018951416,2.4935410022735596,1.7147096395492554
5869.625000,0.32494261860847473,1.0951781272888184,0.02834385260939598,-1.3124845027923584,0.13421718776226044,2.4935050010681152,1.7080445289611816
5869.640000,0.3239835500717163,1.0952339172363281,0.028590312227606773,-1.3125001192092896,0.13741843402385712,2.4934754371643066,1.701757788658142
5869.661000,0.32308608293533325,1.0952866077423096,0.02880876138806343,-1.312515139579773,0.14053933322429657,2.4934425354003906,1.6955569982528687
5869.678000,0.3222218453884125,1.0953363180160522,0.02905464917421341,-1.3125284910202026,0.14346341788768768,2.4934096336364746,1.689540982246399
5869.689000,0.3214051127433777,1.095382809638977,0.029308395460247993,-1.3125402927398682,0.1462126523256302,2.4933767318725586,1.6837096214294434
5869.710000,0.32071879506111145,1.0954229831695557,0.029514119029045105,-1.3125485181808472,0.1487894058227539,2.4933502674102783,1.6782366037368774
5869.724000,0.32015758752822876,1.0954571962356567,0.029650915414094925,-1.3125537633895874,0.15127936005592346,2.4933271408081055,1.6730785369873047
5869.740000,0.3196869492530823,1.0954868793487549,0.02973894402384758,-1.3125567436218262,0.15370382368564606,2.4933063983917236,1.6681996583938599
5869.755000,0.31923359632492065,1.0955122709274292,0.029866671189665794,-1.3125574588775635,0.15592890977859497,2.4932844638824463,1.6636276245117188
5869.778000,0.31885242462158203,1.095535397529602,0.029947660863399506,-1.3125572204589844,0.1581096351146698,2.49326491355896,1.6592671871185303
5869.793000,0.31852394342422485,1.0955562591552734,0.02999778650701046,-1.3125559091567993,0.16025127470493317,2.4932467937469482,1.6551005840301514
5869.817000,0.3182346224784851,1.0955750942230225,0.030028987675905228,-1.3125534057617188,0.1623525768518448,2.493229627609253,1.6511127948760986
5869.832000,0.3179759085178375,1.0955920219421387,0.03004918247461319,-1.3125498294830322,0.16441014409065247,2.493213415145874,1.647290825843811
5869.850000,0.31774234771728516,1.0956071615219116,0.030063483864068985,-1.3125452995300293,0.16641992330551147,2.4931976795196533,1.6436235904693604
5869.862000,0.3175305128097534,1.0956207513809204,0.030075116083025932,-1.3125399351119995,0.1683780550956726,2.493182420730591,1.6401015520095825
5869.878000,0.31733807921409607,1.095632791519165,0.030086055397987366,-1.3125337362289429,0.17028121650218964,2.4931674003601074,1.6367161273956299
5869.900000,0.31716346740722656,1.0956435203552246,0.03009747341275215,-1.312526822090149,0.17212682962417603,2.493152618408203,1.6334599256515503
5869.915000,0.3170054852962494,1.0956529378890991,0.030110010877251625,-1.3125193119049072,0.17391306161880493,2.493138313293457,1.6303261518478394
5869.934000,0.31686317920684814,1.0956611633300781,0.030123980715870857,-1.3125113248825073,0.17563877999782562,2.49312424659729,1.6273088455200195
5869.956000,0.3167348802089691,1.0956683158874512,0.030139079317450523,-1.3125028610229492,0.17730693519115448,2.493110418319702,1.6243970394134521
5869.978000,0.3166193962097168,1.0956743955612183,0.030156340450048447,-1.3124940395355225,0.17891544103622437,2.4930968284606934,1.6215869188308716
5870.001000,0.3165164887905121,1.095679521560669,0.030175574123859406,-1.312484860420227,0.1804640293121338,2.4930834770202637,1.6188750267028809
5870.022000,0.3164259195327759,1.0956836938858032,0.03019648790359497,-1.312475323677063,0.18195310235023499,2.493070363998413,1.616257905960083
5870.039000,0.3163459897041321,1.095686912536621,0.03022029623389244,-1.3124654293060303,0.1833811104297638,2.4930574893951416,1.6137322187423706
5870.061000,0.3162767291069031,1.095689296722412,0.030246388167142868,-1.3124552965164185,0.18474896252155304,2.4930450916290283,1.6112947463989258
5870.082000,0.31627485156059265,1.0956679582595825,0.030511146411299706,-1.3124303817749023,0.1850961446762085,2.493049144744873,1.6101083755493164
5870.102000,0.31648826599121094,1.0956265926361084,0.030795471742749214,-1.3123962879180908,0.18467628955841064,2.493062973022461,1.6101083755493164
5870.122000,0.31688570976257324,1.0955747365951538,0.03103049285709858,-1.3123592138290405,0.18373680114746094,2.49308180809021,1.6110243797302246
5870.139000,0.31733182072639465,1.0955455303192139,0.030942099168896675,-1.312339425086975,0.18354927003383636,2.493084192276001,1.6112685203552246
5870.160000,0.31762298941612244,1.095533013343811,0.030837271362543106,-1.3123282194137573,0.183730810880661,2.493081569671631,1.6109923124313354
5870.182000,0.3177885115146637,1.095529556274414,0.0307505801320076,-1.312320590019226,0.1841656118631363,2.4930760860443115,1.610316276550293
5870.202000,0.3178679645061493,1.09553062915802,0.030684294179081917,-1.3123143911361694,0.18478268384933472,2.4930686950683594,1.6093363761901855
5870.220000,0.3178912103176117,1.095533847808838,0.03063601441681385,-1.3123085498809814,0.18552905321121216,2.4930601119995117,1.608128547668457
5870.240000,0.3178792893886566,1.0955380201339722,0.030602628365159035,-1.3123027086257935,0.1863640397787094,2.4930508136749268,1.6067532300949097
5870.262000,0.31784671545028687,1.095542311668396,0.030581146478652954,-1.3122966289520264,0.18725652992725372,2.4930410385131836,1.6052583456039429
5870.282000,0.31780338287353516,1.0955464839935303,0.03056894615292549,-1.3122903108596802,0.18818292021751404,2.4930312633514404,1.6036814451217651
5870.303000,0.31775590777397156,1.0955501794815063,0.030563876032829285,-1.3122837543487549,0.18912538886070251,2.493021249771118,1.6020523309707642
5870.325000,0.3177086412906647,1.0955533981323242,0.030564218759536743,-1.3122769594192505,0.19007055461406708,2.493011474609375,1.6003942489624023
5870.340000,0.31766438484191895,1.0955560207366943,0.030568638816475868,-1.312269926071167,0.19100843369960785,2.493001937866211,1.5987253189086914
5870.361000,0.31762492656707764,1.0955580472946167,0.030576108023524284,-1.312262773513794,0.19193163514137268,2.492992639541626,1.5970598459243774
5870.382000,0.31759127974510193,1.0955594778060913,0.03058583103120327,-1.3122553825378418,0.19283482432365417,2.49298357963562,1.59540855884552
5870.402000,0.3175639808177948,1.0955603122711182,0.030597219243645668,-1.3122477531433105,0.1937141865491867,2.4929747581481934,1.5937798023223877
5870.419000,0.31754326820373535,1.0955606698989868,0.03060980513691902,-1.3122400045394897,0.19456705451011658,2.4929661750793457,1.5921798944473267
5870.438000,0.31752917170524597,1.0955604314804077,0.030623238533735275,-1.3122321367263794,0.1953916996717453,2.4929580688476562,1.5906133651733398
5870.456000,0.3175215423107147,1.0955597162246704,0.03063724748790264,-1.3122241497039795,0.19618703424930573,2.492950201034546,1.5890835523605347
5870.477000,0.3175202012062073,1.095558524131775,0.030651628971099854,-1.31221604347229,0.19695250689983368,2.4929425716400146,1.5875927209854126
5870.498000,0.31752362847328186,1.0955568552017212,0.030667677521705627,-1.312207818031311,0.1976856291294098,2.4929351806640625,1.5861425399780273
5870.519000,0.317531943321228,1.0955547094345093,0.030684905126690865,-1.3121994733810425,0.1983863264322281,2.4929280281066895,1.5847337245941162
5870.536000,0.3175453245639801,1.0955522060394287,0.030702749267220497,-1.312191128730774,0.19905522465705872,2.4929213523864746,1.5833667516708374
5870.557000,0.3177587389945984,1.095502257347107,0.031085170805454254,-1.3121521472930908,0.1979750096797943,2.492957353591919,1.5843100547790527
5870.578000,0.3184020221233368,1.0954210758209229,0.031360380351543427,-1.3120988607406616,0.19596898555755615,2.493009328842163,1.587030291557312
5870.598000,0.31934165954589844,1.0953259468078613,0.03151273354887962,-1.3120417594909668,0.19334688782691956,2.4930694103240967,1.591103434562683
5870.619000,0.32026657462120056,1.0952730178833008,0.03120104968547821,-1.3120158910751343,0.1920330971479416,2.4930925369262695,1.5939242839813232
5870.636000,0.3208622932434082,1.0952509641647339,0.030922697857022285,-1.3120059967041016,0.19135203957557678,2.493102550506592,1.5957585573196411
5870.657000,0.3212360441684723,1.0952311754226685,0.030860524624586105,-1.3119944334030151,0.19051231443881989,2.4931154251098633,1.5975288152694702
5870.678000,0.3215509355068207,1.0952109098434448,0.03084820881485939,-1.311982274055481,0.1896468847990036,2.49312686920166,1.5992372035980225
5870.692000,0.32180145382881165,1.0952051877975464,0.030711742118000984,-1.3119794130325317,0.1893598884344101,2.49312686920166,1.6001754999160767
5870.720000,0.3219161629676819,1.0952093601226807,0.03059668093919754,-1.3119808435440063,0.18940328061580658,2.4931223392486572,1.6005127429962158
5870.736000,0.3219316899776459,1.0952186584472656,0.030512338504195213,-1.3119839429855347,0.1896788626909256,2.493115186691284,1.6003835201263428
5870.752000,0.3218250274658203,1.0952298641204834,0.03052387200295925,-1.3119879961013794,0.19000586867332458,2.4931015968322754,1.5999051332473755
5870.776000,0.3216223418712616,1.0952448844909668,0.03059539385139942,-1.3119946718215942,0.190414160490036,2.493081569671631,1.5990294218063354
5870.797000,0.3213498294353485,1.0952622890472412,0.030726004391908646,-1.3120028972625732,0.19083154201507568,2.493058443069458,1.5978530645370483
5870.818000,0.32111862301826477,1.0952785015106201,0.03083650767803192,-1.312009572982788,0.19126230478286743,2.4930419921875,1.596573829650879
5870.835000,0.3209414780139923,1.0952924489974976,0.030904719606041908,-1.3120144605636597,0.19174769520759583,2.4930288791656494,1.595224142074585
5870.856000,0.3208026587963104,1.0953044891357422,0.03094257041811943,-1.3120179176330566,0.19228440523147583,2.4930179119110107,1.5938295125961304
5870.876000,0.3206899166107178,1.0953149795532227,0.03096085600554943,-1.312020182609558,0.19286274909973145,2.4930083751678467,1.5924098491668701
5870.897000,0.3204859793186188,1.0953309535980225,0.031003955751657486,-1.3120269775390625,0.1935909241437912,2.4929866790771484,1.5906305313110352
5870.918000,0.3201776146888733,1.0953513383865356,0.031126942485570908,-1.3120367527008057,0.19431935250759125,2.49295973777771,1.5885860919952393
5870.934000,0.3198081851005554,1.0953741073608398,0.03130568936467171,-1.3120481967926025,0.19501599669456482,2.4929299354553223,1.5863386392593384
5870.955000,0.3194134533405304,1.0953973531723022,0.03152149170637131,-1.3120601177215576,0.1956498771905899,2.4928994178771973,1.583966612815857
5870.976000,0.31912559270858765,1.095413327217102,0.031718797981739044,-1.3120664358139038,0.1961020678281784,2.492882490158081,1.5818613767623901
5870.998000,0.31896546483039856,1.0954227447509766,0.03183739632368088,-1.3120687007904053,0.19651086628437042,2.4928722381591797,1.5799767971038818
5871.019000,0.3188927173614502,1.0954278707504272,0.03189617767930031,-1.312068223953247,0.19691014289855957,2.492866039276123,1.5782757997512817
5871.036000,0.3187870383262634,1.0954344272613525,0.03196233883500099,-1.3120696544647217,0.1973462998867035,2.492852210998535,1.5765131711959839
5871.057000,0.318629652261734,1.0954428911209106,0.03207468241453171,-1.3120726346969604,0.19773487746715546,2.492835521697998,1.574715256690979
5871.077000,0.318532794713974,1.0954481363296509,0.03217151388525963,-1.3120728731155396,0.1980278342962265,2.492827892303467,1.5731178522109985
5871.099000,0.31843069195747375,1.0954508781433105,0.03229334577918053,-1.312072515487671,0.19822144508361816,2.49281644821167,1.571621060371399
5871.119000,0.3183172047138214,1.095452904701233,0.032445892691612244,-1.312072515487671,0.19829809665679932,2.4928038120269775,1.5702123641967773
5871.135000,0.31819918751716614,1.095452904701233,0.03263974189758301,-1.3120720386505127,0.19819417595863342,2.4927914142608643,1.5689566135406494
5871.157000,0.31809473037719727,1.0954517126083374,0.032846204936504364,-1.312071681022644,0.1979505568742752,2.49277925491333,1.5678277015686035
5871.177000,0.318008154630661,1.0954474210739136,0.03308333829045296,-1.3120700120925903,0.19748985767364502,2.492769241333008,1.5669219493865967
5871.198000,0.31803828477859497,1.0954442024230957,0.033186931163072586,-1.3120685815811157,0.19714753329753876,2.492766857147217,1.5660679340362549
5871.218000,0.31813526153564453,1.0954407453536987,0.03320329636335373,-1.3120661973953247,0.19692987203598022,2.4927690029144287,1.5652596950531006
5871.234000,0.3181946873664856,1.0954279899597168,0.03335507586598396,-1.312058448791504,0.196325421333313,2.492771625518799,1.5648958683013916
5871.252000,0.3183479607105255,1.095418930053711,0.03335883095860481,-1.3120534420013428,0.19595298171043396,2.4927761554718018,1.5644742250442505
5871.274000,0.31852126121520996,1.0954123735427856,0.03330177068710327,-1.312049150466919,0.19574472308158875,2.4927825927734375,1.5640109777450562
5871.295000,0.3186967670917511,1.0954070091247559,0.033211998641490936,-1.312044620513916,0.19567233324050903,2.4927902221679688,1.563518762588501
5871.314000,0.3188678026199341,1.0954020023345947,0.03310443088412285,-1.3120397329330444,0.19571200013160706,2.492798328399658,1.5630077123641968
5871.331000,0.31899139285087585,1.0953775644302368,0.03327801451086998,-1.312023401260376,0.19491443037986755,2.4928133487701416,1.563418984413147
5871.349000,0.31924179196357727,1.0953611135482788,0.03322000429034233,-1.3120143413543701,0.194507896900177,2.4928228855133057,1.5636061429977417
5871.367000,0.31947198510169983,1.0953514575958252,0.03311258926987648,-1.3120087385177612,0.1943090856075287,2.4928319454193115,1.5636188983917236
5871.387000,0.319671630859375,1.095345377922058,0.032988280057907104,-1.3120044469833374,0.19426657259464264,2.4928407669067383,1.5634969472885132
5871.408000,0.3198331594467163,1.0953134298324585,0.03321906179189682,-1.3119841814041138,0.193105548620224,2.4928627014160156,1.5646055936813354
5871.424000,0.32013893127441406,1.0952656269073486,0.03349709510803223,-1.3119583129882812,0.191262885928154,2.4928877353668213,1.566656470298767
5871.441000,0.32056155800819397,1.0952155590057373,0.0337158739566803,-1.3119345903396606,0.1891140639781952,2.4929122924804688,1.5692174434661865
5871.462000,0.32102689146995544,1.095173954963684,0.03382375091314316,-1.3119182586669922,0.18703775107860565,2.4929330348968506,1.5717942714691162
5871.480000,0.32146456837654114,1.0951392650604248,0.03390579670667648,-1.311906337738037,0.18498066067695618,2.492952585220337,1.5743653774261475
5871.498000,0.32186204195022583,1.0951141119003296,0.03391928970813751,-1.3119001388549805,0.18316376209259033,2.4929680824279785,1.5766608715057373
5871.515000,0.32219260931015015,1.0950955152511597,0.03392389044165611,-1.3118969202041626,0.18150654435157776,2.4929819107055664,1.5787276029586792
5871.534000,0.32249611616134644,1.0950908660888672,0.0337618887424469,-1.3119010925292969,0.18050099909305573,2.4929916858673096,1.5800858736038208
5871.554000,0.32270973920822144,1.0950945615768433,0.033562447875738144,-1.3119077682495117,0.1799500435590744,2.4930002689361572,1.5808876752853394
5871.573000,0.3228490352630615,1.095102310180664,0.03335454314947128,-1.3119145631790161,0.17975200712680817,2.4930076599121094,1.581254243850708
5871.593000,0.3229333758354187,1.0951119661331177,0.033149395138025284,-1.3119207620620728,0.17982910573482513,2.493014335632324,1.5812822580337524
5871.609000,0.3229387104511261,1.0951141119003296,0.03311039134860039,-1.3119213581085205,0.17965319752693176,2.493021011352539,1.5814768075942993
5871.629000,0.32298582792282104,1.095119595527649,0.032970551401376724,-1.311924695968628,0.1797817498445511,2.493025779724121,1.58137047290802
5871.648000,0.32301604747772217,1.0951275825500488,0.03281118720769882,-1.3119288682937622,0.18010510504245758,2.493030309677124,1.5810325145721436
5871.667000,0.3230280578136444,1.0951366424560547,0.03264844790101051,-1.311932921409607,0.1805749535560608,2.493034601211548,1.5805182456970215
5871.690000,0.32299286127090454,1.0951323509216309,0.03270967677235603,-1.311928629875183,0.18044880032539368,2.4930429458618164,1.5805792808532715
5871.707000,0.3230493366718292,1.0951330661773682,0.032602157443761826,-1.3119293451309204,0.18064680695533752,2.4930474758148193,1.580376148223877
5871.728000,0.3230893909931183,1.0951380729675293,0.03246317058801651,-1.31193208694458,0.18101951479911804,2.493051528930664,1.5799704790115356
5871.749000,0.32309699058532715,1.0951247215270996,0.032606955617666245,-1.3119226694107056,0.1805238574743271,2.4930646419525146,1.5804784297943115
5871.769000,0.3232294023036957,1.095119595527649,0.03249963000416756,-1.3119213581085205,0.18049535155296326,2.493070602416992,1.5806210041046143
5871.786000,0.32332274317741394,1.0951218605041504,0.032352183014154434,-1.311923623085022,0.18070483207702637,2.493075132369995,1.5804805755615234
5871.801000,0.32337313890457153,1.0951279401779175,0.03219764307141304,-1.311927080154419,0.18108609318733215,2.4930789470672607,1.5801225900650024
5871.821000,0.3233853876590729,1.0951237678527832,0.03221280127763748,-1.3119232654571533,0.1810215711593628,2.4930877685546875,1.5802162885665894
5871.841000,0.3234512209892273,1.095112681388855,0.032256100326776505,-1.3119165897369385,0.18069280683994293,2.4930975437164307,1.5806580781936646
5871.862000,0.3235638737678528,1.0951002836227417,0.0322754792869091,-1.3119103908538818,0.18026602268218994,2.4931068420410156,1.5812631845474243
5871.883000,0.32369714975357056,1.0950889587402344,0.032270610332489014,-1.3119056224822998,0.1798117607831955,2.4931159019470215,1.5819324254989624
5871.899000,0.32383349537849426,1.095078706741333,0.03225727006793022,-1.3119016885757446,0.1793329268693924,2.4931249618530273,1.582646369934082
5871.919000,0.32397133111953735,1.0950698852539062,0.032228704541921616,-1.3118987083435059,0.17886821925640106,2.493133783340454,1.583364486694336
5871.941000,0.3241034150123596,1.095070242881775,0.0320817269384861,-1.311901330947876,0.17881101369857788,2.493138313293457,1.5836490392684937
5871.963000,0.3241724371910095,1.095076560974121,0.031919680535793304,-1.311906099319458,0.1790119707584381,2.4931414127349854,1.58359694480896
5871.982000,0.32421016693115234,1.095076322555542,0.03186758607625961,-1.3119052648544312,0.17898410558700562,2.493149757385254,1.583785057067871
5871.999000,0.3242899477481842,1.0950709581375122,0.031819794327020645,-1.3119016885757446,0.17885740101337433,2.493159532546997,1.5841572284698486
5872.021000,0.32441195845603943,1.0950618982315063,0.0317695215344429,-1.3118963241577148,0.1786341518163681,2.493171215057373,1.5847240686416626
5872.040000,0.3245673179626465,1.0950509309768677,0.031707022339105606,-1.3118903636932373,0.178355410695076,2.4931836128234863,1.585437297821045
5872.057000,0.3247486650943756,1.095038652420044,0.031636592000722885,-1.311883807182312,0.1780211478471756,2.493197202682495,1.5862959623336792
5872.080000,0.3249479830265045,1.0950257778167725,0.031554821878671646,-1.3118772506713867,0.1776600182056427,2.493211269378662,1.5872608423233032
5872.095000,0.3251606225967407,1.0950123071670532,0.03146710991859436,-1.3118704557418823,0.17726749181747437,2.4932260513305664,1.5883338451385498
5872.115000,0.3253863751888275,1.0949983596801758,0.0313725620508194,-1.3118634223937988,0.17684847116470337,2.493241548538208,1.5895111560821533
5872.137000,0.32562100887298584,1.0949842929840088,0.03126765787601471,-1.3118566274642944,0.17642660439014435,2.4932570457458496,1.5907608270645142
5872.154000,0.3258601427078247,1.0949702262878418,0.031158169731497765,-1.31184983253479,0.17599667608737946,2.4932727813720703,1.592082142829895
5872.175000,0.3261013329029083,1.0949562788009644,0.031043680384755135,-1.3118431568145752,0.1755678951740265,2.493288516998291,1.593458652496338
5872.192000,0.3263396620750427,1.0949428081512451,0.030925394967198372,-1.3118367195129395,0.17515012621879578,2.4933040142059326,1.5948683023452759
5872.213000,0.32657065987586975,1.0949300527572632,0.03080589696764946,-1.311830759048462,0.17474807798862457,2.493319034576416,1.596293568611145
5872.234000,0.32673805952072144,1.09493088722229,0.030570639297366142,-1.3118337392807007,0.17489495873451233,2.4933228492736816,1.5970338582992554
5872.255000,0.3267691433429718,1.094941258430481,0.0303655993193388,-1.3118408918380737,0.17534372210502625,2.4933221340179443,1.5972400903701782
5872.275000,0.32670122385025024,1.094956636428833,0.030198588967323303,-1.3118494749069214,0.1759994477033615,2.493318557739258,1.5970326662063599
5872.292000,0.32656943798065186,1.0949742794036865,0.030063387006521225,-1.3118582963943481,0.17680010199546814,2.4933133125305176,1.5965073108673096
5872.313000,0.3263987898826599,1.094992756843567,0.029953425750136375,-1.3118667602539062,0.17769992351531982,2.4933066368103027,1.5957400798797607
5872.334000,0.3262062966823578,1.0950111150741577,0.02986326813697815,-1.3118747472763062,0.17866462469100952,2.4932992458343506,1.5947915315628052
5872.355000,0.32600340247154236,1.0950291156768799,0.02978864498436451,-1.3118821382522583,0.17966847121715546,2.4932913780212402,1.5937095880508423
5872.375000,0.3257976472377777,1.0950464010238647,0.029726270586252213,-1.3118888139724731,0.18069221079349518,2.493283271789551,1.5925322771072388
5872.392000,0.3255939781665802,1.0950628519058228,0.02967362478375435,-1.3118948936462402,0.18172158300876617,2.4932749271392822,1.5912896394729614
5872.412000,0.32539549469947815,1.0950783491134644,0.0296288151293993,-1.3119003772735596,0.18274599313735962,2.4932665824890137,1.5900051593780518
5872.434000,0.32520410418510437,1.095093011856079,0.02959040366113186,-1.3119052648544312,0.1837577074766159,2.493258237838745,1.5886973142623901
5872.449000,0.3250209391117096,1.0951067209243774,0.02955731563270092,-1.311909556388855,0.18475104868412018,2.4932501316070557,1.5873806476593018
5872.471000,0.3248465657234192,1.095119595527649,0.029528727754950523,-1.311913251876831,0.1857220083475113,2.493242025375366,1.5860662460327148
5872.488000,0.32468125224113464,1.095131516456604,0.029504017904400826,-1.311916470527649,0.18666771054267883,2.493234157562256,1.5847629308700562
5872.509000,0.32464852929115295,1.0951050519943237,0.029835263267159462,-1.3118948936462402,0.1860658824443817,2.493256092071533,1.5853874683380127
5872.530000,0.3248308002948761,1.0950905084609985,0.02976045571267605,-1.3118865489959717,0.18612265586853027,2.4932591915130615,1.5855857133865356
5872.551000,0.3249245285987854,1.0950884819030762,0.029660338535904884,-1.3118852376937866,0.18642082810401917,2.493257761001587,1.5854535102844238
5872.567000,0.3249337673187256,1.0950933694839478,0.029575292021036148,-1.3118870258331299,0.18686887621879578,2.4932539463043213,1.5850671529769897
5872.587000,0.32488489151000977,1.0951015949249268,0.029507553204894066,-1.3118900060653687,0.18742087483406067,2.493248462677002,1.5844871997833252
5872.608000,0.3247988820075989,1.09511137008667,0.029454829171299934,-1.3118932247161865,0.1880442053079605,2.493242025375366,1.5837619304656982
5872.628000,0.32469046115875244,1.0951216220855713,0.02941441349685192,-1.3118963241577148,0.18871437013149261,2.493234872817993,1.5829294919967651
5872.650000,0.32476338744163513,1.0950759649276733,0.029888393357396126,-1.3118630647659302,0.18719865381717682,2.4932727813720703,1.5848299264907837
5872.671000,0.3251299262046814,1.0950493812561035,0.029772210866212845,-1.31184983253479,0.186709463596344,2.493281841278076,1.58601713180542
5872.688000,0.32534849643707275,1.0950419902801514,0.02962537109851837,-1.311847448348999,0.1866195648908615,2.493283271789551,1.586645483970642
5872.709000,0.3256646394729614,1.0949798822402954,0.030095145106315613,-1.3118075132369995,0.18417805433273315,2.4933340549468994,1.5901607275009155
5872.730000,0.32649335265159607,1.0948761701583862,0.030520837754011154,-1.3117486238479614,0.1803099811077118,2.4934051036834717,1.5961400270462036
5872.751000,0.3277186155319214,1.0947542190551758,0.03080226480960846,-1.3116859197616577,0.17552287876605988,2.4934840202331543,1.6039799451828003
5872.772000,0.32892754673957825,1.0946956872940063,0.030325811356306076,-1.3116713762283325,0.1729278564453125,2.4935121536254883,1.609618902206421
5872.788000,0.32990410923957825,1.0946117639541626,0.03055664524435997,-1.3116317987442017,0.16844208538532257,2.4935789108276367,1.6173665523529053
5872.809000,0.3311660885810852,1.094506859779358,0.03074762225151062,-1.3115841150283813,0.16311447322368622,2.4936532974243164,1.626688003540039
5872.831000,0.33235785365104675,1.0944634675979614,0.03016393445432186,-1.3115838766098022,0.16028915345668793,2.4936766624450684,1.6333122253417969
5872.852000,0.3329741954803467,1.0944652557373047,0.029635777696967125,-1.3116037845611572,0.15878017246723175,2.4936821460723877,1.6378076076507568
5872.873000,0.3331485390663147,1.0944905281066895,0.02922891639173031,-1.3116307258605957,0.1581939309835434,2.4936776161193848,1.6406280994415283
5872.889000,0.3333038091659546,1.0944690704345703,0.02949049323797226,-1.3116189241409302,0.15568114817142487,2.4937119483947754,1.6455329656600952
5872.910000,0.33386504650115967,1.0944253206253052,0.029530612751841545,-1.3115994930267334,0.15290771424770355,2.4937500953674316,1.6512796878814697
5872.931000,0.3346281945705414,1.0943735837936401,0.029462512582540512,-1.3115787506103516,0.14994536340236664,2.493790626525879,1.6576361656188965
5872.952000,0.3354441225528717,1.0943303108215332,0.029221929609775543,-1.3115668296813965,0.14736126363277435,2.493823528289795,1.6637978553771973
5872.973000,0.3359946310520172,1.09432852268219,0.028656357899308205,-1.3115832805633545,0.14651472866535187,2.4938266277313232,1.6677231788635254
5872.990000,0.33607661724090576,1.094355821609497,0.028207724913954735,-1.3116110563278198,0.1466251015663147,2.4938175678253174,1.6698944568634033
5873.010000,0.3358233869075775,1.0943982601165771,0.02788936160504818,-1.3116424083709717,0.14739416539669037,2.4938013553619385,1.6706963777542114
5873.032000,0.33535537123680115,1.0944479703903198,0.02767433226108551,-1.3116741180419922,0.14862945675849915,2.4937806129455566,1.6704355478286743
5873.052000,0.33475741744041443,1.0945006608963013,0.027537211775779724,-1.3117049932479858,0.15019060671329498,2.4937567710876465,1.6693559885025024
5873.073000,0.3340868353843689,1.09455406665802,0.027457892894744873,-1.3117344379425049,0.15197350084781647,2.4937312602996826,1.667651891708374
5873.091000,0.33338814973831177,1.0945990085601807,0.02753530628979206,-1.311757206916809,0.1534784585237503,2.493708848953247,1.6659549474716187
5873.111000,0.33273738622665405,1.0946450233459473,0.027534568682312965,-1.3117817640304565,0.15523852407932281,2.493683099746704,1.6637979745864868
5873.131000,0.33207547664642334,1.0946921110153198,0.027541331946849823,-1.311806321144104,0.1571153849363327,2.493656635284424,1.6613008975982666
5873.150000,0.3314112722873688,1.0947387218475342,0.02756212092936039,-1.3118300437927246,0.15905657410621643,2.4936299324035645,1.65855872631073
5873.168000,0.33075591921806335,1.094784140586853,0.027595071122050285,-1.3118524551391602,0.16102778911590576,2.493603467941284,1.6556464433670044
5873.184000,0.3300464451313019,1.0948292016983032,0.02770042233169079,-1.3118748664855957,0.16294004023075104,2.4935719966888428,1.6525523662567139
5873.203000,0.32930344343185425,1.0948737859725952,0.02787148393690586,-1.3118970394134521,0.16474053263664246,2.4935381412506104,1.6493396759033203
5873.222000,0.3285396993160248,1.0949193239212036,0.02807522565126419,-1.3119200468063354,0.16648922860622406,2.4935011863708496,1.645948052406311
5873.244000,0.32776546478271484,1.0949647426605225,0.028314847499132156,-1.3119430541992188,0.1681458204984665,2.4934632778167725,1.642441987991333
5873.263000,0.32698893547058105,1.09501051902771,0.028569960966706276,-1.3119665384292603,0.16975237429141998,2.4934234619140625,1.6387938261032104
5873.284000,0.3263135254383087,1.0950510501861572,0.028799006715416908,-1.3119858503341675,0.17122045159339905,2.4933929443359375,1.6353201866149902
5873.304000,0.3257542550563812,1.0950860977172852,0.028960708528757095,-1.3120017051696777,0.17264948785305023,2.4933671951293945,1.6320055723190308
5873.325000,0.32517361640930176,1.0951228141784668,0.029112357646226883,-1.3120195865631104,0.17416082322597504,2.493333578109741,1.6285121440887451
5873.341000,0.3246469795703888,1.0951553583145142,0.02927609160542488,-1.312033772468567,0.17552721500396729,2.4933080673217773,1.625229835510254
5873.362000,0.3241052031517029,1.095189094543457,0.02943091094493866,-1.3120496273040771,0.17695537209510803,2.4932754039764404,1.6218057870864868
5873.377000,0.3235192894935608,1.0952242612838745,0.029632920399308205,-1.3120663166046143,0.17833244800567627,2.4932401180267334,1.6182963848114014
5873.397000,0.32292190194129944,1.0952587127685547,0.029871828854084015,-1.3120826482772827,0.17961035668849945,2.4932048320770264,1.6147831678390503
5873.417000,0.32233721017837524,1.0952918529510498,0.030126143246889114,-1.3120982646942139,0.1807955503463745,2.4931697845458984,1.611291527748108
5873.437000,0.3217870593070984,1.095321774482727,0.03039364330470562,-1.3121119737625122,0.18183887004852295,2.4931371212005615,1.607921838760376
5873.458000,0.3212963342666626,1.095347285270691,0.030657369643449783,-1.31212317943573,0.18272975087165833,2.493108034133911,1.6047461032867432
5873.472000,0.32094112038612366,1.0953668355941772,0.030848052352666855,-1.312130331993103,0.1835283488035202,2.493088722229004,1.6018751859664917
5873.490000,0.3206477165222168,1.0953811407089233,0.031021973118185997,-1.3121347427368164,0.18421152234077454,2.493070363998413,1.5992611646652222
5873.512000,0.32039594650268555,1.0953923463821411,0.031187547370791435,-1.3121377229690552,0.18479080498218536,2.4930531978607178,1.596863865852356
5873.526000,0.3201970160007477,1.0953991413116455,0.031354423612356186,-1.3121381998062134,0.1852046698331833,2.493040084838867,1.5947760343551636
5873.548000,0.3200547397136688,1.095402717590332,0.03149900212883949,-1.3121371269226074,0.185514435172081,2.4930291175842285,1.5929416418075562
5873.566000,0.3199891448020935,1.0954067707061768,0.03155004605650902,-1.3121364116668701,0.18592746555805206,2.4930214881896973,1.5911887884140015
5873.576000,0.3199600875377655,1.095410704612732,0.031551167368888855,-1.312135100364685,0.18642295897006989,2.493016242980957,1.5895111560821533
5873.610000,0.3199509084224701,1.095414161682129,0.031522903591394424,-1.3121330738067627,0.1869872659444809,2.4930124282836914,1.5879032611846924
5873.627000,0.3199528157711029,1.0954170227050781,0.0314776785671711,-1.3121302127838135,0.18760643899440765,2.493009567260742,1.5863604545593262
5873.648000,0.3199611008167267,1.09541916847229,0.03142333775758743,-1.3121267557144165,0.18826693296432495,2.493007183074951,1.58487868309021
5873.665000,0.3199723958969116,1.0954208374023438,0.031364381313323975,-1.3121228218078613,0.18895994126796722,2.4930050373077393,1.5834487676620483
5873.684000,0.31998512148857117,1.0954221487045288,0.03130492568016052,-1.312118411064148,0.1896725744009018,2.4930028915405273,1.5820688009262085
5873.702000,0.31999921798706055,1.0954229831695557,0.031246693804860115,-1.312113642692566,0.1903950721025467,2.4930009841918945,1.5807369947433472
5873.720000,0.3200148940086365,1.0954233407974243,0.031190579757094383,-1.3121086359024048,0.19111958146095276,2.4929990768432617,1.5794516801834106
5873.742000,0.32007429003715515,1.0954017639160156,0.031364768743515015,-1.3120900392532349,0.190944105386734,2.493011951446533,1.5792748928070068
5873.758000,0.3202604651451111,1.09538733959198,0.03130673989653587,-1.3120789527893066,0.19113413989543915,2.4930152893066406,1.5788973569869995
5873.780000,0.32046258449554443,1.0953540802001953,0.031492091715335846,-1.3120557069778442,0.1903991401195526,2.493034839630127,1.5796489715576172
5873.801000,0.3207688331604004,1.0953339338302612,0.031398285180330276,-1.3120437860488892,0.19021153450012207,2.493041515350342,1.579985499382019
5873.821000,0.3209879696369171,1.0953248739242554,0.031282808631658554,-1.312037706375122,0.19027410447597504,2.49304461479187,1.5799990892410278
5873.842000,0.3212210536003113,1.0952869653701782,0.03151997551321983,-1.3120120763778687,0.1890905201435089,2.4930717945098877,1.5814965963363647
5873.858000,0.32168474793434143,1.0952296257019043,0.031736500561237335,-1.3119782209396362,0.18723441660404205,2.4931066036224365,1.5841292142868042
5873.879000,0.32233351469039917,1.0951592922210693,0.031938597559928894,-1.3119398355484009,0.1847422569990158,2.4931488037109375,1.5878503322601318
5873.899000,0.32314395904541016,1.0950793027877808,0.032124098390340805,-1.3118987083435059,0.18164876103401184,2.4931981563568115,1.59263277053833
5873.921000,0.32408031821250916,1.094996452331543,0.0322476327419281,-1.3118590116500854,0.17818120121955872,2.4932496547698975,1.5982011556625366
5873.942000,0.3249548673629761,1.0949573516845703,0.03189239650964737,-1.3118500709533691,0.1762610226869583,2.4932701587677,1.6021268367767334
5873.959000,0.3256301283836365,1.0949026346206665,0.032014500349760056,-1.3118247985839844,0.17321398854255676,2.493314027786255,1.6072208881378174
5873.979000,0.32630449533462524,1.0948797464370728,0.03166372701525688,-1.3118236064910889,0.17166276276111603,2.4933290481567383,1.6107172966003418
5874.000000,0.32667213678359985,1.0948816537857056,0.031327586621046066,-1.311833143234253,0.17091791331768036,2.4933340549468994,1.612955927848816
5874.021000,0.3268001675605774,1.094896674156189,0.031050683930516243,-1.3118466138839722,0.17074507474899292,2.493333339691162,1.6142077445983887
5874.041000,0.3267659842967987,1.094918131828308,0.030828289687633514,-1.3118607997894287,0.17099504172801971,2.493328809738159,1.6146888732910156
5874.058000,0.3266661465167999,1.0949257612228394,0.030843202024698257,-1.311863660812378,0.17079049348831177,2.493332862854004,1.6154874563217163
5874.079000,0.32660916447639465,1.0949294567108154,0.03083745576441288,-1.3118656873703003,0.17062054574489594,2.493333339691162,1.616180658340454
5874.100000,0.32654720544815063,1.0949426889419556,0.03070700913667679,-1.3118743896484375,0.17094525694847107,2.4933273792266846,1.616216778755188
5874.121000,0.32640761137008667,1.094962477684021,0.03057893179357052,-1.3118857145309448,0.17156058549880981,2.493319272994995,1.6157454252243042
5874.141000,0.3262104392051697,1.0949852466583252,0.030467193573713303,-1.3118976354599,0.1723819226026535,2.493309736251831,1.6148854494094849
5874.158000,0.3259328007698059,1.0950063467025757,0.03046196512877941,-1.3119078874588013,0.17313699424266815,2.4932973384857178,1.6138746738433838
5874.179000,0.32562461495399475,1.0950262546539307,0.030515175312757492,-1.3119175434112549,0.1738239973783493,2.493283271789551,1.612754464149475
5874.200000,0.3253534138202667,1.0950477123260498,0.030513310804963112,-1.311928153038025,0.17465358972549438,2.4932703971862793,1.6114145517349243
5874.221000,0.32509779930114746,1.095069408416748,0.030487986281514168,-1.3119384050369263,0.17558443546295166,2.493258476257324,1.6099143028259277
5874.240000,0.3248531222343445,1.095090627670288,0.03045121766626835,-1.3119479417800903,0.17658978700637817,2.4932475090026855,1.608300805091858
5874.257000,0.3245337903499603,1.09511399269104,0.030464310199022293,-1.311959147453308,0.17764659225940704,2.4932289123535156,1.6064419746398926
5874.278000,0.3241417706012726,1.095139980316162,0.030541829764842987,-1.3119720220565796,0.1786894053220749,2.493206024169922,1.6043696403503418
5874.299000,0.3237079977989197,1.0951670408248901,0.03066958859562874,-1.3119856119155884,0.1796802133321762,2.4931812286376953,1.6021469831466675
5874.319000,0.3232593238353729,1.0951942205429077,0.030827507376670837,-1.3119993209838867,0.18061165511608124,2.4931554794311523,1.5998172760009766
5874.339000,0.32290127873420715,1.0952167510986328,0.03095475770533085,-1.3120094537734985,0.18144665658473969,2.4931387901306152,1.597633957862854
5874.357000,0.32255733013153076,1.095238208770752,0.031068213284015656,-1.3120197057724,0.18229037523269653,2.4931180477142334,1.5953890085220337
5874.377000,0.32228562235832214,1.095255970954895,0.03115558996796608,-1.3120269775390625,0.18306252360343933,2.493104934692383,1.5933021306991577
5874.397000,0.3220936059951782,1.0952699184417725,0.031190158799290657,-1.3120317459106445,0.18383373320102692,2.493095636367798,1.5913517475128174
5874.418000,0.3219563663005829,1.0952811241149902,0.03118699975311756,-1.3120347261428833,0.18461596965789795,2.493088722229004,1.5895203351974487
5874.439000,0.32179123163223267,1.0952913761138916,0.03121882863342762,-1.312037706375122,0.18534746766090393,2.493077516555786,1.5877333879470825
5874.455000,0.32161641120910645,1.095299482345581,0.03129877895116806,-1.3120396137237549,0.18592877686023712,2.4930667877197266,1.5860981941223145
5874.476000,0.32145607471466064,1.0953059196472168,0.03139303997159004,-1.31204092502594,0.1863984912633896,2.493056297302246,1.5845915079116821
5874.496000,0.3213310241699219,1.0953088998794556,0.031500883400440216,-1.3120404481887817,0.18670345842838287,2.493048906326294,1.5833103656768799
5874.518000,0.32127809524536133,1.0953127145767212,0.03152086213231087,-1.3120405673980713,0.18710167706012726,2.493043899536133,1.5820518732070923
5874.539000,0.32124313712120056,1.0953112840652466,0.03158320114016533,-1.3120372295379639,0.18729852139949799,2.493042469024658,1.5810894966125488
5874.555000,0.32126349210739136,1.0953048467636108,0.03164427727460861,-1.3120312690734863,0.18732987344264984,2.493044376373291,1.5804368257522583
5874.577000,0.32133379578590393,1.0952954292297363,0.03168646991252899,-1.3120242357254028,0.18725650012493134,2.4930479526519775,1.5800279378890991
5874.597000,0.3214481770992279,1.0952832698822021,0.03171806037425995,-1.3120157718658447,0.18706455826759338,2.493054151535034,1.5798816680908203
5874.617000,0.32159915566444397,1.0952695608139038,0.03172948956489563,-1.3120068311691284,0.18680250644683838,2.4930617809295654,1.5799392461776733
5874.638000,0.32178136706352234,1.0952540636062622,0.03172986954450607,-1.3119970560073853,0.18645747005939484,2.4930715560913086,1.5802137851715088
5874.655000,0.3219965398311615,1.0952367782592773,0.03171641752123833,-1.3119864463806152,0.18603672087192535,2.4930834770202637,1.5807048082351685
5874.675000,0.3222077190876007,1.0952290296554565,0.03158064931631088,-1.311982274055481,0.18600749969482422,2.493088483810425,1.5808327198028564
5874.696000,0.3223433494567871,1.0952280759811401,0.0314420610666275,-1.3119810819625854,0.18620014190673828,2.493091106414795,1.5806795358657837
5874.717000,0.32241925597190857,1.0952306985855103,0.03131492808461189,-1.311980962753296,0.1865512877702713,2.4930922985076904,1.5803102254867554
5874.738000,0.3224952220916748,1.095223069190979,0.03131020441651344,-1.3119733333587646,0.18653923273086548,2.4931020736694336,1.58038330078125
5874.755000,0.3226499855518341,1.0952081680297852,0.03129763528704643,-1.3119622468948364,0.18634985387325287,2.493114471435547,1.5807974338531494
5874.775000,0.32286667823791504,1.095189094543457,0.031270064413547516,-1.3119494915008545,0.1860240399837494,2.493129014968872,1.5815026760101318
5874.796000,0.32312867045402527,1.0951677560806274,0.031226972118020058,-1.3119361400604248,0.18559321761131287,2.493145227432251,1.5824543237686157
5874.817000,0.32336893677711487,1.0951586961746216,0.03105352446436882,-1.3119313716888428,0.18561294674873352,2.4931511878967285,1.58292555809021
5874.838000,0.32355621457099915,1.0951449871063232,0.031010329723358154,-1.3119220733642578,0.1853397935628891,2.493164539337158,1.5837082862854004
5874.855000,0.32378706336021423,1.095126986503601,0.030964402481913567,-1.311910629272461,0.18494711816310883,2.4931797981262207,1.584726095199585
5874.876000,0.32405322790145874,1.095106840133667,0.030907319858670235,-1.3118983507156372,0.1844707727432251,2.4931962490081787,1.5859371423721313
5874.896000,0.3243404030799866,1.0950859785079956,0.030838143080472946,-1.311886191368103,0.18394465744495392,2.493212938308716,1.5872888565063477
5874.917000,0.3246389329433441,1.0950647592544556,0.030763991177082062,-1.3118741512298584,0.18337005376815796,2.4932303428649902,1.5887681245803833
5874.938000,0.32494455575942993,1.095043659210205,0.030683495104312897,-1.3118624687194824,0.18276390433311462,2.4932477474212646,1.5903491973876953
5874.955000,0.32518887519836426,1.0950376987457275,0.030474534258246422,-1.3118609189987183,0.1827152818441391,2.4932525157928467,1.591251254081726
5874.975000,0.3252895474433899,1.09504234790802,0.030295640230178833,-1.3118642568588257,0.182965487241745,2.4932522773742676,1.5916228294372559
5874.997000,0.3253498673439026,1.0950376987457275,0.030278906226158142,-1.3118597269058228,0.1828370988368988,2.4932618141174316,1.592349648475647
5875.017000,0.32548409700393677,1.095025658607483,0.030257634818553925,-1.3118515014648438,0.18254771828651428,2.493274211883545,1.5933455228805542
5875.038000,0.32567527890205383,1.0950099229812622,0.03021981567144394,-1.3118417263031006,0.18215279281139374,2.493288040161133,1.5945507287979126
5875.055000,0.3259012699127197,1.0949926376342773,0.030167005956172943,-1.3118317127227783,0.18169012665748596,2.493302583694458,1.5959092378616333
5875.075000,0.32614418864250183,1.094974398612976,0.03011341020464897,-1.3118215799331665,0.18115173280239105,2.4933176040649414,1.597411870956421
5875.095000,0.3263971507549286,1.0949561595916748,0.030054263770580292,-1.311811923980713,0.18056844174861908,2.493332624435425,1.5990153551101685
5875.116000,0.3266441822052002,1.0949394702911377,0.02998640015721321,-1.3118036985397339,0.1799919605255127,2.4933462142944336,1.6006349325180054
5875.137000,0.32687151432037354,1.094923973083496,0.02993139624595642,-1.3117963075637817,0.17938947677612305,2.493358850479126,1.6022785902023315
5875.154000,0.32708367705345154,1.094907522201538,0.02991209551692009,-1.3117884397506714,0.17867138981819153,2.4933714866638184,1.6040401458740234
5875.175000,0.32729652523994446,1.094890832901001,0.02990024909377098,-1.3117809295654297,0.1778847873210907,2.4933838844299316,1.6058804988861084
5875.196000,0.3275076746940613,1.094874620437622,0.029890289530158043,-1.3117741346359253,0.17705360054969788,2.4933955669403076,1.6077686548233032
5875.217000,0.3277178704738617,1.094856858253479,0.029910629615187645,-1.3117666244506836,0.17608000338077545,2.493408441543579,1.609815001487732
5875.238000,0.3279406726360321,1.0948385000228882,0.02993037737905979,-1.311759352684021,0.17502561211585999,2.4934213161468506,1.6119691133499146
5875.255000,0.3281765580177307,1.0948176383972168,0.029978390783071518,-1.311750888824463,0.173789381980896,2.493435859680176,1.61435067653656
5875.276000,0.32844895124435425,1.0947920083999634,0.030058039352297783,-1.3117401599884033,0.17228800058364868,2.4934535026550293,1.617092490196228
5875.297000,0.3286901116371155,1.094789743423462,0.029852118343114853,-1.3117462396621704,0.1717626452445984,2.4934535026550293,1.6187039613723755
5875.317000,0.3288172483444214,1.0947750806808472,0.029967203736305237,-1.3117403984069824,0.17048385739326477,2.4934685230255127,1.621023178100586
5875.338000,0.3290212154388428,1.0947576761245728,0.030012942850589752,-1.311734914779663,0.1692001074552536,2.493480682373047,1.6234357357025146
5875.355000,0.3292334973812103,1.0947407484054565,0.030050108209252357,-1.3117303848266602,0.16787831485271454,2.4934921264648438,1.6259034872055054
5875.375000,0.3294047713279724,1.0947322845458984,0.03002316690981388,-1.3117319345474243,0.16683267056941986,2.4934966564178467,1.6279937028884888
5875.396000,0.3294914960861206,1.094730019569397,0.03001498430967331,-1.3117364645004272,0.16593283414840698,2.4934985637664795,1.6297777891159058
5875.418000,0.3294863700866699,1.0947364568710327,0.02998702973127365,-1.3117460012435913,0.16534538567066193,2.4934940338134766,1.6310267448425293
5875.438000,0.32938283681869507,1.0947484970092773,0.029992016032338142,-1.3117576837539673,0.16494132578372955,2.4934868812561035,1.6318538188934326
5875.455000,0.3291858732700348,1.0947679281234741,0.029993101954460144,-1.3117731809616089,0.1648421585559845,2.493474006652832,1.6321001052856445
5875.475000,0.32887744903564453,1.094794750213623,0.03001309186220169,-1.3117921352386475,0.16503484547138214,2.493455648422241,1.6317282915115356
5875.496000,0.32847753167152405,1.0948257446289062,0.030077772215008736,-1.3118122816085815,0.1653984785079956,2.4934346675872803,1.630881905555725
5875.517000,0.3280046284198761,1.0948612689971924,0.03015749715268612,-1.311834454536438,0.16598430275917053,2.4934096336364746,1.6295124292373657
5875.538000,0.3274582624435425,1.0949010848999023,0.030261453241109848,-1.3118584156036377,0.1667652726173401,2.4933810234069824,1.6276391744613647
5875.555000,0.32685932517051697,1.0949428081512451,0.03040151484310627,-1.3118826150894165,0.16765089333057404,2.4933509826660156,1.6253901720046997
5875.575000,0.3262285590171814,1.094985842704773,0.030561091378331184,-1.311907172203064,0.16863609850406647,2.493319272994995,1.6228020191192627
5875.597000,0.3255818486213684,1.0950288772583008,0.03074287436902523,-1.3119311332702637,0.16966520249843597,2.4932870864868164,1.6199702024459839
5875.617000,0.3249325156211853,1.0950716733932495,0.030934182927012444,-1.3119547367095947,0.17073659598827362,2.4932541847229004,1.6169281005859375
5875.638000,0.32428956031799316,1.0951135158538818,0.031136447563767433,-1.311977505683899,0.17181481420993805,2.4932215213775635,1.613744854927063
5875.655000,0.3236629068851471,1.095154047012329,0.03134259954094887,-1.3119993209838867,0.17288945615291595,2.4931893348693848,1.6104637384414673
5875.675000,0.3230585753917694,1.095192790031433,0.03155064955353737,-1.3120200634002686,0.17394408583641052,2.4931578636169434,1.6071299314498901
5875.696000,0.3224847614765167,1.0952292680740356,0.031758349388837814,-1.3120392560958862,0.1749584972858429,2.4931278228759766,1.6037970781326294
5875.716000,0.321953147649765,1.0952625274658203,0.03196331486105919,-1.312056541442871,0.17590472102165222,2.493100166320801,1.6005351543426514
5875.737000,0.32146671414375305,1.0952928066253662,0.032155849039554596,-1.3120721578598022,0.1767985224723816,2.4930741786956787,1.597350835800171
5875.754000,0.3210318386554718,1.095319390296936,0.03233997896313667,-1.312085509300232,0.17760635912418365,2.493051052093506,1.594313383102417
5875.774000,0.3206484615802765,1.0953428745269775,0.032505299896001816,-1.312097191810608,0.17835524678230286,2.493030071258545,1.5914106369018555
5875.794000,0.3203234076499939,1.0953619480133057,0.032662246376276016,-1.3121061325073242,0.1789911985397339,2.4930129051208496,1.5887342691421509
5875.815000,0.3200569450855255,1.0953774452209473,0.03279479965567589,-1.3121131658554077,0.17955823242664337,2.4929981231689453,1.5862514972686768
5875.835000,0.3199062645435333,1.0953881740570068,0.032852500677108765,-1.3121169805526733,0.18010389804840088,2.4929916858673096,1.5840446949005127
5875.852000,0.3198506534099579,1.0953948497772217,0.03283509612083435,-1.3121181726455688,0.18068738281726837,2.4929897785186768,1.5820664167404175
5875.873000,0.31985488533973694,1.0953986644744873,0.03276746720075607,-1.3121174573898315,0.18131758272647858,2.492990493774414,1.5802783966064453
5875.894000,0.3198947012424469,1.0954005718231201,0.03266897425055504,-1.3121153116226196,0.18199175596237183,2.492992877960205,1.578649878501892
5875.915000,0.31995493173599243,1.0954011678695679,0.03255276009440422,-1.3121122121810913,0.1827029287815094,2.4929962158203125,1.5771557092666626
5875.936000,0.3199976980686188,1.0953938961029053,0.03255487233400345,-1.312104344367981,0.18306012451648712,2.4930012226104736,1.5761359930038452
5875.953000,0.32010260224342346,1.0953887701034546,0.0324614979326725,-1.312098741531372,0.18355843424797058,2.4930050373077393,1.575129508972168
5875.974000,0.32020965218544006,1.0953855514526367,0.03234440088272095,-1.3120940923690796,0.18413014709949493,2.493009090423584,1.574140191078186
5875.995000,0.32031112909317017,1.0953832864761353,0.03221902251243591,-1.3120896816253662,0.18475452065467834,2.4930131435394287,1.5731711387634277
5876.015000,0.3204061985015869,1.095381259918213,0.03209171071648598,-1.3120851516723633,0.18541711568832397,2.4930171966552734,1.572224497795105
5876.036000,0.3204953968524933,1.09537935256958,0.03196593374013901,-1.3120803833007812,0.18610574305057526,2.493021011352539,1.5713016986846924
5876.053000,0.32057955861091614,1.0953773260116577,0.031843651086091995,-1.3120753765106201,0.18681015074253082,2.4930245876312256,1.570403814315796
5876.073000,0.3206605017185211,1.0953750610351562,0.031726352870464325,-1.3120700120925903,0.18751825392246246,2.493028163909912,1.5695372819900513
5876.094000,0.3207394778728485,1.0953725576400757,0.031613435596227646,-1.312064528465271,0.18822544813156128,2.4930315017700195,1.5687010288238525
5876.116000,0.32081666588783264,1.095369815826416,0.03150517866015434,-1.3120588064193726,0.1889270395040512,2.493034601211548,1.5678941011428833
5876.136000,0.32089218497276306,1.0953669548034668,0.03140173479914665,-1.3120529651641846,0.18961921334266663,2.493037462234497,1.567115306854248
5876.153000,0.3209661543369293,1.0953638553619385,0.03130311146378517,-1.312047004699707,0.19029900431632996,2.493040084838867,1.5663636922836304
5876.173000,0.32103869318962097,1.0953606367111206,0.031209224835038185,-1.3120410442352295,0.19096414744853973,2.493042469024658,1.5656384229660034
5876.194000,0.32110995054244995,1.0953572988510132,0.031119924038648605,-1.3120349645614624,0.19161298871040344,2.493044853210449,1.5649384260177612
5876.215000,0.3212493062019348,1.095317006111145,0.031425513327121735,-1.3120059967041016,0.1907140016555786,2.493072032928467,1.5660755634307861
5876.235000,0.3216685354709625,1.0952531099319458,0.031724195927381516,-1.3119678497314453,0.18891052901744843,2.493107318878174,1.5686231851577759
5876.253000,0.3222217857837677,1.0952155590057373,0.03158131241798401,-1.311950922012329,0.18800246715545654,2.493122100830078,1.5704233646392822
5876.272000,0.3226192593574524,1.0951982736587524,0.031399257481098175,-1.3119444847106934,0.18752647936344147,2.493131160736084,1.5716338157653809
5876.292000,0.32288017868995667,1.0951920747756958,0.031227905303239822,-1.3119425773620605,0.1873551458120346,2.4931368827819824,1.5723806619644165
5876.313000,0.32304319739341736,1.095191478729248,0.031074317172169685,-1.311942458152771,0.18741272389888763,2.49314022064209,1.572764277458191
5876.334000,0.32313868403434753,1.0951937437057495,0.030938562005758286,-1.31194269657135,0.18764205276966095,2.4931418895721436,1.5728647708892822
5876.351000,0.323188453912735,1.0951974391937256,0.03081897646188736,-1.3119429349899292,0.1879984736442566,2.4931423664093018,1.5727460384368896
5876.371000,0.32320791482925415,1.0952017307281494,0.030713381245732307,-1.3119429349899292,0.18844732642173767,2.4931418895721436,1.5724588632583618
5876.393000,0.3232077956199646,1.0952061414718628,0.030619649216532707,-1.3119425773620605,0.18896177411079407,2.493140935897827,1.5720436573028564
5876.413000,0.3231954872608185,1.0952104330062866,0.030535869300365448,-1.3119419813156128,0.1895211935043335,2.4931395053863525,1.5715324878692627
5876.433000,0.3231760263442993,1.0952144861221313,0.030460456386208534,-1.3119410276412964,0.19010965526103973,2.493137836456299,1.5709507465362549
5876.447000,0.3231528401374817,1.095218300819397,0.03039209172129631,-1.3119398355484009,0.1907150149345398,2.493135929107666,1.570318579673767
5876.467000,0.32312819361686707,1.095221757888794,0.030329721048474312,-1.3119384050369263,0.1913280487060547,2.493133783340454,1.5696519613265991
5876.490000,0.3231036067008972,1.0952248573303223,0.030272511765360832,-1.311936855316162,0.1919417381286621,2.493131637573242,1.5689634084701538
5876.510000,0.32308006286621094,1.095227599143982,0.030219802632927895,-1.3119350671768188,0.19255076348781586,2.4931294918060303,1.5682626962661743
5876.530000,0.323058158159256,1.095229983329773,0.030171047896146774,-1.3119330406188965,0.19315125048160553,2.4931273460388184,1.5675575733184814
5876.547000,0.3233034014701843,1.0951459407806396,0.030918247997760773,-1.3118761777877808,0.19035077095031738,2.4931931495666504,1.5710934400558472
5876.566000,0.32427626848220825,1.095007061958313,0.03155164793133736,-1.3117963075637817,0.18566948175430298,2.4932820796966553,1.5778789520263672
5876.593000,0.3257644772529602,1.0948458909988403,0.032006505876779556,-1.3117130994796753,0.1797066330909729,2.4933810234069824,1.5871260166168213
5876.608000,0.3272987902164459,1.0947628021240234,0.03151564300060272,-1.3116892576217651,0.17625172436237335,2.4934206008911133,1.5939692258834839
5876.629000,0.32827332615852356,1.0947351455688477,0.031019611284136772,-1.311692714691162,0.17408078908920288,2.4934403896331787,1.5989086627960205
5876.644000,0.3288009762763977,1.0947366952896118,0.030611403286457062,-1.3117069005966187,0.1728167086839676,2.4934489727020264,1.6023437976837158
5876.664000,0.32901957631111145,1.0947526693344116,0.0302878525108099,-1.311724305152893,0.17222857475280762,2.4934499263763428,1.6045935153961182
5876.686000,0.32938557863235474,1.0946776866912842,0.031008202582597733,-1.3116769790649414,0.16792133450508118,2.493520736694336,1.6112366914749146
5876.705000,0.3301886320114136,1.0946385860443115,0.03064716048538685,-1.311669111251831,0.16590361297130585,2.493539810180664,1.6159011125564575
5876.722000,0.3306325674057007,1.0946359634399414,0.030254948884248734,-1.3116799592971802,0.16491244733333588,2.493544578552246,1.6190050840377808
5876.741000,0.3307642340660095,1.0946532487869263,0.029934033751487732,-1.3116981983184814,0.16461709141731262,2.493541955947876,1.6208827495574951
5876.762000,0.33068162202835083,1.0946804285049438,0.029682785272598267,-1.3117185831069946,0.1648315191268921,2.4935343265533447,1.6218005418777466
5876.783000,0.3308822214603424,1.0946029424667358,0.030605191364884377,-1.3116651773452759,0.16054046154022217,2.493605852127075,1.628147840499878
5876.802000,0.33165523409843445,1.0945619344711304,0.030255712568759918,-1.3116567134857178,0.15874573588371277,2.493622303009033,1.6324656009674072
5876.822000,0.3320549428462982,1.0945607423782349,0.029858386144042015,-1.311669111251831,0.15801531076431274,2.493624210357666,1.6351861953735352
5876.838000,0.332591712474823,1.0944660902023315,0.030749844387173653,-1.3116105794906616,0.1526612788438797,2.493703842163086,1.6434178352355957
5876.858000,0.33362045884132385,1.0944186449050903,0.03027430549263954,-1.3116058111190796,0.15025858581066132,2.493723154067993,1.6490837335586548
5876.879000,0.3341470956802368,1.0944185256958008,0.029770512133836746,-1.3116244077682495,0.149182990193367,2.493725538253784,1.6527290344238281
5876.899000,0.33424732089042664,1.0944441556930542,0.029366903007030487,-1.3116518259048462,0.14900363981723785,2.4937191009521484,1.6547889709472656
5876.917000,0.33405712246894836,1.094482660293579,0.02905914932489395,-1.3116815090179443,0.1494770646095276,2.493706703186035,1.6556105613708496
5876.934000,0.33403679728507996,1.0944732427597046,0.02934105508029461,-1.3116676807403564,0.14782878756523132,2.4937384128570557,1.6590174436569214
5876.954000,0.334600567817688,1.0944247245788574,0.029471464455127716,-1.3116371631622314,0.14522016048431396,2.4937851428985596,1.6643966436386108
5876.974000,0.33557403087615967,1.0943571329116821,0.029428767040371895,-1.3116021156311035,0.14202626049518585,2.493838310241699,1.671260952949524
5876.994000,0.3367343246936798,1.0942946672439575,0.029122017323970795,-1.3115770816802979,0.1390640288591385,2.4938852787017822,1.6784642934799194
5877.015000,0.3378138244152069,1.0942509174346924,0.028652328997850418,-1.3115663528442383,0.13671845197677612,2.4939208030700684,1.6851915121078491
5877.032000,0.3384770452976227,1.0942537784576416,0.027921458706259727,-1.3115860223770142,0.1362430453300476,2.493924856185913,1.689404010772705
5877.052000,0.33871886134147644,1.0942655801773071,0.027582477778196335,-1.3116004467010498,0.13567368686199188,2.493933916091919,1.693178653717041
5877.072000,0.33885714411735535,1.0942769050598145,0.02731975167989731,-1.3116121292114258,0.13523975014686584,2.4939417839050293,1.6965888738632202
5877.092000,0.3388861119747162,1.0942938327789307,0.027048533782362938,-1.31162691116333,0.13520602881908417,2.493942975997925,1.6992887258529663
5877.113000,0.33878639340400696,1.0943152904510498,0.026837464421987534,-1.3116426467895508,0.13539792597293854,2.493941068649292,1.7014211416244507
5877.130000,0.33854934573173523,1.0943444967269897,0.02664131298661232,-1.3116623163223267,0.13597184419631958,2.4939322471618652,1.7027536630630493
5877.151000,0.33814287185668945,1.0943827629089355,0.026491420343518257,-1.3116859197616577,0.1369175761938095,2.4939167499542236,1.7032082080841064
5877.171000,0.3375720977783203,1.094434380531311,0.026311390101909637,-1.3117163181304932,0.13850857317447662,2.4938931465148926,1.7024519443511963
5877.192000,0.33683261275291443,1.094494104385376,0.026199646294116974,-1.311748743057251,0.14047491550445557,2.493865728378296,1.7007660865783691
5877.212000,0.33595409989356995,1.094555377960205,0.02622707188129425,-1.3117796182632446,0.14249439537525177,2.493834972381592,1.698513388633728
5877.230000,0.3350171446800232,1.094616413116455,0.026336679235100746,-1.3118093013763428,0.1445206105709076,2.493802070617676,1.6958386898040771
5877.250000,0.33404240012168884,1.094678521156311,0.026486407965421677,-1.3118393421173096,0.14660879969596863,2.4937658309936523,1.692712426185608
5877.271000,0.3330439031124115,1.094740629196167,0.02668408304452896,-1.3118690252304077,0.14868178963661194,2.4937281608581543,1.68925940990448
5877.291000,0.332032710313797,1.0948034524917603,0.026903217658400536,-1.3118990659713745,0.150782510638237,2.4936881065368652,1.6854653358459473
5877.311000,0.3310179114341736,1.0948657989501953,0.027152592316269875,-1.3119285106658936,0.15285174548625946,2.4936470985412598,1.6814345121383667
5877.328000,0.3300063908100128,1.0949280261993408,0.027415428310632706,-1.3119579553604126,0.15491704642772675,2.4936046600341797,1.6771668195724487
5877.348000,0.3289972245693207,1.0949901342391968,0.027694063261151314,-1.3119871616363525,0.15696725249290466,2.493561029434204,1.6726936101913452
5877.368000,0.3280951678752899,1.0950466394424438,0.027946271002292633,-1.3120121955871582,0.1589067578315735,2.493525505065918,1.6683461666107178
5877.388000,0.32721754908561707,1.095102071762085,0.028175320476293564,-1.3120373487472534,0.16089527308940887,2.49348521232605,1.6638497114181519
5877.409000,0.3264296054840088,1.0951521396636963,0.028391743078827858,-1.312058448791504,0.1627604365348816,2.493452787399292,1.6595460176467896
5877.425000,0.3256548345088959,1.0952012538909912,0.028594838455319405,-1.312079906463623,0.16465845704078674,2.493415117263794,1.6551504135131836
5877.446000,0.3248642385005951,1.0952502489089966,0.028833910822868347,-1.3121012449264526,0.1664925217628479,2.4933760166168213,1.650714635848999
5877.466000,0.32408303022384644,1.0952974557876587,0.02910125069320202,-1.3121215105056763,0.16822029650211334,2.4933371543884277,1.6463119983673096
5877.486000,0.32333821058273315,1.095341682434082,0.029381096363067627,-1.3121399879455566,0.16982069611549377,2.493299722671509,1.6420117616653442
5877.502000,0.32263997197151184,1.095382809638977,0.02965734712779522,-1.3121569156646729,0.17131394147872925,2.4932634830474854,1.6378207206726074
5877.521000,0.32200220227241516,1.0954192876815796,0.02993575669825077,-1.312171220779419,0.1726432889699936,2.4932305812835693,1.633845567703247
5877.539000,0.3214308023452759,1.095451831817627,0.030195457860827446,-1.3121834993362427,0.17385448515415192,2.4931998252868652,1.630064845085144
5877.560000,0.32093289494514465,1.0954792499542236,0.030444085597991943,-1.3121927976608276,0.1749032437801361,2.493173360824585,1.626565933227539
5877.582000,0.32050710916519165,1.0955026149749756,0.030664684250950813,-1.3122000694274902,0.1758425086736679,2.493149518966675,1.6233091354370117
5877.603000,0.3201887905597687,1.0955231189727783,0.030797578394412994,-1.3122056722640991,0.1768043041229248,2.493131399154663,1.6202458143234253
5877.620000,0.31994614005088806,1.095541000366211,0.030866261571645737,-1.3122093677520752,0.17780600488185883,2.493116855621338,1.6173532009124756
5877.638000,0.31973832845687866,1.0955514907836914,0.030980920419096947,-1.3122084140777588,0.17857201397418976,2.493105888366699,1.614881157875061
5877.657000,0.31960374116897583,1.0955619812011719,0.031003085896372795,-1.3122081756591797,0.1794590801000595,2.4930953979492188,1.6124825477600098
5877.678000,0.31948986649513245,1.095572590827942,0.030994441360235214,-1.3122076988220215,0.18041066825389862,2.4930858612060547,1.6101574897766113
5877.699000,0.3193871080875397,1.0955827236175537,0.030970901250839233,-1.312206745147705,0.18140627443790436,2.493077278137207,1.6079055070877075
5877.715000,0.3192925453186035,1.0955922603607178,0.03093993291258812,-1.3122050762176514,0.18243050575256348,2.4930691719055176,1.605725646018982
5877.736000,0.31920596957206726,1.0956008434295654,0.030906260013580322,-1.3122026920318604,0.18346694111824036,2.4930615425109863,1.6036219596862793
5877.757000,0.31912747025489807,1.0956084728240967,0.03087146207690239,-1.3121997117996216,0.18450643122196198,2.4930543899536133,1.6015918254852295
5877.778000,0.31907275319099426,1.0955981016159058,0.031044747680425644,-1.312185525894165,0.18477413058280945,2.4930574893951416,1.6005027294158936
5877.799000,0.31916213035583496,1.0955721139907837,0.03126398101449013,-1.312164306640625,0.18441763520240784,2.4930670261383057,1.600340485572815
5877.816000,0.31938549876213074,1.095537781715393,0.03146152198314667,-1.3121408224105835,0.1836322695016861,2.493079900741577,1.6008949279785156
5877.836000,0.3196689188480377,1.0955209732055664,0.03138791769742966,-1.3121306896209717,0.18345533311367035,2.493081569671631,1.6009306907653809
5877.857000,0.31984904408454895,1.0955168008804321,0.031284842640161514,-1.3121267557144165,0.18359553813934326,2.4930803775787354,1.600565791130066
5877.878000,0.320002019405365,1.0954904556274414,0.03149925172328949,-1.312106966972351,0.18272119760513306,2.4930970668792725,1.6013697385787964
5877.899000,0.3203416168689728,1.0954444408416748,0.031748101115226746,-1.3120778799057007,0.18113219738006592,2.4931225776672363,1.6032848358154297
5877.916000,0.32077163457870483,1.0954214334487915,0.031602174043655396,-1.3120671510696411,0.1804826557636261,2.4931294918060303,1.6043545007705688
5877.933000,0.321037620306015,1.0954161882400513,0.031430743634700775,-1.3120651245117188,0.18031270802021027,2.493130922317505,1.6047639846801758
5877.953000,0.3211691975593567,1.0954205989837646,0.03127642348408699,-1.3120665550231934,0.1804829239845276,2.493129253387451,1.6046607494354248
5877.972000,0.3212069869041443,1.0954296588897705,0.03114485740661621,-1.312069058418274,0.18090352416038513,2.4931254386901855,1.604162573814392
5877.993000,0.3211829364299774,1.0954408645629883,0.031034357845783234,-1.3120715618133545,0.18150752782821655,2.4931201934814453,1.6033629179000854
5878.008000,0.3211197853088379,1.0954527854919434,0.030941899865865707,-1.312073826789856,0.18224328756332397,2.4931139945983887,1.602336049079895
5878.028000,0.32103338837623596,1.095464825630188,0.030864417552947998,-1.3120754957199097,0.18307092785835266,2.493107318878174,1.6011409759521484
5878.047000,0.320934534072876,1.0954763889312744,0.03079916536808014,-1.3120766878128052,0.18395976722240448,2.493100166320801,1.5998244285583496
5878.067000,0.3208305835723877,1.0954874753952026,0.030743813142180443,-1.3120774030685425,0.18488635122776031,2.4930927753448486,1.5984232425689697
5878.088000,0.3207263946533203,1.0954978466033936,0.030696483328938484,-1.3120776414871216,0.18583276867866516,2.4930853843688965,1.5969666242599487
5878.104000,0.32081666588783264,1.0954456329345703,0.031249001622200012,-1.312037706375122,0.18426519632339478,2.4931256771087646,1.5986175537109375
5878.127000,0.32125455141067505,1.0954134464263916,0.031131165102124214,-1.312020182609558,0.18382100760936737,2.493135690689087,1.5995159149169922
5878.144000,0.32154276967048645,1.095402479171753,0.030967483296990395,-1.3120145797729492,0.18381215631961823,2.493138313293457,1.5998270511627197
5878.163000,0.32168760895729065,1.0954031944274902,0.030825350433588028,-1.3120142221450806,0.18408387899398804,2.4931371212005615,1.5996825695037842
5878.184000,0.32173216342926025,1.095409870147705,0.03070933185517788,-1.3120160102844238,0.18455657362937927,2.493133306503296,1.5991873741149902
5878.201000,0.32171082496643066,1.0954194068908691,0.030616262927651405,-1.3120183944702148,0.18517306447029114,2.4931278228759766,1.5984249114990234
5878.222000,0.32190391421318054,1.0953528881072998,0.03126810863614082,-1.311970829963684,0.18275681138038635,2.4931819438934326,1.6014012098312378
5878.244000,0.32275286316871643,1.0952363014221191,0.03181813657283783,-1.3119022846221924,0.17869120836257935,2.4932563304901123,1.6072431802749634
5878.265000,0.32409143447875977,1.095093011856079,0.03225340321660042,-1.3118263483047485,0.1732897013425827,2.493344306945801,1.615541696548462
5878.286000,0.3257649838924408,1.0949420928955078,0.032538291066884995,-1.3117541074752808,0.16700521111488342,2.493436336517334,1.6256787776947021
5878.303000,0.32734736800193787,1.094870686531067,0.03192611038684845,-1.3117412328720093,0.16348682343959808,2.4934706687927246,1.6329458951950073
5878.324000,0.32846346497535706,1.094814658164978,0.03173781931400299,-1.3117260932922363,0.15965893864631653,2.493516683578491,1.6402531862258911
5878.345000,0.3294422924518585,1.0947729349136353,0.03145746886730194,-1.3117187023162842,0.1564577966928482,2.4935519695281982,1.6468441486358643
5878.366000,0.3301255702972412,1.0947697162628174,0.0309275072067976,-1.3117289543151855,0.1549071967601776,2.493577480316162,1.6512616872787476
5878.387000,0.33045732975006104,1.094768762588501,0.030690651386976242,-1.3117313385009766,0.15347351133823395,2.4936046600341797,1.6550686359405518
5878.404000,0.3306092917919159,1.0947816371917725,0.03032243810594082,-1.311724305152893,0.15313898026943207,2.493640184402466,1.6572922468185425
5878.425000,0.3305385112762451,1.0947871208190918,0.03017309121787548,-1.3117077350616455,0.15287761390209198,2.493675470352173,1.658987045288086
5878.445000,0.33040282130241394,1.0947901010513306,0.03009078837931156,-1.311690092086792,0.15274688601493835,2.4937081336975098,1.6602617502212524
5878.465000,0.33020588755607605,1.0947970151901245,0.030010011047124863,-1.3116754293441772,0.1529117077589035,2.493734359741211,1.6609270572662354
5878.487000,0.32991111278533936,1.094812273979187,0.029948297888040543,-1.3116545677185059,0.153391495347023,2.493760347366333,1.6608995199203491
5878.503000,0.32952678203582764,1.0948281288146973,0.02993927337229252,-1.3116235733032227,0.15404856204986572,2.4937822818756104,1.6603373289108276
5878.525000,0.3290695548057556,1.09483802318573,0.029955312609672546,-1.3115782737731934,0.1549214869737625,2.4938066005706787,1.6592108011245728
5878.545000,0.3285391926765442,1.0948256254196167,0.030000103637576103,-1.3115099668502808,0.1559920459985733,2.4938337802886963,1.6575361490249634
5878.566000,0.32795464992523193,1.0947848558425903,0.030086614191532135,-1.3114149570465088,0.1571650356054306,2.493864059448242,1.6554501056671143
5878.587000,0.3273388743400574,1.0946992635726929,0.030198462307453156,-1.3112870454788208,0.15842625498771667,2.4938979148864746,1.653008222579956
5878.604000,0.32678455114364624,1.0944693088531494,0.030271457508206367,-1.311095952987671,0.15975943207740784,2.493957757949829,1.65042245388031
5878.624000,0.3262174427509308,1.0941516160964966,0.030352052301168442,-1.3108336925506592,0.16116277873516083,2.494011640548706,1.6476112604141235
5878.645000,0.3256303668022156,1.0937777757644653,0.030464747920632362,-1.31052565574646,0.16256310045719147,2.4940617084503174,1.6446455717086792
5878.666000,0.3250437378883362,1.0933423042297363,0.03060087189078331,-1.3101816177368164,0.16393078863620758,2.494117021560669,1.6415905952453613
5878.686000,0.3244793117046356,1.092826008796692,0.03075580485165119,-1.309796690940857,0.16521143913269043,2.494182586669922,1.638555645942688
5878.703000,0.3239484131336212,1.092233657836914,0.030910169705748558,-1.3093688488006592,0.1664232313632965,2.494255542755127,1.6355572938919067
5878.724000,0.32346248626708984,1.0915571451187134,0.031063582748174667,-1.3088979721069336,0.1675228476524353,2.4943408966064453,1.6326855421066284
5878.745000,0.3230762481689453,1.0908042192459106,0.031132392585277557,-1.308379054069519,0.16865438222885132,2.4944398403167725,1.6299141645431519
5878.766000,0.32275980710983276,1.0899869203567505,0.03113647550344467,-1.3078175783157349,0.16983206570148468,2.4945478439331055,1.6272395849227905
5878.787000,0.3224864900112152,1.0891205072402954,0.031100047752261162,-1.3072224855422974,0.1710503250360489,2.494661808013916,1.624658465385437
5878.803000,0.3222193419933319,1.0881980657577515,0.03112173080444336,-1.306601881980896,0.17205987870693207,2.4947853088378906,1.6223863363265991
5878.824000,0.3219992518424988,1.0872271060943604,0.03116186335682869,-1.3059583902359009,0.17286399006843567,2.49491810798645,1.6204619407653809
5878.845000,0.3218365013599396,1.086248755455017,0.03110305778682232,-1.3053053617477417,0.17382723093032837,2.4950454235076904,1.6185030937194824
5878.866000,0.32168179750442505,1.085252046585083,0.031115813180804253,-1.3046473264694214,0.17452239990234375,2.495181083679199,1.6169252395629883
5878.883000,0.32158058881759644,1.0842422246932983,0.0311251413077116,-1.3039861917495728,0.17506098747253418,2.4953205585479736,1.6156525611877441
5878.904000,0.32153138518333435,1.0832293033599854,0.031129611656069756,-1.3033246994018555,0.1754407435655594,2.495457649230957,1.6146912574768066
5878.925000,0.32152658700942993,1.08222234249115,0.031117895618081093,-1.3026689291000366,0.17571286857128143,2.495591402053833,1.6139771938323975
5878.945000,0.3215588331222534,1.0812352895736694,0.0310951080173254,-1.302024006843567,0.17588075995445251,2.495722532272339,1.613500714302063
5878.966000,0.32162848114967346,1.0802778005599976,0.03106299601495266,-1.301392674446106,0.17593979835510254,2.495851516723633,1.613271951675415
5878.987000,0.32169613242149353,1.0793726444244385,0.030905554071068764,-1.300791621208191,0.17638976871967316,2.495969772338867,1.6126723289489746
5879.004000,0.3217259347438812,1.0785034894943237,0.030861180275678635,-1.3002122640609741,0.17656701803207397,2.4960901737213135,1.6123939752578735
5879.024000,0.3218061923980713,1.077672004699707,0.030813109129667282,-1.2996563911437988,0.17661090195178986,2.496208906173706,1.6123876571655273
5879.045000,0.3219282925128937,1.076878547668457,0.030749062076210976,-1.2991251945495605,0.17657195031642914,2.4963250160217285,1.6125915050506592
5879.058000,0.3220803141593933,1.0761241912841797,0.030674709007143974,-1.2986184358596802,0.17645829916000366,2.496438503265381,1.6129846572875977
5879.080000,0.32225245237350464,1.07540762424469,0.030588600784540176,-1.2981358766555786,0.1762988120317459,2.496548891067505,1.6135212182998657
5879.091000,0.3223857283592224,1.0747418403625488,0.03038097731769085,-1.297684907913208,0.1766233891248703,2.4966464042663574,1.6135104894638062
5879.112000,0.3224034011363983,1.0741207599639893,0.03019518218934536,-1.2972601652145386,0.1772063970565796,2.496736764907837,1.6130774021148682
5879.129000,0.3223358690738678,1.0735384225845337,0.030040305107831955,-1.2968581914901733,0.1779641956090927,2.496821880340576,1.612321138381958
5879.152000,0.32221338152885437,1.0729912519454956,0.029911525547504425,-1.2964723110198975,0.178842693567276,2.4969022274017334,1.6113206148147583
5879.176000,0.32205745577812195,1.0724735260009766,0.029803678393363953,-1.2961056232452393,0.1798017919063568,2.496978759765625,1.6101385354995728
5879.192000,0.32188305258750916,1.071984052658081,0.02971232868731022,-1.2957565784454346,0.18081139028072357,2.49705171585083,1.6088244915008545
5879.215000,0.32176685333251953,1.0714963674545288,0.029826322570443153,-1.295409917831421,0.18101491034030914,2.4971365928649902,1.6084554195404053
5879.236000,0.32176291942596436,1.071040391921997,0.029724987223744392,-1.295080542564392,0.18160480260849,2.497209072113037,1.6077806949615479
5879.258000,0.32170960307121277,1.0706145763397217,0.029617873951792717,-1.294765830039978,0.18234112858772278,2.497276544570923,1.606874704360962
5879.280000,0.3216116726398468,1.0702152252197266,0.02952503226697445,-1.294463038444519,0.18316470086574554,2.497340202331543,1.6057965755462646
5879.297000,0.3214849829673767,1.0698379278182983,0.029446179047226906,-1.294175624847412,0.18404357135295868,2.4974007606506348,1.60459303855896
5879.318000,0.3213421106338501,1.0694825649261475,0.029378866776823997,-1.2938988208770752,0.18495504558086395,2.4974584579467773,1.6033010482788086
5879.339000,0.32119157910346985,1.069145679473877,0.029321016743779182,-1.2936360836029053,0.18588198721408844,2.497513771057129,1.6019498109817505
5879.358000,0.3210393786430359,1.068827748298645,0.02927069552242756,-1.293383002281189,0.18681173026561737,2.4975666999816895,1.6005622148513794
5879.376000,0.320889413356781,1.0685276985168457,0.029226476326584816,-1.2931383848190308,0.18773476779460907,2.497617483139038,1.5991562604904175
5879.390000,0.3207440972328186,1.0682423114776611,0.029187308624386787,-1.2929068803787231,0.18864406645298004,2.497666358947754,1.5977460145950317
5879.410000,0.32060518860816956,1.0679694414138794,0.029152102768421173,-1.2926853895187378,0.1895347535610199,2.497713327407837,1.5963423252105713
5879.430000,0.32047346234321594,1.0677095651626587,0.02912035770714283,-1.2924751043319702,0.1904030591249466,2.497758626937866,1.5949534177780151
5879.449000,0.3205394148826599,1.067400336265564,0.029552003368735313,-1.2922427654266357,0.18917164206504822,2.4978444576263428,1.5962132215499878
5879.470000,0.3208945393562317,1.0671229362487793,0.02942092902958393,-1.2920324802398682,0.18886877596378326,2.4979019165039062,1.596881628036499
5879.487000,0.32111814618110657,1.0668777227401733,0.02926590107381344,-1.2918381690979004,0.1889093518257141,2.497951030731201,1.5970886945724487
5879.508000,0.32121774554252625,1.0666570663452148,0.02913840115070343,-1.2916544675827026,0.1891648769378662,2.497995138168335,1.596938133239746
5879.525000,0.3212309181690216,1.0664540529251099,0.02903810888528824,-1.2914836406707764,0.1895713061094284,2.498035430908203,1.5965125560760498
5879.545000,0.3211875855922699,1.066267728805542,0.02895965240895748,-1.2913200855255127,0.19008390605449677,2.498072862625122,1.5958776473999023
5879.566000,0.3211086094379425,1.066093921661377,0.028898272663354874,-1.2911670207977295,0.19066910445690155,2.49810791015625,1.5950855016708374
5879.583000,0.32128530740737915,1.065843939781189,0.02948162518441677,-1.2909785509109497,0.18841373920440674,2.4982006549835205,1.5978573560714722
5879.604000,0.3218410313129425,1.06563138961792,0.029286464676260948,-1.2908170223236084,0.18752679228782654,2.49825382232666,1.5996814966201782
5879.622000,0.3221930265426636,1.0654566287994385,0.029067056253552437,-1.2906734943389893,0.18717198073863983,2.498295545578003,1.6007611751556396
5879.644000,0.32235780358314514,1.065308690071106,0.028892554342746735,-1.2905408143997192,0.1871587038040161,2.49833083152771,1.601258635520935
5879.667000,0.3223922550678253,1.0651808977127075,0.02876013144850731,-1.2904149293899536,0.18738976120948792,2.498361587524414,1.6013031005859375
