yuan18844-afk/dissertation/catkin_ws/src/franka_digital_twin/analysis/data/unity_static1_20250728_062551.csv
time,panda_joint1,panda_joint2,panda_joint3,panda_joint4,panda_joint5,panda_joint6,panda_joint7
3876.133000,0.33044639229774475,0.809237539768219,-0.512190580368042,-1.3442436456680298,0.4159805178642273,2.0541391372680664,2.6500706672668457
3876.168000,0.33017829060554504,0.8092328906059265,-0.5125234127044678,-1.3442670106887817,0.4166678786277771,2.054119348526001,2.6491334438323975
3876.170000,0.3298760652542114,0.8092181086540222,-0.512859582901001,-1.3442885875701904,0.41746172308921814,2.0540988445281982,2.648043155670166
3876.200000,0.329549640417099,0.8091939091682434,-0.513189971446991,-1.3443081378936768,0.4183330237865448,2.0540778636932373,2.6468422412872314
3876.200000,0.3292078971862793,0.8091619610786438,-0.5135090351104736,-1.3443256616592407,0.41925811767578125,2.054056406021118,2.645564556121826
3876.239000,0.32885822653770447,0.809124231338501,-0.5138137340545654,-1.3443412780761719,0.4202180504798889,2.05403470993042,2.6442363262176514
3876.240000,0.3284596800804138,0.8090132474899292,-0.5138459801673889,-1.3443456888198853,0.42079541087150574,2.0540213584899902,2.6433053016662598
3876.273000,0.32811346650123596,0.8088908791542053,-0.5137715935707092,-1.3443458080291748,0.4211106300354004,2.054008960723877,2.6426875591278076
3876.307000,0.32787659764289856,0.808844804763794,-0.5138974785804749,-1.3443546295166016,0.42161983251571655,2.0539889335632324,2.6418888568878174
3876.307000,0.3276481628417969,0.8088209629058838,-0.5140839219093323,-1.3443669080734253,0.4222334921360016,2.053969621658325,2.640955924987793
3876.342000,0.32741332054138184,0.8088034391403198,-0.5142961740493774,-1.3443797826766968,0.4229244291782379,2.053950786590576,2.639925956726074
3876.342000,0.32717010378837585,0.8087859749794006,-0.5145174860954285,-1.3443920612335205,0.4236726760864258,2.0539321899414062,2.6388282775878906
3876.375000,0.32692021131515503,0.8087661862373352,-0.5147382020950317,-1.3444031476974487,0.4244612455368042,2.0539135932922363,2.637685775756836
3876.375000,0.32666659355163574,0.8087436556816101,-0.5149526000022888,-1.344412922859192,0.42527592182159424,2.0538949966430664,2.636516809463501
3876.410000,0.3264124095439911,0.808718740940094,-0.5151574611663818,-1.3444215059280396,0.4261050820350647,2.0538763999938965,2.6353354454040527
3876.443000,0.3261604905128479,0.8086920976638794,-0.5153510570526123,-1.3444288969039917,0.4269394278526306,2.0538580417633057,2.63415265083313
3876.443000,0.3259132206439972,0.8086644411087036,-0.5155326724052429,-1.344435214996338,0.42777156829833984,2.053839683532715,2.632977247238159
3876.475000,0.325672447681427,0.8086363673210144,-0.5157020688056946,-1.3444406986236572,0.42859581112861633,2.053821563720703,2.6318154335021973
3876.475000,0.32543957233428955,0.8086084723472595,-0.5158593058586121,-1.3444453477859497,0.4294077157974243,2.0538036823272705,2.6306724548339844
3876.510000,0.325215607881546,0.8085811734199524,-0.5160046815872192,-1.3444492816925049,0.43020403385162354,2.053786039352417,2.629551887512207
3876.544000,0.32500120997428894,0.8085547685623169,-0.5161386728286743,-1.3444526195526123,0.4309823215007782,2.0537688732147217,2.6284563541412354
3876.544000,0.32479673624038696,0.8085294961929321,-0.5162616968154907,-1.344455361366272,0.4317408502101898,2.0537519454956055,2.627387762069702
3876.580000,0.3246023654937744,0.8085055351257324,-0.5163742899894714,-1.3444576263427734,0.4324784278869629,2.0537354946136475,2.626347541809082
3876.580000,0.32441598176956177,0.8084818124771118,-0.5164740085601807,-1.3444595336914062,0.43319034576416016,2.0537190437316895,2.6253364086151123
3876.613000,0.3242396414279938,0.8084588646888733,-0.5165614485740662,-1.3444608449935913,0.4338742196559906,2.0537033081054688,2.6243605613708496
3876.647000,0.3240744471549988,0.8084375262260437,-0.5166394710540771,-1.3444616794586182,0.4345322549343109,2.0536880493164062,2.6234185695648193
3876.647000,0.32392001152038574,0.8084178566932678,-0.5167089700698853,-1.3444621562957764,0.4351654052734375,2.053673028945923,2.622509479522705
3876.679000,0.3237757980823517,0.8083998560905457,-0.516770601272583,-1.344462275505066,0.435774564743042,2.0536584854125977,2.6216320991516113
3876.680000,0.323641300201416,0.8083834052085876,-0.5168249011039734,-1.3444620370864868,0.43636059761047363,2.0536444187164307,2.6207852363586426
3876.714000,0.32351598143577576,0.8083685040473938,-0.5168724060058594,-1.3444615602493286,0.4369243383407593,2.053630828857422,2.6199676990509033
3876.748000,0.3233993947505951,0.8083549737930298,-0.5169135332107544,-1.3444608449935913,0.4374666213989258,2.053617477416992,2.6191787719726562
3876.748000,0.3232910633087158,0.8083427548408508,-0.5169486999511719,-1.344459891319275,0.4379882216453552,2.0536046028137207,2.618417263031006
3876.781000,0.3231905698776245,0.8083317875862122,-0.5169783234596252,-1.3444586992263794,0.4384898841381073,2.0535922050476074,2.6176822185516357
3876.782000,0.3230975270271301,0.8083219528198242,-0.5170027017593384,-1.3444572687149048,0.4389723837375641,2.0535800457000732,2.6169726848602295
3876.815000,0.323011577129364,0.8083131909370422,-0.5170221924781799,-1.3444557189941406,0.4394364058971405,2.0535683631896973,2.61628794670105
3876.816000,0.3229323625564575,0.8083054423332214,-0.5170371532440186,-1.3444539308547974,0.43988263607025146,2.0535569190979004,2.6156270503997803
3876.852000,0.322859525680542,0.8082985877990723,-0.5170478224754333,-1.3444520235061646,0.4403117299079895,2.0535459518432617,2.6149890422821045
3876.887000,0.32279276847839355,0.8082926273345947,-0.5170544981956482,-1.3444498777389526,0.44072431325912476,2.053535223007202,2.6143734455108643
3876.887000,0.32273179292678833,0.808287501335144,-0.5170574188232422,-1.3444476127624512,0.441120982170105,2.053524971008301,2.613779067993164
3876.920000,0.32267633080482483,0.8082831501960754,-0.5170568823814392,-1.3444452285766602,0.44150233268737793,2.0535149574279785,2.6132054328918457
3876.920000,0.3226260840892792,0.8082795143127441,-0.5170531272888184,-1.3444427251815796,0.44186893105506897,2.0535051822662354,2.612651824951172
3876.954000,0.3225807845592499,0.8082765340805054,-0.517046332359314,-1.3444401025772095,0.44222134351730347,2.0534958839416504,2.6121175289154053
3876.987000,0.3225402235984802,0.8082741498947144,-0.5170367360115051,-1.3444373607635498,0.442560076713562,2.0534868240356445,2.6116018295288086
3876.987000,0.3225041329860687,0.8082723617553711,-0.517024576663971,-1.3444346189498901,0.4428856074810028,2.0534780025482178,2.6111040115356445
3877.021000,0.3224722743034363,0.8082711100578308,-0.517009973526001,-1.344431757926941,0.44319844245910645,2.053469657897949,2.610623598098755
3877.021000,0.32244446873664856,0.8082703948020935,-0.5169931650161743,-1.3444287776947021,0.44349905848503113,2.0534615516662598,2.6101598739624023
3877.057000,0.32242047786712646,0.8082701563835144,-0.5169743299484253,-1.3444257974624634,0.44378790259361267,2.0534536838531494,2.6097123622894287
3877.057000,0.32240012288093567,0.8082703351974487,-0.5169535875320435,-1.344422698020935,0.4440654218196869,2.053446054458618,2.6092803478240967
3877.090000,0.32238319516181946,0.8082709312438965,-0.5169311165809631,-1.3444195985794067,0.4443320035934448,2.053438901901245,2.608863353729248
3877.125000,0.3223695456981659,0.8082718849182129,-0.5169070363044739,-1.3444164991378784,0.4445880949497223,2.053431987762451,2.6084609031677246
3877.126000,0.32235896587371826,0.808273196220398,-0.51688152551651,-1.3444132804870605,0.44483405351638794,2.0534253120422363,2.608072519302368
3877.158000,0.3223513066768646,0.8082748651504517,-0.5168547034263611,-1.3444100618362427,0.4450702667236328,2.0534188747406006,2.6076974868774414
3877.159000,0.32234638929367065,0.8082768321037292,-0.5168266892433167,-1.3444068431854248,0.44529709219932556,2.053412675857544,2.6073355674743652
3877.192000,0.3223440945148468,0.8082790970802307,-0.5167976021766663,-1.344403624534607,0.44551488757133484,2.0534067153930664,2.6069862842559814
3877.225000,0.32234424352645874,0.8082816004753113,-0.5167675614356995,-1.3444002866744995,0.4457240104675293,2.053400993347168,2.606649160385132
3877.226000,0.3223467171192169,0.808284342288971,-0.516736626625061,-1.344396948814392,0.4459247589111328,2.0533955097198486,2.606323719024658
3877.259000,0.3223513662815094,0.8082873225212097,-0.5167049169540405,-1.3443936109542847,0.44611746072769165,2.0533902645111084,2.6060097217559814
3877.260000,0.32235807180404663,0.8082905411720276,-0.5166725516319275,-1.3443902730941772,0.4463024139404297,2.0533852577209473,2.6057064533233643
3877.293000,0.32236671447753906,0.8082939386367798,-0.5166395902633667,-1.3443869352340698,0.4464798867702484,2.0533804893493652,2.6054139137268066
3877.325000,0.32237717509269714,0.8082975149154663,-0.5166061520576477,-1.3443835973739624,0.4466501772403717,2.0533759593963623,2.6051313877105713
3877.326000,0.3223893344402313,0.8083012104034424,-0.5165722966194153,-1.344380259513855,0.44681358337402344,2.0533716678619385,2.604858875274658
3877.360000,0.32240310311317444,0.8083050847053528,-0.5165380835533142,-1.3443769216537476,0.4469703435897827,2.0533673763275146,2.604595899581909
3877.360000,0.32241836190223694,0.8083090782165527,-0.5165035724639893,-1.3443735837936401,0.44712069630622864,2.05336332321167,2.604341983795166
3877.393000,0.3224349915981293,0.8083131909370422,-0.5164688229560852,-1.3443703651428223,0.4472648799419403,2.0533595085144043,2.6040968894958496
3877.426000,0.3223532736301422,0.8081676959991455,-0.5159040689468384,-1.344346523284912,0.446567177772522,2.053373336791992,2.604736804962158
3877.427000,0.32247042655944824,0.8081505298614502,-0.5156816840171814,-1.344337821006775,0.44613903760910034,2.0533714294433594,2.6051735877990723
3877.462000,0.32260391116142273,0.8081713318824768,-0.5155662298202515,-1.3443363904953003,0.44584086537361145,2.0533697605133057,2.605450391769409
3877.463000,0.3227250874042511,0.8082044720649719,-0.5155072808265686,-1.344337821006775,0.4456450045108795,2.0533690452575684,2.6056017875671387
3877.495000,0.3228270411491394,0.808239221572876,-0.5154816508293152,-1.3443399667739868,0.4455333650112152,2.053368330001831,2.6056551933288574
3877.495000,0.32290908694267273,0.8082709908485413,-0.5154756307601929,-1.34434175491333,0.44548991322517395,2.0533676147460938,2.6056325435638428
3877.529000,0.3229731321334839,0.8082981109619141,-0.5154807567596436,-1.3443429470062256,0.4455006718635559,2.0533666610717773,2.605551242828369
3877.562000,0.3230220377445221,0.8083204627037048,-0.5154918432235718,-1.3443435430526733,0.4455537796020508,2.053365468978882,2.6054253578186035
3877.562000,0.3230588138103485,0.808338463306427,-0.5155056715011597,-1.3443435430526733,0.44563940167427063,2.0533640384674072,2.6052658557891846
3877.596000,0.3230862021446228,0.8083527684211731,-0.5155203342437744,-1.3443429470062256,0.44574952125549316,2.0533623695373535,2.605081558227539
3877.596000,0.3231065571308136,0.8083641529083252,-0.5155346393585205,-1.3443419933319092,0.44587770104408264,2.0533607006073,2.604879379272461
3877.628000,0.3231218159198761,0.808373212814331,-0.5155479907989502,-1.3443406820297241,0.446018785238266,2.053359031677246,2.6046648025512695
3877.663000,0.3231334984302521,0.8083804845809937,-0.5155599117279053,-1.34433913230896,0.4461686611175537,2.0533571243286133,2.6044421195983887
3877.664000,0.3231428265571594,0.8083864450454712,-0.5155702829360962,-1.3443373441696167,0.4463241398334503,2.0533552169799805,2.604214906692505
3877.697000,0.3231506943702698,0.8083914518356323,-0.5155789256095886,-1.3443354368209839,0.44648265838623047,2.0533533096313477,2.603985548019409
3877.698000,0.32315778732299805,0.8083958029747009,-0.5155858993530273,-1.3443334102630615,0.4466422498226166,2.053351402282715,2.6037561893463135
3877.730000,0.3231625258922577,0.8083986043930054,-0.5155883431434631,-1.3443313837051392,0.44679760932922363,2.053349256515503,2.6035284996032715
3877.761000,0.3231672942638397,0.8084004521369934,-0.5155864357948303,-1.3443292379379272,0.44694584608078003,2.05334734916687,2.60330867767334
3877.762000,0.32317355275154114,0.8084022402763367,-0.5155825018882751,-1.3443269729614258,0.44708821177482605,2.0533456802368164,2.6030964851379395
3877.795000,0.3231813609600067,0.8084040880203247,-0.515576958656311,-1.3443245887756348,0.4472249448299408,2.0533440113067627,2.602891683578491
3877.796000,0.3231905996799469,0.8084061741828918,-0.5155701637268066,-1.3443222045898438,0.4473562240600586,2.053342342376709,2.602694034576416
3877.828000,0.32320117950439453,0.8084084391593933,-0.5155622363090515,-1.3443198204040527,0.44748222827911377,2.0533409118652344,2.6025032997131348
3877.863000,0.32313308119773865,0.8081356287002563,-0.5145068168640137,-1.3442574739456177,0.4458971917629242,2.0534002780914307,2.6044087409973145
3877.864000,0.32338041067123413,0.8078529238700867,-0.5131316781044006,-1.3441741466522217,0.44322970509529114,2.0534682273864746,2.6079189777374268
3877.896000,0.3239218592643738,0.8076238036155701,-0.5116149187088013,-1.3440911769866943,0.4397415816783905,2.053541421890259,2.6126441955566406
3877.897000,0.3247860372066498,0.8077394962310791,-0.5111069679260254,-1.3440769910812378,0.43735238909721375,2.0535593032836914,2.616180181503296
3877.930000,0.325510710477829,0.8079295754432678,-0.5109269022941589,-1.3440948724746704,0.4355906546115875,2.053572416305542,2.6187734603881836
3877.963000,0.32606199383735657,0.8081218600273132,-0.5109273791313171,-1.344124436378479,0.4343266487121582,2.0535833835601807,2.6206207275390625
3877.963000,0.32645514607429504,0.8082898259162903,-0.5110370516777039,-1.3441557884216309,0.43346792459487915,2.053591728210449,2.6218791007995605
3877.994000,0.3267141282558441,0.8084251880645752,-0.5112114548683167,-1.3441847562789917,0.43293556571006775,2.0535972118377686,2.622673988342285
3877.994000,0.3268639147281647,0.8085280656814575,-0.5114220976829529,-1.344209909439087,0.432662695646286,2.053600311279297,2.62310528755188
3878.021000,0.3269275724887848,0.8086022138595581,-0.511650800704956,-1.3442312479019165,0.43259379267692566,2.0536012649536133,2.623253107070923
3878.056000,0.3269250988960266,0.8086525201797485,-0.5118860602378845,-1.3442491292953491,0.43268340826034546,2.053600311279297,2.623180866241455
3878.056000,0.3267538547515869,0.8084002733230591,-0.5110345482826233,-1.3442096710205078,0.4311503767967224,2.053652048110962,2.6249947547912598
3878.083000,0.3268405795097351,0.8081179857254028,-0.5098364353179932,-1.3441494703292847,0.42859378457069397,2.0537102222442627,2.6282525062561035
3878.083000,0.3273095488548279,0.8081575036048889,-0.5095704793930054,-1.3441423177719116,0.42700493335723877,2.053718328475952,2.630546808242798
3878.120000,0.32770153880119324,0.8082707524299622,-0.509588360786438,-1.3441601991653442,0.4259430766105652,2.053723096847534,2.6320812702178955
3878.120000,0.3279727101325989,0.8083928823471069,-0.509753942489624,-1.3441871404647827,0.42529404163360596,2.0537266731262207,2.6330182552337646
3878.155000,0.3281291127204895,0.8084999322891235,-0.5100038647651672,-1.3442153930664062,0.4249786138534546,2.0537285804748535,2.6334874629974365
3878.189000,0.32799744606018066,0.8082665801048279,-0.5091069936752319,-1.3441920280456543,0.42304563522338867,2.053774833679199,2.635669708251953
3878.191000,0.3280283510684967,0.8079673647880554,-0.5077974796295166,-1.3441518545150757,0.4200386703014374,2.0538227558135986,2.6391682624816895
3878.225000,0.3282662630081177,0.8076877593994141,-0.5062971711158752,-1.3441123962402344,0.4162074029445648,2.053872585296631,2.6436591148376465
3878.225000,0.3286711573600769,0.807447612285614,-0.5046942234039307,-1.3440828323364258,0.4117126762866974,2.0539231300354004,2.648883581161499
3878.259000,0.329216867685318,0.8072580695152283,-0.5030668377876282,-1.3440650701522827,0.4067203998565674,2.05397629737854,2.6546382904052734
3878.259000,0.32984936237335205,0.8071073889732361,-0.5014351010322571,-1.3440601825714111,0.40133383870124817,2.0540294647216797,2.660757541656494
3878.292000,0.33054766058921814,0.8069940805435181,-0.4998385012149811,-1.3440662622451782,0.3956695795059204,2.054084062576294,2.6671154499053955
3878.324000,0.3312683701515198,0.8069018125534058,-0.49827003479003906,-1.3440824747085571,0.3897830843925476,2.054137706756592,2.6736159324645996
3878.325000,0.33229905366897583,0.8071770668029785,-0.49809637665748596,-1.3441461324691772,0.38581156730651855,2.0541579723358154,2.678098440170288
3878.357000,0.33312782645225525,0.8075165748596191,-0.49849238991737366,-1.3442219495773315,0.38317763805389404,2.0541772842407227,2.6809914112091064
3878.358000,0.3333469033241272,0.8074615001678467,-0.497787207365036,-1.3442580699920654,0.37947648763656616,2.0542232990264893,2.684722661972046
3878.391000,0.333499014377594,0.8072898983955383,-0.4967130124568939,-1.3442790508270264,0.3751509189605713,2.0542657375335693,2.689075469970703
3878.422000,0.33403781056404114,0.8074554204940796,-0.4968911409378052,-1.344332218170166,0.3725014328956604,2.0542776584625244,2.6917917728424072
3878.423000,0.33406177163124084,0.8072980046272278,-0.4960653781890869,-1.3443607091903687,0.3687571883201599,2.0543131828308105,2.6953213214874268
3878.457000,0.3340549170970917,0.8070572018623352,-0.49490463733673096,-1.3443822860717773,0.3643459379673004,2.0543463230133057,2.6994543075561523
3878.458000,0.3340859115123749,0.8067953586578369,-0.49356934428215027,-1.344406008720398,0.35938966274261475,2.0543766021728516,2.704031229019165
3878.486000,0.33418703079223633,0.8065477609634399,-0.49217185378074646,-1.3444347381591797,0.35402461886405945,2.0544073581695557,2.708919048309326
3878.520000,0.33444803953170776,0.8064300417900085,-0.49120408296585083,-1.3444808721542358,0.34901946783065796,2.0544281005859375,2.7133285999298096
3878.520000,0.3347040116786957,0.8063545823097229,-0.4904392957687378,-1.3445334434509277,0.34427356719970703,2.0544509887695312,2.7173380851745605
3878.554000,0.33492401242256165,0.8062921166419983,-0.4898112118244171,-1.344586730003357,0.3397669792175293,2.0544753074645996,2.721010684967041
3878.555000,0.3354423940181732,0.8065130114555359,-0.4903889000415802,-1.3446537256240845,0.33711495995521545,2.0544915199279785,2.7229793071746826
3878.589000,0.3358438313007355,0.8067870140075684,-0.49149438738822937,-1.3447169065475464,0.33584657311439514,2.0545101165771484,2.723618507385254
3878.624000,0.33587390184402466,0.8068941235542297,-0.4922976493835449,-1.3447620868682861,0.3348483741283417,2.054532766342163,2.7239651679992676
3878.624000,0.33569827675819397,0.8068940043449402,-0.4928918182849884,-1.344796895980835,0.33398109674453735,2.054549217224121,2.724175453186035
3878.658000,0.33542168140411377,0.8068394064903259,-0.49337369203567505,-1.3448259830474854,0.3332153856754303,2.0545613765716553,2.7242791652679443
3878.659000,0.3351571261882782,0.8068053126335144,-0.49397292733192444,-1.3448536396026611,0.3327946364879608,2.054570436477661,2.724079132080078
3878.693000,0.33486366271972656,0.8067696690559387,-0.4946080148220062,-1.344878911972046,0.33262988924980164,2.0545785427093506,2.7236459255218506
3878.726000,0.3345867097377777,0.8067601323127747,-0.4953705370426178,-1.3449021577835083,0.33283889293670654,2.05458664894104,2.7229113578796387
3878.726000,0.3342876732349396,0.8067530393600464,-0.4961799383163452,-1.344922423362732,0.33333665132522583,2.0545942783355713,2.7219491004943848
3878.760000,0.3339596390724182,0.8067402839660645,-0.49699851870536804,-1.3449398279190063,0.3340586721897125,2.054600954055786,2.720817804336548
3878.762000,0.3336361348628998,0.8067395687103271,-0.4978748559951782,-1.344954490661621,0.3350498080253601,2.054607629776001,2.7195041179656982
3878.795000,0.3332981765270233,0.8067384362220764,-0.4987618625164032,-1.3449664115905762,0.33624619245529175,2.0546133518218994,2.7180585861206055
3878.829000,0.3329821228981018,0.8067528605461121,-0.4996969401836395,-1.344974398612976,0.33767855167388916,2.0546212196350098,2.7165045738220215
3878.830000,0.3326832056045532,0.8067768812179565,-0.5006541609764099,-1.3449779748916626,0.3393106758594513,2.0546305179595947,2.7148921489715576
3878.863000,0.33238866925239563,0.806803286075592,-0.5016064047813416,-1.3449784517288208,0.3410975933074951,2.0546391010284424,2.7132458686828613
3878.864000,0.33211126923561096,0.8068751096725464,-0.5027530193328857,-1.3449857234954834,0.3433384299278259,2.054636240005493,2.7111616134643555
3878.897000,0.3317616283893585,0.8069409728050232,-0.503925621509552,-1.3449952602386475,0.34586384892463684,2.0546300411224365,2.708753824234009
3878.930000,0.33134394884109497,0.8069494962692261,-0.5048716068267822,-1.3449935913085938,0.3482537269592285,2.0546345710754395,2.706573963165283
3878.931000,0.3309606909751892,0.80699223279953,-0.505942702293396,-1.3449965715408325,0.3509250283241272,2.054625988006592,2.7041242122650146
3878.964000,0.3305296003818512,0.8070281147956848,-0.5069986581802368,-1.3450015783309937,0.35373491048812866,2.0546140670776367,2.7014830112457275
3878.964000,0.3300580680370331,0.8070525527000427,-0.5080162882804871,-1.3450067043304443,0.35662785172462463,2.0545997619628906,2.6987125873565674
3878.997000,0.32955971360206604,0.8070665001869202,-0.5089879035949707,-1.3450109958648682,0.35956451296806335,2.054583787918091,2.695861577987671
3879.030000,0.32906216382980347,0.8070329427719116,-0.5097044706344604,-1.3450008630752563,0.3621750771999359,2.0545825958251953,2.6934707164764404
3879.031000,0.3286445140838623,0.8070454597473145,-0.5105376839637756,-1.3449965715408325,0.36492919921875,2.0545666217803955,2.6909492015838623
3879.064000,0.32820984721183777,0.8070594072341919,-0.5113475322723389,-1.3449956178665161,0.3677041530609131,2.0545477867126465,2.6883444786071777
3879.065000,0.32778292894363403,0.807030439376831,-0.511911153793335,-1.344981074333191,0.37012356519699097,2.0545458793640137,2.686222553253174
3879.097000,0.3274586498737335,0.807012140750885,-0.5123985409736633,-1.3449594974517822,0.3723321855068207,2.054546356201172,2.684488296508789
3879.129000,0.32722434401512146,0.8070095777511597,-0.512828528881073,-1.3449344635009766,0.37435731291770935,2.054548740386963,2.6830875873565674
3879.130000,0.3270646929740906,0.8070236444473267,-0.5132157802581787,-1.344908356666565,0.37622737884521484,2.0545520782470703,2.6819634437561035
3879.163000,0.326962411403656,0.8070523738861084,-0.5135693550109863,-1.3448827266693115,0.3779670298099518,2.054555654525757,2.681060791015625
3879.164000,0.32690224051475525,0.8070926070213318,-0.5138938426971436,-1.344858169555664,0.3795944154262543,2.0545592308044434,2.680335283279419
3879.195000,0.32687240839004517,0.8071413636207581,-0.5141927003860474,-1.3448349237442017,0.38112425804138184,2.054562568664551,2.6797516345977783
3879.228000,0.32686522603034973,0.8071970343589783,-0.5144717693328857,-1.3448129892349243,0.3825732171535492,2.0545654296875,2.6792783737182617
3879.229000,0.32687535881996155,0.8072569966316223,-0.5147293210029602,-1.3447918891906738,0.3839453458786011,2.054568290710449,2.6789064407348633
3879.263000,0.32689857482910156,0.807320237159729,-0.5149694681167603,-1.3447716236114502,0.3852519094944,2.0545706748962402,2.6786153316497803
3879.263000,0.3269297480583191,0.8073850870132446,-0.5151930451393127,-1.3447524309158325,0.3864996135234833,2.054572343826294,2.6783885955810547
3879.294000,0.3269650638103485,0.8074504137039185,-0.5154007077217102,-1.3447341918945312,0.3876937925815582,2.0545732975006104,2.678213357925415
3879.328000,0.327003538608551,0.8075144290924072,-0.5155880451202393,-1.3447163105010986,0.38882964849472046,2.0545742511749268,2.6780953407287598
3879.328000,0.3270464241504669,0.8075780868530273,-0.515760064125061,-1.3446989059448242,0.389914333820343,2.054574966430664,2.6780266761779785
3879.361000,0.3270917534828186,0.8076412081718445,-0.5159189105033875,-1.344682216644287,0.39095354080200195,2.054574966430664,2.6779963970184326
3879.362000,0.3271380662918091,0.8077043890953064,-0.5160698294639587,-1.3446663618087769,0.3919580280780792,2.0545742511749268,2.6779885292053223
3879.391000,0.32718199491500854,0.8077661991119385,-0.5162104964256287,-1.3446513414382935,0.39292842149734497,2.054572820663452,2.6779978275299072
3879.426000,0.32722237706184387,0.8078259825706482,-0.5163406133651733,-1.344637155532837,0.3938661515712738,2.0545706748962402,2.678020477294922
3879.426000,0.3272208869457245,0.8079233765602112,-0.5166715979576111,-1.3446418046951294,0.3951348066329956,2.0545454025268555,2.6774702072143555
3879.461000,0.3270896077156067,0.8079999685287476,-0.5170221924781799,-1.3446556329727173,0.3965582847595215,2.0545151233673096,2.6764814853668213
3879.462000,0.3268739581108093,0.8079899549484253,-0.5170844197273254,-1.3446528911590576,0.39760857820510864,2.0545055866241455,2.6758439540863037
3879.496000,0.3267189562320709,0.8079708218574524,-0.5170767903327942,-1.3446413278579712,0.39845994114875793,2.0544986724853516,2.6754820346832275
3879.496000,0.3266076147556305,0.8080185055732727,-0.51731938123703,-1.3446460962295532,0.3996322453022003,2.054469347000122,2.674652576446533
3879.531000,0.3264133334159851,0.8080616593360901,-0.517600417137146,-1.3446589708328247,0.40094584226608276,2.054436445236206,2.6734678745269775
3879.565000,0.32613930106163025,0.8080030083656311,-0.517515242099762,-1.3446531295776367,0.4017433226108551,2.054426431655884,2.6728169918060303
3879.565000,0.3259526193141937,0.807936429977417,-0.5173300504684448,-1.3446382284164429,0.4022394120693207,2.05441951751709,2.6725831031799316
3879.598000,0.3258529305458069,0.8078810572624207,-0.5170971155166626,-1.3446205854415894,0.4025026261806488,2.0544145107269287,2.672672748565674
3879.598000,0.3258337378501892,0.8079289793968201,-0.5172132849693298,-1.3446247577667236,0.40319088101387024,2.054386615753174,2.6722114086151123
3879.632000,0.3257324993610382,0.8079853057861328,-0.5174159407615662,-1.3446391820907593,0.404098778963089,2.0543558597564697,2.671328067779541
3879.664000,0.32551440596580505,0.8079032897949219,-0.5171328186988831,-1.344630479812622,0.40432509779930115,2.0543527603149414,2.6711666584014893
3879.664000,0.32543712854385376,0.8079349398612976,-0.5172364711761475,-1.3446379899978638,0.40498989820480347,2.0543246269226074,2.6705219745635986
3879.697000,0.3253023624420166,0.8079782724380493,-0.5174298882484436,-1.3446530103683472,0.4058681130409241,2.0542938709259033,2.669508695602417
3879.697000,0.3251044750213623,0.8080134391784668,-0.5176592469215393,-1.344670057296753,0.40689951181411743,2.054262399673462,2.668217897415161
3879.731000,0.32485610246658325,0.8080354928970337,-0.517902135848999,-1.344686508178711,0.4080440104007721,2.0542304515838623,2.666721820831299
3879.765000,0.32457083463668823,0.8080443739891052,-0.5181454420089722,-1.3447012901306152,0.40926888585090637,2.0541980266571045,2.6650776863098145
3879.766000,0.3242049813270569,0.8078555464744568,-0.5176262259483337,-1.3446753025054932,0.40932971239089966,2.0542070865631104,2.6648342609405518
3879.799000,0.3240606486797333,0.8076592087745667,-0.5168768167495728,-1.3446325063705444,0.4086668789386749,2.054222822189331,2.6656742095947266
3879.799000,0.3241845965385437,0.8076840043067932,-0.5167781114578247,-1.3446253538131714,0.4086682200431824,2.0542006492614746,2.6658411026000977
3879.833000,0.32424503564834595,0.8077520728111267,-0.5168549418449402,-1.3446359634399414,0.4089992940425873,2.054175853729248,2.665487051010132
3879.867000,0.3242187798023224,0.8078216314315796,-0.517015814781189,-1.3446532487869263,0.40957772731781006,2.054150342941284,2.664733409881592
3879.868000,0.324116051197052,0.8078784346580505,-0.5172203779220581,-1.344671607017517,0.4103485941886902,2.054124116897583,2.6636762619018555
3879.901000,0.32395195960998535,0.8079184889793396,-0.5174446105957031,-1.3446886539459229,0.41126593947410583,2.0540969371795654,2.6623921394348145
3879.902000,0.32370755076408386,0.8077821135520935,-0.517014741897583,-1.3446671962738037,0.4112219214439392,2.0541088581085205,2.662299156188965
3879.937000,0.32365238666534424,0.8076374530792236,-0.5163981914520264,-1.344629168510437,0.4106009602546692,2.0541269779205322,2.6631264686584473
3879.938000,0.3238103687763214,0.8076809048652649,-0.5163567066192627,-1.3446236848831177,0.41061076521873474,2.0541086196899414,2.6633012294769287
3879.971000,0.3238898515701294,0.807755172252655,-0.5164631605148315,-1.3446344137191772,0.41093719005584717,2.054086923599243,2.662970781326294
3880.004000,0.3238425552845001,0.8077363967895508,-0.516285240650177,-1.3446341753005981,0.41093364357948303,2.054081916809082,2.662930727005005
3880.005000,0.3237791359424591,0.8077008128166199,-0.5160692930221558,-1.3446366786956787,0.41082853078842163,2.054067850112915,2.662919759750366
3880.040000,0.3236951231956482,0.8076522350311279,-0.5158095359802246,-1.3446418046951294,0.41060715913772583,2.0540521144866943,2.662931203842163
3880.040000,0.3236815333366394,0.8076878786087036,-0.5158488750457764,-1.34465754032135,0.4107828438282013,2.0540292263031006,2.6624772548675537
3880.073000,0.32362860441207886,0.8077393174171448,-0.5160039067268372,-1.34467613697052,0.41122597455978394,2.054006814956665,2.6616673469543457
3880.106000,0.3234265446662903,0.807677149772644,-0.5158290863037109,-1.3446844816207886,0.4112834632396698,2.0539915561676025,2.6611478328704834
3880.107000,0.32332146167755127,0.8076906800270081,-0.5159165263175964,-1.3446985483169556,0.41167590022087097,2.053968906402588,2.6602964401245117
3880.148000,0.32320156693458557,0.8077195882797241,-0.5160951018333435,-1.344713568687439,0.41228219866752625,2.0539467334747314,2.6591949462890625
3880.148000,0.3230522572994232,0.8077467083930969,-0.516315221786499,-1.3447272777557373,0.41305145621299744,2.053925037384033,2.657907724380493
3880.184000,0.32287484407424927,0.8077661991119385,-0.5165517926216125,-1.3447389602661133,0.41394418478012085,2.053903341293335,2.6564862728118896
3880.184000,0.3225581645965576,0.8076456189155579,-0.5163244009017944,-1.3447365760803223,0.4142121374607086,2.0538899898529053,2.655648708343506
3880.218000,0.3222813904285431,0.8074914216995239,-0.5159094333648682,-1.344730019569397,0.414040207862854,2.0538763999938965,2.6552679538726807
3880.219000,0.32206496596336365,0.8073152303695679,-0.515307605266571,-1.3447195291519165,0.41337013244628906,2.053868055343628,2.6554148197174072
3880.253000,0.321947306394577,0.8071537613868713,-0.5146336555480957,-1.344709873199463,0.41232964396476746,2.0538623332977295,2.655967950820923
3880.287000,0.3219168484210968,0.8070048093795776,-0.5138859152793884,-1.3447003364562988,0.4109271466732025,2.0538618564605713,2.6569268703460693
3880.288000,0.3219769597053528,0.8068814873695374,-0.5131248235702515,-1.3446930646896362,0.4092625677585602,2.0538647174835205,2.6581923961639404
3880.321000,0.32211047410964966,0.8067839741706848,-0.5123739838600159,-1.3446887731552124,0.4074057638645172,2.05387020111084,2.6596858501434326
3880.321000,0.32243484258651733,0.8068752884864807,-0.5122576951980591,-1.3447057008743286,0.4063565731048584,2.053863048553467,2.6603989601135254
3880.354000,0.3227063715457916,0.8070109486579895,-0.512399435043335,-1.3447290658950806,0.4058651924133301,2.0538570880889893,2.6605045795440674
3880.355000,0.32288599014282227,0.8071447014808655,-0.5126767754554749,-1.3447520732879639,0.4058181941509247,2.053851366043091,2.6601405143737793
3880.388000,0.3229728937149048,0.8072593212127686,-0.5130245685577393,-1.3447718620300293,0.4061243534088135,2.053844690322876,2.6594161987304688
3880.421000,0.32297855615615845,0.8073499798774719,-0.513404130935669,-1.344787836074829,0.40670618414878845,2.0538365840911865,2.658418655395508
3880.421000,0.3229183554649353,0.807417631149292,-0.5137923955917358,-1.3448001146316528,0.4074990153312683,2.0538268089294434,2.657217264175415
3880.455000,0.3228076994419098,0.8074654936790466,-0.5141756534576416,-1.3448091745376587,0.40844985842704773,2.0538156032562256,2.6558666229248047
3880.456000,0.3225400745868683,0.8072565793991089,-0.5136021971702576,-1.3447743654251099,0.408018559217453,2.053845167160034,2.6561381816864014
3880.489000,0.322488397359848,0.807021975517273,-0.5127112865447998,-1.3447232246398926,0.40670400857925415,2.053879499435425,2.6576602458953857
3880.523000,0.32266202569007874,0.8068208694458008,-0.51167231798172,-1.3446707725524902,0.4047112762928009,2.053917169570923,2.660137414932251
3880.523000,0.3231479227542877,0.8069097399711609,-0.5115167498588562,-1.3446649312973022,0.403695672750473,2.0539166927337646,2.661607027053833
3880.557000,0.32354292273521423,0.8070615530014038,-0.5116528868675232,-1.3446800708770752,0.4032548666000366,2.0539140701293945,2.6622884273529053
3880.558000,0.32380640506744385,0.8072146773338318,-0.5119385123252869,-1.3447020053863525,0.4032636284828186,2.053910493850708,2.662356376647949
3880.592000,0.323946088552475,0.8073468804359436,-0.5123043060302734,-1.3447239398956299,0.40362998843193054,2.0539050102233887,2.66195011138916
3880.625000,0.3239805996417999,0.8074515461921692,-0.5127087235450745,-1.344743251800537,0.4042760133743286,2.0538973808288574,2.6611807346343994
3880.625000,0.32393088936805725,0.8075292706489563,-0.5131261944770813,-1.344759225845337,0.40513619780540466,2.0538878440856934,2.6601362228393555
3880.659000,0.32381680607795715,0.8075835108757019,-0.5135412812232971,-1.3447719812393188,0.40615662932395935,2.0538763999938965,2.658886432647705
3880.660000,0.3236556649208069,0.8076186776161194,-0.513944685459137,-1.344781756401062,0.4072935879230499,2.053863525390625,2.657486915588379
3880.691000,0.3234618306159973,0.8076390624046326,-0.5143311023712158,-1.3447891473770142,0.4085119962692261,2.053849697113037,2.6559815406799316
3880.721000,0.32324686646461487,0.8076483607292175,-0.5146976709365845,-1.344794511795044,0.4097839891910553,2.053834915161133,2.654405117034912
3880.722000,0.32301977276802063,0.8076496720314026,-0.5150430202484131,-1.3447980880737305,0.41108760237693787,2.053819417953491,2.652784585952759
3880.755000,0.32278746366500854,0.8076454997062683,-0.5153667330741882,-1.3448002338409424,0.4124056100845337,2.0538036823272705,2.651141405105591
3880.756000,0.3225551247596741,0.8076378107070923,-0.5156689286231995,-1.3448013067245483,0.4137246906757355,2.0537874698638916,2.649492025375366
3880.789000,0.32232654094696045,0.8076279759407043,-0.515950083732605,-1.3448013067245483,0.41503453254699707,2.0537712574005127,2.6478493213653564
3880.823000,0.3221045434474945,0.8076171278953552,-0.5162109136581421,-1.3448004722595215,0.41632726788520813,2.053755044937134,2.646223306655884
3880.823000,0.32189103960990906,0.8076061010360718,-0.5164521932601929,-1.3447988033294678,0.41759705543518066,2.053738832473755,2.6446213722229004
3880.857000,0.3216873109340668,0.807595431804657,-0.516674816608429,-1.3447965383529663,0.41883954405784607,2.053722620010376,2.643049478530884
3880.857000,0.32133373618125916,0.8072831034660339,-0.5157281756401062,-1.3447442054748535,0.4182244539260864,2.053755283355713,2.6435787677764893
3880.890000,0.3212674558162689,0.8069482445716858,-0.5143871307373047,-1.3446749448776245,0.4163864254951477,2.0537943840026855,2.6457269191741943
3880.924000,0.3214748799800873,0.806649923324585,-0.5128253102302551,-1.3446071147918701,0.4135514199733734,2.0538368225097656,2.649137020111084
3880.925000,0.3219224214553833,0.806416392326355,-0.5111698508262634,-1.3445491790771484,0.40994763374328613,2.0538835525512695,2.6534976959228516
3880.957000,0.3225625157356262,0.8062516450881958,-0.5094966292381287,-1.34450364112854,0.40576598048210144,2.0539348125457764,2.658561944961548
3880.957000,0.323325514793396,0.806138813495636,-0.5078243017196655,-1.3444719314575195,0.4011291265487671,2.0539872646331787,2.664128541946411
3880.992000,0.32417693734169006,0.8060716390609741,-0.5061880350112915,-1.3444523811340332,0.3961639702320099,2.054042100906372,2.670044183731079
3881.024000,0.32530415058135986,0.8063587546348572,-0.5058481693267822,-1.3444874286651611,0.39290332794189453,2.054056167602539,2.674099922180176
3881.025000,0.3262147009372711,0.8067033886909485,-0.5060116648674011,-1.344541072845459,0.3907872140407562,2.054067850112915,2.6766912937164307
3881.058000,0.3268609344959259,0.8070208430290222,-0.5064461827278137,-1.3445957899093628,0.38958364725112915,2.054076910018921,2.678133726119995
3881.058000,0.32726311683654785,0.8072831034660339,-0.5070297718048096,-1.3446444272994995,0.3891109824180603,2.054082155227661,2.6786789894104004
3881.089000,0.32745853066444397,0.8074852228164673,-0.5076885223388672,-1.3446850776672363,0.38921573758125305,2.0540831089019775,2.678527593612671
3881.121000,0.327487587928772,0.8076322078704834,-0.508377194404602,-1.344718098640442,0.3897700309753418,2.054080009460449,2.677839517593384
3881.122000,0.3273879885673523,0.807732880115509,-0.5090683102607727,-1.3447444438934326,0.3906690180301666,2.0540733337402344,2.6767418384552
3881.155000,0.32719239592552185,0.8077964782714844,-0.5097453594207764,-1.3447654247283936,0.3918278217315674,2.0540637969970703,2.67533540725708
3881.155000,0.326572060585022,0.8074460625648499,-0.5089747309684753,-1.344747543334961,0.3910064399242401,2.0540785789489746,2.675776958465576
3881.188000,0.32608112692832947,0.8070057034492493,-0.50762939453125,-1.3447195291519165,0.3888034522533417,2.054091453552246,2.677642583847046
3881.222000,0.3261716961860657,0.8069659471511841,-0.507435142993927,-1.3447294235229492,0.3876930773258209,2.05407977104187,2.678518056869507
3881.222000,0.3263132572174072,0.807048499584198,-0.5076745748519897,-1.344753623008728,0.3872678875923157,2.054072618484497,2.6786229610443115
3881.256000,0.32639768719673157,0.807163417339325,-0.5081363320350647,-1.344780683517456,0.38738927245140076,2.054067850112915,2.6781320571899414
3881.257000,0.3263968229293823,0.8072734475135803,-0.5087127685546875,-1.3448054790496826,0.38794901967048645,2.054063081741333,2.677184581756592
3881.290000,0.32631057500839233,0.8073641657829285,-0.5093411207199097,-1.3448262214660645,0.3888530135154724,2.0540568828582764,2.675891160964966
3881.324000,0.3261503279209137,0.8074320554733276,-0.5099843144416809,-1.3448429107666016,0.3900212049484253,2.054048776626587,2.674339532852173
3881.324000,0.32593128085136414,0.8074786067008972,-0.510620653629303,-1.344855785369873,0.39138713479042053,2.0540390014648438,2.6725993156433105
3881.359000,0.32566872239112854,0.8075071573257446,-0.5112377405166626,-1.3448655605316162,0.3928966224193573,2.054027557373047,2.6707255840301514
3881.359000,0.32537615299224854,0.8075215816497803,-0.5118287205696106,-1.3448727130889893,0.3945060968399048,2.0540146827697754,2.668761968612671
3881.391000,0.32506489753723145,0.8075254559516907,-0.51239013671875,-1.34487783908844,0.39618080854415894,2.0540008544921875,2.6667423248291016
3881.425000,0.3247440755367279,0.8075218796730042,-0.5129205584526062,-1.3448811769485474,0.3978932797908783,2.053986072540283,2.664693832397461
3881.433000,0.3244207203388214,0.8075132369995117,-0.5134196877479553,-1.3448830842971802,0.3996220827102661,2.0539705753326416,2.662637233734131
3881.459000,0.324100136756897,0.807501494884491,-0.5138880014419556,-1.344883680343628,0.4013505280017853,2.053954601287842,2.660588502883911
3881.459000,0.32378625869750977,0.8074881434440613,-0.5143263339996338,-1.3448833227157593,0.4030657410621643,2.053938150405884,2.658560276031494
3881.491000,0.32348188757896423,0.8074741959571838,-0.514735758304596,-1.3448820114135742,0.40475791692733765,2.0539214611053467,2.656561851501465
3881.524000,0.32310453057289124,0.8073894381523132,-0.5148784518241882,-1.3448776006698608,0.4060646891593933,2.053903818130493,2.6548733711242676
3881.525000,0.3227585256099701,0.8072957396507263,-0.5149215459823608,-1.344873070716858,0.40711456537246704,2.0538859367370605,2.6534128189086914
3881.557000,0.3224576711654663,0.8072071671485901,-0.5149080753326416,-1.3448691368103027,0.4079534113407135,2.053868532180786,2.6521384716033936
3881.557000,0.32221588492393494,0.8071355223655701,-0.5148797631263733,-1.344865322113037,0.4086432456970215,2.053853750228882,2.6510164737701416
3881.591000,0.3220234215259552,0.8070789575576782,-0.5148444771766663,-1.3448617458343506,0.4092158079147339,2.0538406372070312,2.650020122528076
3881.624000,0.3219248056411743,0.8070884943008423,-0.5149924159049988,-1.3448619842529297,0.4099782109260559,2.0538268089294434,2.6488780975341797
3881.625000,0.32184284925460815,0.8071202635765076,-0.5152143836021423,-1.3448628187179565,0.410869836807251,2.053814649581909,2.6476314067840576
3881.658000,0.32175707817077637,0.8071577548980713,-0.5154691934585571,-1.344862937927246,0.41185957193374634,2.0538032054901123,2.646312713623047
3881.658000,0.32166147232055664,0.8071938157081604,-0.5157347321510315,-1.3448617458343506,0.41292139887809753,2.0537917613983154,2.6449475288391113
3881.691000,0.3215557336807251,0.8072258234024048,-0.515998363494873,-1.3448593616485596,0.4140329957008362,2.0537800788879395,2.6435558795928955
3881.718000,0.32144200801849365,0.8072531819343567,-0.5162529945373535,-1.344855785369873,0.41517576575279236,2.0537679195404053,2.64215350151062
3881.720000,0.32132330536842346,0.8072763681411743,-0.5164946913719177,-1.3448512554168701,0.4163345992565155,2.053755521774292,2.6407527923583984
3881.753000,0.32120251655578613,0.8072961568832397,-0.5167215466499329,-1.3448458909988403,0.4174973964691162,2.0537428855895996,2.6393630504608154
3881.754000,0.32108595967292786,0.8072672486305237,-0.5167344212532043,-1.344826579093933,0.4183260202407837,2.0537452697753906,2.6384429931640625
3881.789000,0.3210541605949402,0.8072420954704285,-0.5166845321655273,-1.3448010683059692,0.4189506769180298,2.0537502765655518,2.637892246246338
3881.823000,0.32109197974205017,0.80727618932724,-0.5167993903160095,-1.344787359237671,0.4197441041469574,2.053741455078125,2.637178659439087
3881.823000,0.32110440731048584,0.8073188662528992,-0.5169415473937988,-1.3447799682617188,0.4206005930900574,2.0537309646606445,2.6363444328308105
3881.856000,0.3210897147655487,0.8073599338531494,-0.5170905590057373,-1.3447753190994263,0.4214964210987091,2.0537197589874268,2.635422706604004
3881.856000,0.3210311233997345,0.8073406219482422,-0.5170220136642456,-1.3447608947753906,0.42206907272338867,2.0537188053131104,2.634852647781372
3881.891000,0.3210175037384033,0.8073137998580933,-0.5168817639350891,-1.3447425365447998,0.4224335551261902,2.0537190437316895,2.6345582008361816
3881.921000,0.32107439637184143,0.8073483109474182,-0.5169225335121155,-1.3447341918945312,0.4229820668697357,2.0537092685699463,2.634065628051758
3881.922000,0.3211117386817932,0.8073945045471191,-0.5170120000839233,-1.3447306156158447,0.42362144589424133,2.053698778152466,2.6334238052368164
3881.956000,0.32112306356430054,0.8074400424957275,-0.5171222686767578,-1.344728708267212,0.42432570457458496,2.0536880493164062,2.6326708793640137
3881.957000,0.3211115002632141,0.8074807524681091,-0.5172406435012817,-1.3447269201278687,0.4250767230987549,2.0536768436431885,2.6318376064300537
3881.990000,0.3210817575454712,0.8075155019760132,-0.5173596143722534,-1.3447246551513672,0.4258594214916229,2.0536653995513916,2.630948066711426
3882.022000,0.3210018277168274,0.8074524998664856,-0.5171194672584534,-1.344704031944275,0.4260905683040619,2.0536715984344482,2.6306982040405273
3882.023000,0.32104846835136414,0.8074725270271301,-0.5171183347702026,-1.3446940183639526,0.42653825879096985,2.0536623001098633,2.6302671432495117
3882.056000,0.3210862874984741,0.8075094819068909,-0.5171723961830139,-1.3446893692016602,0.42707520723342896,2.053652048110962,2.6296989917755127
3882.057000,0.3211032450199127,0.8075485825538635,-0.5172494649887085,-1.3446868658065796,0.427674263715744,2.0536415576934814,2.6290290355682373
3882.091000,0.3211006820201874,0.8075846433639526,-0.5173364877700806,-1.3446848392486572,0.4283186197280884,2.053631067276001,2.6282851696014404
3882.125000,0.3210822343826294,0.8076159954071045,-0.5174258947372437,-1.3446824550628662,0.42899438738822937,2.0536203384399414,2.6274893283843994
3882.126000,0.32101985812187195,0.8074986338615417,-0.5169418454170227,-1.344646692276001,0.4287586212158203,2.0536441802978516,2.6278316974639893
3882.160000,0.3211374580860138,0.8073784112930298,-0.5162911415100098,-1.3445979356765747,0.42795947194099426,2.053673505783081,2.6290502548217773
3882.160000,0.3214252293109894,0.8072735667228699,-0.5155061483383179,-1.3445427417755127,0.4266301095485687,2.053711414337158,2.6310856342315674
3882.193000,0.321871817111969,0.8072075843811035,-0.514679491519928,-1.3444894552230835,0.4249163269996643,2.053752899169922,2.633737564086914
3882.193000,0.32246658205986023,0.8073375225067139,-0.51447993516922,-1.3444788455963135,0.4239502251148224,2.0537567138671875,2.635525941848755
3882.227000,0.3229290843009949,0.8074964880943298,-0.5144709944725037,-1.3444883823394775,0.4234078824520111,2.05375599861145,2.6366348266601562
3882.260000,0.3232358694076538,0.8074614405632019,-0.5138069987297058,-1.3444582223892212,0.4219541549682617,2.053804397583008,2.638840913772583
3882.261000,0.3237086236476898,0.8074010610580444,-0.5129405856132507,-1.3444058895111084,0.4199144244194031,2.0538651943206787,2.642036199569702
3882.293000,0.32435911893844604,0.8073671460151672,-0.5120123624801636,-1.3443480730056763,0.4174686372280121,2.053929567337036,2.645972728729248
3882.294000,0.32515519857406616,0.8075636625289917,-0.5118882656097412,-1.3443444967269897,0.4160698354244232,2.0539391040802,2.648667812347412
3882.327000,0.3257353901863098,0.8077781796455383,-0.5119885802268982,-1.344366431236267,0.4152596890926361,2.0539402961730957,2.650385618209839
3882.361000,0.32610777020454407,0.8077466487884521,-0.5112634897232056,-1.3443362712860107,0.4133536219596863,2.0540056228637695,2.6534323692321777
3882.362000,0.32667845487594604,0.8079186081886292,-0.5113113522529602,-1.3443435430526733,0.4124458134174347,2.054011106491089,2.655388355255127
3882.394000,0.3270593285560608,0.8080941438674927,-0.5115352869033813,-1.3443686962127686,0.4120549261569977,2.0540077686309814,2.6564886569976807
3882.394000,0.3272561728954315,0.8082392811775208,-0.5118393301963806,-1.3443995714187622,0.41205233335494995,2.05400013923645,2.6569204330444336
3882.428000,0.3273051679134369,0.8083478808403015,-0.5121851563453674,-1.3444300889968872,0.4123532474040985,2.0539894104003906,2.6568331718444824
3882.453000,0.32722559571266174,0.8081958889961243,-0.5115867853164673,-1.3443986177444458,0.4113115072250366,2.054041862487793,2.658439874649048
3882.454000,0.32743945717811584,0.8082596063613892,-0.5117085576057434,-1.344399333000183,0.4110879898071289,2.054037570953369,2.6592493057250977
3882.487000,0.327543705701828,0.8083444833755493,-0.5119735598564148,-1.3444167375564575,0.41123732924461365,2.0540263652801514,2.6594371795654297
3882.487000,0.3275282382965088,0.8084163665771484,-0.5122965574264526,-1.3444403409957886,0.41165846586227417,2.0540125370025635,2.6591439247131348
3882.520000,0.32741579413414,0.8084672093391418,-0.5126466155052185,-1.3444647789001465,0.4122893512248993,2.0539965629577637,2.6584811210632324
3882.553000,0.3272077739238739,0.808266818523407,-0.5120332837104797,-1.3444288969039917,0.4114896357059479,2.054044246673584,2.6596319675445557
3882.553000,0.32730400562286377,0.8080644011497498,-0.5111628174781799,-1.3443673849105835,0.40985575318336487,2.0541014671325684,2.662175416946411
3882.586000,0.3276754319667816,0.8079103827476501,-0.5101796984672546,-1.344300627708435,0.4075963497161865,2.0541632175445557,2.665776252746582
3882.586000,0.3282511234283447,0.8078112602233887,-0.5091414451599121,-1.344239354133606,0.40485143661499023,2.054227113723755,2.6701622009277344
3882.620000,0.32897645235061646,0.8077648282051086,-0.5080910325050354,-1.3441871404647827,0.40174344182014465,2.054293155670166,2.675123929977417
3882.654000,0.3298063576221466,0.8077637553215027,-0.507057785987854,-1.3441447019577026,0.3983757793903351,2.0543603897094727,2.6804957389831543
3882.654000,0.3306894898414612,0.8077920079231262,-0.5060416460037231,-1.3441122770309448,0.3948085308074951,2.054426670074463,2.686145305633545
3882.688000,0.33160144090652466,0.8078435063362122,-0.5050593018531799,-1.3440886735916138,0.39110898971557617,2.054492473602295,2.691970109939575
3882.688000,0.3325793147087097,0.808146595954895,-0.5051385164260864,-1.3441259860992432,0.3889683783054352,2.0544979572296143,2.695802927017212
3882.722000,0.3332096338272095,0.8084461092948914,-0.505551278591156,-1.3441879749298096,0.3877910375595093,2.0544934272766113,2.698071002960205
3882.757000,0.33345431089401245,0.8085139393806458,-0.5053872466087341,-1.344218373298645,0.3861692249774933,2.054522752761841,2.700594186782837
3882.757000,0.33372509479522705,0.8086939454078674,-0.505847692489624,-1.3442682027816772,0.38559508323669434,2.0545129776000977,2.701817512512207
3882.789000,0.3337705433368683,0.8088474273681641,-0.5064767599105835,-1.3443238735198975,0.38566505908966064,2.0544960498809814,2.702028751373291
3882.790000,0.3335351347923279,0.8088831901550293,-0.5069259405136108,-1.3443738222122192,0.38584840297698975,2.054476737976074,2.7017807960510254
3882.823000,0.3331555128097534,0.8088551759719849,-0.5072983503341675,-1.3444191217422485,0.3861357569694519,2.0544533729553223,2.7011797428131104
3882.857000,0.33268144726753235,0.8088001012802124,-0.5076866149902344,-1.3444654941558838,0.38660189509391785,2.0544209480285645,2.7001402378082275
3882.857000,0.33210933208465576,0.8087232708930969,-0.5080968141555786,-1.3445155620574951,0.3872498571872711,2.054380178451538,2.69862699508667
3882.889000,0.33145201206207275,0.808620274066925,-0.5084884762763977,-1.3445656299591064,0.38800352811813354,2.0543370246887207,2.696758508682251
3882.890000,0.33074289560317993,0.8084980845451355,-0.5088608264923096,-1.3446135520935059,0.3888285160064697,2.054293155670166,2.6946287155151367
3882.922000,0.33000749349594116,0.8083632588386536,-0.5092146992683411,-1.3446584939956665,0.389700323343277,2.0542492866516113,2.692312002182007
3882.955000,0.32924842834472656,0.8082244396209717,-0.509580135345459,-1.344704270362854,0.3906554579734802,2.0542006492614746,2.689753532409668
3882.956000,0.32858288288116455,0.8081250786781311,-0.5100410580635071,-1.3447389602661133,0.3917829394340515,2.0541677474975586,2.687128782272339
3882.988000,0.32799431681632996,0.8080538511276245,-0.5105762481689453,-1.3447645902633667,0.3930900990962982,2.0541398525238037,2.6844708919525146
3882.989000,0.32729706168174744,0.807952344417572,-0.5110781192779541,-1.3448024988174438,0.3945038914680481,2.0540871620178223,2.6814770698547363
3883.022000,0.3264830708503723,0.8078099489212036,-0.5114778876304626,-1.3448472023010254,0.3958916962146759,2.0540285110473633,2.6782445907592773
3883.056000,0.3256104588508606,0.807643473148346,-0.5118076801300049,-1.3448938131332397,0.39723241329193115,2.0539684295654297,2.6748502254486084
3883.057000,0.32471179962158203,0.8074657320976257,-0.5121001601219177,-1.344941258430481,0.3985383212566376,2.053906202316284,2.671311378479004
3883.089000,0.3238074779510498,0.8072812557220459,-0.5123575925827026,-1.3449875116348267,0.3997948467731476,2.053844451904297,2.6676855087280273
3883.090000,0.32307764887809753,0.8071388602256775,-0.5126414895057678,-1.3450109958648682,0.40101680159568787,2.053813934326172,2.6643900871276855
3883.123000,0.32252922654151917,0.8070482611656189,-0.5130080580711365,-1.3450194597244263,0.40231144428253174,2.053792715072632,2.661372661590576
3883.156000,0.3219278156757355,0.8069483637809753,-0.5133694410324097,-1.34504234790802,0.4036765694618225,2.0537431240081787,2.658160448074341
3883.156000,0.32122883200645447,0.806816577911377,-0.5136319398880005,-1.3450747728347778,0.40497511625289917,2.0536868572235107,2.654804229736328
3883.188000,0.32048165798187256,0.8066657781600952,-0.5138248205184937,-1.3451110124588013,0.40619081258773804,2.053629159927368,2.651360273361206
3883.188000,0.3197220265865326,0.8065069317817688,-0.5139755606651306,-1.3451480865478516,0.40732935070991516,2.0535714626312256,2.647864580154419
3883.225000,0.31897151470184326,0.8063461780548096,-0.5140973329544067,-1.345184087753296,0.4083940386772156,2.0535151958465576,2.6443533897399902
3883.226000,0.31842127442359924,0.8062305450439453,-0.514237642288208,-1.345193862915039,0.40937602519989014,2.053495407104492,2.6413090229034424
3883.259000,0.31808096170425415,0.8061743378639221,-0.5144723057746887,-1.3451870679855347,0.4104119539260864,2.0534861087799072,2.638646125793457
3883.291000,0.31770122051239014,0.8061144948005676,-0.5147128105163574,-1.3451955318450928,0.41151300072669983,2.053447723388672,2.635850667953491
3883.292000,0.3172341585159302,0.8060261607170105,-0.514859139919281,-1.345213532447815,0.41253820061683655,2.0534040927886963,2.6329774856567383
3883.325000,0.3167261779308319,0.8059220314025879,-0.5149446129798889,-1.3452357053756714,0.4134805202484131,2.053359270095825,2.6300642490386963
3883.326000,0.3162091076374054,0.8058115243911743,-0.5149939060211182,-1.3452588319778442,0.4143456816673279,2.0533149242401123,2.6271402835845947
3883.359000,0.31570136547088623,0.8057001829147339,-0.5150210857391357,-1.3452814817428589,0.4151410758495331,2.053272008895874,2.6242284774780273
3883.393000,0.31522488594055176,0.8055903315544128,-0.5150207281112671,-1.3453000783920288,0.4158472418785095,2.053234100341797,2.621410846710205
3883.394000,0.31479892134666443,0.8054895401000977,-0.5150113701820374,-1.345314383506775,0.4164831340312958,2.0532007217407227,2.6187126636505127
3883.427000,0.31442201137542725,0.8053995966911316,-0.5150002241134644,-1.3453255891799927,0.41706612706184387,2.0531699657440186,2.6161255836486816
3883.428000,0.3140968978404999,0.8053185343742371,-0.5149747729301453,-1.3453325033187866,0.41758081316947937,2.0531444549560547,2.613696575164795
3883.463000,0.3138236105442047,0.8052494525909424,-0.5149480700492859,-1.345336675643921,0.4180487096309662,2.053121566772461,2.6114065647125244
3883.464000,0.31359320878982544,0.8051908016204834,-0.5149192214012146,-1.345339059829712,0.41847729682922363,2.053100824356079,2.6092395782470703
3883.497000,0.31339865922927856,0.8051411509513855,-0.5148874521255493,-1.3453402519226074,0.41887161135673523,2.05308198928833,2.6071829795837402
3883.530000,0.3132570683956146,0.8050991296768188,-0.5148348808288574,-1.3453359603881836,0.4191964268684387,2.0530710220336914,2.605333089828491
3883.530000,0.3132968842983246,0.8051139712333679,-0.5148723721504211,-1.3453150987625122,0.4195709228515625,2.0530831813812256,2.6038432121276855
3883.564000,0.3134820759296417,0.8051766753196716,-0.5150026679039001,-1.3452842235565186,0.4200543165206909,2.053102493286133,2.6026415824890137
3883.564000,0.3137509822845459,0.8052671551704407,-0.5151795148849487,-1.3452485799789429,0.42063260078430176,2.0531246662139893,2.601670742034912
3883.597000,0.31406477093696594,0.8053726553916931,-0.515373945236206,-1.3452112674713135,0.42128559947013855,2.053148031234741,2.6008851528167725
3883.630000,0.3143201768398285,0.805442750453949,-0.5154520273208618,-1.345178484916687,0.4218357503414154,2.0531628131866455,2.6002652645111084
3883.630000,0.31454312801361084,0.8054936528205872,-0.515449583530426,-1.3451502323150635,0.4222758412361145,2.0531742572784424,2.599777936935425
3883.664000,0.31475532054901123,0.8055371642112732,-0.5154008865356445,-1.3451253175735474,0.4226200580596924,2.0531842708587646,2.599396228790283
3883.664000,0.31500008702278137,0.8055800199508667,-0.5153049230575562,-1.345096468925476,0.4228329360485077,2.0532023906707764,2.599247932434082
3883.697000,0.3152928948402405,0.8056345582008362,-0.5152087807655334,-1.3450660705566406,0.422972708940506,2.053222417831421,2.599280834197998
3883.729000,0.3156658411026001,0.8057410717010498,-0.5152549147605896,-1.3450376987457275,0.4232681095600128,2.0532429218292236,2.5992867946624756
3883.730000,0.31603479385375977,0.8058233857154846,-0.5151994824409485,-1.3450024127960205,0.42341578006744385,2.053272008895874,2.599576234817505
3883.764000,0.31643983721733093,0.8059075474739075,-0.5151218175888062,-1.344964861869812,0.4234848618507385,2.053302049636841,2.6000826358795166
3883.764000,0.3168809413909912,0.8059978485107422,-0.5150303840637207,-1.344925880432129,0.423484742641449,2.0533342361450195,2.6007909774780273
3883.798000,0.3173494040966034,0.806096076965332,-0.5149384140968323,-1.3448874950408936,0.42343977093696594,2.0533666610717773,2.6016502380371094
3883.833000,0.3178407847881317,0.8061991930007935,-0.5148366093635559,-1.3448486328125,0.4233400821685791,2.053401231765747,2.602670907974243
3883.833000,0.3183572590351105,0.8063087463378906,-0.5147331953048706,-1.3448092937469482,0.4231971502304077,2.0534377098083496,2.6038434505462646
3883.867000,0.318889856338501,0.8064247369766235,-0.5146365761756897,-1.3447710275650024,0.42303088307380676,2.053474187850952,2.6051249504089355
3883.867000,0.319431871175766,0.8065453171730042,-0.5145450830459595,-1.344733715057373,0.4228464365005493,2.053511142730713,2.6064999103546143
3883.900000,0.31997519731521606,0.8066688776016235,-0.5144613981246948,-1.3446979522705078,0.4226548969745636,2.0535473823547363,2.6079373359680176
3883.934000,0.32050034403800964,0.8068351149559021,-0.5145692825317383,-1.3446780443191528,0.4227718710899353,2.0535666942596436,2.6089675426483154
3883.934000,0.3209356367588043,0.806939423084259,-0.5144920349121094,-1.3446496725082397,0.4226813018321991,2.053600311279297,2.610212802886963
3883.966000,0.32138392329216003,0.8070337772369385,-0.5143812894821167,-1.3446176052093506,0.42250150442123413,2.0536344051361084,2.6116151809692383
3883.967000,0.32183733582496643,0.8071804642677307,-0.5144889950752258,-1.3446015119552612,0.4226430356502533,2.053649425506592,2.6125926971435547
3883.999000,0.32219719886779785,0.807320773601532,-0.514645516872406,-1.3445934057235718,0.42295897006988525,2.0536601543426514,2.6132354736328125
3884.000000,0.3224421739578247,0.8073983788490295,-0.5146512985229492,-1.344581961631775,0.42313551902770996,2.0536742210388184,2.613900661468506
3884.032000,0.32265302538871765,0.8074524998664856,-0.5146055221557617,-1.344569444656372,0.4232298731803894,2.0536866188049316,2.6145787239074707
3884.065000,0.3228795826435089,0.8075423240661621,-0.5147056579589844,-1.344563364982605,0.4235275685787201,2.053692102432251,2.614976406097412
3884.065000,0.3230646252632141,0.8076331615447998,-0.5148535370826721,-1.3445597887039185,0.42395296692848206,2.0536961555480957,2.61515474319458
3884.098000,0.3232066333293915,0.8077162504196167,-0.5150227546691895,-1.3445566892623901,0.4244750142097473,2.053699254989624,2.6151623725891113
3884.131000,0.32323989272117615,0.807745635509491,-0.5150721669197083,-1.3445557355880737,0.42489105463027954,2.0536949634552,2.615105152130127
3884.131000,0.3231962323188782,0.8077462315559387,-0.5150666236877441,-1.3445608615875244,0.42524096369743347,2.053682327270508,2.6149046421051025
3884.164000,0.3230985701084137,0.807726263999939,-0.515015721321106,-1.344569444656372,0.4255111515522003,2.0536673069000244,2.6145949363708496
3884.165000,0.3230627179145813,0.8077380657196045,-0.5150514841079712,-1.3445727825164795,0.4258544147014618,2.0536625385284424,2.614229679107666
3884.199000,0.32306933403015137,0.807769775390625,-0.515153706073761,-1.344571590423584,0.42628636956214905,2.0536611080169678,2.6138241291046143
3884.199000,0.3230934143066406,0.8078095316886902,-0.5152901411056519,-1.3445675373077393,0.4267919659614563,2.0536608695983887,2.6133902072906494
3884.233000,0.3231215178966522,0.8078510165214539,-0.515440821647644,-1.3445616960525513,0.4273543357849121,2.0536608695983887,2.6129374504089355
3884.265000,0.32314762473106384,0.807891309261322,-0.5155944228172302,-1.3445546627044678,0.42795827984809875,2.0536606311798096,2.612473249435425
3884.266000,0.3230229914188385,0.8078872561454773,-0.515681266784668,-1.344565749168396,0.42855286598205566,2.053632974624634,2.611697196960449
3884.299000,0.3227587938308716,0.8078365325927734,-0.5156635642051697,-1.3445876836776733,0.42904096841812134,2.053598165512085,2.6106858253479004
3884.300000,0.3225644826889038,0.8078004121780396,-0.5156494975090027,-1.3445955514907837,0.42946431040763855,2.0535879135131836,2.6098060607910156
3884.333000,0.322469562292099,0.807793915271759,-0.5157033801078796,-1.3445936441421509,0.42992326617240906,2.053584098815918,2.6090340614318848
3884.367000,0.32243573665618896,0.807805597782135,-0.5157952308654785,-1.3445864915847778,0.4304198622703552,2.0535829067230225,2.6083505153656006
3884.368000,0.3224368095397949,0.807827353477478,-0.5159031748771667,-1.3445765972137451,0.4309461712837219,2.0535831451416016,2.6077401638031006
3884.401000,0.3224577009677887,0.8078544735908508,-0.5160151124000549,-1.344565510749817,0.43149369955062866,2.053583860397339,2.6071903705596924
3884.401000,0.322489857673645,0.8078843951225281,-0.5161247253417969,-1.3445539474487305,0.4320548176765442,2.0535848140716553,2.606691360473633
3884.433000,0.3225283622741699,0.8079155683517456,-0.5162288546562195,-1.3445422649383545,0.432623028755188,2.0535855293273926,2.6062350273132324
3884.466000,0.3225703537464142,0.8079470992088318,-0.5163260698318481,-1.344530701637268,0.43319302797317505,2.05358624458313,2.6058146953582764
3884.467000,0.3226141631603241,0.8079785704612732,-0.5164158344268799,-1.3445194959640503,0.43376055359840393,2.053586483001709,2.6054253578186035
3884.499000,0.3226587772369385,0.8080096244812012,-0.5164980292320251,-1.3445085287094116,0.4343222677707672,2.053586483001709,2.605062484741211
3884.500000,0.3227035403251648,0.8080400824546814,-0.516572892665863,-1.3444979190826416,0.43487557768821716,2.05358624458313,2.604722499847412
3884.532000,0.322748064994812,0.8080698251724243,-0.5166406631469727,-1.3444875478744507,0.4354184865951538,2.0535857677459717,2.604402542114258
3884.564000,0.322792112827301,0.8080987930297852,-0.5167016983032227,-1.3444775342941284,0.43594953417778015,2.0535850524902344,2.604100465774536
3884.565000,0.32255810499191284,0.807990550994873,-0.5164015293121338,-1.3444881439208984,0.4360070526599884,2.053549289703369,2.6037559509277344
3884.598000,0.3221593499183655,0.807802677154541,-0.5158506631851196,-1.3445141315460205,0.4355852007865906,2.0535032749176025,2.603381395339966
3884.599000,0.32197827100753784,0.8077191710472107,-0.5155277252197266,-1.3445287942886353,0.435226172208786,2.0534892082214355,2.603044033050537
3884.632000,0.321958065032959,0.8077079653739929,-0.5153973698616028,-1.3445329666137695,0.43501704931259155,2.0534861087799072,2.6027379035949707
3884.665000,0.3220205307006836,0.8077337145805359,-0.5153781771659851,-1.344530701637268,0.434947669506073,2.05348801612854,2.6024580001831055
3884.665000,0.3218306601047516,0.8076018691062927,-0.514914870262146,-1.3445366621017456,0.4342944920063019,2.0534660816192627,2.602437734603882
3884.698000,0.3215349316596985,0.8073968887329102,-0.5141927003860474,-1.3445525169372559,0.4331202805042267,2.053436279296875,2.6026179790496826
3884.700000,0.32151317596435547,0.8073437809944153,-0.5138480067253113,-1.344563603401184,0.43222588300704956,2.053431272506714,2.6027143001556396
3884.733000,0.32163742184638977,0.807372510433197,-0.5137438774108887,-1.3445674180984497,0.431619256734848,2.053436517715454,2.602745294570923
3884.765000,0.3218216896057129,0.8074378371238708,-0.5137755274772644,-1.344565987586975,0.43126180768013,2.0534462928771973,2.6027257442474365
3884.766000,0.32202082872390747,0.8075160980224609,-0.5138803720474243,-1.3445608615875244,0.4311106503009796,2.0534579753875732,2.6026670932769775
3884.798000,0.32221347093582153,0.8075956106185913,-0.5140223503112793,-1.3445532321929932,0.4311259686946869,2.0534698963165283,2.602578639984131
3884.798000,0.3223908543586731,0.8076711893081665,-0.5141808390617371,-1.3445440530776978,0.4312729835510254,2.053481340408325,2.6024680137634277
3884.831000,0.322550505399704,0.8077409863471985,-0.5143440961837769,-1.3445338010787964,0.431522399187088,2.0534920692443848,2.6023409366607666
3884.864000,0.3224197328090668,0.8075653910636902,-0.5137186646461487,-1.3445134162902832,0.43067237734794617,2.053500175476074,2.603119134902954
3884.865000,0.3225565552711487,0.8075545430183411,-0.5135239362716675,-1.3445054292678833,0.43017154932022095,2.0535049438476562,2.6036736965179443
3884.897000,0.32275915145874023,0.8076063394546509,-0.5135096907615662,-1.34450101852417,0.42990410327911377,2.053513526916504,2.6040518283843994
3884.898000,0.32296982407569885,0.8076814413070679,-0.5135917067527771,-1.3444972038269043,0.42982804775238037,2.0535237789154053,2.6042912006378174
3884.930000,0.3231653869152069,0.8077616095542908,-0.5137254595756531,-1.344492793083191,0.42990830540657043,2.053534507751465,2.604421615600586
3884.964000,0.32333728671073914,0.807838499546051,-0.5138850212097168,-1.3444874286651611,0.4301133453845978,2.053544521331787,2.6044671535491943
3884.965000,0.3234840929508209,0.8079087734222412,-0.5140552520751953,-1.344481110572815,0.4304157793521881,2.053553819656372,2.6044466495513916
3884.999000,0.3236076533794403,0.8079716563224792,-0.5142272710800171,-1.3444740772247314,0.4307926297187805,2.0535621643066406,2.6043753623962402
3884.999000,0.3237110674381256,0.8080275058746338,-0.5143960118293762,-1.3444664478302002,0.4312249422073364,2.0535693168640137,2.6042652130126953
3885.034000,0.32379767298698425,0.8080771565437317,-0.5145586729049683,-1.3444584608078003,0.43169739842414856,2.0535757541656494,2.6041259765625
3885.035000,0.32387053966522217,0.8081215023994446,-0.5147136449813843,-1.3444502353668213,0.4321976602077484,2.0535812377929688,2.6039652824401855
3885.068000,0.32393234968185425,0.8081614971160889,-0.5148602724075317,-1.3444418907165527,0.4327159523963928,2.053586006164551,2.6037890911102295
3885.101000,0.32377180457115173,0.8078600764274597,-0.5137633681297302,-1.3443844318389893,0.43129628896713257,2.0536341667175293,2.605698823928833
3885.102000,0.3238464891910553,0.8075111508369446,-0.5122174024581909,-1.3443135023117065,0.4285678267478943,2.053685426712036,2.6092047691345215
3885.135000,0.3241860866546631,0.8072008490562439,-0.5104628205299377,-1.3442469835281372,0.42483001947402954,2.0537400245666504,2.6139190196990967
3885.136000,0.32475724816322327,0.8069573044776917,-0.5086265206336975,-1.3441925048828125,0.4203208088874817,2.0537989139556885,2.6195333003997803
3885.168000,0.32551270723342896,0.8067842125892639,-0.5067841410636902,-1.3441523313522339,0.4152383804321289,2.0538618564605713,2.6258037090301514
3885.202000,0.32663482427597046,0.8070075511932373,-0.5062376260757446,-1.3441723585128784,0.411708801984787,2.0538861751556396,2.630441427230835
3885.203000,0.32736504077911377,0.8069816827774048,-0.5049282312393188,-1.3441694974899292,0.40722915530204773,2.053950071334839,2.6358802318573
3885.236000,0.32811373472213745,0.8069099187850952,-0.5034441947937012,-1.3441603183746338,0.4022457003593445,2.054015636444092,2.641900062561035
3885.237000,0.3289200961589813,0.8068408966064453,-0.5019127726554871,-1.3441532850265503,0.39690691232681274,2.0540809631347656,2.6483263969421387
3885.269000,0.3297795355319977,0.8067912459373474,-0.5003942251205444,-1.3441518545150757,0.3913235664367676,2.0541467666625977,2.655022144317627
3885.303000,0.33067557215690613,0.8067638278007507,-0.4989205300807953,-1.3441568613052368,0.38558387756347656,2.054213047027588,2.661879062652588
3885.303000,0.3315921127796173,0.8067572712898254,-0.49751216173171997,-1.3441678285598755,0.37976253032684326,2.0542795658111572,2.6688129901885986
3885.336000,0.3325139284133911,0.8067677617073059,-0.4961804747581482,-1.3441838026046753,0.37391987442970276,2.0543460845947266,2.675757884979248
3885.337000,0.3336949050426483,0.8071167469024658,-0.4962380528450012,-1.3442435264587402,0.37010860443115234,2.054375648498535,2.6805684566497803
3885.370000,0.33462628722190857,0.8075077533721924,-0.496846079826355,-1.3443138599395752,0.3677107095718384,2.0544021129608154,2.6836977005004883
3885.402000,0.33525505661964417,0.8078566789627075,-0.49774178862571716,-1.3443799018859863,0.36643892526626587,2.05442476272583,2.685506582260132
3885.403000,0.33526691794395447,0.8077797889709473,-0.4973791837692261,-1.3444018363952637,0.3639305830001831,2.054471731185913,2.688384771347046
3885.435000,0.3352394998073578,0.8075798749923706,-0.4965592622756958,-1.3444072008132935,0.3606571555137634,2.054513931274414,2.6920688152313232
3885.436000,0.3356270492076874,0.8077116012573242,-0.49693581461906433,-1.344443678855896,0.35893428325653076,2.0545248985290527,2.6942477226257324
3885.468000,0.3359195291996002,0.8079095482826233,-0.4977482557296753,-1.3444890975952148,0.3582403063774109,2.054535388946533,2.695249557495117
3885.501000,0.3356574773788452,0.8077213764190674,-0.49730193614959717,-1.344502329826355,0.356143981218338,2.0545685291290283,2.697432279586792
3885.502000,0.3357834815979004,0.8078099489212036,-0.4978632926940918,-1.3445359468460083,0.35535484552383423,2.0545740127563477,2.6984145641326904
3885.535000,0.3358483612537384,0.8079532384872437,-0.4987737834453583,-1.3445743322372437,0.35541775822639465,2.054579019546509,2.6984634399414062
3885.536000,0.33555951714515686,0.8079015016555786,-0.4991229474544525,-1.3445988893508911,0.3550768792629242,2.0545876026153564,2.6987080574035645
3885.568000,0.33518561720848083,0.8077796101570129,-0.4992426037788391,-1.3446195125579834,0.3544803857803345,2.0545918941497803,2.6991021633148193
3885.602000,0.3348614275455475,0.8076918721199036,-0.499470591545105,-1.3446439504623413,0.3540213406085968,2.0545899868011475,2.699284076690674
3885.603000,0.3345644772052765,0.8076472282409668,-0.4998689889907837,-1.3446730375289917,0.35385969281196594,2.054584503173828,2.699080467224121
3885.637000,0.3342367708683014,0.8076087832450867,-0.5003294348716736,-1.3447026014328003,0.3539096713066101,2.0545787811279297,2.698580741882324
3885.638000,0.3340076208114624,0.807664155960083,-0.5011646151542664,-1.344732403755188,0.3546344041824341,2.054574728012085,2.697484016418457
3885.670000,0.3337543308734894,0.8077409863471985,-0.5021622180938721,-1.3447582721710205,0.3558761775493622,2.0545718669891357,2.6959338188171387
3885.671000,0.33333808183670044,0.8077487349510193,-0.503024160861969,-1.3447827100753784,0.35724160075187683,2.054561138153076,2.6941637992858887
3885.705000,0.33282625675201416,0.8077139854431152,-0.5037897825241089,-1.3448060750961304,0.3586764633655548,2.0545461177825928,2.6922364234924316
3885.737000,0.33226704597473145,0.8076630234718323,-0.5045238733291626,-1.344829797744751,0.3602074682712555,2.0545268058776855,2.690126657485962
3885.737000,0.3316742181777954,0.8075995445251465,-0.5052396655082703,-1.3448554277420044,0.3618267774581909,2.054504156112671,2.6878387928009033
3885.773000,0.33105605840682983,0.8075255155563354,-0.5059220790863037,-1.3448795080184937,0.36349406838417053,2.0544803142547607,2.685429096221924
3885.773000,0.3304269313812256,0.8074479103088379,-0.5065865516662598,-1.344902753829956,0.3652116656303406,2.054454803466797,2.6829051971435547
3885.806000,0.32979124784469604,0.8073657155036926,-0.5072205662727356,-1.3449244499206543,0.36694958806037903,2.0544285774230957,2.6803104877471924
3885.840000,0.3291584551334381,0.8072821497917175,-0.5078281760215759,-1.344944715499878,0.3686990737915039,2.0544016361236572,2.6776669025421143
3885.840000,0.3285335600376129,0.8071990609169006,-0.5084112286567688,-1.3449636697769165,0.3704528510570526,2.0543742179870605,2.67499041557312
3885.875000,0.3279195725917816,0.8071162104606628,-0.5089642405509949,-1.344981074333191,0.37219464778900146,2.054346799850464,2.672307014465332
3885.876000,0.32742372155189514,0.8070787191390991,-0.5095958709716797,-1.3449889421463013,0.3740478456020355,2.0543324947357178,2.6697070598602295
3885.908000,0.32701608538627625,0.8070725202560425,-0.5102816820144653,-1.3449897766113281,0.3760218024253845,2.0543220043182373,2.667189598083496
3885.942000,0.32665908336639404,0.8070822954177856,-0.5109801888465881,-1.3449863195419312,0.37808600068092346,2.0543127059936523,2.6647534370422363
3885.942000,0.32633262872695923,0.807099461555481,-0.5116655230522156,-1.344980001449585,0.3802078068256378,2.0543038845062256,2.6624021530151367
3885.976000,0.32602664828300476,0.807120144367218,-0.512325644493103,-1.3449718952178955,0.3823623061180115,2.0542948246002197,2.660132646560669
3885.978000,0.32564228773117065,0.8070997595787048,-0.5128459334373474,-1.3449695110321045,0.3843918442726135,2.054273843765259,2.6578972339630127
3886.011000,0.3252110183238983,0.8070534467697144,-0.5132524371147156,-1.3449712991714478,0.38626915216445923,2.054248809814453,2.655703544616699
3886.011000,0.3247739374637604,0.80699622631073,-0.5135795474052429,-1.344974160194397,0.3879948854446411,2.0542240142822266,2.6535861492156982
3886.046000,0.3243532180786133,0.8069384098052979,-0.5138588547706604,-1.3449773788452148,0.38959261775016785,2.054198980331421,2.6515424251556396
3886.079000,0.3239615261554718,0.8068838119506836,-0.5140992403030396,-1.3449794054031372,0.39106783270835876,2.054175853729248,2.6495983600616455
3886.079000,0.32361114025115967,0.8068358898162842,-0.5143090486526489,-1.3449790477752686,0.3924286961555481,2.0541555881500244,2.647782564163208
3886.111000,0.32330238819122314,0.8067971467971802,-0.5145015716552734,-1.3449773788452148,0.3936993479728699,2.0541365146636963,2.646078586578369
3886.111000,0.3230370879173279,0.8067665100097656,-0.5146708488464355,-1.3449732065200806,0.3948758542537689,2.0541207790374756,2.6445162296295166
3886.146000,0.3228132128715515,0.8067455291748047,-0.5148283243179321,-1.3449677228927612,0.3959803879261017,2.0541062355041504,2.6430740356445312
3886.180000,0.3226219117641449,0.8067323565483093,-0.5149737596511841,-1.3449615240097046,0.39702245593070984,2.0540926456451416,2.6417348384857178
3886.180000,0.3224663734436035,0.8067253828048706,-0.515098512172699,-1.344953179359436,0.3979908525943756,2.054082155227661,2.640533447265625
3886.213000,0.322346031665802,0.8067266345024109,-0.5152149796485901,-1.344943642616272,0.39890578389167786,2.054072856903076,2.639446973800659
3886.214000,0.3222768306732178,0.806736171245575,-0.5153094530105591,-1.3449293375015259,0.399742066860199,2.054070234298706,2.6385605335235596
3886.248000,0.3222597539424896,0.8067585825920105,-0.5154051184654236,-1.3449126482009888,0.40053507685661316,2.0540692806243896,2.6378347873687744
3886.280000,0.32228830456733704,0.8067888617515564,-0.5154824256896973,-1.3448928594589233,0.40126273036003113,2.054072380065918,2.6373026371002197
3886.282000,0.32236698269844055,0.8068291544914246,-0.5155477523803711,-1.3448700904846191,0.4019313156604767,2.054079055786133,2.636969804763794
3886.315000,0.32248827815055847,0.8068809509277344,-0.5156136751174927,-1.344846248626709,0.40256503224372864,2.054086923599243,2.6367931365966797
3886.316000,0.3226439356803894,0.8069816827774048,-0.5158503651618958,-1.344832181930542,0.4034515619277954,2.054084300994873,2.636375904083252
3886.349000,0.3227546513080597,0.8070849180221558,-0.516128659248352,-1.3448227643966675,0.40448305010795593,2.05407977104187,2.6357760429382324
3886.381000,0.3228190839290619,0.8071328401565552,-0.5162137746810913,-1.3448022603988647,0.4052811861038208,2.0540883541107178,2.6354944705963135
3886.382000,0.3229175806045532,0.807161808013916,-0.5161963105201721,-1.3447747230529785,0.4058746099472046,2.054100275039673,2.6355490684509277
3886.414000,0.3230661153793335,0.8071930408477783,-0.5161336660385132,-1.3447452783584595,0.4063175320625305,2.054112434387207,2.6358628273010254
3886.414000,0.3232555091381073,0.8072316646575928,-0.5160454511642456,-1.3447164297103882,0.4066399931907654,2.0541248321533203,2.6363744735717773
3886.448000,0.3234749734401703,0.8072783350944519,-0.5159429311752319,-1.3446892499923706,0.406866192817688,2.0541372299194336,2.637035369873047
3886.448000,0.32370883226394653,0.807319700717926,-0.5157850384712219,-1.344662070274353,0.4069397449493408,2.054151773452759,2.637895345687866
3886.484000,0.32396745681762695,0.8073656558990479,-0.5156091451644897,-1.34463632106781,0.40690451860427856,2.054166555404663,2.6389031410217285
3886.518000,0.32425886392593384,0.8074904084205627,-0.5157319903373718,-1.3446294069290161,0.4072805941104889,2.0541625022888184,2.639385938644409
3886.518000,0.3244321942329407,0.8075173497200012,-0.5155283808708191,-1.344609260559082,0.40723147988319397,2.0541791915893555,2.640294075012207
3886.550000,0.3246512711048126,0.8075320720672607,-0.5152471661567688,-1.3445836305618286,0.4069536030292511,2.0541977882385254,2.64152455329895
3886.550000,0.3249141275882721,0.8075254559516907,-0.5148255228996277,-1.3445512056350708,0.4063285291194916,2.0542232990264893,2.643219470977783
3886.584000,0.3252520263195038,0.8075291514396667,-0.5143620371818542,-1.3445180654525757,0.40546536445617676,2.0542500019073486,2.645261287689209
3886.618000,0.3256482779979706,0.8075354099273682,-0.5138285756111145,-1.3444838523864746,0.4043302834033966,2.054281234741211,2.6476805210113525
3886.619000,0.32610753178596497,0.8075447082519531,-0.5132242441177368,-1.3444480895996094,0.4029112458229065,2.0543179512023926,2.650505781173706
3886.652000,0.32663461565971375,0.8075723052024841,-0.5126118659973145,-1.344414472579956,0.40130099654197693,2.0543558597564697,2.6536247730255127
3886.652000,0.32724201679229736,0.8077690601348877,-0.5126478672027588,-1.3444191217422485,0.4005868136882782,2.054356098175049,2.655635356903076
3886.685000,0.3276616334915161,0.8079726099967957,-0.5128805637359619,-1.3444406986236572,0.4004093408584595,2.0543503761291504,2.656775951385498
3886.718000,0.32786956429481506,0.8079697489738464,-0.5124515295028687,-1.3444247245788574,0.39941301941871643,2.0543887615203857,2.658832311630249
3886.718000,0.32820001244544983,0.8079285025596619,-0.5118058323860168,-1.3443869352340698,0.39789026975631714,2.0544371604919434,2.6617393493652344
3886.752000,0.32868021726608276,0.8079031705856323,-0.5110872983932495,-1.3443427085876465,0.3960033059120178,2.054487943649292,2.665283203125
3886.752000,0.32928338646888733,0.8078919649124146,-0.5102767944335938,-1.3442949056625366,0.3937338590621948,2.0545458793640137,2.669461965560913
3886.784000,0.33000215888023376,0.8079130053520203,-0.5094552040100098,-1.3442498445510864,0.3912079632282257,2.054605722427368,2.6741020679473877
3886.785000,0.3308073878288269,0.8079504370689392,-0.5085786581039429,-1.3442050218582153,0.38838785886764526,2.0546724796295166,2.6792404651641846
3886.804000,0.3316952884197235,0.8080167174339294,-0.5077166557312012,-1.3441643714904785,0.3853876292705536,2.0547401905059814,2.684727668762207
3886.832000,0.33262574672698975,0.8081037998199463,-0.5068756937980652,-1.344130039215088,0.38225987553596497,2.054806709289551,2.6904456615448
3886.833000,0.33357447385787964,0.8082069754600525,-0.5060672760009766,-1.3441022634506226,0.3790551424026489,2.0548722743988037,2.6963019371032715
3886.858000,0.33452308177948,0.8083213567733765,-0.50529944896698,-1.3440804481506348,0.37581542134284973,2.054936408996582,2.7022242546081543
3886.860000,0.33548611402511597,0.808657705783844,-0.5055609941482544,-1.3441168069839478,0.374161958694458,2.0549376010894775,2.7060608863830566
3886.899000,0.33606183528900146,0.8089699745178223,-0.5061237812042236,-1.3441771268844604,0.37347492575645447,2.054927110671997,2.7082602977752686
3886.935000,0.3362862169742584,0.8092131018638611,-0.5068332552909851,-1.3442424535751343,0.37353160977363586,2.0549097061157227,2.7091803550720215
3886.936000,0.33622923493385315,0.8093816637992859,-0.5076162219047546,-1.3443044424057007,0.3741699457168579,2.0548863410949707,2.709105968475342
3886.965000,0.3359556794166565,0.8094828128814697,-0.5084274411201477,-1.3443602323532104,0.37525713443756104,2.0548582077026367,2.7082643508911133
3886.966000,0.3354853093624115,0.8093537092208862,-0.5084559321403503,-1.3443692922592163,0.37542724609375,2.0548720359802246,2.7084622383117676
3886.996000,0.33517441153526306,0.8091962933540344,-0.5082610845565796,-1.3443559408187866,0.3750954866409302,2.0548906326293945,2.7094614505767822
3887.026000,0.3350493311882019,0.8091105222702026,-0.5081952810287476,-1.3443456888198853,0.3747604489326477,2.054899215698242,2.710608720779419
3887.026000,0.3349806070327759,0.809087872505188,-0.5083150863647461,-1.3443500995635986,0.37464800477027893,2.05489444732666,2.711455821990967
3887.058000,0.33487212657928467,0.8090741634368896,-0.5084755420684814,-1.3443621397018433,0.3746461272239685,2.0548877716064453,2.7120649814605713
3887.058000,0.33472394943237305,0.8090581297874451,-0.5086529850959778,-1.3443772792816162,0.3747272789478302,2.054880142211914,2.7124862670898438
3887.090000,0.33454403281211853,0.8090366125106812,-0.508837878704071,-1.344393253326416,0.37487369775772095,2.0548715591430664,2.712759494781494
3887.090000,0.33431729674339294,0.8090269565582275,-0.5091300010681152,-1.3444181680679321,0.3752521276473999,2.0548508167266846,2.712613105773926
3887.124000,0.33400556445121765,0.8090009093284607,-0.5094320178031921,-1.3444467782974243,0.37575778365135193,2.0548272132873535,2.712143898010254
3887.156000,0.3335910439491272,0.80897456407547,-0.5098466277122498,-1.3444880247116089,0.3765582740306854,2.054786443710327,2.7110519409179688
3887.157000,0.3330290615558624,0.8089222311973572,-0.5102944374084473,-1.3445383310317993,0.3775784969329834,2.0547361373901367,2.7093617916107178
3887.192000,0.3323443830013275,0.8088368773460388,-0.5107292532920837,-1.3445909023284912,0.3787310719490051,2.054682731628418,2.707221508026123
3887.192000,0.3315804898738861,0.8087254762649536,-0.5111469030380249,-1.344642162322998,0.3799731135368347,2.0546281337738037,2.7047486305236816
3887.224000,0.3307707607746124,0.8085953593254089,-0.5115457773208618,-1.3446905612945557,0.38127318024635315,2.0545730590820312,2.702035903930664
3887.259000,0.32992514967918396,0.8084550499916077,-0.511947751045227,-1.3447389602661133,0.38265085220336914,2.054513692855835,2.699061870574951
3887.259000,0.3291657865047455,0.8083458542823792,-0.5124189853668213,-1.344774842262268,0.3841610252857208,2.054471015930176,2.6960511207580566
3887.292000,0.3284875452518463,0.808262825012207,-0.5129539966583252,-1.3448010683059692,0.3858224153518677,2.0544333457946777,2.693033218383789
3887.327000,0.3277086913585663,0.8081513047218323,-0.5134583711624146,-1.344839096069336,0.3875795602798462,2.0543711185455322,2.689687728881836
3887.328000,0.32680970430374146,0.8079986572265625,-0.5138630270957947,-1.3448851108551025,0.3893077075481415,2.0543015003204346,2.686079978942871
3887.359000,0.3258456885814667,0.807819664478302,-0.5141918063163757,-1.3449337482452393,0.39097627997398376,2.054229974746704,2.6822948455810547
3887.360000,0.3250194787979126,0.8076701164245605,-0.514518678188324,-1.3449620008468628,0.3925902843475342,2.054187774658203,2.678774833679199
3887.394000,0.3243548274040222,0.8075652122497559,-0.514911949634552,-1.3449761867523193,0.3942570686340332,2.0541539192199707,2.6754839420318604
3887.395000,0.3237994313240051,0.8074897527694702,-0.5153325200080872,-1.3449822664260864,0.395969033241272,2.054124355316162,2.6723928451538086
3887.428000,0.3233177661895752,0.8074331879615784,-0.5157530903816223,-1.3449838161468506,0.39770859479904175,2.0540971755981445,2.6694774627685547
3887.461000,0.32271382212638855,0.8073462843894958,-0.5161221027374268,-1.345005989074707,0.3994748890399933,2.0540378093719482,2.666266679763794
3887.462000,0.32197272777557373,0.807213544845581,-0.5163608193397522,-1.3450403213500977,0.40112289786338806,2.0539710521698,2.6628503799438477
3887.495000,0.3211638331413269,0.8070546388626099,-0.5165156722068787,-1.345079779624939,0.4026460349559784,2.0539023876190186,2.659298896789551
3887.496000,0.3203320801258087,0.8068835735321045,-0.5166211724281311,-1.3451205492019653,0.4040563404560089,2.053833484649658,2.6556591987609863
3887.529000,0.31950443983078003,0.8067082762718201,-0.5166939496994019,-1.3451603651046753,0.4053623080253601,2.0537657737731934,2.6519765853881836
3887.563000,0.3186979591846466,0.8065340518951416,-0.5167446136474609,-1.345198154449463,0.4065743684768677,2.0536999702453613,2.6482865810394287
3887.563000,0.3179236650466919,0.8063639998435974,-0.5167776346206665,-1.3452332019805908,0.4076994061470032,2.0536370277404785,2.644623041152954
3887.598000,0.3171878457069397,0.8062006235122681,-0.5167981386184692,-1.3452653884887695,0.4087478816509247,2.053576707839966,2.641005277633667
3887.598000,0.3164953291416168,0.8060457706451416,-0.5168095827102661,-1.3452945947647095,0.40972912311553955,2.0535197257995605,2.6374518871307373
3887.631000,0.31584662199020386,0.8058999180793762,-0.5168133974075317,-1.3453210592269897,0.4106508195400238,2.0534653663635254,2.6339731216430664
3887.662000,0.31525129079818726,0.8057629466056824,-0.5168006420135498,-1.345342755317688,0.4114989638328552,2.0534167289733887,2.6306278705596924
3887.663000,0.31487715244293213,0.8056804537773132,-0.5168307423591614,-1.345339059829712,0.4122966229915619,2.053402900695801,2.627807140350342
3887.696000,0.3147149085998535,0.8056597709655762,-0.5169604420661926,-1.3453198671340942,0.41316428780555725,2.0533998012542725,2.625410795211792
3887.696000,0.31468769907951355,0.8056790828704834,-0.5171404480934143,-1.3452929258346558,0.4140986502170563,2.0534017086029053,2.623358964920044
3887.729000,0.3147439956665039,0.8057231903076172,-0.5173379182815552,-1.3452626466751099,0.41508418321609497,2.053406238555908,2.6215875148773193
3887.762000,0.31470465660095215,0.8057395815849304,-0.5174711346626282,-1.3452496528625488,0.4160658121109009,2.0533852577209473,2.619736671447754
3887.764000,0.314571738243103,0.8057215213775635,-0.5174920558929443,-1.3452460765838623,0.41693076491355896,2.0533604621887207,2.6178770065307617
3887.796000,0.31439879536628723,0.8056871891021729,-0.5174524188041687,-1.3452471494674683,0.41769152879714966,2.0533342361450195,2.6160237789154053
3887.797000,0.3142259418964386,0.8056453466415405,-0.5173665881156921,-1.3452476263046265,0.41833409667015076,2.053311347961426,2.6142537593841553
3887.829000,0.3140743672847748,0.8056060671806335,-0.5172663331031799,-1.3452472686767578,0.41889044642448425,2.0532898902893066,2.612560510635376
3887.863000,0.3139456808567047,0.8055712580680847,-0.5171588659286499,-1.345246434211731,0.419375479221344,2.053269863128662,2.610938310623169
3887.863000,0.3138655126094818,0.8055421710014343,-0.5170301795005798,-1.3452397584915161,0.4197598397731781,2.053258180618286,2.6095023155212402
3887.897000,0.31384164094924927,0.8055265545845032,-0.5169103145599365,-1.3452298641204834,0.42008835077285767,2.0532495975494385,2.608220100402832
3887.898000,0.31385934352874756,0.8055219054222107,-0.5167964100837708,-1.345218539237976,0.4203738272190094,2.0532426834106445,2.607065439224243
3887.931000,0.3139072060585022,0.8055256605148315,-0.5166857242584229,-1.345206618309021,0.42062416672706604,2.053237199783325,2.6060173511505127
3887.964000,0.3140101134777069,0.8055349588394165,-0.5165476202964783,-1.3451876640319824,0.420782208442688,2.0532419681549072,2.6052238941192627
3887.965000,0.3141770660877228,0.8055599927902222,-0.5164220929145813,-1.3451652526855469,0.42090141773223877,2.0532498359680176,2.604632616043091
3887.997000,0.314387708902359,0.8055973052978516,-0.516305148601532,-1.3451417684555054,0.4209936857223511,2.0532591342926025,2.604201555252075
3887.998000,0.314657986164093,0.8056434392929077,-0.5161685347557068,-1.3451119661331177,0.4210105240345001,2.0532779693603516,2.604048013687134
3888.031000,0.31498983502388,0.8057059645652771,-0.5160467028617859,-1.3450794219970703,0.4210008978843689,2.0532991886138916,2.6041100025177
3888.064000,0.31537482142448425,0.8057816028594971,-0.5159280300140381,-1.3450440168380737,0.4209575355052948,2.0533249378204346,2.6043968200683594
3888.064000,0.31581032276153564,0.8058698177337646,-0.515813410282135,-1.3450058698654175,0.4208846986293793,2.0533547401428223,2.604905366897583
3888.098000,0.31628215312957764,0.8059697151184082,-0.5157104134559631,-1.3449676036834717,0.4208027124404907,2.0533852577209473,2.605581521987915
3888.099000,0.3167811334133148,0.8060770034790039,-0.5156078338623047,-1.3449286222457886,0.42070135474205017,2.0534181594848633,2.6064248085021973
3888.132000,0.3172982335090637,0.8061912655830383,-0.5155133008956909,-1.3448904752731323,0.42059585452079773,2.0534512996673584,2.607391119003296
3888.133000,0.31782811880111694,0.8063093423843384,-0.5154187083244324,-1.344852328300476,0.4204770028591156,2.053485870361328,2.6084814071655273
3888.165000,0.31836479902267456,0.8064311742782593,-0.5153311491012573,-1.3448153734207153,0.42035728693008423,2.0535199642181396,2.6096596717834473
3888.197000,0.318904846906662,0.80655437707901,-0.5152440071105957,-1.3447788953781128,0.42022866010665894,2.0535547733306885,2.6109278202056885
3888.197000,0.3194493055343628,0.8066791296005249,-0.5151592493057251,-1.3447425365447998,0.4200921356678009,2.0535902976989746,2.6122820377349854
3888.230000,0.3199927806854248,0.8068053126335144,-0.5150815844535828,-1.3447073698043823,0.4199575185775757,2.0536251068115234,2.6136932373046875
3888.263000,0.32053184509277344,0.8069310188293457,-0.515005886554718,-1.3446730375289917,0.41981926560401917,2.0536601543426514,2.6151599884033203
3888.263000,0.3210667073726654,0.807056188583374,-0.514933168888092,-1.3446393013000488,0.4196781814098358,2.0536952018737793,2.6166775226593018
3888.297000,0.3215932548046112,0.8071807026863098,-0.5148666501045227,-1.344606876373291,0.41954123973846436,2.0537290573120117,2.6182236671447754
3888.297000,0.3221091032028198,0.8073031902313232,-0.5148025155067444,-1.3445755243301392,0.41940435767173767,2.053762435913086,2.6197967529296875
3888.329000,0.3226117789745331,0.8074235916137695,-0.5147436261177063,-1.3445457220077515,0.41927284002304077,2.0537946224212646,2.6213793754577637
3888.362000,0.3230857253074646,0.807529091835022,-0.5146481394767761,-1.344516634941101,0.41908538341522217,2.053825855255127,2.623014211654663
3888.363000,0.3235305845737457,0.8076138496398926,-0.5144892930984497,-1.3444880247116089,0.41878265142440796,2.053856611251831,2.6247503757476807
3888.397000,0.32396644353866577,0.8076919317245483,-0.514306366443634,-1.34446120262146,0.4183975160121918,2.0538859367370605,2.6265528202056885
3888.398000,0.3243921399116516,0.8077778816223145,-0.5141597986221313,-1.3444401025772095,0.4180261194705963,2.05391001701355,2.6282830238342285
3888.432000,0.3247884511947632,0.8078610897064209,-0.5140224695205688,-1.3444228172302246,0.4176517426967621,2.0539321899414062,2.6299455165863037
3888.432000,0.3251505196094513,0.8079454898834229,-0.5139220356941223,-1.3444108963012695,0.4173271358013153,2.0539495944976807,2.631460189819336
3888.466000,0.3254690170288086,0.8080224394798279,-0.5138335227966309,-1.3444020748138428,0.41703033447265625,2.0539650917053223,2.632849931716919
3888.500000,0.32574307918548584,0.8080947995185852,-0.5137749910354614,-1.3443974256515503,0.4167943298816681,2.053976058959961,2.6340646743774414
3888.501000,0.32596251368522644,0.8081591129302979,-0.5137410759925842,-1.3443970680236816,0.4166247248649597,2.0539824962615967,2.6350784301757812
3888.535000,0.3261297643184662,0.8082110285758972,-0.5137135982513428,-1.3443987369537354,0.4164966642856598,2.0539872646331787,2.635929822921753
3888.536000,0.3262499272823334,0.8082535266876221,-0.5137028694152832,-1.3444029092788696,0.41642335057258606,2.053988456726074,2.6366028785705566
3888.570000,0.32632726430892944,0.8082845211029053,-0.5136953592300415,-1.3444080352783203,0.4163840413093567,2.053988218307495,2.6371333599090576
3888.604000,0.32636651396751404,0.808306872844696,-0.5136990547180176,-1.3444148302078247,0.41638773679733276,2.0539848804473877,2.637511968612671
3888.604000,0.32636699080467224,0.808320164680481,-0.5137100219726562,-1.3444232940673828,0.41643011569976807,2.05397891998291,2.63774037361145
3888.638000,0.326335072517395,0.8083239793777466,-0.5137202143669128,-1.3444322347640991,0.41649526357650757,2.053972005844116,2.6378512382507324
3888.638000,0.3262767493724823,0.8083208203315735,-0.5137346982955933,-1.3444418907165527,0.41658616065979004,2.0539634227752686,2.637848138809204
3888.670000,0.3261971175670624,0.808310866355896,-0.5137478113174438,-1.3444514274597168,0.416691392660141,2.0539543628692627,2.637756824493408
3888.670000,0.3261035680770874,0.8082957863807678,-0.5137597918510437,-1.3444606065750122,0.4168061316013336,2.0539450645446777,2.6375980377197266
3888.705000,0.3260015547275543,0.8082771301269531,-0.5137708783149719,-1.3444691896438599,0.4169270098209381,2.0539357662200928,2.637388229370117
3888.739000,0.3258921802043915,0.8082563281059265,-0.5137842297554016,-1.3444777727127075,0.41705799102783203,2.0539257526397705,2.637125015258789
3888.739000,0.3257748484611511,0.8082332611083984,-0.5137981176376343,-1.3444864749908447,0.41719719767570496,2.053915023803711,2.6368114948272705
3888.771000,0.3256497383117676,0.8082068562507629,-0.5138068795204163,-1.3444950580596924,0.4173351228237152,2.0539040565490723,2.6364612579345703
3888.771000,0.32552215456962585,0.8081784248352051,-0.5138111710548401,-1.3445031642913818,0.4174681603908539,2.053893566131592,2.636089324951172
3888.804000,0.325395792722702,0.8081493377685547,-0.5138132572174072,-1.344510793685913,0.4175967872142792,2.0538833141326904,2.6357030868530273
3888.836000,0.3252745568752289,0.8081202507019043,-0.5138120055198669,-1.344517469406128,0.41771700978279114,2.0538740158081055,2.6353189945220947
3888.837000,0.32520774006843567,0.8081362247467041,-0.5139594078063965,-1.344525694847107,0.4180564880371094,2.0538644790649414,2.634752035140991
3888.869000,0.3251405954360962,0.8081647753715515,-0.5141697525978088,-1.3445333242416382,0.4185565412044525,2.0538558959960938,2.634047746658325
3888.904000,0.32502275705337524,0.8081510663032532,-0.5142561793327332,-1.344535231590271,0.41894689202308655,2.0538506507873535,2.633467674255371
3888.904000,0.3249451816082001,0.8081676959991455,-0.5144456028938293,-1.344538927078247,0.4195021688938141,2.053842067718506,2.6327624320983887
3888.937000,0.32486122846603394,0.8081898093223572,-0.5146658420562744,-1.3445426225662231,0.42016395926475525,2.053833484649658,2.631965160369873
3888.938000,0.32476481795310974,0.8082103729248047,-0.5148956179618835,-1.3445454835891724,0.42090439796447754,2.0538246631622314,2.6311025619506836
3888.970000,0.3246566653251648,0.808227002620697,-0.5151243209838867,-1.3445473909378052,0.42170166969299316,2.0538156032562256,2.630195379257202
3889.003000,0.3245393633842468,0.8082394003868103,-0.5153460502624512,-1.3445483446121216,0.42253783345222473,2.0538060665130615,2.6292600631713867
3889.004000,0.3244158923625946,0.8082479238510132,-0.5155575275421143,-1.3445483446121216,0.42339831590652466,2.0537962913513184,2.628309726715088
3889.037000,0.32428914308547974,0.808253288269043,-0.5157570242881775,-1.3445476293563843,0.42427143454551697,2.053786039352417,2.627354383468628
3889.037000,0.324161559343338,0.8082563281059265,-0.5159438252449036,-1.3445463180541992,0.4251479208469391,2.0537755489349365,2.626401662826538
3889.071000,0.3240351378917694,0.8082576394081116,-0.5161177515983582,-1.3445444107055664,0.4260205924510956,2.053765058517456,2.625457763671875
3889.072000,0.3239113986492157,0.8082578778266907,-0.5162789225578308,-1.344542145729065,0.42688387632369995,2.0537543296813965,2.6245272159576416
3889.105000,0.32379150390625,0.8082574605941772,-0.516427755355835,-1.3445394039154053,0.42773357033729553,2.053743600845337,2.6236135959625244
3889.137000,0.3236762583255768,0.8082567453384399,-0.516564667224884,-1.3445364236831665,0.42856651544570923,2.0537328720092773,2.6227190494537354
3889.138000,0.323566198348999,0.8082559704780579,-0.516690194606781,-1.344533085823059,0.4293803572654724,2.0537221431732178,2.6218457221984863
3889.170000,0.32346171140670776,0.8082553744316101,-0.5168048739433289,-1.344529628753662,0.43017345666885376,2.053711414337158,2.620994806289673
3889.171000,0.32334309816360474,0.8081727623939514,-0.5165841579437256,-1.3445074558258057,0.4304153323173523,2.053720235824585,2.6208293437957764
3889.204000,0.3233356773853302,0.8080906271934509,-0.5162607431411743,-1.3444781303405762,0.4303073585033417,2.05373215675354,2.621194362640381
3889.237000,0.32345008850097656,0.8081091046333313,-0.5162143707275391,-1.3444664478302002,0.4304596781730652,2.0537266731262207,2.6213042736053467
3889.237000,0.3235227167606354,0.8080558180809021,-0.5158659815788269,-1.3444416522979736,0.4301193058490753,2.053743362426758,2.621995210647583
3889.271000,0.32368698716163635,0.8080071210861206,-0.515447735786438,-1.3444122076034546,0.42949241399765015,2.0537633895874023,2.6231300830841064
3889.272000,0.32395094633102417,0.80806964635849,-0.5153787732124329,-1.344405174255371,0.42926454544067383,2.0537614822387695,2.6238207817077637
3889.305000,0.32414987683296204,0.8081492781639099,-0.515408992767334,-1.3444089889526367,0.42925137281417847,2.0537569522857666,2.624163866043091
3889.341000,0.3242782950401306,0.8082239627838135,-0.5154891014099121,-1.344416856765747,0.4294021725654602,2.053751230239868,2.6242358684539795
3889.342000,0.32434654235839844,0.8082866668701172,-0.5155966281890869,-1.3444253206253052,0.42968183755874634,2.053744316101074,2.624098300933838
3889.373000,0.3243663012981415,0.8083359003067017,-0.5157178044319153,-1.3444329500198364,0.430061012506485,2.053736448287964,2.6237998008728027
3889.374000,0.32434844970703125,0.8083725571632385,-0.5158438086509705,-1.3444392681121826,0.43051522970199585,2.053727626800537,2.6233792304992676
3889.408000,0.32430243492126465,0.8083984851837158,-0.5159691572189331,-1.3444441556930542,0.4310244619846344,2.053718090057373,2.6228671073913574
3889.442000,0.32423609495162964,0.8084157705307007,-0.5160905122756958,-1.3444478511810303,0.43157249689102173,2.053708076477051,2.6222879886627197
3889.442000,0.3241557776927948,0.8084263205528259,-0.516205906867981,-1.3444503545761108,0.4321464002132416,2.0536975860595703,2.6216611862182617
3889.476000,0.32406648993492126,0.8084318041801453,-0.5163141489028931,-1.3444520235061646,0.4327358901500702,2.0536868572235107,2.621001958847046
3889.477000,0.32397207617759705,0.8084335923194885,-0.5164147019386292,-1.3444528579711914,0.4333328902721405,2.053676128387451,2.6203222274780273
3889.509000,0.3238754868507385,0.8084327578544617,-0.5165073871612549,-1.3444530963897705,0.4339311718940735,2.0536651611328125,2.619631290435791
3889.510000,0.3237789273262024,0.8084301948547363,-0.5165922045707703,-1.3444528579711914,0.43452587723731995,2.053654432296753,2.618936777114868
3889.543000,0.3236840069293976,0.8084264993667603,-0.5166693329811096,-1.344452142715454,0.4351133406162262,2.0536437034606934,2.618244171142578
3889.575000,0.3235918879508972,0.8084221482276917,-0.516739010810852,-1.3444510698318481,0.4356907606124878,2.053632974624634,2.6175577640533447
3889.576000,0.3233943581581116,0.8082353472709656,-0.5161365866661072,-1.3444222211837769,0.43520277738571167,2.053647518157959,2.618027925491333
