yuan18844-afk/dissertation/catkin_ws/src/franka_digital_twin/analysis/data/unity_smooth2_20250728_072359.csv
time,panda_joint1,panda_joint2,panda_joint3,panda_joint4,panda_joint5,panda_joint6,panda_joint7
969.909000,0.3788284361362457,1.240532398223877,-0.05889057740569115,-1.0496549606323242,0.05528340861201286,2.122638702392578,2.4047739505767822
969.930000,0.37906280159950256,1.2405351400375366,-0.058402225375175476,-1.0496472120285034,0.05424879118800163,2.1226556301116943,2.406641721725464
969.951000,0.3792818784713745,1.2405444383621216,-0.05822359770536423,-1.0496457815170288,0.05365781486034393,2.1226718425750732,2.4079647064208984
969.971000,0.3794381022453308,1.2405552864074707,-0.05821456387639046,-1.0496474504470825,0.05339648574590683,2.122687339782715,2.408858060836792
969.988000,0.37942594289779663,1.240553379058838,-0.05774815380573273,-1.049639344215393,0.05248761549592018,2.1227030754089355,2.4102630615234375
970.007000,0.37953731417655945,1.2405604124069214,-0.05768986791372299,-1.0496397018432617,0.052142076194286346,2.1227176189422607,2.411203622817993
970.030000,0.3796115815639496,1.2405688762664795,-0.05777367949485779,-1.049642562866211,0.05210214853286743,2.1227314472198486,2.4117789268493652
970.052000,0.37963545322418213,1.240576982498169,-0.05793040245771408,-1.0496464967727661,0.05229038745164871,2.1227447986602783,2.4120683670043945
970.072000,0.37961459159851074,1.240584135055542,-0.058125872164964676,-1.0496509075164795,0.052656032145023346,2.12275767326355,2.412134885787964
970.089000,0.37946081161499023,1.2405840158462524,-0.0581192746758461,-1.0496526956558228,0.05283272638916969,2.122769594192505,2.4121804237365723
970.119000,0.3793395757675171,1.2405861616134644,-0.05820532515645027,-1.049655795097351,0.053175777196884155,2.122781276702881,2.412057876586914
970.127000,0.3792276084423065,1.2405892610549927,-0.05834222584962845,-1.0496593713760376,0.053645841777324677,2.1227924823760986,2.411806344985962
970.149000,0.37911614775657654,1.2405927181243896,-0.05850675329566002,-1.0496630668640137,0.05421466752886772,2.1228034496307373,2.4114573001861572
970.169000,0.3790017366409302,1.2405961751937866,-0.058684006333351135,-1.0496666431427002,0.05485862120985985,2.1228139400482178,2.4110350608825684
970.185000,0.37888360023498535,1.2405993938446045,-0.058864232152700424,-1.0496701002120972,0.055557731539011,2.122824192047119,2.4105594158172607
970.207000,0.37876221537590027,1.2406024932861328,-0.059041187167167664,-1.049673318862915,0.05629545822739601,2.1228339672088623,2.410045862197876
970.225000,0.3786386251449585,1.240605354309082,-0.05921102687716484,-1.0496762990951538,0.05705832690000534,2.1228435039520264,2.4095065593719482
970.243000,0.37851405143737793,1.2406079769134521,-0.0593714714050293,-1.0496790409088135,0.05783545598387718,2.1228525638580322,2.4089510440826416
970.265000,0.3783895969390869,1.2406104803085327,-0.05952129513025284,-1.0496814250946045,0.05861818790435791,2.122861385345459,2.4083869457244873
970.282000,0.37826621532440186,1.2406128644943237,-0.059659961611032486,-1.0496835708618164,0.05939970165491104,2.1228697299957275,2.407820224761963
970.303000,0.3780141770839691,1.24061119556427,-0.059762559831142426,-1.0496894121170044,0.060208290815353394,2.122875928878784,2.406881093978882
970.324000,0.3776138424873352,1.2406047582626343,-0.05974684655666351,-1.0496963262557983,0.06090952083468437,2.1228811740875244,2.405618667602539
970.345000,0.3772534728050232,1.2405987977981567,-0.05964003875851631,-1.0496989488601685,0.06141921505331993,2.1228878498077393,2.4045321941375732
970.365000,0.3770025074481964,1.240596055984497,-0.059582650661468506,-1.0497004985809326,0.06191917881369591,2.122894763946533,2.4035890102386475
970.382000,0.37683114409446716,1.2405955791473389,-0.059570617973804474,-1.049701452255249,0.062431614845991135,2.122901678085327,2.4027628898620605
970.403000,0.3767116665840149,1.2405966520309448,-0.05958956107497215,-1.0497020483016968,0.06295820325613022,2.122908353805542,2.4020330905914307
970.424000,0.3766251504421234,1.2405985593795776,-0.059627991169691086,-1.0497022867202759,0.06349673867225647,2.122915029525757,2.4013826847076416
970.445000,0.3765593469142914,1.2406009435653687,-0.05967764928936958,-1.0497022867202759,0.06404382735490799,2.1229214668273926,2.4007980823516846
970.462000,0.37650638818740845,1.2406036853790283,-0.05973275378346443,-1.0497020483016968,0.0645957663655281,2.122927665710449,2.400268316268921
970.478000,0.37646135687828064,1.2406065464019775,-0.05978931859135628,-1.0497016906738281,0.06514895707368851,2.1229336261749268,2.399784803390503
970.499000,0.3762739300727844,1.2406063079833984,-0.05986862629652023,-1.0497075319290161,0.06582854688167572,2.122936487197876,2.3988070487976074
970.516000,0.37590545415878296,1.2406007051467896,-0.05981993302702904,-1.0497149229049683,0.0664096400141716,2.1229381561279297,2.397454261779785
970.539000,0.3754231333732605,1.2405916452407837,-0.05967652425169945,-1.0497231483459473,0.06688819825649261,2.122939109802246,2.395796537399292
970.558000,0.3748762905597687,1.240580439567566,-0.05945931002497673,-1.049731731414795,0.06725709140300751,2.1229395866394043,2.393913984298706
970.574000,0.3744528293609619,1.2405710220336914,-0.0591600202023983,-1.049733281135559,0.06738109886646271,2.122943162918091,2.392430067062378
970.594000,0.37406614422798157,1.2405638694763184,-0.05898848921060562,-1.0497397184371948,0.06765328347682953,2.1229443550109863,2.3906960487365723
970.614000,0.3737698793411255,1.2405576705932617,-0.05873855948448181,-1.049739956855774,0.06772157549858093,2.122948169708252,2.3893494606018066
970.633000,0.373629629611969,1.2405555248260498,-0.05857148766517639,-1.0497382879257202,0.06780494004487991,2.122952699661255,2.3883111476898193
970.653000,0.37359818816185,1.240556240081787,-0.05847730487585068,-1.0497357845306396,0.06793004274368286,2.122957706451416,2.3875181674957275
970.667000,0.37363478541374207,1.2405587434768677,-0.05843500792980194,-1.0497326850891113,0.06809820234775543,2.122962713241577,2.386920213699341
970.686000,0.37371182441711426,1.2405623197555542,-0.05842793360352516,-1.049729347229004,0.06830551475286484,2.1229677200317383,2.386476993560791
970.707000,0.37381139397621155,1.240566372871399,-0.058443982154130936,-1.049725890159607,0.06854640692472458,2.1229727268218994,2.3861563205718994
970.727000,0.3739221394062042,1.2405707836151123,-0.05847455933690071,-1.0497223138809204,0.06881488114595413,2.1229777336120605,2.385932445526123
970.743000,0.374036967754364,1.2405751943588257,-0.058513641357421875,-1.0497187376022339,0.0691051110625267,2.1229825019836426,2.385784864425659
970.761000,0.3741515278816223,1.240579605102539,-0.058557040989398956,-1.0497151613235474,0.0694117546081543,2.1229870319366455,2.385697364807129
970.781000,0.37403616309165955,1.240578055381775,-0.05856640636920929,-1.0497198104858398,0.0698021650314331,2.1229867935180664,2.384988784790039
970.802000,0.3738858699798584,1.2405743598937988,-0.058402787894010544,-1.0497183799743652,0.06992219388484955,2.1229896545410156,2.3844735622406006
970.823000,0.37383323907852173,1.2405734062194824,-0.058287572115659714,-1.0497157573699951,0.07003672420978546,2.122992992401123,2.384111166000366
970.842000,0.37356477975845337,1.2405660152435303,-0.058128681033849716,-1.0497217178344727,0.07018095254898071,2.1229910850524902,2.3831264972686768
970.858000,0.37332069873809814,1.2405586242675781,-0.057827603071928024,-1.0497206449508667,0.07004442811012268,2.122992992401123,2.382411003112793
970.880000,0.37290915846824646,1.2405459880828857,-0.057496558874845505,-1.049727439880371,0.06990247219800949,2.1229898929595947,2.381129503250122
970.903000,0.3722701370716095,1.2405259609222412,-0.056944604963064194,-1.0497359037399292,0.06946554034948349,2.122985363006592,2.379420042037964
970.924000,0.37146905064582825,1.2405004501342773,-0.05619707703590393,-1.0497452020645142,0.06870302557945251,2.1229798793792725,2.377357006072998
970.939000,0.37093910574913025,1.240483045578003,-0.05547291785478592,-1.049744963645935,0.06771214306354523,2.1229805946350098,2.3758492469787598
970.955000,0.37075039744377136,1.2404758930206299,-0.05501392483711243,-1.049742341041565,0.06688094139099121,2.122983455657959,2.3747806549072266
970.972000,0.37037065625190735,1.240462303161621,-0.05453766882419586,-1.049748420715332,0.06609252095222473,2.1229805946350098,2.373180389404297
970.989000,0.36971086263656616,1.240439772605896,-0.053793296217918396,-1.0497556924819946,0.06496940553188324,2.122976303100586,2.371180534362793
971.010000,0.3688562512397766,1.2404109239578247,-0.052815940231084824,-1.0497632026672363,0.06347333639860153,2.122971296310425,2.36885666847229
971.031000,0.36790531873703003,1.2403793334960938,-0.05168189853429794,-1.0497702360153198,0.061641134321689606,2.1229665279388428,2.3662986755371094
971.042000,0.3670475482940674,1.2403502464294434,-0.050492063164711,-1.0497729778289795,0.059518441557884216,2.1229641437530518,2.3638980388641357
971.066000,0.3663369119167328,1.2403254508972168,-0.04937455803155899,-1.0497740507125854,0.057295672595500946,2.1229629516601562,2.361635684967041
971.083000,0.3658490777015686,1.2403062582015991,-0.04835757613182068,-1.0497709512710571,0.05500466376543045,2.1229641437530518,2.3597867488861084
971.107000,0.3656335473060608,1.2402935028076172,-0.047512710094451904,-1.049764633178711,0.05276653915643692,2.12296724319458,2.358471632003784
971.126000,0.3657956123352051,1.2402920722961426,-0.04706500470638275,-1.0497575998306274,0.05094655975699425,2.122972011566162,2.357672929763794
971.143000,0.3660963773727417,1.2402925491333008,-0.04674219712615013,-1.0497496128082275,0.04929596185684204,2.122976779937744,2.3573389053344727
971.169000,0.36658957600593567,1.2402992248535156,-0.04671100154519081,-1.0497430562973022,0.04808357357978821,2.1229817867279053,2.3573057651519775
971.185000,0.36718714237213135,1.240309476852417,-0.046888042241334915,-1.0497376918792725,0.04726910963654518,2.1229870319366455,2.3575050830841064
971.206000,0.3678266704082489,1.2403215169906616,-0.04720121622085571,-1.0497331619262695,0.046792078763246536,2.1229920387268066,2.357882499694824
971.229000,0.36840370297431946,1.240329623222351,-0.04736871272325516,-1.0497254133224487,0.04623308405280113,2.1229970455169678,2.358665704727173
971.246000,0.3689812421798706,1.2403361797332764,-0.04746828228235245,-1.0497161149978638,0.04562854766845703,2.12300181388855,2.359822988510132
971.268000,0.3696231544017792,1.240346908569336,-0.04778648167848587,-1.0497108697891235,0.04540421813726425,2.1230063438415527,2.360924005508423
971.288000,0.3702022433280945,1.240354299545288,-0.04793731868267059,-1.0497021675109863,0.045008864253759384,2.1230108737945557,2.362380266189575
971.309000,0.3708282709121704,1.2403653860092163,-0.048298850655555725,-1.049697756767273,0.0449783056974411,2.1230149269104004,2.363694190979004
971.330000,0.37141573429107666,1.2403771877288818,-0.04873208329081535,-1.0496948957443237,0.04516802355647087,2.123018741607666,2.364889144897461
971.347000,0.3719266355037689,1.2403844594955444,-0.04892893508076668,-1.0496870279312134,0.04507432505488396,2.1230227947235107,2.3664634227752686
971.368000,0.37245362997055054,1.2403908967971802,-0.04905655235052109,-1.049677848815918,0.044860273599624634,2.1230268478393555,2.3683197498321533
971.389000,0.37300026416778564,1.2403970956802368,-0.049138326197862625,-1.0496679544448853,0.04454020410776138,2.123030662536621,2.37042498588562
971.410000,0.37356603145599365,1.2404035329818726,-0.049198899418115616,-1.049657940864563,0.04414324089884758,2.1230342388153076,2.372731924057007
971.430000,0.37414196133613586,1.2404104471206665,-0.04925655946135521,-1.0496481657028198,0.04370148107409477,2.123037815093994,2.375178575515747
971.447000,0.3747190237045288,1.240417718887329,-0.04931152984499931,-1.0496387481689453,0.043222054839134216,2.1230411529541016,2.3777365684509277
971.461000,0.3752906620502472,1.2404253482818604,-0.04937295615673065,-1.049630045890808,0.042726825922727585,2.12304425239563,2.3803627490997314
971.484000,0.37585127353668213,1.2404332160949707,-0.04944313317537308,-1.0496219396591187,0.0422278456389904,2.123047113418579,2.383028745651245
971.503000,0.37641024589538574,1.2404453754425049,-0.04981616139411926,-1.0496209859848022,0.04223623126745224,2.123049736022949,2.3851327896118164
971.525000,0.3768470883369446,1.2404528856277466,-0.04997064918279648,-1.0496156215667725,0.04200053587555885,2.1230523586273193,2.387387752532959
971.540000,0.3772776424884796,1.2404595613479614,-0.05008145049214363,-1.0496095418930054,0.04169657826423645,2.1230549812316895,2.3897435665130615
971.561000,0.3777086138725281,1.2404661178588867,-0.050179265439510345,-1.0496034622192383,0.04136023670434952,2.1230573654174805,2.392160415649414
971.581000,0.378135085105896,1.240472674369812,-0.05027008056640625,-1.0495975017547607,0.04100125655531883,2.1230597496032715,2.394615888595581
971.603000,0.3785633444786072,1.2404834032058716,-0.050662562251091,-1.0495986938476562,0.04115188121795654,2.1230616569519043,2.3964767456054688
971.624000,0.3788720667362213,1.2404893636703491,-0.05082628130912781,-1.0495951175689697,0.04104458540678024,2.123063802719116,2.3984782695770264
971.640000,0.37919050455093384,1.2404987812042236,-0.05124528333544731,-1.0495975017547607,0.041382044553756714,2.12306547164917,2.3999617099761963
971.661000,0.37941688299179077,1.2405074834823608,-0.051718536764383316,-1.0496015548706055,0.04194207489490509,2.1230671405792236,2.4010345935821533
971.683000,0.37956154346466064,1.2405149936676025,-0.052204329520463943,-1.049606204032898,0.04265822470188141,2.1230688095092773,2.401782989501953
971.703000,0.37964293360710144,1.2405213117599487,-0.052685804665088654,-1.0496110916137695,0.04348883405327797,2.123070478439331,2.402275562286377
971.724000,0.37967681884765625,1.240526795387268,-0.053153786808252335,-1.0496158599853516,0.04440169408917427,2.1230719089508057,2.4025673866271973
971.740000,0.37967559695243835,1.24053156375885,-0.053603172302246094,-1.049620509147644,0.04537130147218704,2.1230733394622803,2.4027020931243896
971.761000,0.3796009123325348,1.2405283451080322,-0.053605303168296814,-1.0496159791946411,0.045664746314287186,2.123075246810913,2.4034645557403564
971.781000,0.3796038329601288,1.240524172782898,-0.0534532330930233,-1.0496082305908203,0.045579440891742706,2.123077154159546,2.4047062397003174
971.803000,0.37973102927207947,1.240527868270874,-0.05365164950489998,-1.0496082305908203,0.045927777886390686,2.1230785846710205,2.405559539794922
971.823000,0.3798212707042694,1.2405329942703247,-0.053945377469062805,-1.0496106147766113,0.04646379500627518,2.123079776763916,2.406106948852539
971.833000,0.3798640966415405,1.240538239479065,-0.054279182106256485,-1.0496140718460083,0.0471293143928051,2.1230809688568115,2.406414270401001
971.850000,0.37986627221107483,1.2405431270599365,-0.05462902784347534,-1.0496180057525635,0.047891080379486084,2.123082160949707,2.406534194946289
971.869000,0.3798360526561737,1.24054753780365,-0.0549807995557785,-1.0496221780776978,0.048723068088293076,2.1230833530426025,2.406508445739746
971.884000,0.379781037569046,1.2405515909194946,-0.05532582849264145,-1.0496262311935425,0.0496041402220726,2.123084545135498,2.4063706398010254
971.907000,0.3796292543411255,1.2405444383621216,-0.055102311074733734,-1.0496184825897217,0.049595221877098083,2.123086452484131,2.4070751667022705
971.917000,0.37964916229248047,1.2405462265014648,-0.05523410439491272,-1.0496184825897217,0.04999224469065666,2.1230876445770264,2.4074971675872803
971.941000,0.379658579826355,1.240549921989441,-0.05545540526509285,-1.0496206283569336,0.05054153874516487,2.1230885982513428,2.407697916030884
971.957000,0.3796398937702179,1.2405540943145752,-0.055713605135679245,-1.0496236085891724,0.05119135230779648,2.123089551925659,2.407726526260376
971.979000,0.3794865012168884,1.2405441999435425,-0.055299654603004456,-1.0496127605438232,0.05078286677598953,2.123091459274292,2.4087297916412354
971.993000,0.3794136047363281,1.240530252456665,-0.05458030104637146,-1.0495963096618652,0.04964965581893921,2.123093366622925,2.4105710983276367
972.010000,0.3794511556625366,1.2405167818069458,-0.05372048541903496,-1.049578070640564,0.04799126833677292,2.1230952739715576,2.4130465984344482
972.028000,0.37959739565849304,1.2405074834823608,-0.052912622690200806,-1.0495623350143433,0.04612668231129646,2.1230967044830322,2.415799379348755
972.051000,0.3797925114631653,1.240500807762146,-0.052126962691545486,-1.0495482683181763,0.044077709317207336,2.1230978965759277,2.4187467098236084
972.073000,0.3801271617412567,1.24050772190094,-0.052013300359249115,-1.0495482683181763,0.042949873954057693,2.123098611831665,2.420819044113159
972.094000,0.3803793787956238,1.240517258644104,-0.05216950178146362,-1.0495531558990479,0.04237064719200134,2.1230990886688232,2.422201156616211
972.112000,0.3804343044757843,1.2405180931091309,-0.05202015861868858,-1.049552083015442,0.04148205742239952,2.1230995655059814,2.423685312271118
972.134000,0.3804510831832886,1.2405167818069458,-0.05183364078402519,-1.0495507717132568,0.04057054594159126,2.1231000423431396,2.4251177310943604
972.154000,0.3804386258125305,1.2405140399932861,-0.05161591246724129,-1.0495491027832031,0.039628006517887115,2.1231002807617188,2.426500082015991
972.175000,0.3804172873497009,1.2405117750167847,-0.05146836116909981,-1.0495491027832031,0.03880925849080086,2.123100519180298,2.427675247192383
972.196000,0.38036540150642395,1.240509033203125,-0.05134030804038048,-1.0495496988296509,0.038057439029216766,2.123100757598877,2.4286820888519287
972.212000,0.38029125332832336,1.240506649017334,-0.05128892883658409,-1.0495519638061523,0.037471260875463486,2.123100996017456,2.429417610168457
972.232000,0.38017594814300537,1.2405041456222534,-0.051310814917087555,-1.0495558977127075,0.037074655294418335,2.123101234436035,2.4298224449157715
972.252000,0.3800105154514313,1.2405006885528564,-0.05135177820920944,-1.049560308456421,0.03679560124874115,2.1231014728546143,2.429969310760498
972.274000,0.37979215383529663,1.2404959201812744,-0.05140223726630211,-1.0495651960372925,0.036619964987039566,2.1231017112731934,2.4298529624938965
972.295000,0.3795294761657715,1.2404899597167969,-0.05143910273909569,-1.049570083618164,0.03650082275271416,2.1231019496917725,2.4295341968536377
972.314000,0.3792441487312317,1.2404835224151611,-0.05147714167833328,-1.0495750904083252,0.036443307995796204,2.1231021881103516,2.429042100906372
972.330000,0.3789452612400055,1.2404766082763672,-0.051510248333215714,-1.0495799779891968,0.0364275760948658,2.1231024265289307,2.428419351577759
972.351000,0.3787427842617035,1.240473985671997,-0.05170855671167374,-1.0495860576629639,0.036679305136203766,2.1231026649475098,2.4276676177978516
972.371000,0.37860095500946045,1.2404741048812866,-0.052026618272066116,-1.0495930910110474,0.03717579320073128,2.1231026649475098,2.426821708679199
972.391000,0.37848883867263794,1.2404756546020508,-0.05241730809211731,-1.049600601196289,0.037872567772865295,2.1231026649475098,2.4259088039398193
972.407000,0.37838831543922424,1.2404779195785522,-0.05284689739346504,-1.0496082305908203,0.03872724995017052,2.123102903366089,2.42495059967041
972.429000,0.37828999757766724,1.2404805421829224,-0.05329262092709541,-1.049615740776062,0.039702802896499634,2.123103141784668,2.423964023590088
972.450000,0.37818971276283264,1.240483283996582,-0.05373944714665413,-1.0496230125427246,0.040767766535282135,2.123103380203247,2.4229626655578613
972.470000,0.3780861496925354,1.2404861450195312,-0.05417773872613907,-1.049630045890808,0.0418960377573967,2.123103618621826,2.4219565391540527
972.489000,0.37797945737838745,1.2404890060424805,-0.05460144951939583,-1.049636721611023,0.04306614398956299,2.1231038570404053,2.4209539890289307
972.506000,0.3778705298900604,1.2404918670654297,-0.05500701814889908,-1.0496429204940796,0.04426073655486107,2.1231038570404053,2.4199609756469727
972.526000,0.3776717185974121,1.2404907941818237,-0.055271364748477936,-1.0496481657028198,0.045307423919439316,2.1231038570404053,2.418950080871582
972.546000,0.3774993419647217,1.2404909133911133,-0.055532172322273254,-1.0496529340744019,0.04634050652384758,2.1231038570404053,2.4179646968841553
972.566000,0.3772716522216797,1.2404882907867432,-0.05569329485297203,-1.0496572256088257,0.04724118486046791,2.123103618621826,2.4169609546661377
972.588000,0.3770906925201416,1.2404876947402954,-0.05587545037269592,-1.0496610403060913,0.04813723266124725,2.123103618621826,2.415992021560669
972.604000,0.37695643305778503,1.2404890060424805,-0.056092992424964905,-1.049664855003357,0.04906241223216057,2.123103618621826,2.4150569438934326
972.625000,0.37676098942756653,1.2404874563217163,-0.056220393627882004,-1.0496684312820435,0.04987214505672455,2.123103141784668,2.4140937328338623
972.647000,0.3765130043029785,1.2404835224151611,-0.05625846982002258,-1.0496716499328613,0.050543464720249176,2.1231024265289307,2.413097858428955
972.668000,0.37623733282089233,1.240478277206421,-0.056228723376989365,-1.049674391746521,0.051083311438560486,2.1231017112731934,2.412083625793457
972.687000,0.37604689598083496,1.2404764890670776,-0.05625850334763527,-1.0496766567230225,0.05163745954632759,2.1231014728546143,2.4111435413360596
972.703000,0.37593361735343933,1.2404776811599731,-0.056363046169281006,-1.049678921699524,0.052256904542446136,2.1231014728546143,2.4102673530578613
972.724000,0.37586814165115356,1.240480661392212,-0.056518156081438065,-1.0496811866760254,0.05293675884604454,2.1231014728546143,2.4094464778900146
972.746000,0.3758297860622406,1.2404847145080566,-0.05670326575636864,-1.0496834516525269,0.053665339946746826,2.1231017112731934,2.4086742401123047
972.765000,0.3756852149963379,1.2404837608337402,-0.05675994232296944,-1.0496855974197388,0.054251328110694885,2.123100996017456,2.4078562259674072
972.786000,0.3754369616508484,1.2404778003692627,-0.05664258450269699,-1.0496865510940552,0.05458361282944679,2.1231000423431396,2.407038688659668
972.803000,0.37513864040374756,1.2404690980911255,-0.0564088299870491,-1.0496869087219238,0.054693806916475296,2.123098850250244,2.4062271118164062
972.823000,0.3749634325504303,1.2404659986495972,-0.05628865957260132,-1.0496872663497925,0.0548606738448143,2.123098373413086,2.405484437942505
972.844000,0.37489044666290283,1.2404670715332031,-0.05628779157996178,-1.0496879816055298,0.05514197051525116,2.123098373413086,2.4047999382019043
972.865000,0.37469950318336487,1.2404614686965942,-0.05609374865889549,-1.0496875047683716,0.05515497550368309,2.1230974197387695,2.4041664600372314
972.885000,0.3746059834957123,1.2404605150222778,-0.0560113750398159,-1.0496875047683716,0.055257394909858704,2.1230971813201904,2.4035754203796387
972.902000,0.3745920658111572,1.240463137626648,-0.05603949353098869,-1.0496879816055298,0.05549037083983421,2.1230974197387695,2.4030215740203857
972.923000,0.37462320923805237,1.2404677867889404,-0.056142598390579224,-1.049688696861267,0.05583956837654114,2.1230976581573486,2.4025001525878906
972.942000,0.37467625737190247,1.2404733896255493,-0.056292325258255005,-1.049689531326294,0.056284625083208084,2.123098134994507,2.4020073413848877
972.963000,0.37473756074905396,1.2404793500900269,-0.05646882578730583,-1.0496903657913208,0.056805893778800964,2.123098611831665,2.4015400409698486
972.983000,0.37479957938194275,1.240485429763794,-0.056658606976270676,-1.049691081047058,0.05738576874136925,2.1230990886688232,2.4010956287384033
972.999000,0.37459540367126465,1.2404764890670776,-0.05638490989804268,-1.0496879816055298,0.05735018104314804,2.1230978965759277,2.4008069038391113
973.020000,0.374220073223114,1.240457534790039,-0.05573607236146927,-1.0496822595596313,0.056681204587221146,2.123095989227295,2.400662422180176
973.042000,0.3737744092941284,1.240434169769287,-0.05485090985894203,-1.0496753454208374,0.055482082068920135,2.123093843460083,2.400630235671997
973.062000,0.3736017942428589,1.2404253482818604,-0.05433917045593262,-1.049672245979309,0.05457555130124092,2.1230931282043457,2.4005284309387207
973.083000,0.3736047148704529,1.2404253482818604,-0.054116424173116684,-1.0496714115142822,0.053986769169569016,2.1230931282043457,2.4003734588623047
973.099000,0.37337377667427063,1.2404121160507202,-0.0534764789044857,-1.0496662855148315,0.052806686609983444,2.1230921745300293,2.40041184425354
973.121000,0.3730156719684601,1.240391731262207,-0.05254581570625305,-1.0496588945388794,0.05109042674303055,2.1230907440185547,2.400599479675293
973.141000,0.3726111948490143,1.2403687238693237,-0.0514405332505703,-1.0496504306793213,0.04893461987376213,2.123089551925659,2.4009008407592773
973.162000,0.3725343346595764,1.2403621673583984,-0.05085586756467819,-1.0496472120285034,0.04730551689863205,2.123089551925659,2.401054620742798
973.182000,0.3726516664028168,1.240364909172058,-0.05065250024199486,-1.0496472120285034,0.04618670046329498,2.1230900287628174,2.4010932445526123
973.199000,0.37247270345687866,1.2403525114059448,-0.049925170838832855,-1.0496408939361572,0.044386088848114014,2.1230897903442383,2.401419162750244
973.221000,0.3725343644618988,1.2403514385223389,-0.04963064566254616,-1.049639344215393,0.0431133508682251,2.1230902671813965,2.401588201522827
973.239000,0.37231457233428955,1.240336537361145,-0.04879499226808548,-1.049631118774414,0.04109451174736023,2.1230902671813965,2.402082681655884
973.260000,0.3723764419555664,1.2403345108032227,-0.04846065863966942,-1.0496288537979126,0.03967119753360748,2.1230907440185547,2.402377128601074
973.281000,0.372586190700531,1.2403393983840942,-0.04846864193677902,-1.049629807472229,0.03877831622958183,2.123091220855713,2.402515172958374
973.298000,0.37240490317344666,1.2403260469436646,-0.04772479459643364,-1.049621343612671,0.036907266825437546,2.123091697692871,2.4031178951263428
973.319000,0.3725024461746216,1.2403247356414795,-0.04748843237757683,-1.0496193170547485,0.03565271571278572,2.1230921745300293,2.403488874435425
973.338000,0.3727347254753113,1.2403297424316406,-0.04758189618587494,-1.0496206283569336,0.03492390736937523,2.1230926513671875,2.4036781787872314
973.359000,0.37302106618881226,1.240337610244751,-0.047886718064546585,-1.049623966217041,0.034636009484529495,2.1230928897857666,2.403726100921631
973.381000,0.37282219529151917,1.240323781967163,-0.04720570147037506,-1.0496147871017456,0.033060066401958466,2.123093366622925,2.404421091079712
973.397000,0.37240248918533325,1.240298867225647,-0.04585276544094086,-1.0495977401733398,0.030322162434458733,2.123094081878662,2.4057095050811768
973.419000,0.37244266271591187,1.2402931451797485,-0.04530465230345726,-1.0495916604995728,0.028434403240680695,2.1230947971343994,2.4065918922424316
973.438000,0.3721575140953064,1.24027419090271,-0.04397858679294586,-1.0495750904083252,0.025336815044283867,2.123095750808716,2.4081192016601562
973.460000,0.3723125755786896,1.2402722835540771,-0.043503936380147934,-1.0495699644088745,0.02322261407971382,2.123096227645874,2.4091691970825195
973.480000,0.37209656834602356,1.240256905555725,-0.04218273237347603,-1.0495531558990479,0.019853465259075165,2.1230971813201904,2.41092848777771
973.491000,0.37232470512390137,1.2402571439743042,-0.0417700819671154,-1.0495483875274658,0.01758788712322712,2.1230974197387695,2.412137985229492
973.515000,0.37271735072135925,1.2402632236480713,-0.041886404156684875,-1.0495496988296509,0.016177700832486153,2.1230967044830322,2.412914514541626
973.536000,0.3725707530975342,1.2402520179748535,-0.04077798128128052,-1.0495343208312988,0.013113455846905708,2.1230967044830322,2.4147439002990723
973.551000,0.37227413058280945,1.2402364015579224,-0.039028100669384,-1.0495109558105469,0.008849818259477615,2.1230976581573486,2.4173734188079834
973.578000,0.3721132278442383,1.2402263879776,-0.0373518168926239,-1.0494890213012695,0.004313297104090452,2.1230990886688232,2.4201607704162598
973.587000,0.372020959854126,1.2402201890945435,-0.0357142873108387,-1.0494674444198608,-0.00046552158892154694,2.123100519180298,2.4230504035949707
973.604000,0.37211719155311584,1.2402194738388062,-0.034443363547325134,-1.0494500398635864,-0.004947807639837265,2.123100757598877,2.4257822036743164
973.628000,0.3723057508468628,1.2402212619781494,-0.03342790529131889,-1.0494352579116821,-0.009154833853244781,2.1231000423431396,2.428373336791992
973.645000,0.37284013628959656,1.2402266263961792,-0.033412061631679535,-1.049432396888733,-0.011869074776768684,2.1230971813201904,2.430103302001953
973.665000,0.37345778942108154,1.240230679512024,-0.03397494927048683,-1.0494364500045776,-0.01341722346842289,2.1230926513671875,2.4311563968658447
973.682000,0.3740573227405548,1.240233063697815,-0.034891434013843536,-1.0494452714920044,-0.014014865271747112,2.123087167739868,2.4316797256469727
973.701000,0.37459495663642883,1.240234136581421,-0.03601580858230591,-1.049457311630249,-0.013845132663846016,2.1230814456939697,2.4317901134490967
973.723000,0.3750556707382202,1.240234613418579,-0.03725118935108185,-1.0494714975357056,-0.013065572828054428,2.1230759620666504,2.4315810203552246
973.743000,0.3754394054412842,1.2402349710464478,-0.03853365033864975,-1.0494871139526367,-0.011809407733380795,2.1230709552764893,2.431126832962036
973.764000,0.3756524324417114,1.2402352094650269,-0.03935420513153076,-1.0494980812072754,-0.010940711945295334,2.1230649948120117,2.4311513900756836
973.780000,0.37595391273498535,1.2402375936508179,-0.040434129536151886,-1.049512267112732,-0.009519597515463829,2.123061180114746,2.430880546569824
973.800000,0.3762204647064209,1.2402396202087402,-0.04157305508852005,-1.0495271682739258,-0.007779094390571117,2.1230578422546387,2.4303834438323975
973.820000,0.3764404356479645,1.2402416467666626,-0.04271911084651947,-1.0495423078536987,-0.005809284746646881,2.1230549812316895,2.429715156555176
973.840000,0.3766172230243683,1.240243911743164,-0.04384738206863403,-1.0495574474334717,-0.0036736647598445415,2.1230525970458984,2.4289193153381348
973.861000,0.3767193555831909,1.2402461767196655,-0.04460357874631882,-1.0495680570602417,-0.0019912864081561565,2.123048782348633,2.4286305904388428
973.876000,0.3769053816795349,1.2402511835098267,-0.04555393382906914,-1.0495809316635132,1.572095789015293e-05,2.123047113418579,2.4281351566314697
973.897000,0.37706074118614197,1.2402559518814087,-0.046521518379449844,-1.0495938062667847,0.00215353537350893,2.1230459213256836,2.4274837970733643
973.919000,0.37717872858047485,1.2402606010437012,-0.047472137957811356,-1.049606442451477,0.004368165507912636,2.1230452060699463,2.4267165660858154
973.937000,0.37724214792251587,1.2402644157409668,-0.048081208020448685,-1.0496141910552979,0.006098258309066296,2.1230430603027344,2.42645525932312
973.960000,0.3773685097694397,1.2402701377868652,-0.04857250675559044,-1.0496200323104858,0.0075696976855397224,2.1230409145355225,2.4265899658203125
973.969000,0.37757012248039246,1.2402784824371338,-0.049305375665426254,-1.0496289730072021,0.009370554238557816,2.1230406761169434,2.426435947418213
973.996000,0.3777073323726654,1.2402846813201904,-0.049770474433898926,-1.049633502960205,0.010770294815301895,2.1230392456054688,2.4266581535339355
974.010000,0.3778839111328125,1.240291953086853,-0.050154391676187515,-1.0496366024017334,0.011966504156589508,2.123037815093994,2.4271695613861084
974.038000,0.37809765338897705,1.240300178527832,-0.05048941448330879,-1.0496386289596558,0.013001946732401848,2.1230366230010986,2.4279160499572754
974.058000,0.3783518671989441,1.240310549736023,-0.05110553652048111,-1.0496448278427124,0.014444414526224136,2.1230368614196777,2.42822527885437
974.075000,0.378525972366333,1.2403193712234497,-0.051779232919216156,-1.0496519804000854,0.016062868759036064,2.123037576675415,2.428194522857666
974.096000,0.378613144159317,1.2403250932693481,-0.05215930566191673,-1.049654483795166,0.01727406680583954,2.123037338256836,2.428507089614868
974.116000,0.3787359297275543,1.2403316497802734,-0.05245427042245865,-1.049655556678772,0.018292220309376717,2.123037099838257,2.4290826320648193
974.135000,0.3788940906524658,1.2403390407562256,-0.05270573869347572,-1.049655795097351,0.019170764833688736,2.123037099838257,2.4298555850982666
974.157000,0.37907591462135315,1.2403470277786255,-0.05292907729744911,-1.0496554374694824,0.019938237965106964,2.123037099838257,2.4307756423950195
974.172000,0.3792709708213806,1.2403552532196045,-0.05313468351960182,-1.0496547222137451,0.02061946503818035,2.123037338256836,2.4317989349365234
974.192000,0.3794700801372528,1.240363597869873,-0.05332869663834572,-1.0496538877487183,0.02123440057039261,2.123037576675415,2.4328885078430176
974.214000,0.37966662645339966,1.240371823310852,-0.053512223064899445,-1.0496529340744019,0.0217942725867033,2.1230380535125732,2.4340217113494873
974.234000,0.3798559904098511,1.2403799295425415,-0.053689658641815186,-1.0496519804000854,0.022314637899398804,2.1230385303497314,2.4351720809936523
974.255000,0.38004809617996216,1.2403901815414429,-0.05415531247854233,-1.0496562719345093,0.023306960240006447,2.123039960861206,2.4357423782348633
974.271000,0.3801232874393463,1.2403960227966309,-0.05438975617289543,-1.0496567487716675,0.02402329631149769,2.1230409145355225,2.43644642829895
974.291000,0.3801990747451782,1.2404015064239502,-0.05456486716866493,-1.0496562719345093,0.024633735418319702,2.123041868209839,2.437248945236206
974.313000,0.38028231263160706,1.240407109260559,-0.05471408739686012,-1.0496554374694824,0.025178031995892525,2.1230428218841553,2.438108444213867
974.332000,0.3803664743900299,1.240412712097168,-0.05484817549586296,-1.049654483795166,0.025675004348158836,2.1230437755584717,2.4389896392822266
974.353000,0.3804468512535095,1.2404180765151978,-0.05496738851070404,-1.0496535301208496,0.026128137484192848,2.123044729232788,2.4398818016052246
974.370000,0.3805202841758728,1.240423321723938,-0.055080514401197433,-1.0496525764465332,0.026555228978395462,2.1230459213256836,2.4407575130462646
974.390000,0.3805837631225586,1.2404282093048096,-0.05518404766917229,-1.0496516227722168,0.0269550122320652,2.123047113418579,2.4416143894195557
974.410000,0.3806356191635132,1.240432858467102,-0.05528534576296806,-1.0496509075164795,0.027343103662133217,2.1230483055114746,2.442430019378662
974.431000,0.3806605339050293,1.2404364347457886,-0.055349551141262054,-1.0496498346328735,0.027671506628394127,2.12304949760437,2.4432260990142822
974.451000,0.380668580532074,1.2404392957687378,-0.05538828298449516,-1.049648642539978,0.02794894576072693,2.1230506896972656,2.4440014362335205
974.468000,0.3806438744068146,1.2404406070709229,-0.05535373464226723,-1.0496466159820557,0.028099384158849716,2.123051881790161,2.4448022842407227
974.489000,0.3806059658527374,1.240441083908081,-0.05527639389038086,-1.0496442317962646,0.028150133788585663,2.1230530738830566,2.445617437362671
974.509000,0.3805633783340454,1.2404416799545288,-0.05522193759679794,-1.0496426820755005,0.02820519544184208,2.1230545043945312,2.4463350772857666
974.530000,0.38050273060798645,1.2404417991638184,-0.05516352131962776,-1.0496413707733154,0.028238598257303238,2.123055934906006,2.446972370147705
974.550000,0.3804264962673187,1.2404412031173706,-0.05507611483335495,-1.0496397018432617,0.028210215270519257,2.1230571269989014,2.447587490081787
974.570000,0.3803478181362152,1.2404403686523438,-0.05497872456908226,-1.049638032913208,0.028142262250185013,2.123058319091797,2.44818115234375
974.587000,0.38025611639022827,1.240438461303711,-0.05480237677693367,-1.0496351718902588,0.027922365814447403,2.1230595111846924,2.4488697052001953
974.607000,0.3802511394023895,1.2404423952102661,-0.05501310154795647,-1.0496388673782349,0.028284816071391106,2.123060941696167,2.448986530303955
974.627000,0.3801993131637573,1.2404465675354004,-0.05536548048257828,-1.049644947052002,0.028987539932131767,2.1230623722076416,2.4486610889434814
974.648000,0.38009223341941833,1.240450143814087,-0.05578647553920746,-1.049652099609375,0.029942816123366356,2.123063802719116,2.4479963779449463
974.664000,0.3798583745956421,1.2404462099075317,-0.055779967457056046,-1.0496519804000854,0.030339958146214485,2.1230649948120117,2.447787046432495
974.685000,0.37965741753578186,1.2404413223266602,-0.05561329424381256,-1.0496492385864258,0.030426666140556335,2.1230661869049072,2.4479310512542725
974.705000,0.37958019971847534,1.2404435873031616,-0.05581750348210335,-1.0496528148651123,0.03102520853281021,2.123067617416382,2.4476325511932373
974.727000,0.3794728219509125,1.2404468059539795,-0.05614176765084267,-1.0496582984924316,0.031889744102954865,2.1230690479278564,2.4469947814941406
974.747000,0.3793191611766815,1.2404499053955078,-0.05652063339948654,-1.0496646165847778,0.03294457867741585,2.123070240020752,2.4460973739624023
974.764000,0.37912091612815857,1.2404528856277466,-0.05692312866449356,-1.0496711730957031,0.034138765186071396,2.1230714321136475,2.4450039863586426
974.784000,0.37888526916503906,1.2404555082321167,-0.0573301799595356,-1.049677848815918,0.03543294966220856,2.123072624206543,2.4437665939331055
974.805000,0.3786207437515259,1.2404580116271973,-0.057730335742235184,-1.0496844053268433,0.03679617494344711,2.1230738162994385,2.4424266815185547
974.826000,0.3783324360847473,1.2404603958129883,-0.05811718478798866,-1.0496906042099,0.03820032998919487,2.123075008392334,2.441016435623169
974.845000,0.3780224323272705,1.2404628992080688,-0.05848703533411026,-1.0496963262557983,0.039621058851480484,2.1230759620666504,2.439561367034912
974.863000,0.37769588828086853,1.240465521812439,-0.05884066969156265,-1.0497015714645386,0.04104379191994667,2.123076915740967,2.438081979751587
974.883000,0.3773518204689026,1.2404685020446777,-0.05917656421661377,-1.049706220626831,0.04245339706540108,2.123077869415283,2.4365928173065186
974.904000,0.37698623538017273,1.2404718399047852,-0.05949521064758301,-1.0497101545333862,0.043838586658239365,2.1230788230895996,2.4351017475128174
974.925000,0.3766014277935028,1.2404754161834717,-0.05979904904961586,-1.0497134923934937,0.04519345983862877,2.123079776763916,2.433619499206543
974.946000,0.37619489431381226,1.2404793500900269,-0.06008915230631828,-1.0497162342071533,0.04651050642132759,2.1230807304382324,2.43215274810791
974.963000,0.3757694363594055,1.2404836416244507,-0.06036893650889397,-1.0497184991836548,0.047788407653570175,2.123081684112549,2.4307079315185547
974.983000,0.3753208518028259,1.2404882907867432,-0.060639191418886185,-1.049720048904419,0.049019623547792435,2.1230826377868652,2.4292895793914795
975.004000,0.3748517334461212,1.2404932975769043,-0.06090473383665085,-1.049721121788025,0.05020563304424286,2.1230835914611816,2.42790150642395
975.023000,0.3743574321269989,1.2404987812042236,-0.06116820126771927,-1.049721598625183,0.05134258791804314,2.123084545135498,2.4265425205230713
975.046000,0.3738401532173157,1.2405046224594116,-0.06143362447619438,-1.0497217178344727,0.05243247374892235,2.1230854988098145,2.425215721130371
975.060000,0.3732934594154358,1.2405108213424683,-0.06170164421200752,-1.049721121788025,0.05346829444169998,2.123086452484131,2.4239189624786377
975.084000,0.3727107346057892,1.240517497062683,-0.06198132038116455,-1.0497198104858398,0.05444605275988579,2.1230874061584473,2.4226465225219727
975.104000,0.37209469079971313,1.2405246496200562,-0.062280040234327316,-1.0497180223464966,0.05536886677145958,2.1230883598327637,2.4214017391204834
975.126000,0.37144023180007935,1.240532398223877,-0.0626085177063942,-1.0497157573699951,0.05624113231897354,2.12308931350708,2.4201714992523193
975.145000,0.3707493245601654,1.2405405044555664,-0.06296870112419128,-1.0497132539749146,0.0570635125041008,2.1230905055999756,2.4189612865448
975.163000,0.3700180649757385,1.2405470609664917,-0.06336978077888489,-1.0497148036956787,0.0578414723277092,2.123091697692871,2.417757034301758
975.183000,0.3692370355129242,1.2405550479888916,-0.06381990760564804,-1.0497161149978638,0.05856833606958389,2.1230928897857666,2.416550874710083
975.204000,0.3684096336364746,1.2405638694763184,-0.06432326138019562,-1.0497173070907593,0.059244684875011444,2.123094320297241,2.4153518676757812
975.225000,0.3675321638584137,1.24057137966156,-0.06488753110170364,-1.049722671508789,0.059868890792131424,2.123095750808716,2.4141578674316406
975.246000,0.36641398072242737,1.240546703338623,-0.06444061547517776,-1.04971444606781,0.05888286232948303,2.1230974197387695,2.4142768383026123
975.262000,0.3653858006000519,1.2405084371566772,-0.06341958045959473,-1.0497013330459595,0.05672537162899971,2.123098134994507,2.415489435195923
975.283000,0.3647293448448181,1.2404980659484863,-0.06319805979728699,-1.0497082471847534,0.055316150188446045,2.123098373413086,2.4161412715911865
975.303000,0.3640955686569214,1.2404991388320923,-0.06338204443454742,-1.0497252941131592,0.054283950477838516,2.1230993270874023,2.416355609893799
975.325000,0.3633926212787628,1.2405054569244385,-0.06387554854154587,-1.0497514009475708,0.053534358739852905,2.123100757598877,2.4162251949310303
975.342000,0.3625909984111786,1.2405145168304443,-0.06462451070547104,-1.0497846603393555,0.053020380437374115,2.1231024265289307,2.415829658508301
975.362000,0.36166805028915405,1.2405279874801636,-0.06558570265769958,-1.0498236417770386,0.05268888920545578,2.1231043338775635,2.415229320526123
975.383000,0.36062493920326233,1.2405425310134888,-0.06672733277082443,-1.0498701333999634,0.05250855162739754,2.1231062412261963,2.4144749641418457
975.403000,0.35945436358451843,1.2405610084533691,-0.0680207908153534,-1.0499228239059448,0.052437953650951385,2.123108386993408,2.413602828979492
975.424000,0.35814791917800903,1.2405842542648315,-0.06944888830184937,-1.0499845743179321,0.05243964120745659,2.12311053276062,2.412637948989868
975.443000,0.35651251673698425,1.2405695915222168,-0.06943246722221375,-1.0500167608261108,0.05028468742966652,2.1231064796447754,2.4135987758636475
975.461000,0.35525384545326233,1.2405860424041748,-0.07024199515581131,-1.0500750541687012,0.048979464918375015,2.1231014728546143,2.4140379428863525
975.480000,0.3539608418941498,1.2406166791915894,-0.0713941678404808,-1.0501490831375122,0.04803036153316498,2.1230967044830322,2.4140713214874268
975.501000,0.3523600697517395,1.240607738494873,-0.07103841006755829,-1.0501928329467773,0.04483872652053833,2.1230857372283936,2.4161078929901123
975.522000,0.35117292404174805,1.240636944770813,-0.07171475887298584,-1.0502697229385376,0.04279032722115517,2.1230740547180176,2.417330026626587
975.542000,0.3499005436897278,1.240683913230896,-0.07283414155244827,-1.0503686666488647,0.04126833751797676,2.1230626106262207,2.417915105819702
975.559000,0.34843987226486206,1.2407455444335938,-0.0742790624499321,-1.0504896640777588,0.040133632719516754,2.123051643371582,2.4179863929748535
975.580000,0.34661975502967834,1.2407646179199219,-0.07402798533439636,-1.0505754947662354,0.03651096299290657,2.123029947280884,2.4203898906707764
975.600000,0.3451090455055237,1.240771770477295,-0.07298440486192703,-1.0506389141082764,0.03146490454673767,2.122999429702759,2.424577236175537
975.621000,0.3439904451370239,1.2407728433609009,-0.07128284126520157,-1.050680160522461,0.025187136605381966,2.122957229614258,2.4303061962127686
975.642000,0.3432890474796295,1.2407736778259277,-0.06904037296772003,-1.0507028102874756,0.01783510483801365,2.122903347015381,2.437379837036133
975.658000,0.3430899381637573,1.2408382892608643,-0.06864386796951294,-1.0507630109786987,0.012859037145972252,2.122863292694092,2.442235231399536
975.679000,0.3424965441226959,1.2408734560012817,-0.06683321297168732,-1.050797939300537,0.005853697657585144,2.1228013038635254,2.448758602142334
975.700000,0.34217479825019836,1.2409080266952515,-0.06445612758398056,-1.0508192777633667,-0.0022651609033346176,2.122715950012207,2.4567360877990723
975.720000,0.34221258759498596,1.2409489154815674,-0.06178700551390648,-1.0508309602737427,-0.011098470538854599,2.1226134300231934,2.465780735015869
975.742000,0.3426080346107483,1.2410470247268677,-0.06133849546313286,-1.0508688688278198,-0.0169357992708683,2.1225409507751465,2.4718949794769287
975.758000,0.3424330949783325,1.2411679029464722,-0.061933357268571854,-1.050919771194458,-0.021121319383382797,2.1224849224090576,2.4756877422332764
975.779000,0.34158700704574585,1.241307258605957,-0.06331291794776917,-1.0509895086288452,-0.02402464859187603,2.122441053390503,2.477661609649658
975.800000,0.34006816148757935,1.241466999053955,-0.06531651318073273,-1.0510776042938232,-0.025895673781633377,2.122408151626587,2.478207588195801
975.821000,0.3379330635070801,1.241590976715088,-0.0652967095375061,-1.051165223121643,-0.030589034780859947,2.1223251819610596,2.481550693511963
975.841000,0.33613237738609314,1.2417612075805664,-0.06697288155555725,-1.0512639284133911,-0.033041469752788544,2.1222777366638184,2.4831228256225586
975.858000,0.3338596522808075,1.2419488430023193,-0.06927825510501862,-1.051367163658142,-0.03445249795913696,2.122257947921753,2.483311891555786
975.879000,0.3310650885105133,1.242150902748108,-0.07202886790037155,-1.0514798164367676,-0.035088539123535156,2.1222591400146484,2.4824318885803223
975.900000,0.32776597142219543,1.2423733472824097,-0.07512231171131134,-1.051604986190796,-0.03512021526694298,2.1222951412200928,2.480729103088379
975.920000,0.3240238130092621,1.2426121234893799,-0.07848925143480301,-1.051742434501648,-0.03465951234102249,2.1223583221435547,2.478402853012085
975.940000,0.31987816095352173,1.2428736686706543,-0.08205509930849075,-1.0518935918807983,-0.03382395952939987,2.122471809387207,2.4756107330322266
975.957000,0.3153948485851288,1.2431515455245972,-0.08577219396829605,-1.0520551204681396,-0.032686274498701096,2.122623920440674,2.4724786281585693
975.978000,0.3106098175048828,1.2434532642364502,-0.08958578109741211,-1.052228569984436,-0.03133189305663109,2.1228435039520264,2.4691054821014404
975.999000,0.3055506646633148,1.2437849044799805,-0.09345637261867523,-1.0524131059646606,-0.029833529144525528,2.123154640197754,2.4655699729919434
976.020000,0.3004361391067505,1.2440428733825684,-0.09592477232217789,-1.0526107549667358,-0.030151063576340675,2.123434543609619,2.463912010192871
976.040000,0.29570186138153076,1.2443618774414062,-0.09898845106363297,-1.0527973175048828,-0.029654137790203094,2.123832941055298,2.4617369174957275
976.058000,0.2910619378089905,1.2446329593658447,-0.10118380188941956,-1.052973747253418,-0.03021204099059105,2.124220609664917,2.460587978363037
976.078000,0.2866830825805664,1.2449674606323242,-0.10388293862342834,-1.0531364679336548,-0.030058305710554123,2.1247384548187256,2.458829164505005
976.098000,0.2821660339832306,1.2453534603118896,-0.10677561908960342,-1.0532937049865723,-0.02961479313671589,2.125396490097046,2.456611394882202
976.118000,0.27744144201278687,1.2457753419876099,-0.10984616726636887,-1.0534496307373047,-0.02894359454512596,2.1261584758758545,2.454055070877075
976.139000,0.2724723815917969,1.2462382316589355,-0.11307287216186523,-1.053612470626831,-0.028094740584492683,2.1270456314086914,2.4512548446655273
976.156000,0.26728764176368713,1.2466728687286377,-0.1161455288529396,-1.0537664890289307,-0.02748826891183853,2.1279025077819824,2.4486448764801025
976.176000,0.2619864046573639,1.2471596002578735,-0.11943896114826202,-1.0539367198944092,-0.02662837691605091,2.128910541534424,2.445841073989868
976.198000,0.2565060555934906,1.2476223707199097,-0.12268918752670288,-1.0540974140167236,-0.025857210159301758,2.1298911571502686,2.4431066513061523
976.218000,0.25089478492736816,1.248082160949707,-0.12599800527095795,-1.0542644262313843,-0.02506573498249054,2.1308908462524414,2.4403886795043945
976.238000,0.24514472484588623,1.2486059665679932,-0.12945328652858734,-1.054453730583191,-0.024115649983286858,2.1320884227752686,2.437558889389038
976.255000,0.23924130201339722,1.2491191625595093,-0.13290518522262573,-1.054638147354126,-0.023225218057632446,2.1332898139953613,2.434846878051758
976.276000,0.23324476182460785,1.2496213912963867,-0.13640096783638,-1.054826021194458,-0.022327400743961334,2.134486675262451,2.4322447776794434
976.297000,0.2271554321050644,1.2501298189163208,-0.13988566398620605,-1.0550216436386108,-0.02149691805243492,2.1357192993164062,2.429823875427246
976.318000,0.2209874838590622,1.250688910484314,-0.14350588619709015,-1.0552315711975098,-0.02048344537615776,2.137117624282837,2.4272937774658203
976.339000,0.21469447016716003,1.2512753009796143,-0.1471640020608902,-1.0554338693618774,-0.019397558644413948,2.138634443283081,2.4246866703033447
976.360000,0.20832212269306183,1.251847743988037,-0.15065251290798187,-1.0556262731552124,-0.018573081120848656,2.1401617527008057,2.422424077987671
976.376000,0.2019776999950409,1.2524129152297974,-0.15409034490585327,-1.0558149814605713,-0.017856687307357788,2.1416876316070557,2.420443296432495
976.397000,0.19567535817623138,1.2529796361923218,-0.1574641764163971,-1.0559989213943481,-0.01725327968597412,2.1432247161865234,2.4187357425689697
976.418000,0.1893928498029709,1.2535635232925415,-0.16100852191448212,-1.0561668872833252,-0.016387538984417915,2.144808053970337,2.4167978763580322
976.438000,0.1830938458442688,1.2541288137435913,-0.16435110569000244,-1.0563244819641113,-0.015794502571225166,2.1463820934295654,2.4151835441589355
976.458000,0.17687931656837463,1.2546918392181396,-0.16761630773544312,-1.0564709901809692,-0.015330358408391476,2.147951364517212,2.4138453006744385
976.474000,0.1707182079553604,1.2552590370178223,-0.17108194530010223,-1.0565978288650513,-0.01457514613866806,2.149526834487915,2.4122190475463867
976.495000,0.16452254354953766,1.255810260772705,-0.17460514605045319,-1.0567060708999634,-0.013709438033401966,2.151094913482666,2.41038179397583
976.516000,0.15829961001873016,1.2563438415527344,-0.17817054688930511,-1.0567971467971802,-0.012780994176864624,2.15264630317688,2.4083945751190186
976.537000,0.15206429362297058,1.2568585872650146,-0.1817808598279953,-1.0568770170211792,-0.011817608959972858,2.1541738510131836,2.4063053131103516
976.554000,0.145837664604187,1.257354974746704,-0.18543478846549988,-1.0569493770599365,-0.010826386511325836,2.155672550201416,2.404151678085327
976.575000,0.13967065513134003,1.2578281164169312,-0.1888357698917389,-1.0570178031921387,-0.01025981456041336,2.157133102416992,2.402543306350708
976.596000,0.13366930186748505,1.2582945823669434,-0.1921437829732895,-1.057083249092102,-0.009914043359458447,2.158557176589966,2.40138578414917
976.617000,0.12783505022525787,1.2587536573410034,-0.1953897774219513,-1.0571459531784058,-0.009715287946164608,2.1599433422088623,2.4005844593048096
976.636000,0.1221461296081543,1.259205937385559,-0.1985790878534317,-1.0572028160095215,-0.00964837521314621,2.1612913608551025,2.4000799655914307
976.653000,0.11656902730464935,1.259657859802246,-0.2020406574010849,-1.0572481155395508,-0.009194504469633102,2.162602663040161,2.399193525314331
976.674000,0.1109907254576683,1.260089635848999,-0.2055928111076355,-1.0572848320007324,-0.008577922359108925,2.1638753414154053,2.3980183601379395
976.695000,0.10542778670787811,1.2604975700378418,-0.2088969200849533,-1.0573161840438843,-0.008374439552426338,2.1651017665863037,2.3972690105438232
976.716000,0.0999889075756073,1.260909080505371,-0.21246744692325592,-1.05734121799469,-0.007830220274627209,2.166287899017334,2.3962128162384033
976.736000,0.09456688165664673,1.2613036632537842,-0.21612420678138733,-1.0573612451553345,-0.007147641386836767,2.167433500289917,2.3949267864227295
976.754000,0.08916904777288437,1.2616811990737915,-0.21982870995998383,-1.0573785305023193,-0.0063686678186059,2.1685400009155273,2.39347243309021
976.774000,0.08381359279155731,1.2620407342910767,-0.22324641048908234,-1.057394027709961,-0.006061606574803591,2.1696062088012695,2.392557382583618
976.796000,0.07862120121717453,1.2624040842056274,-0.22658196091651917,-1.0574100017547607,-0.005966607015579939,2.170635223388672,2.3920650482177734
976.816000,0.07356803864240646,1.2627688646316528,-0.22983363270759583,-1.057423710823059,-0.006069059018045664,2.171628475189209,2.3919410705566406
976.837000,0.0686262995004654,1.26313054561615,-0.23296017944812775,-1.057434320449829,-0.006426403298974037,2.1725869178771973,2.392199754714966
976.853000,0.06383146345615387,1.263480305671692,-0.23642303049564362,-1.0574249029159546,-0.006246098317205906,2.173428535461426,2.391956329345703
976.873000,0.05904416739940643,1.2637962102890015,-0.23996131122112274,-1.0574058294296265,-0.00580646563321352,2.174172878265381,2.391326665878296
976.895000,0.054225146770477295,1.264090895652771,-0.24295741319656372,-1.0573991537094116,-0.006152539048343897,2.1749186515808105,2.391462802886963
976.915000,0.04963807016611099,1.2643542289733887,-0.24631981551647186,-1.057326078414917,-0.005910017993301153,2.1753594875335693,2.391129493713379
976.935000,0.045038286596536636,1.2646087408065796,-0.2491001933813095,-1.0573006868362427,-0.006524935364723206,2.1758627891540527,2.391664505004883
976.952000,0.04071192443370819,1.2648144960403442,-0.2523181438446045,-1.0571801662445068,-0.0064333584159612656,2.175931453704834,2.3916378021240234
976.972000,0.03636199235916138,1.2650343179702759,-0.2548792362213135,-1.0571342706680298,-0.00730262603610754,2.176142930984497,2.3925886154174805
976.994000,0.032214850187301636,1.265308141708374,-0.257209450006485,-1.0571259260177612,-0.008648148737847805,2.1764652729034424,2.3942878246307373
977.015000,0.028261400759220123,1.2656174898147583,-0.2593145966529846,-1.057140827178955,-0.010486052371561527,2.176870584487915,2.3967437744140625
977.032000,0.02450275421142578,1.2659549713134766,-0.26121246814727783,-1.057166337966919,-0.012813189998269081,2.1773364543914795,2.3999645709991455
977.050000,0.02094198949635029,1.2663151025772095,-0.2630142867565155,-1.0571978092193604,-0.015445737168192863,2.1778459548950195,2.4037537574768066
977.071000,0.017544884234666824,1.2666856050491333,-0.26464760303497314,-1.057231068611145,-0.018485331907868385,2.1783814430236816,2.4081904888153076
977.092000,0.01432121079415083,1.267067551612854,-0.26621711254119873,-1.057265281677246,-0.021756546571850777,2.1789331436157227,2.4130964279174805
977.113000,0.01124048326164484,1.2674530744552612,-0.26765182614326477,-1.0572991371154785,-0.025356469675898552,2.1794915199279785,2.418548345565796
977.134000,0.008312080055475235,1.2678439617156982,-0.26893875002861023,-1.0573327541351318,-0.02932322397828102,2.180048942565918,2.4246129989624023
977.155000,0.00554640032351017,1.268243432044983,-0.2701829969882965,-1.0573662519454956,-0.03347964212298393,2.1806020736694336,2.4311084747314453
977.172000,0.002911441260948777,1.2686443328857422,-0.27130401134490967,-1.0573989152908325,-0.037936292588710785,2.181144952774048,2.438123941421509
977.194000,0.0006355689838528633,1.268669605255127,-0.27368447184562683,-1.0570087432861328,-0.04008420929312706,2.1798291206359863,2.442781448364258
977.214000,-0.0017370940186083317,1.2683671712875366,-0.2763618230819702,-1.0564254522323608,-0.04092054441571236,2.1770801544189453,2.4455857276916504
977.235000,-0.00419574324041605,1.267859697341919,-0.2790793776512146,-1.0557316541671753,-0.04078005999326706,2.1731739044189453,2.4469404220581055
977.251000,-0.00668795220553875,1.2672399282455444,-0.28171637654304504,-1.0549895763397217,-0.03988151252269745,2.1683735847473145,2.4471676349639893
977.272000,-0.009172703139483929,1.266574501991272,-0.2842123508453369,-1.0542399883270264,-0.03840389475226402,2.162916421890259,2.4465224742889404
977.294000,-0.011616651900112629,1.2659022808074951,-0.2865310609340668,-1.05350661277771,-0.03648458793759346,2.156987428665161,2.445208787918091
977.314000,-0.01412070170044899,1.2654321193695068,-0.2878674566745758,-1.0529999732971191,-0.03576557710766792,2.1516199111938477,2.445117950439453
977.335000,-0.016284028068184853,1.264985203742981,-0.2896425127983093,-1.052414894104004,-0.03411150351166725,2.1458446979522705,2.444242000579834
977.352000,-0.018383629620075226,1.2644987106323242,-0.2913685739040375,-1.051822304725647,-0.03202613815665245,2.1397900581359863,2.442767381668091
977.373000,-0.020434223115444183,1.2639988660812378,-0.29294759035110474,-1.05124032497406,-0.02964736707508564,2.133561134338379,2.44084095954895
977.394000,-0.022509898990392685,1.2635825872421265,-0.2939397990703583,-1.050763726234436,-0.027869541198015213,2.127617359161377,2.439434051513672
977.414000,-0.02445199340581894,1.2632393836975098,-0.2947804629802704,-1.0503227710723877,-0.026215068995952606,2.1218080520629883,2.4381909370422363
977.436000,-0.026297079399228096,1.2629474401474,-0.29547959566116333,-1.0499175786972046,-0.024704119190573692,2.116142511367798,2.4370830059051514
977.453000,-0.02805294655263424,1.2626792192459106,-0.2961446940898895,-1.0495268106460571,-0.023147979751229286,2.1105425357818604,2.435863971710205
977.473000,-0.029755068942904472,1.2624119520187378,-0.2967601716518402,-1.0491485595703125,-0.02149360440671444,2.1049740314483643,2.4344048500061035
977.494000,-0.03142204135656357,1.2621501684188843,-0.2972559332847595,-1.0487911701202393,-0.019818415865302086,2.0994679927825928,2.4327707290649414
977.515000,-0.033038463443517685,1.2618930339813232,-0.2976604104042053,-1.048446774482727,-0.018049409613013268,2.094008207321167,2.430891990661621
977.536000,-0.03450236842036247,1.2616263628005981,-0.2980377674102783,-1.0480997562408447,-0.01596403867006302,2.088496446609497,2.428738832473755
977.552000,-0.03582410886883736,1.2613463401794434,-0.29826706647872925,-1.0477513074874878,-0.013607630506157875,2.082942485809326,2.4263908863067627
977.573000,-0.03701457008719444,1.2610647678375244,-0.29828086495399475,-1.0474083423614502,-0.01104564405977726,2.077394485473633,2.4239087104797363
977.594000,-0.03819781914353371,1.2607967853546143,-0.29799604415893555,-1.0470929145812988,-0.008499838411808014,2.0719892978668213,2.421246290206909
977.615000,-0.03936518356204033,1.2605448961257935,-0.2974497973918915,-1.0468019247055054,-0.006067624781280756,2.0667307376861572,2.4184632301330566
977.636000,-0.04048103839159012,1.2603036165237427,-0.296732634305954,-1.0465306043624878,-0.0036993317771703005,2.061586380004883,2.4155282974243164
977.652000,-0.041532695293426514,1.2600688934326172,-0.295867919921875,-1.0462677478790283,-0.0013781392481178045,2.0565292835235596,2.412443161010742
977.673000,-0.042360492050647736,1.25984787940979,-0.29486334323883057,-1.0459787845611572,0.0009784335270524025,2.0514605045318604,2.4094948768615723
977.694000,-0.04309482127428055,1.2596385478973389,-0.2937256097793579,-1.0457017421722412,0.0033854853827506304,2.046499729156494,2.4063990116119385
977.716000,-0.04378649592399597,1.2594355344772339,-0.29239675402641296,-1.0454354286193848,0.005704743787646294,2.0416557788848877,2.4032108783721924
977.736000,-0.04441067576408386,1.2592394351959229,-0.2909116744995117,-1.0451701879501343,0.007946743629872799,2.0369040966033936,2.3999509811401367
977.753000,-0.044943343847990036,1.2590502500534058,-0.28928959369659424,-1.0448987483978271,0.010136168450117111,2.0322301387786865,2.396632671356201
977.773000,-0.04519103467464447,1.2588881254196167,-0.28752657771110535,-1.044582486152649,0.012330878525972366,2.0275657176971436,2.393627882003784
977.794000,-0.04512658342719078,1.2587575912475586,-0.28566455841064453,-1.0442283153533936,0.014647086150944233,2.022941827774048,2.3908863067626953
977.815000,-0.0447697788476944,1.2586462497711182,-0.2836728096008301,-1.0438313484191895,0.01708611659705639,2.018357276916504,2.388369083404541
977.836000,-0.04416120424866676,1.2585490942001343,-0.2815215289592743,-1.0433992147445679,0.01960468851029873,2.0138347148895264,2.386042594909668
977.852000,-0.04349362850189209,1.2584418058395386,-0.27922096848487854,-1.042959451675415,0.022157318890094757,2.0094261169433594,2.3834919929504395
977.873000,-0.04260820150375366,1.2583338022232056,-0.27670735120773315,-1.0424766540527344,0.024621376767754555,2.0050406455993652,2.381173849105835
977.894000,-0.04163668677210808,1.2582273483276367,-0.2740938365459442,-1.0419918298721313,0.027089685201644897,2.000772476196289,2.378652334213257
977.915000,-0.04042712226510048,1.2581247091293335,-0.27131375670433044,-1.041466236114502,0.029451992362737656,1.9965167045593262,2.3763906955718994
977.936000,-0.03912303224205971,1.2580293416976929,-0.26847806572914124,-1.0409423112869263,0.03181437402963638,1.9923782348632812,2.373936653137207
977.952000,-0.037773970514535904,1.2579270601272583,-0.2655164897441864,-1.040409803390503,0.03404504060745239,1.9883257150650024,2.371342897415161
977.973000,-0.036368127912282944,1.2578264474868774,-0.2624523341655731,-1.0398755073547363,0.03612580522894859,1.9843676090240479,2.368659496307373
977.994000,-0.03486625850200653,1.2577284574508667,-0.25932958722114563,-1.0393315553665161,0.03809163719415665,1.9804743528366089,2.365919351577759
978.015000,-0.03326686844229698,1.257637858390808,-0.2561579644680023,-1.0387837886810303,0.03994069620966911,1.9766581058502197,2.363154649734497
978.036000,-0.03154326602816582,1.257551670074463,-0.25296375155448914,-1.0382241010665894,0.04170602932572365,1.9728902578353882,2.3603851795196533
978.053000,-0.029667600989341736,1.2574654817581177,-0.2497587949037552,-1.0376454591751099,0.04341640695929527,1.9691450595855713,2.3576278686523438
978.073000,-0.027650143951177597,1.2573835849761963,-0.2465297430753708,-1.037055253982544,0.04505910351872444,1.9654432535171509,2.3548989295959473
978.094000,-0.025471799075603485,1.2573025226593018,-0.24328988790512085,-1.0364443063735962,0.04665553942322731,1.9617570638656616,2.3522086143493652
978.114000,-0.022906655445694923,1.2572252750396729,-0.24004137516021729,-1.0357565879821777,0.04824407771229744,1.9579498767852783,2.3500008583068848
978.134000,-0.02013532631099224,1.2571585178375244,-0.2368623912334442,-1.0350626707077026,0.04994051903486252,1.9541867971420288,2.347745418548584
978.152000,-0.017279554158449173,1.2570922374725342,-0.23361676931381226,-1.0343635082244873,0.05155429616570473,1.9504846334457397,2.3454689979553223
978.173000,-0.014318249188363552,1.257026195526123,-0.23033414781093597,-1.0336452722549438,0.05309241637587547,1.94680655002594,2.3431918621063232
978.193000,-0.01125809084624052,1.2569658756256104,-0.22702370584011078,-1.0329179763793945,0.054544661194086075,1.9431726932525635,2.3409297466278076
978.214000,-0.008077737875282764,1.2569116353988647,-0.2237134873867035,-1.032165765762329,0.0559360645711422,1.9395532608032227,2.3386945724487305
978.235000,-0.004753771238029003,1.2568647861480713,-0.2204183042049408,-1.0313749313354492,0.05728898569941521,1.9359338283538818,2.336496114730835
978.252000,-0.001300271600484848,1.2568261623382568,-0.21712668240070343,-1.0305569171905518,0.0585879422724247,1.9323394298553467,2.334341526031494
978.272000,0.002296379068866372,1.2568042278289795,-0.21385282278060913,-1.0296943187713623,0.059850502759218216,1.9287632703781128,2.33223557472229
978.293000,0.0060533396899700165,1.2568044662475586,-0.21060378849506378,-1.0287727117538452,0.06109081953763962,1.925208568572998,2.3301825523376465
978.313000,0.00995361153036356,1.2568186521530151,-0.20736539363861084,-1.027807593345642,0.06228818744421005,1.9216952323913574,2.3281846046447754
978.335000,0.014005321078002453,1.2568535804748535,-0.20414882898330688,-1.02678382396698,0.0634535476565361,1.9182270765304565,2.3262441158294678
978.351000,0.018188845366239548,1.2569029331207275,-0.20094622671604156,-1.0257147550582886,0.06456982344388962,1.9148179292678833,2.324361562728882
978.372000,0.02250976860523224,1.256974220275879,-0.19777169823646545,-1.0245862007141113,0.06564990431070328,1.911470890045166,2.3225369453430176
978.394000,0.026980089023709297,1.2570706605911255,-0.19464276731014252,-1.0233877897262573,0.06671608984470367,1.9081919193267822,2.3207590579986572
978.413000,0.031577713787555695,1.257182240486145,-0.1915435492992401,-1.0221343040466309,0.06774542480707169,1.904988408088684,2.3190295696258545
978.434000,0.03630411997437477,1.257313847541809,-0.18848079442977905,-1.0208179950714111,0.06874309480190277,1.9018628597259521,2.3173489570617676
978.450000,0.04134664684534073,1.2574985027313232,-0.18544434010982513,-1.0193896293640137,0.06972425431013107,1.898815631866455,2.3161635398864746
978.471000,0.046726733446121216,1.2577217817306519,-0.18253666162490845,-1.0178695917129517,0.07082589715719223,1.8958485126495361,2.31536865234375
978.491000,0.05220963805913925,1.2579342126846313,-0.17975319921970367,-1.0163122415542603,0.07203135639429092,1.8929648399353027,2.31443452835083
978.512000,0.0576828271150589,1.2581270933151245,-0.17694196105003357,-1.0147316455841064,0.0731416642665863,1.8901675939559937,2.313399314880371
978.533000,0.06314052641391754,1.258307695388794,-0.17411091923713684,-1.0131425857543945,0.07413407415151596,1.8874567747116089,2.312293291091919
978.550000,0.06858091056346893,1.2584770917892456,-0.1712634563446045,-1.011555790901184,0.07499483227729797,1.8848332166671753,2.311131000518799
978.571000,0.07397859543561935,1.2586314678192139,-0.16838374733924866,-1.0099815130233765,0.07569073140621185,1.882299780845642,2.309885263442993
978.592000,0.07933436334133148,1.2587748765945435,-0.16547513008117676,-1.0084240436553955,0.07621137797832489,1.8798542022705078,2.3085837364196777
978.614000,0.08462126553058624,1.2589057683944702,-0.16256368160247803,-1.0068912506103516,0.07657264173030853,1.8774925470352173,2.3071353435516357
978.633000,0.0897967666387558,1.2590219974517822,-0.15963773429393768,-1.0053879022598267,0.07674749940633774,1.8752117156982422,2.305466890335083
978.651000,0.09486538171768188,1.259128451347351,-0.15668408572673798,-1.003915548324585,0.07671123743057251,1.8730101585388184,2.3036398887634277
978.671000,0.09980981796979904,1.2592264413833618,-0.15373294055461884,-1.002478837966919,0.07648653537034988,1.8708844184875488,2.301579236984253
978.692000,0.10463522374629974,1.25931978225708,-0.15077082812786102,-1.0010783672332764,0.07605477422475815,1.8688328266143799,2.2993526458740234
978.713000,0.10932457447052002,1.2594090700149536,-0.1478276550769806,-0.9997174739837646,0.07544317841529846,1.8668521642684937,2.2968852519989014
978.733000,0.11388422548770905,1.259500503540039,-0.14488652348518372,-0.9983935356140137,0.07463415712118149,1.864940881729126,2.2942490577697754
978.750000,0.11829619109630585,1.2595906257629395,-0.14196759462356567,-0.9971113204956055,0.0736464262008667,1.8630958795547485,2.291377067565918
978.771000,0.12257099896669388,1.2596843242645264,-0.13905473053455353,-0.9958673715591431,0.0724651888012886,1.8613159656524658,2.2883431911468506
978.793000,0.12684902548789978,1.25979483127594,-0.13617144525051117,-0.9946552515029907,0.07113167643547058,1.859601378440857,2.285504102706909
978.812000,0.13127389550209045,1.2599395513534546,-0.1333913505077362,-0.9934642910957336,0.06976134330034256,1.8579438924789429,2.283137798309326
978.833000,0.1358450949192047,1.2601181268692017,-0.13079768419265747,-0.9923020601272583,0.06847769021987915,1.856345772743225,2.2811529636383057
978.849000,0.14057892560958862,1.260331630706787,-0.12835873663425446,-0.9911628365516663,0.06728880107402802,1.8547987937927246,2.279649257659912
978.869000,0.14550957083702087,1.2605849504470825,-0.12607364356517792,-0.990047812461853,0.06623688340187073,1.8533073663711548,2.278677463531494
978.891000,0.1505976915359497,1.2608722448349,-0.1239451915025711,-0.9889608025550842,0.06534901261329651,1.8518685102462769,2.278123140335083
978.912000,0.15578028559684753,1.2611857652664185,-0.12193606793880463,-0.9879036545753479,0.0645938515663147,1.850480318069458,2.277894973754883
978.932000,0.16106028854846954,1.2615247964859009,-0.12000362575054169,-0.9868720769882202,0.06393759697675705,1.8491346836090088,2.2780375480651855
978.949000,0.16645629703998566,1.2618908882141113,-0.11814980208873749,-0.9858725070953369,0.06339496374130249,1.8478364944458008,2.278543710708618
978.970000,0.17193864285945892,1.2622807025909424,-0.11637265980243683,-0.9849065542221069,0.06296484172344208,1.8465837240219116,2.279327154159546
978.990000,0.17749185860157013,1.2626935243606567,-0.11465425789356232,-0.9839727878570557,0.06262890249490738,1.8453749418258667,2.2803566455841064
979.011000,0.183086097240448,1.2631254196166992,-0.11298750340938568,-0.9830716848373413,0.06237256899476051,1.8442083597183228,2.281568765640259
979.032000,0.18870389461517334,1.2635747194290161,-0.11137432605028152,-0.9822022318840027,0.06219201907515526,1.8430824279785156,2.2829108238220215
979.049000,0.1943235695362091,1.264041781425476,-0.10982795804738998,-0.9813588261604309,0.0620955191552639,1.8419955968856812,2.2843024730682373
979.070000,0.1999160647392273,1.2645227909088135,-0.10836401581764221,-0.9805407524108887,0.06209290400147438,1.8409463167190552,2.2856454849243164
979.091000,0.20545080304145813,1.2650120258331299,-0.10694404691457748,-0.9797474145889282,0.062132615596055984,1.8399336338043213,2.2869417667388916
979.112000,0.21091200411319733,1.265506625175476,-0.10558722913265228,-0.9789784550666809,0.062224071472883224,1.8389559984207153,2.288135290145874
979.133000,0.21628102660179138,1.2660006284713745,-0.10426869988441467,-0.9782372713088989,0.06233111023902893,1.838012456893921,2.289241075515747
979.149000,0.22154639661312103,1.2664947509765625,-0.10300610214471817,-0.9775190353393555,0.06246369332075119,1.837101697921753,2.290222644805908
979.170000,0.226695716381073,1.266983151435852,-0.10178031027317047,-0.9768245816230774,0.06259435415267944,1.836222767829895,2.2911012172698975
979.192000,0.23172195255756378,1.2674646377563477,-0.10060817748308182,-0.9761523604393005,0.06273214519023895,1.835374355316162,2.2918529510498047
979.212000,0.23661823570728302,1.2679359912872314,-0.09947595000267029,-0.9755048155784607,0.06285673379898071,1.8345556259155273,2.292501211166382
979.232000,0.24137794971466064,1.2683992385864258,-0.09839630126953125,-0.9748829007148743,0.06297559291124344,1.8337717056274414,2.293030023574829
979.250000,0.24599164724349976,1.268855094909668,-0.09736333042383194,-0.9742788076400757,0.06307750940322876,1.8330150842666626,2.2934441566467285
979.270000,0.2504614293575287,1.2693003416061401,-0.09636945277452469,-0.9736964702606201,0.06315205991268158,1.8322850465774536,2.293766736984253
979.291000,0.2547881007194519,1.2697384357452393,-0.09543369710445404,-0.9731385111808777,0.06321784853935242,1.8315913677215576,2.2939798831939697
979.312000,0.2589702606201172,1.270168662071228,-0.09454382210969925,-0.9726024270057678,0.0632626935839653,1.8309307098388672,2.2941067218780518
979.333000,0.26300758123397827,1.2705923318862915,-0.09370515495538712,-0.9720889925956726,0.06329191476106644,1.830307960510254,2.294144868850708
979.350000,0.26689377427101135,1.2710108757019043,-0.09291242063045502,-0.9715990424156189,0.06329820305109024,1.8297308683395386,2.2940962314605713
979.370000,0.2706335783004761,1.2714228630065918,-0.09216072410345078,-0.9711294174194336,0.06327677518129349,1.829193115234375,2.293980598449707
979.391000,0.27422794699668884,1.2718305587768555,-0.0914536789059639,-0.9706822633743286,0.0632312223315239,1.828704833984375,2.2937986850738525
979.411000,0.277760773897171,1.2722517251968384,-0.09075149893760681,-0.9702610373497009,0.06313875317573547,1.8283185958862305,2.293938398361206
979.432000,0.2812557518482208,1.2726820707321167,-0.09018207341432571,-0.9698604941368103,0.06314659118652344,1.8280127048492432,2.294325590133667
979.448000,0.28457239270210266,1.273101568222046,-0.08977648615837097,-0.9694786071777344,0.06327687948942184,1.8277435302734375,2.294503927230835
979.470000,0.2876591086387634,1.2735049724578857,-0.08938378840684891,-0.9691120386123657,0.0633658692240715,1.8275058269500732,2.2945196628570557
979.491000,0.2905534505844116,1.2738938331604004,-0.08899742364883423,-0.9687594771385193,0.06340225040912628,1.8272942304611206,2.2944095134735107
979.510000,0.29327645897865295,1.274273157119751,-0.0886189192533493,-0.9684237241744995,0.0633838027715683,1.8271205425262451,2.2941932678222656
979.532000,0.29583612084388733,1.2746464014053345,-0.0882486030459404,-0.9681048393249512,0.06330704689025879,1.826992154121399,2.2938878536224365
979.549000,0.29824909567832947,1.2750122547149658,-0.08789337426424026,-0.9677996635437012,0.0631796345114708,1.8268996477127075,2.293515682220459
979.569000,0.30056890845298767,1.275390625,-0.0874742716550827,-0.9675117135047913,0.06293299049139023,1.8269015550613403,2.293508768081665
979.591000,0.3027491569519043,1.2757630348205566,-0.08720660209655762,-0.9672306180000305,0.06278014928102493,1.8269270658493042,2.293369770050049
979.611000,0.30473360419273376,1.2761205434799194,-0.08695344626903534,-0.9669592380523682,0.06257836520671844,1.8269716501235962,2.2931299209594727
979.632000,0.306584894657135,1.2764946222305298,-0.08662991970777512,-0.9667040705680847,0.062253475189208984,1.827125906944275,2.293227195739746
979.648000,0.30834320187568665,1.2768784761428833,-0.08639861643314362,-0.9664624929428101,0.061985455453395844,1.8273624181747437,2.293584108352661
979.669000,0.30995288491249084,1.2772728204727173,-0.08625251799821854,-0.9662306308746338,0.06177553907036781,1.8276872634887695,2.2941389083862305
979.690000,0.3113920986652374,1.2776683568954468,-0.0861884132027626,-0.9660038948059082,0.06162897124886513,1.828077793121338,2.294842481613159
979.711000,0.31263262033462524,1.278067708015442,-0.0861840769648552,-0.9657827615737915,0.06152576953172684,1.828547477722168,2.2956559658050537
979.732000,0.3136521279811859,1.2784743309020996,-0.0862225815653801,-0.9655643701553345,0.06144583970308304,1.8291094303131104,2.296548843383789
979.748000,0.3144606351852417,1.2788792848587036,-0.08630942553281784,-0.9653441309928894,0.06139499694108963,1.829738736152649,2.297496795654297
979.769000,0.3150501251220703,1.2792876958847046,-0.08642924576997757,-0.9651232957839966,0.06135552376508713,1.830453634262085,2.29848051071167
979.790000,0.31543833017349243,1.2796918153762817,-0.0865878313779831,-0.9648978114128113,0.06133393570780754,1.831229567527771,2.299485206604004
979.811000,0.31562158465385437,1.2800966501235962,-0.08677074313163757,-0.9646673798561096,0.06131362542510033,1.832079529762268,2.3004987239837646
979.831000,0.3156197965145111,1.280495285987854,-0.08698451519012451,-0.9644293785095215,0.06130228191614151,1.8329806327819824,2.3015122413635254
979.848000,0.31542906165122986,1.2808924913406372,-0.0872153639793396,-0.9641805291175842,0.06128380075097084,1.833938717842102,2.302518606185913
979.869000,0.3150421679019928,1.2812907695770264,-0.08745547384023666,-0.9639100432395935,0.061244986951351166,1.8349459171295166,2.3035123348236084
979.891000,0.3144785165786743,1.2816821336746216,-0.08771722763776779,-0.963620126247406,0.061199288815259933,1.8359838724136353,2.3044893741607666
979.911000,0.313734769821167,1.2820687294006348,-0.0879928320646286,-0.9633009433746338,0.06113571673631668,1.837039828300476,2.3054463863372803
979.931000,0.31283053755760193,1.282444953918457,-0.0882914811372757,-0.9629581570625305,0.0610671266913414,1.8381022214889526,2.3063809871673584
979.947000,0.3117612898349762,1.2828141450881958,-0.08860286325216293,-0.9625838994979858,0.0609828345477581,1.8391622304916382,2.3072898387908936
979.968000,0.31051576137542725,1.2831740379333496,-0.0889182835817337,-0.9621737003326416,0.06086980551481247,1.8402129411697388,2.308166980743408
979.989000,0.30911269783973694,1.2835190296173096,-0.08924935013055801,-0.9617348313331604,0.060742393136024475,1.8412491083145142,2.309013605117798
980.010000,0.30754727125167847,1.2838538885116577,-0.0895879939198494,-0.9612583518028259,0.06059008091688156,1.8422667980194092,2.309830665588379
980.030000,0.3058394193649292,1.284177303314209,-0.08994519710540771,-0.9607508182525635,0.06042897328734398,1.843263030052185,2.310619354248047
980.047000,0.3039834797382355,1.284496784210205,-0.09031058847904205,-0.9602020978927612,0.060247574001550674,1.8442357778549194,2.311380624771118
980.067000,0.30196765065193176,1.284812569618225,-0.09068053215742111,-0.9596068859100342,0.06003773212432861,1.8451836109161377,2.3121085166931152
980.088000,0.2998102605342865,1.2851208448410034,-0.09106536954641342,-0.9589738845825195,0.05981289967894554,1.8461055755615234,2.3128111362457275
980.109000,0.2975044846534729,1.2854254245758057,-0.0914638489484787,-0.9582959413528442,0.059571605175733566,1.8469955921173096,2.313476800918579
980.129000,0.29506778717041016,1.2857214212417603,-0.09188178926706314,-0.9575855135917664,0.05932619795203209,1.847854733467102,2.3141093254089355
980.146000,0.2924922704696655,1.286010980606079,-0.0923113152384758,-0.9568391442298889,0.05906784161925316,1.8486841917037964,2.314701795578003
980.167000,0.2897639572620392,1.2863006591796875,-0.09274596720933914,-0.9560480117797852,0.058785151690244675,1.849484920501709,2.3152506351470947
980.187000,0.2869435250759125,1.2865233421325684,-0.09333683550357819,-0.9553002119064331,0.05868048220872879,1.8501771688461304,2.315072774887085
980.207000,0.28399133682250977,1.2867642641067505,-0.09363312274217606,-0.9545134902000427,0.058249056339263916,1.8508689403533936,2.3150155544281006
980.228000,0.28101488947868347,1.2870194911956787,-0.09391942620277405,-0.9536932110786438,0.05777128040790558,1.851554036140442,2.315051794052124
980.244000,0.27796670794487,1.2872841358184814,-0.09423322975635529,-0.9528346061706543,0.05728020519018173,1.8522288799285889,2.3151490688323975
980.265000,0.27483057975769043,1.2875475883483887,-0.09459374845027924,-0.951948344707489,0.056800633668899536,1.852890968322754,2.3152925968170166
980.286000,0.2715749740600586,1.2878143787384033,-0.09499893337488174,-0.9510276913642883,0.056330904364585876,1.8535385131835938,2.3154566287994385
980.307000,0.26817047595977783,1.2880862951278687,-0.09544693678617477,-0.9500682353973389,0.05586414039134979,1.8541702032089233,2.315614938735962
980.328000,0.2646128237247467,1.2883127927780151,-0.09578115493059158,-0.9491299986839294,0.055215898901224136,1.8547728061676025,2.3158328533172607
980.345000,0.2609671950340271,1.2885537147521973,-0.09619708359241486,-0.9481561183929443,0.054595813155174255,1.8553612232208252,2.3160147666931152
980.365000,0.25720441341400146,1.288759708404541,-0.09649427235126495,-0.9472000598907471,0.05377759039402008,1.855928897857666,2.316312313079834
980.386000,0.25338587164878845,1.2889832258224487,-0.09693514555692673,-0.9462075233459473,0.053051553666591644,1.8564770221710205,2.3165292739868164
980.407000,0.24944141507148743,1.2892203330993652,-0.09747850149869919,-0.9451733231544495,0.05238322913646698,1.8570061922073364,2.316652297973633
980.426000,0.24535514414310455,1.2894245386123657,-0.09784513711929321,-0.9441501498222351,0.05145746096968651,1.8575170040130615,2.3169894218444824
980.444000,0.2412109076976776,1.2896469831466675,-0.09842120856046677,-0.9430925250053406,0.05069710686802864,1.8580098152160645,2.3171756267547607
980.464000,0.23694626986980438,1.2898417711257935,-0.098818838596344,-0.9420450925827026,0.04968241974711418,1.858485460281372,2.3175907135009766
980.486000,0.23266977071762085,1.290021300315857,-0.09916787594556808,-0.9410143494606018,0.04855046048760414,1.8589441776275635,2.3181796073913574
980.506000,0.2284170687198639,1.2901902198791504,-0.09950079768896103,-0.940004825592041,0.047346923500299454,1.8593864440917969,2.3188986778259277
980.527000,0.22414854168891907,1.2903940677642822,-0.10011482238769531,-0.9389567971229553,0.046408094465732574,1.8598129749298096,2.3193297386169434
980.543000,0.21973581612110138,1.2906185388565063,-0.1008661761879921,-0.9378650784492493,0.04558892920613289,1.860224723815918,2.319528102874756
980.563000,0.2151814103126526,1.2908215522766113,-0.10143232345581055,-0.9367814660072327,0.04453156515955925,1.8606295585632324,2.3199048042297363
980.584000,0.21060822904109955,1.2910104990005493,-0.10195129364728928,-0.9357134103775024,0.04337959364056587,1.8610198497772217,2.3204164505004883
980.605000,0.20601555705070496,1.2911814451217651,-0.10237216204404831,-0.934669017791748,0.042066991329193115,1.861396074295044,2.321071147918701
980.625000,0.201414555311203,1.291385531425476,-0.10310127586126328,-0.9335917234420776,0.04104792699217796,1.861758828163147,2.3214166164398193
980.645000,0.1966705173254013,1.2916063070297241,-0.1039874479174614,-0.9324823617935181,0.04017731547355652,1.862108826637268,2.321514129638672
980.663000,0.19177566468715668,1.291777491569519,-0.1045261025428772,-0.9314202070236206,0.03888927400112152,1.862452745437622,2.3219027519226074
980.684000,0.18688204884529114,1.2919758558273315,-0.10537323355674744,-0.9303370714187622,0.03789994865655899,1.8627842664718628,2.322023391723633
980.705000,0.18188311159610748,1.292184591293335,-0.106386199593544,-0.9292392730712891,0.03708584979176521,1.8631041049957275,2.3219363689422607
980.725000,0.17674516141414642,1.292397141456604,-0.10751990228891373,-0.9281330704689026,0.03641091287136078,1.863412618637085,2.3216753005981445
980.742000,0.17144925892353058,1.2926093339920044,-0.10874969512224197,-0.9270252585411072,0.03585187345743179,1.8637102842330933,2.3212554454803467
980.763000,0.1660114824771881,1.2927473783493042,-0.10941574722528458,-0.9259991645812988,0.03465950861573219,1.863996982574463,2.3212857246398926
980.784000,0.16066096723079681,1.2929177284240723,-0.11039420962333679,-0.9249716401100159,0.033779170364141464,1.8642734289169312,2.3210644721984863
980.805000,0.1552588790655136,1.2930262088775635,-0.11084198951721191,-0.9240261912345886,0.03228522464632988,1.8645397424697876,2.321230411529541
980.825000,0.15000268816947937,1.2931792736053467,-0.11166081577539444,-0.92307448387146,0.031159913167357445,1.8647964000701904,2.3210830688476562
980.842000,0.14471548795700073,1.2932738065719604,-0.11194656789302826,-0.9222030639648438,0.029416635632514954,1.8650437593460083,2.3212904930114746
980.863000,0.13958075642585754,1.2933353185653687,-0.11185675114393234,-0.9214033484458923,0.027187829837203026,1.8652819395065308,2.3217575550079346
980.884000,0.13468575477600098,1.2933801412582397,-0.11148499697446823,-0.9206658601760864,0.02455923892557621,1.865511417388916,2.3224217891693115
980.905000,0.13003608584403992,1.2934149503707886,-0.11086899787187576,-0.9199830293655396,0.02156170643866062,1.8657325506210327,2.323192834854126
980.926000,0.1256498396396637,1.2934467792510986,-0.110066719353199,-0.9193474650382996,0.018257223069667816,1.8659456968307495,2.3240411281585693
980.942000,0.12153469771146774,1.2934802770614624,-0.10914060473442078,-0.9187532067298889,0.014722536318004131,1.8661510944366455,2.3249433040618896
980.963000,0.11766184866428375,1.293605923652649,-0.10899397730827332,-0.9181002974510193,0.011979685164988041,1.8663476705551147,2.325197696685791
980.983000,0.11369115859270096,1.2937804460525513,-0.10938245058059692,-0.9173985719680786,0.009816537611186504,1.8665354251861572,2.324939250946045
981.004000,0.10942718386650085,1.2938780784606934,-0.10921081155538559,-0.9167636632919312,0.007035358808934689,1.8667175769805908,2.32487416267395
981.025000,0.10522571206092834,1.2940353155136108,-0.10967233031988144,-0.9160807132720947,0.004924073815345764,1.8668912649154663,2.324363946914673
981.041000,0.10079081356525421,1.2941147089004517,-0.1095605343580246,-0.9154706597328186,0.0021773958578705788,1.8670605421066284,2.3240487575531006
981.062000,0.09639982879161835,1.2941497564315796,-0.10903994739055634,-0.9149227738380432,-0.0010654162615537643,1.867225170135498,2.3238863945007324
981.083000,0.09226515889167786,1.2942736148834229,-0.10924629122018814,-0.9143044948577881,-0.0035697813145816326,1.8673803806304932,2.323293685913086
981.104000,0.08795773983001709,1.2943254709243774,-0.10888660699129105,-0.9137554168701172,-0.0067238397896289825,1.8675328493118286,2.322829246520996
981.125000,0.08371561765670776,1.2943357229232788,-0.10809259116649628,-0.913264811038971,-0.01042194478213787,1.867681860923767,2.322467088699341
981.141000,0.07962922006845474,1.2943207025527954,-0.10693351924419403,-0.9128227233886719,-0.01461416482925415,1.8678276538848877,2.322117567062378
981.162000,0.07594851404428482,1.29442298412323,-0.10665567964315414,-0.9122806191444397,-0.01793813705444336,1.867960810661316,2.321382761001587
981.184000,0.07213136553764343,1.2944600582122803,-0.10592303425073624,-0.9118015766143799,-0.021801605820655823,1.8680936098098755,2.3207027912139893
981.203000,0.0685795471072197,1.2945938110351562,-0.10602515935897827,-0.9112257361412048,-0.024811331182718277,1.868213415145874,2.3197226524353027
981.224000,0.065045066177845,1.294782280921936,-0.10686932504177094,-0.9105764627456665,-0.027002612128853798,1.8683232069015503,2.3185174465179443
981.240000,0.06107229366898537,1.2948529720306396,-0.10702083259820938,-0.9100238680839539,-0.029916422441601753,1.8684391975402832,2.317354202270508
981.261000,0.0572705939412117,1.2950044870376587,-0.10783004015684128,-0.9093779921531677,-0.03213953226804733,1.868542194366455,2.3160243034362793
981.282000,0.05349356681108475,1.2952048778533936,-0.10928948223590851,-0.9086609482765198,-0.03363889828324318,1.8686362504959106,2.314574956893921
981.301000,0.049625594168901443,1.2954351902008057,-0.11129844188690186,-0.9078813195228577,-0.03449862822890282,1.8687235116958618,2.3130433559417725
981.322000,0.045214857906103134,1.295503854751587,-0.11234214156866074,-0.9072409868240356,-0.03635140135884285,1.8688240051269531,2.31152081489563
981.339000,0.04057843238115311,1.2954624891281128,-0.112373948097229,-0.9067147970199585,-0.03933348134160042,1.8689311742782593,2.3099496364593506
981.360000,0.03647419065237045,1.2955464124679565,-0.1130497083067894,-0.9060834050178528,-0.041723091155290604,1.8690201044082642,2.308356285095215
981.381000,0.032432012259960175,1.2955938577651978,-0.11339876800775528,-0.905513346195221,-0.04448433592915535,1.8691365718841553,2.3066859245300293
981.401000,0.02854999713599682,1.295619010925293,-0.11330759525299072,-0.9049944877624512,-0.04773256182670593,1.8692705631256104,2.3049678802490234
981.422000,0.025068625807762146,1.2956901788711548,-0.11324753612279892,-0.9044663906097412,-0.05094468593597412,1.8694177865982056,2.303131103515625
981.438000,0.022009827196598053,1.2958273887634277,-0.11351097375154495,-0.9038965702056885,-0.0537843257188797,1.8695663213729858,2.3011813163757324
981.459000,0.01924324408173561,1.2960078716278076,-0.11406522989273071,-0.9032964110374451,-0.056257180869579315,1.8697154521942139,2.2991578578948975
981.482000,0.01667811907827854,1.2962303161621094,-0.11497686803340912,-0.9026523232460022,-0.05830180644989014,1.8698524236679077,2.297154426574707
981.502000,0.014206986874341965,1.2964768409729004,-0.1162373423576355,-0.9019788503646851,-0.05992267280817032,1.8699802160263062,2.295180320739746
981.522000,0.011723591946065426,1.2967365980148315,-0.11780623346567154,-0.9012788534164429,-0.061194270849227905,1.8700969219207764,2.2933385372161865
981.538000,0.009136359207332134,1.2969987392425537,-0.11967496573925018,-0.9005589485168457,-0.06217150762677193,1.870202898979187,2.2916929721832275
981.557000,0.006547876168042421,1.2972840070724487,-0.12215843051671982,-0.8998116254806519,-0.06250078976154327,1.8702846765518188,2.2901692390441895
981.581000,0.003878846298903227,1.2975826263427734,-0.12516608834266663,-0.8990530967712402,-0.06223956495523453,1.8703490495681763,2.288750171661377
981.600000,0.0009132309351116419,1.2978566884994507,-0.1282675713300705,-0.8983086347579956,-0.06187066435813904,1.8704103231430054,2.287531852722168
981.621000,-0.002317628124728799,1.2981075048446655,-0.13144028186798096,-0.8975757956504822,-0.061453692615032196,1.8704596757888794,2.2865467071533203
981.637000,-0.005593639798462391,1.2983808517456055,-0.13505925238132477,-0.8968427777290344,-0.06052422523498535,1.870500087738037,2.285568952560425
981.659000,-0.008937817066907883,1.298674464225769,-0.13897383213043213,-0.8961204886436462,-0.059183575212955475,1.870534062385559,2.2846033573150635
981.680000,-0.012349613010883331,1.2989869117736816,-0.14307452738285065,-0.895416796207428,-0.057515472173690796,1.8705683946609497,2.28365421295166
981.700000,-0.015961484983563423,1.2992842197418213,-0.1469281017780304,-0.8947450518608093,-0.0560416653752327,1.870601773262024,2.2829842567443848
981.721000,-0.01966906152665615,1.29957914352417,-0.1506420522928238,-0.8940979242324829,-0.05468771606683731,1.8706347942352295,2.2825698852539062
981.737000,-0.023423127830028534,1.2998731136322021,-0.15426723659038544,-0.8934747576713562,-0.05341256409883499,1.8706679344177246,2.282355785369873
981.759000,-0.027177101001143456,1.3001818656921387,-0.15781188011169434,-0.8928637504577637,-0.052203211933374405,1.8707010746002197,2.2823383808135986
981.780000,-0.030883431434631348,1.3005211353302002,-0.1612919718027115,-0.8922585844993591,-0.051027148962020874,1.8707345724105835,2.2824981212615967
981.800000,-0.034523166716098785,1.3008887767791748,-0.16470865905284882,-0.8916648626327515,-0.049869049340486526,1.870768427848816,2.2827935218811035
981.820000,-0.038072679191827774,1.3012980222702026,-0.16805464029312134,-0.8910760283470154,-0.04871989041566849,1.8708025217056274,2.283210515975952
981.837000,-0.04140494391322136,1.3018308877944946,-0.17172004282474518,-0.8904563188552856,-0.04706607386469841,1.8708393573760986,2.2833399772644043
981.858000,-0.04470684751868248,1.3024070262908936,-0.1750907003879547,-0.8898628354072571,-0.045586030930280685,1.8708752393722534,2.283626079559326
981.880000,-0.047908782958984375,1.303021788597107,-0.1782824546098709,-0.8892948031425476,-0.04418569430708885,1.8709111213684082,2.2840309143066406
981.900000,-0.050989214330911636,1.303686499595642,-0.18133090436458588,-0.8887377977371216,-0.042836107313632965,1.8709471225738525,2.284529209136963
981.921000,-0.053946394473314285,1.3043910264968872,-0.18424810469150543,-0.888199508190155,-0.04153134301304817,1.8709831237792969,2.2850959300994873
981.939000,-0.05677277594804764,1.3051509857177734,-0.18705034255981445,-0.8876656293869019,-0.04025166854262352,1.8710192441940308,2.285710334777832
981.958000,-0.05945909023284912,1.3059784173965454,-0.18974874913692474,-0.8871342539787292,-0.03897669538855553,1.8710554838180542,2.2863502502441406
981.979000,-0.061862535774707794,1.3069417476654053,-0.19273698329925537,-0.8865830302238464,-0.03718319162726402,1.8710942268371582,2.28663969039917
982.000000,-0.06420226395130157,1.3079639673233032,-0.19539274275302887,-0.8860545754432678,-0.035570695996284485,1.8711317777633667,2.287010908126831
982.021000,-0.06642521917819977,1.309038519859314,-0.19783180952072144,-0.8855512738227844,-0.0340593084692955,1.8711689710617065,2.287442445755005
982.037000,-0.06851273030042648,1.3101708889007568,-0.200104758143425,-0.8850635290145874,-0.032612450420856476,1.8712059259414673,2.2879130840301514
982.059000,-0.07044465839862823,1.311367154121399,-0.20225973427295685,-0.8845871686935425,-0.031177392229437828,1.8712431192398071,2.2883782386779785
982.079000,-0.07204173505306244,1.312656044960022,-0.2046688050031662,-0.8841270804405212,-0.029256291687488556,1.8712819814682007,2.2885489463806152
982.100000,-0.07354101538658142,1.3139855861663818,-0.20675790309906006,-0.8836823105812073,-0.02749737910926342,1.8713126182556152,2.288762092590332
982.121000,-0.07491271942853928,1.3153518438339233,-0.20861533284187317,-0.8832579255104065,-0.02585534192621708,1.8713430166244507,2.289006471633911
982.137000,-0.07612857222557068,1.3167515993118286,-0.21032783389091492,-0.882857620716095,-0.024254124611616135,1.8713735342025757,2.2892260551452637
982.158000,-0.07716994732618332,1.3181806802749634,-0.21193262934684753,-0.8824834823608398,-0.022651147097349167,1.8714042901992798,2.2893800735473633
982.180000,-0.07804959267377853,1.3196299076080322,-0.2134055644273758,-0.8821348547935486,-0.021078336983919144,1.8714349269866943,2.289482355117798
982.200000,-0.07874609529972076,1.3210946321487427,-0.21479149162769318,-0.8818077445030212,-0.019481634721159935,1.8714594841003418,2.2894890308380127
982.221000,-0.07904152572154999,1.3225772380828857,-0.21633335947990417,-0.8815297484397888,-0.017518404871225357,1.871484398841858,2.289398431777954
982.238000,-0.07917001843452454,1.3240559101104736,-0.21769961714744568,-0.8812646269798279,-0.015559704974293709,1.8715099096298218,2.289191246032715
982.259000,-0.07916851341724396,1.3255232572555542,-0.21885523200035095,-0.881010890007019,-0.013689559884369373,1.8715351819992065,2.28889536857605
982.280000,-0.07900755852460861,1.3269752264022827,-0.2198765128850937,-0.8807753324508667,-0.011846818029880524,1.8715604543685913,2.2884743213653564
982.299000,-0.07866118103265762,1.3284051418304443,-0.22079838812351227,-0.8805630207061768,-0.009996401146054268,1.8715858459472656,2.2879080772399902
982.321000,-0.07788483798503876,1.3298230171203613,-0.22178323566913605,-0.8803887367248535,-0.007902194745838642,1.871610403060913,2.287400960922241
982.337000,-0.07690023630857468,1.3312100172042847,-0.2226586788892746,-0.8802208304405212,-0.005760839208960533,1.8716356754302979,2.2867307662963867
982.358000,-0.07578231394290924,1.3325588703155518,-0.22333097457885742,-0.8800570368766785,-0.003718870459124446,1.8716603517532349,2.2859392166137695
982.380000,-0.07450075447559357,1.3338687419891357,-0.22386494278907776,-0.8799070715904236,-0.001730998745188117,1.8716845512390137,2.285020112991333
982.400000,-0.07302351295948029,1.3351422548294067,-0.22429685294628143,-0.8797666430473328,0.00023485836572945118,1.8717083930969238,2.2839787006378174
982.421000,-0.07136251777410507,1.336380124092102,-0.22460722923278809,-0.8796294927597046,0.002144414698705077,1.8717315196990967,2.2828502655029297
982.437000,-0.06949295103549957,1.3375805616378784,-0.22482134401798248,-0.87949538230896,0.0040190634317696095,1.8717540502548218,2.2816555500030518
982.458000,-0.06738074868917465,1.3387455940246582,-0.22497113049030304,-0.8793614506721497,0.005896424874663353,1.8717824220657349,2.280397653579712
982.479000,-0.06504541635513306,1.3398735523223877,-0.22502928972244263,-0.8792188167572021,0.007739820517599583,1.871809720993042,2.279099702835083
982.500000,-0.062467098236083984,1.3409682512283325,-0.22501659393310547,-0.8790673613548279,0.009569247253239155,1.8718451261520386,2.2777762413024902
982.521000,-0.05966932699084282,1.3420296907424927,-0.22491636872291565,-0.878902018070221,0.01135676633566618,1.8718863725662231,2.276442527770996
982.538000,-0.05666979402303696,1.3430556058883667,-0.22469575703144073,-0.8787213563919067,0.013057896867394447,1.8719348907470703,2.2751190662384033
982.558000,-0.05316544696688652,1.3440769910812378,-0.22448326647281647,-0.8785345554351807,0.014848443679511547,1.8719923496246338,2.2742581367492676
982.579000,-0.04913998022675514,1.3450993299484253,-0.22437739372253418,-0.8783281445503235,0.01687447726726532,1.8720566034317017,2.2737603187561035
982.600000,-0.04506700858473778,1.3460564613342285,-0.2241109013557434,-0.8780925273895264,0.018798355013132095,1.8721262216567993,2.273008346557617
982.620000,-0.04107193648815155,1.3469387292861938,-0.22351539134979248,-0.8778321743011475,0.02035868540406227,1.8721930980682373,2.2720654010772705
982.636000,-0.03717049956321716,1.347756028175354,-0.22263889014720917,-0.8775581121444702,0.021545883268117905,1.8722643852233887,2.2708981037139893
982.657000,-0.033344369381666183,1.34852135181427,-0.2215307056903839,-0.8772725462913513,0.022371115162968636,1.8723328113555908,2.2695658206939697
982.678000,-0.02961127460002899,1.3492392301559448,-0.2202412188053131,-0.8769830465316772,0.022860633209347725,1.8724054098129272,2.2680156230926514
982.700000,-0.02596130035817623,1.3499202728271484,-0.2187950313091278,-0.8766872882843018,0.02302294783294201,1.8724753856658936,2.266307830810547
982.720000,-0.022416777908802032,1.3505624532699585,-0.21723061800003052,-0.876393735408783,0.02288808673620224,1.872549057006836,2.264376640319824
982.740000,-0.019013406708836555,1.351162314414978,-0.2155449539422989,-0.8761030435562134,0.02244071662425995,1.8726203441619873,2.2621638774871826
982.757000,-0.01573203131556511,1.351727843284607,-0.21374112367630005,-0.8758165836334229,0.02167685329914093,1.8726892471313477,2.259748935699463
982.779000,-0.012585511431097984,1.352260947227478,-0.21185612678527832,-0.8755377531051636,0.020633729174733162,1.8727623224258423,2.2570643424987793
982.798000,-0.009556660428643227,1.3527662754058838,-0.2098860889673233,-0.8752636909484863,0.019306587055325508,1.872833251953125,2.254189968109131
982.819000,-0.00665955850854516,1.3532392978668213,-0.20786438882350922,-0.8749979138374329,0.01773335598409176,1.872902274131775,2.2510528564453125
982.835000,-0.0038780830800533295,1.3536871671676636,-0.205780491232872,-0.874737024307251,0.015904534608125687,1.8729695081710815,2.247734785079956
982.857000,-0.0009986539371311665,1.3541345596313477,-0.20372046530246735,-0.8744964003562927,0.01392427645623684,1.8730343580245972,2.244676113128662
982.878000,0.002027348382398486,1.354592204093933,-0.2018316388130188,-0.8742732405662537,0.011986063793301582,1.8730971813201904,2.2418389320373535
982.898000,0.006010609678924084,1.3551051616668701,-0.20055587589740753,-0.8741263151168823,0.01078282855451107,1.873157024383545,2.2400786876678467
982.919000,0.010498636402189732,1.3556431531906128,-0.19962234795093536,-0.8739854097366333,0.010081692598760128,1.873206615447998,2.238798141479492
982.939000,0.015402516350150108,1.3561832904815674,-0.1988225281238556,-0.8738603591918945,0.009671573527157307,1.8732545375823975,2.238060235977173
982.956000,0.0206597950309515,1.3567241430282593,-0.19813314080238342,-0.8737422823905945,0.009528977796435356,1.8733009099960327,2.237746477127075
982.978000,0.026305358856916428,1.357261300086975,-0.1975286900997162,-0.8736338019371033,0.009641225449740887,1.8733456134796143,2.237894058227539
982.998000,0.032288987189531326,1.357792854309082,-0.19698941707611084,-0.8735251426696777,0.009987827390432358,1.8733887672424316,2.2383971214294434
983.019000,0.03862506151199341,1.3583149909973145,-0.19649063050746918,-0.8734179139137268,0.010549291037023067,1.8734304904937744,2.2392609119415283
983.036000,0.04533373937010765,1.3588274717330933,-0.19604402780532837,-0.8733136057853699,0.011351041495800018,1.873477578163147,2.2404346466064453
983.056000,0.05235131084918976,1.3593268394470215,-0.1956021934747696,-0.8732008934020996,0.012333178892731667,1.8735231161117554,2.2418394088745117
983.076000,0.05960225313901901,1.3598109483718872,-0.19512483477592468,-0.8730758428573608,0.013426575809717178,1.8735668659210205,2.243412971496582
983.099000,0.06706643849611282,1.3602797985076904,-0.19462339580059052,-0.872944712638855,0.014624705538153648,1.8736156225204468,2.245114803314209
983.118000,0.0747218132019043,1.3607348203659058,-0.19411583244800568,-0.8728049993515015,0.015932774171233177,1.8736625909805298,2.2468819618225098
