yuan18844-afk/dissertation/catkin_ws/src/franka_digital_twin/analysis/data/unity_slow2_20250728_065133.csv
time,panda_joint1,panda_joint2,panda_joint3,panda_joint4,panda_joint5,panda_joint6,panda_joint7
5403.867000,0.38544055819511414,1.1211732625961304,-0.042130813002586365,-1.272560477256775,-0.017216797918081284,2.3847837448120117,1.520471453666687
5403.887000,0.38539138436317444,1.1211745738983154,-0.04214882478117943,-1.2725645303726196,-0.01605248637497425,2.3847877979278564,1.5181498527526855
5403.906000,0.3851468861103058,1.121172308921814,-0.04206593334674835,-1.2725672721862793,-0.01487590093165636,2.384800910949707,1.5154675245285034
5403.928000,0.3847072720527649,1.1211659908294678,-0.041812386363744736,-1.2725661993026733,-0.013889435678720474,2.384817123413086,1.5125254392623901
5403.947000,0.38414421677589417,1.1211572885513306,-0.04141875356435776,-1.2725619077682495,-0.013157157227396965,2.3848350048065186,1.5094175338745117
5403.963000,0.3837500512599945,1.1211515665054321,-0.041063856333494186,-1.2725571393966675,-0.012662669643759727,2.3848440647125244,1.5066746473312378
5403.983000,0.38355886936187744,1.1211498975753784,-0.0408465676009655,-1.2725551128387451,-0.012185107916593552,2.3848493099212646,1.5042327642440796
5404.002000,0.3835032880306244,1.121151089668274,-0.04073205962777138,-1.2725552320480347,-0.011680800467729568,2.384852170944214,1.5020402669906616
5404.023000,0.3835311233997345,1.1211539506912231,-0.04068543761968613,-1.2725569009780884,-0.011138807982206345,2.3848536014556885,1.5000555515289307
5404.043000,0.3833416700363159,1.1211535930633545,-0.040481582283973694,-1.2725566625595093,-0.01070812065154314,2.384864091873169,1.4978437423706055
5404.065000,0.38321685791015625,1.121153712272644,-0.040277186781167984,-1.272554874420166,-0.010420267470180988,2.3848683834075928,1.4958734512329102
5404.082000,0.3829324543476105,1.1211515665054321,-0.03994331881403923,-1.2725516557693481,-0.010297677479684353,2.3848800659179688,1.4937235116958618
5404.101000,0.3824918568134308,1.1211464405059814,-0.039439789950847626,-1.2725446224212646,-0.010485650040209293,2.384894609451294,1.4914498329162598
5404.122000,0.3819725215435028,1.1211397647857666,-0.03882862254977226,-1.2725348472595215,-0.01097189262509346,2.3849103450775146,1.4890965223312378
5404.142000,0.38171082735061646,1.1211366653442383,-0.038386281579732895,-1.2725263833999634,-0.011522550135850906,2.384916305541992,1.487078070640564
5404.160000,0.3816945254802704,1.1211376190185547,-0.03816313296556473,-1.272522211074829,-0.011926854960620403,2.384917736053467,1.4853322505950928
5404.180000,0.38149964809417725,1.121137022972107,-0.03778808191418648,-1.2725166082382202,-0.012500382028520107,2.384927749633789,1.4834928512573242
5404.200000,0.38146087527275085,1.1211378574371338,-0.037527188658714294,-1.272511601448059,-0.013059365563094616,2.384929895401001,1.4819103479385376
5404.220000,0.38124409317970276,1.1211371421813965,-0.03710656613111496,-1.2725048065185547,-0.013820542953908443,2.3849406242370605,1.480228304862976
5404.240000,0.3812086880207062,1.1211379766464233,-0.03682741895318031,-1.2724989652633667,-0.014542786404490471,2.3849425315856934,1.478790044784546
5404.262000,0.3809945285320282,1.1211374998092651,-0.03637907654047012,-1.2724910974502563,-0.015494581311941147,2.384953260421753,1.4772697687149048
5404.279000,0.38072752952575684,1.121135950088501,-0.03583798557519913,-1.2724802494049072,-0.01670362427830696,2.3849637508392334,1.4758117198944092
5404.300000,0.3804699778556824,1.1211344003677368,-0.035275720059871674,-1.2724683284759521,-0.018089940771460533,2.384974241256714,1.4744118452072144
5404.319000,0.38033121824264526,1.1211341619491577,-0.03477507829666138,-1.2724567651748657,-0.019588882103562355,2.3849806785583496,1.473240852355957
5404.341000,0.3803063929080963,1.1211355924606323,-0.03436513617634773,-1.2724467515945435,-0.02109581232070923,2.3849847316741943,1.4722546339035034
5404.362000,0.3804190456867218,1.1211388111114502,-0.03405781835317612,-1.2724385261535645,-0.022585613653063774,2.3849844932556152,1.4715553522109985
5404.378000,0.38068079948425293,1.1211440563201904,-0.03387076407670975,-1.2724329233169556,-0.024002671241760254,2.3849799633026123,1.4711873531341553
5404.399000,0.3810485601425171,1.1211509704589844,-0.0337904654443264,-1.2724299430847168,-0.025292519479990005,2.3849730491638184,1.471077799797058
5404.420000,0.38150331377983093,1.1211591958999634,-0.03378736600279808,-1.2724289894104004,-0.026484046131372452,2.384963274002075,1.4712672233581543
5404.440000,0.3820483982563019,1.1211673021316528,-0.034002576023340225,-1.2724329233169556,-0.02718120813369751,2.384953022003174,1.4713364839553833
5404.462000,0.38258904218673706,1.121174931526184,-0.03430808335542679,-1.2724392414093018,-0.027511900290846825,2.384942054748535,1.471312403678894
5404.478000,0.38310688734054565,1.1211841106414795,-0.03451194241642952,-1.272444248199463,-0.027954714372754097,2.384927988052368,1.4716882705688477
5404.499000,0.3836643695831299,1.121194839477539,-0.03471666947007179,-1.2724498510360718,-0.02839590795338154,2.3849129676818848,1.4723701477050781
5404.518000,0.3842548131942749,1.1212064027786255,-0.0349312424659729,-1.2724560499191284,-0.028825774788856506,2.384897470474243,1.4733132123947144
5404.537000,0.3848499357700348,1.1212162971496582,-0.0353018157184124,-1.2724653482437134,-0.028810078278183937,2.384885549545288,1.4739500284194946
5404.555000,0.3853845000267029,1.1212265491485596,-0.03554493561387062,-1.2724720239639282,-0.02896244078874588,2.3848705291748047,1.4748831987380981
5404.575000,0.38593921065330505,1.1212377548217773,-0.03577636554837227,-1.2724788188934326,-0.029155323281884193,2.384855270385742,1.4760386943817139
5404.594000,0.38651156425476074,1.1212494373321533,-0.03600558638572693,-1.272485613822937,-0.029377862811088562,2.3848397731781006,1.4773863554000854
5404.616000,0.38709694147109985,1.121261477470398,-0.03623355180025101,-1.2724924087524414,-0.029630567878484726,2.384823799133301,1.4789105653762817
5404.636000,0.3876868188381195,1.1212735176086426,-0.0364665687084198,-1.2724993228912354,-0.029889602214097977,2.38480806350708,1.480560541152954
5404.658000,0.38827094435691833,1.1212854385375977,-0.03670083358883858,-1.2725061178207397,-0.030150003731250763,2.3847925662994385,1.482304334640503
5404.675000,0.38884207606315613,1.1212971210479736,-0.03693535923957825,-1.2725129127502441,-0.030402828007936478,2.384777545928955,1.4841084480285645
5404.694000,0.38939929008483887,1.1213085651397705,-0.03716396167874336,-1.2725194692611694,-0.03066176362335682,2.3847625255584717,1.485977292060852
5404.714000,0.389941930770874,1.1213196516036987,-0.03739182651042938,-1.2725259065628052,-0.03091254085302353,2.3847479820251465,1.4878830909729004
5404.728000,0.3904677629470825,1.1213303804397583,-0.03761906549334526,-1.2725322246551514,-0.0311493668705225,2.3847339153289795,1.4898077249526978
5404.748000,0.39097586274147034,1.1213408708572388,-0.03783956915140152,-1.272538423538208,-0.031385209411382675,2.3847200870513916,1.4917579889297485
5404.760000,0.3914664387702942,1.1213510036468506,-0.038057416677474976,-1.272544503211975,-0.031609710305929184,2.384706735610962,1.4937143325805664
5404.776000,0.39189422130584717,1.1213575601577759,-0.038432128727436066,-1.2725533246994019,-0.03130992501974106,2.384700059890747,1.4949909448623657
5404.797000,0.39221739768981934,1.121363639831543,-0.03863414376974106,-1.272558331489563,-0.031238766387104988,2.3846898078918457,1.4964033365249634
5404.813000,0.39255356788635254,1.1213706731796265,-0.038814645260572433,-1.272563099861145,-0.0312355924397707,2.3846793174743652,1.4979106187820435
5404.836000,0.3929014801979065,1.1213783025741577,-0.03897876664996147,-1.272567629814148,-0.03130209445953369,2.3846685886383057,1.4995174407958984
5404.856000,0.3932485282421112,1.1213862895965576,-0.03910915553569794,-1.2725715637207031,-0.031479258090257645,2.384658098220825,1.5012491941452026
5404.876000,0.39359790086746216,1.121394395828247,-0.039226286113262177,-1.2725750207901,-0.03173166513442993,2.384647846221924,1.5030654668807983
5404.899000,0.39393889904022217,1.1214027404785156,-0.03930250182747841,-1.2725775241851807,-0.03212343901395798,2.3846375942230225,1.5050199031829834
5404.918000,0.3942812383174896,1.1214110851287842,-0.03936567157506943,-1.272579550743103,-0.03260745108127594,2.3846278190612793,1.5070674419403076
5404.938000,0.39461514353752136,1.1214194297790527,-0.03939170762896538,-1.2725807428359985,-0.03323626145720482,2.384618043899536,1.509251356124878
5404.956000,0.3949258029460907,1.1214234828948975,-0.03967268764972687,-1.2725863456726074,-0.033188555389642715,2.384615659713745,1.5105952024459839
5404.978000,0.3950808346271515,1.1214228868484497,-0.03996980935335159,-1.272591471672058,-0.03277524933218956,2.384615898132324,1.511281132698059
5405.000000,0.3951127827167511,1.1214196681976318,-0.040249455720186234,-1.272596001625061,-0.03210381790995598,2.384617805480957,1.5114543437957764
5405.021000,0.39505964517593384,1.1214150190353394,-0.040505651384592056,-1.2726002931594849,-0.031244242563843727,2.3846206665039062,1.51123046875
5405.042000,0.3949602544307709,1.1214148998260498,-0.0403706431388855,-1.2725976705551147,-0.03128392994403839,2.384615898132324,1.5118999481201172
5405.060000,0.39500802755355835,1.1214196681976318,-0.040169693529605865,-1.2725942134857178,-0.03182816132903099,2.3846092224121094,1.5132544040679932
5405.081000,0.3951735198497772,1.1214275360107422,-0.03992468863725662,-1.2725898027420044,-0.03282926604151726,2.38460111618042,1.5152264833450317
5405.102000,0.3954274356365204,1.1214313507080078,-0.04008391872048378,-1.2725924253463745,-0.03302984684705734,2.38460111618042,1.5163650512695312
5405.124000,0.39554858207702637,1.1214301586151123,-0.04030870646238327,-1.2725952863693237,-0.03281174227595329,2.3846030235290527,1.5168522596359253
5405.143000,0.39555302262306213,1.1214326620101929,-0.04006533324718475,-1.2725894451141357,-0.033615101128816605,2.3845958709716797,1.518337607383728
5405.157000,0.39569228887557983,1.1214406490325928,-0.039709579199552536,-1.2725822925567627,-0.035071149468421936,2.3845860958099365,1.520693302154541
5405.178000,0.3959644138813019,1.1214520931243896,-0.03934017941355705,-1.2725750207901,-0.036979030817747116,2.3845748901367188,1.5237045288085938
5405.199000,0.39633139967918396,1.1214574575424194,-0.039498601108789444,-1.2725770473480225,-0.037791162729263306,2.3845741748809814,1.5255862474441528
5405.220000,0.39651966094970703,1.1214557886123657,-0.039753809571266174,-1.272579550743103,-0.03799768164753914,2.3845760822296143,1.5265828371047974
5405.242000,0.3965514004230499,1.1214499473571777,-0.04002883657813072,-1.2725821733474731,-0.03775952011346817,2.3845794200897217,1.5268889665603638
5405.256000,0.39646992087364197,1.1214419603347778,-0.04029951989650726,-1.2725850343704224,-0.03718293830752373,2.3845839500427246,1.5266598463058472
5405.280000,0.3963108956813812,1.1214330196380615,-0.04055561125278473,-1.2725881338119507,-0.03635144978761673,2.384589195251465,1.5260192155838013
5405.302000,0.3961011469364166,1.1214239597320557,-0.04079294204711914,-1.272591471672058,-0.035331763327121735,2.3845951557159424,1.525065302848816
5405.322000,0.39584842324256897,1.1214247941970825,-0.0403314083814621,-1.272582769393921,-0.03604186326265335,2.384587049484253,1.525973916053772
5405.343000,0.39587944746017456,1.121435284614563,-0.03974730893969536,-1.272572636604309,-0.03776327148079872,2.384575366973877,1.5283141136169434
5405.358000,0.3961556851863861,1.1214407682418823,-0.03982897475361824,-1.2725739479064941,-0.03835390508174896,2.384575843811035,1.529645562171936
5405.378000,0.3962920606136322,1.1214388608932495,-0.04003634303808212,-1.2725757360458374,-0.03838130831718445,2.3845789432525635,1.5301889181137085
5405.398000,0.3962906301021576,1.1214327812194824,-0.04027625545859337,-1.2725776433944702,-0.03800326958298683,2.3845832347869873,1.5301200151443481
5405.420000,0.39616701006889343,1.1214299201965332,-0.04015735164284706,-1.2725735902786255,-0.03829150274395943,2.3845815658569336,1.5306446552276611
5405.438000,0.396116703748703,1.1214308738708496,-0.0399637445807457,-1.2725688219070435,-0.03893774002790451,2.3845789432525635,1.5316238403320312
5405.455000,0.39612704515457153,1.121431827545166,-0.03985179215669632,-1.272565484046936,-0.03954259306192398,2.3845789432525635,1.5325813293457031
5405.476000,0.39611154794692993,1.1214302778244019,-0.039817988872528076,-1.272562861442566,-0.03994280844926834,2.384582281112671,1.5332145690917969
5405.496000,0.3960302770137787,1.1214264631271362,-0.039780911058187485,-1.2725595235824585,-0.04024779051542282,2.384586811065674,1.533592939376831
5405.518000,0.3958889842033386,1.12142014503479,-0.0397825725376606,-1.2725564241409302,-0.04033522307872772,2.384594202041626,1.5335693359375
5405.538000,0.3956804871559143,1.1214121580123901,-0.03977353125810623,-1.2725528478622437,-0.04029795899987221,2.3846025466918945,1.5332354307174683
5405.555000,0.3954136073589325,1.121402382850647,-0.03978770971298218,-1.2725496292114258,-0.04005102440714836,2.384613275527954,1.5324915647506714
5405.574000,0.395073801279068,1.1213905811309814,-0.03981325775384903,-1.272546410560608,-0.039585452526807785,2.3846263885498047,1.5312937498092651
5405.596000,0.394759863615036,1.121378779411316,-0.03988893702626228,-1.2725443840026855,-0.038929399102926254,2.3846354484558105,1.5298727750778198
5405.616000,0.3944852650165558,1.121368169784546,-0.04002104699611664,-1.272544503211975,-0.03807471692562103,2.3846426010131836,1.5282894372940063
5405.637000,0.39423587918281555,1.1213587522506714,-0.04018622264266014,-1.2725462913513184,-0.03705667704343796,2.3846487998962402,1.5265918970108032
5405.654000,0.3940020501613617,1.1213504076004028,-0.040366750210523605,-1.2725492715835571,-0.03591214865446091,2.3846542835235596,1.524817943572998
5405.674000,0.393778920173645,1.1213430166244507,-0.040551334619522095,-1.2725529670715332,-0.034674014896154404,2.3846592903137207,1.5229973793029785
5405.696000,0.3934464454650879,1.1213339567184448,-0.0407053679227829,-1.2725564241409302,-0.0332677960395813,2.384671688079834,1.5207847356796265
5405.715000,0.3929845690727234,1.1213226318359375,-0.04076991230249405,-1.2725576162338257,-0.03182730823755264,2.3846874237060547,1.5182281732559204
5405.736000,0.39256542921066284,1.1213128566741943,-0.040774304419755936,-1.2725576162338257,-0.030557291582226753,2.3846962451934814,1.5158494710922241
5405.753000,0.39212027192115784,1.121302843093872,-0.04080917686223984,-1.2725588083267212,-0.029145797714591026,2.3847110271453857,1.5131522417068481
5405.773000,0.391593337059021,1.1212912797927856,-0.04078461602330208,-1.272558569908142,-0.027734505012631416,2.384727716445923,1.5101900100708008
5405.794000,0.3910161852836609,1.1212791204452515,-0.04070448502898216,-1.272557258605957,-0.026372909545898438,2.384744882583618,1.5070438385009766
5405.813000,0.39042139053344727,1.1212670803070068,-0.04058632627129555,-1.2725552320480347,-0.02507733553647995,2.3847618103027344,1.5037776231765747
5405.834000,0.3898265063762665,1.1212553977966309,-0.04044853895902634,-1.2725529670715332,-0.023835252970457077,2.3847784996032715,1.5004113912582397
5405.846000,0.3892383575439453,1.121244192123413,-0.04029731824994087,-1.2725507020950317,-0.022644640877842903,2.3847947120666504,1.4969669580459595
5405.867000,0.3886646330356598,1.1212337017059326,-0.04013374447822571,-1.2725483179092407,-0.021516917273402214,2.384810209274292,1.4934861660003662
5405.888000,0.3881135582923889,1.1212239265441895,-0.03996302932500839,-1.2725460529327393,-0.02045394666492939,2.384824752807617,1.4900016784667969
5405.904000,0.3877338469028473,1.121218204498291,-0.03978653624653816,-1.2725435495376587,-0.01968139410018921,2.3848302364349365,1.4871035814285278
5405.921000,0.38756024837493896,1.121216893196106,-0.03971688821911812,-1.2725436687469482,-0.018976205959916115,2.3848319053649902,1.4846783876419067
5405.943000,0.3875258266925812,1.1212183237075806,-0.039729729294776917,-1.2725458145141602,-0.01828788034617901,2.384831428527832,1.482635259628296
5405.964000,0.38757768273353577,1.1212215423583984,-0.03979690745472908,-1.2725492715835571,-0.017598049715161324,2.384829521179199,1.4809014797210693
5405.988000,0.38768094778060913,1.1212258338928223,-0.03989788889884949,-1.272553563117981,-0.016899727284908295,2.384826898574829,1.4794186353683472
5406.010000,0.3878134489059448,1.1212308406829834,-0.040018580853939056,-1.272558331489563,-0.016191767528653145,2.384823799133301,1.4781397581100464
5406.032000,0.38796132802963257,1.1212362051010132,-0.040149521082639694,-1.2725634574890137,-0.015476064756512642,2.3848206996917725,1.477027416229248
5406.050000,0.3881160318851471,1.121241807937622,-0.04028444364666939,-1.272568702697754,-0.014755957759916782,2.384817361831665,1.4760513305664062
5406.070000,0.38827237486839294,1.1212475299835205,-0.04041927680373192,-1.2725739479064941,-0.014035272412002087,2.3848142623901367,1.4751873016357422
5406.092000,0.3884273171424866,1.121253252029419,-0.04055142402648926,-1.2725790739059448,-0.013317782431840897,2.3848111629486084,1.4744157791137695
5406.111000,0.3885791301727295,1.1212589740753174,-0.04067930206656456,-1.272584080696106,-0.012606866657733917,2.384808301925659,1.4737211465835571
5406.132000,0.3887268602848053,1.1212645769119263,-0.0408019982278347,-1.2725889682769775,-0.011905403807759285,2.38480544090271,1.473090648651123
5406.150000,0.3888700306415558,1.1212701797485352,-0.04091901332139969,-1.2725937366485596,-0.011215806007385254,2.38480281829834,1.4725141525268555
5406.171000,0.389008492231369,1.1212756633758545,-0.04103012755513191,-1.272598385810852,-0.010540000163018703,2.384800434112549,1.4719833135604858
5406.192000,0.389142245054245,1.1212810277938843,-0.041135311126708984,-1.2726027965545654,-0.009879495948553085,2.384798049926758,1.4714914560317993
5406.213000,0.3892713785171509,1.121286392211914,-0.041234660893678665,-1.2726070880889893,-0.009235363453626633,2.384795904159546,1.4710332155227661
5406.231000,0.38939452171325684,1.1212916374206543,-0.04132649675011635,-1.272611141204834,-0.008611155673861504,2.384793996810913,1.4706040620803833
5406.251000,0.3891797661781311,1.1212905645370483,-0.04128364101052284,-1.2726143598556519,-0.00785557460039854,2.384805679321289,1.469316005706787
5406.273000,0.3886156976222992,1.1212822198867798,-0.040968336164951324,-1.2726119756698608,-0.007326588034629822,2.3848226070404053,1.4673738479614258
5406.294000,0.3878210783004761,1.1212691068649292,-0.04044618457555771,-1.2726051807403564,-0.007079584989696741,2.384842872619629,1.464892029762268
5406.314000,0.3869045376777649,1.1212536096572876,-0.03978704661130905,-1.2725951671600342,-0.007127128075808287,2.384864568710327,1.4620108604431152
5406.335000,0.3863038122653961,1.1212437152862549,-0.039197154343128204,-1.2725838422775269,-0.007587213534861803,2.3848724365234375,1.4597740173339844
5406.352000,0.3860757350921631,1.1212407350540161,-0.038860633969306946,-1.272577166557312,-0.008047082461416721,2.3848743438720703,1.45805025100708
5406.373000,0.3860921859741211,1.1212422847747803,-0.03871452808380127,-1.2725743055343628,-0.008421342819929123,2.3848729133605957,1.456734538078308
5406.394000,0.38595959544181824,1.1212419271469116,-0.0385526567697525,-1.2725729942321777,-0.008632277138531208,2.384880781173706,1.4550517797470093
5406.415000,0.3857172429561615,1.121239423751831,-0.03825467824935913,-1.2725682258605957,-0.00905078835785389,2.384887933731079,1.453413724899292
5406.435000,0.38565605878829956,1.1212396621704102,-0.038041748106479645,-1.2725639343261719,-0.009552759118378162,2.3848876953125,1.4521965980529785
5406.452000,0.3857836425304413,1.1212431192398071,-0.03798075392842293,-1.2725626230239868,-0.00995470117777586,2.3848841190338135,1.4513131380081177
5406.472000,0.38602784276008606,1.121248722076416,-0.038028083741664886,-1.2725638151168823,-0.01023051142692566,2.3848788738250732,1.4506933689117432
5406.495000,0.3862512707710266,1.121254563331604,-0.03803407400846481,-1.2725647687911987,-0.010561293922364712,2.3848748207092285,1.4503042697906494
5406.515000,0.38653799891471863,1.1212612390518188,-0.03811420872807503,-1.2725669145584106,-0.010781708173453808,2.38486909866333,1.4500731229782104
5406.535000,0.3868636190891266,1.1212685108184814,-0.03825096786022186,-1.2725703716278076,-0.010882086120545864,2.3848626613616943,1.4499657154083252
5406.552000,0.3871755301952362,1.1212762594223022,-0.03830273076891899,-1.2725722789764404,-0.011161375790834427,2.384855270385742,1.4502185583114624
5406.573000,0.38753747940063477,1.1212844848632812,-0.03845416381955147,-1.2725762128829956,-0.011256011202931404,2.3848483562469482,1.450483798980713
5406.593000,0.38788339495658875,1.1212929487228394,-0.03851001709699631,-1.2725781202316284,-0.011567363515496254,2.3848400115966797,1.45111882686615
5406.614000,0.38827064633369446,1.1213016510009766,-0.03868130221962929,-1.2725825309753418,-0.011651458218693733,2.3848328590393066,1.4516727924346924
5406.635000,0.38863369822502136,1.1213104724884033,-0.038742583245038986,-1.2725845575332642,-0.011981538496911526,2.38482403755188,1.4525954723358154
5406.652000,0.3890298008918762,1.12131929397583,-0.03892889618873596,-1.2725892066955566,-0.012051663361489773,2.384817123413086,1.4533611536026
5406.673000,0.38938426971435547,1.1213270425796509,-0.03913526609539986,-1.2725942134857178,-0.011978816241025925,2.38481068611145,1.4540002346038818
5406.697000,0.3897028863430023,1.1213353872299194,-0.03912946209311485,-1.272594690322876,-0.012404218316078186,2.384800910949707,1.4552396535873413
5406.714000,0.39008665084838867,1.1213440895080566,-0.03930845856666565,-1.272599220275879,-0.012492730282247066,2.384794235229492,1.4562314748764038
5406.729000,0.39043012261390686,1.1213531494140625,-0.03926142677664757,-1.2725987434387207,-0.013132872059941292,2.384783983230591,1.4578651189804077
5406.746000,0.3908572494983673,1.1213643550872803,-0.03915463760495186,-1.272597074508667,-0.014166668057441711,2.3847720623016357,1.4601073265075684
5406.768000,0.3913484513759613,1.1213749647140503,-0.039335817098617554,-1.2726014852523804,-0.014641179703176022,2.3847649097442627,1.4618393182754517
5406.789000,0.39173635840415955,1.1213828325271606,-0.039558280259370804,-1.272606372833252,-0.01483092736452818,2.3847591876983643,1.4631654024124146
5406.810000,0.3920307755470276,1.1213886737823486,-0.03978302702307701,-1.2726112604141235,-0.014815128408372402,2.3847544193267822,1.4641687870025635
5406.832000,0.39225444197654724,1.1213932037353516,-0.03999985381960869,-1.2726161479949951,-0.014642625115811825,2.3847503662109375,1.4649161100387573
5406.848000,0.39242613315582275,1.121396780014038,-0.04020506516098976,-1.2726209163665771,-0.014351144433021545,2.384746789932251,1.4654604196548462
5406.868000,0.3925378620624542,1.1214004755020142,-0.04023231193423271,-1.2726221084594727,-0.014395192265510559,2.384742259979248,1.4662801027297974
5406.889000,0.39266037940979004,1.1214045286178589,-0.04022224247455597,-1.2726225852966309,-0.014583907090127468,2.3847386837005615,1.4672151803970337
5406.911000,0.39281976222991943,1.121408224105835,-0.040334269404411316,-1.272625207901001,-0.014535504393279552,2.3847360610961914,1.467888355255127
5406.931000,0.3929533362388611,1.1214109659194946,-0.0404769629240036,-1.2726283073425293,-0.014345414005219936,2.3847336769104004,1.4683547019958496
5406.947000,0.3930589258670807,1.1214131116867065,-0.040629297494888306,-1.2726316452026367,-0.01404817309230566,2.3847315311431885,1.4686580896377563
5406.969000,0.3930962085723877,1.121415376663208,-0.040563590824604034,-1.2726306915283203,-0.014207344502210617,2.38472843170166,1.4693509340286255
5406.991000,0.39316219091415405,1.1214185953140259,-0.04043036326766014,-1.2726283073425293,-0.014660135842859745,2.384725332260132,1.4703396558761597
5407.012000,0.3932502269744873,1.121422290802002,-0.04024253413081169,-1.2726246118545532,-0.015395600348711014,2.3847224712371826,1.4715940952301025
5407.032000,0.3933528959751129,1.1214262247085571,-0.04000958800315857,-1.2726197242736816,-0.016397254541516304,2.3847198486328125,1.4730802774429321
5407.048000,0.3935399353504181,1.121429681777954,-0.040031008422374725,-1.2726194858551025,-0.016951845958828926,2.384718418121338,1.4741381406784058
5407.069000,0.39369621872901917,1.121431589126587,-0.04013806954026222,-1.2726207971572876,-0.01721765287220478,2.384716749191284,1.4748578071594238
5407.090000,0.393811970949173,1.1214325428009033,-0.040284451097249985,-1.272623062133789,-0.01725560799241066,2.3847150802612305,1.475311279296875
5407.109000,0.39389172196388245,1.1214330196380615,-0.04044826701283455,-1.2726259231567383,-0.01711156964302063,2.384713649749756,1.4755561351776123
5407.131000,0.3939422369003296,1.121433138847351,-0.0406172014772892,-1.2726291418075562,-0.016824308782815933,2.3847124576568604,1.4756382703781128
5407.146000,0.39396995306015015,1.1214330196380615,-0.04078421741724014,-1.2726325988769531,-0.016426462680101395,2.384711265563965,1.475594162940979
5407.167000,0.393980473279953,1.121432900428772,-0.04094546660780907,-1.2726361751556396,-0.015944989398121834,2.3847103118896484,1.4754528999328613
5407.187000,0.3939783275127411,1.1214326620101929,-0.04109900817275047,-1.2726396322250366,-0.015401816926896572,2.384709596633911,1.4752376079559326
5407.206000,0.3938525915145874,1.1214330196380615,-0.040810536593198776,-1.272634506225586,-0.01584256999194622,2.3847079277038574,1.4758915901184082
5407.223000,0.3938973546028137,1.1214345693588257,-0.04080113396048546,-1.272634506225586,-0.015930164605379105,2.3847079277038574,1.4762872457504272
5407.240000,0.39382532238960266,1.1214358806610107,-0.04040779173374176,-1.272626519203186,-0.016934126615524292,2.384706497192383,1.477464199066162
5407.262000,0.39380359649658203,1.12143874168396,-0.039892666041851044,-1.2726157903671265,-0.018554532900452614,2.3847053050994873,1.4792362451553345
5407.282000,0.39396804571151733,1.1214416027069092,-0.03979646414518356,-1.2726125717163086,-0.01954755000770092,2.3847053050994873,1.4804717302322388
5407.302000,0.39401209354400635,1.1214433908462524,-0.03948580473661423,-1.2726048231124878,-0.020986996591091156,2.384704113006592,1.4820141792297363
5407.323000,0.394055038690567,1.1214457750320435,-0.03911788389086723,-1.2725958824157715,-0.022699793800711632,2.3847031593322754,1.4837828874588013
5407.338000,0.3942197561264038,1.121447205543518,-0.03909626603126526,-1.272593379020691,-0.023769542574882507,2.384702682495117,1.484984040260315
5407.360000,0.3943607211112976,1.1214467287063599,-0.039206769317388535,-1.272593379020691,-0.024394884705543518,2.3847014904022217,1.4857386350631714
5407.380000,0.39445948600769043,1.1214451789855957,-0.03938273340463638,-1.2725950479507446,-0.02466357685625553,2.384700059890747,1.4861431121826172
5407.400000,0.3945177495479584,1.1214431524276733,-0.03959042206406593,-1.2725979089736938,-0.02464492991566658,2.3846986293792725,1.4862744808197021
5407.416000,0.39454182982444763,1.1214407682418823,-0.03981027752161026,-1.2726014852523804,-0.024398352950811386,2.384697198867798,1.486194133758545
5407.435000,0.39453884959220886,1.1214383840560913,-0.04003089293837547,-1.272605538368225,-0.023974088951945305,2.3846960067749023,1.4859508275985718
5407.456000,0.39451539516448975,1.1214359998703003,-0.04024583473801613,-1.272609829902649,-0.023413844406604767,2.384695053100586,1.4855835437774658
5407.476000,0.39447709918022156,1.1214337348937988,-0.040451690554618835,-1.2726141214370728,-0.0227516982704401,2.3846943378448486,1.4851229190826416
5407.496000,0.3943278193473816,1.1214312314987183,-0.04045478627085686,-1.27261483669281,-0.022394726052880287,2.3846962451934814,1.48481023311615
5407.512000,0.3942393958568573,1.1214288473129272,-0.04053681343793869,-1.2726165056228638,-0.021917983889579773,2.384697437286377,1.484397292137146
5407.531000,0.39417561888694763,1.1214265823364258,-0.04065624997019768,-1.2726188898086548,-0.021350521594285965,2.384697914123535,1.4839097261428833
5407.555000,0.3941228687763214,1.1214245557785034,-0.040794480592012405,-1.272621750831604,-0.0207104180008173,2.3846981525421143,1.4833680391311646
5407.571000,0.39407458901405334,1.1214227676391602,-0.04094059765338898,-1.2726249694824219,-0.020013980567455292,2.3846981525421143,1.482788324356079
5407.593000,0.39392903447151184,1.1214205026626587,-0.04092013090848923,-1.272625207901001,-0.01959117315709591,2.3847007751464844,1.4823310375213623
5407.614000,0.39384031295776367,1.1214185953140259,-0.04096759110689163,-1.272626280784607,-0.01909687928855419,2.384702205657959,1.4818238019943237
5407.630000,0.39378151297569275,1.1214169263839722,-0.04105429723858833,-1.2726280689239502,-0.01853923499584198,2.3847029209136963,1.4812813997268677
5407.651000,0.3937379717826843,1.121415615081787,-0.04116261005401611,-1.2726304531097412,-0.01792854256927967,2.3847033977508545,1.4807157516479492
5407.672000,0.3937016725540161,1.1214146614074707,-0.04128134250640869,-1.2726331949234009,-0.01727600395679474,2.3847036361694336,1.4801360368728638
5407.692000,0.39366835355758667,1.1214139461517334,-0.04140343517065048,-1.2726361751556396,-0.01659250073134899,2.3847038745880127,1.479549527168274
5407.713000,0.39363595843315125,1.1214134693145752,-0.04152454063296318,-1.272639274597168,-0.015887878835201263,2.384704113006592,1.4789619445800781
5407.730000,0.39355170726776123,1.121412754058838,-0.04154510423541069,-1.272640585899353,-0.015360524877905846,2.3847055435180664,1.4784826040267944
5407.750000,0.3935011923313141,1.1214122772216797,-0.04160531982779503,-1.2726423740386963,-0.014795271679759026,2.384706497192383,1.4779850244522095
5407.769000,0.39346563816070557,1.1214120388031006,-0.04168444499373436,-1.2726445198059082,-0.014202491380274296,2.38470721244812,1.477476954460144
5407.790000,0.3934372663497925,1.121411919593811,-0.041772592812776566,-1.2726469039916992,-0.013588806614279747,2.3847076892852783,1.4769642353057861
5407.812000,0.39341214299201965,1.1214120388031006,-0.04186387360095978,-1.2726494073867798,-0.012960637919604778,2.3847081661224365,1.4764516353607178
5407.828000,0.39334383606910706,1.121411919593811,-0.041844770312309265,-1.272649884223938,-0.012561178766191006,2.384709119796753,1.476117491722107
5407.850000,0.3932729959487915,1.121411919593811,-0.04177455976605415,-1.2726492881774902,-0.01233719289302826,2.3847105503082275,1.4759235382080078
5407.870000,0.39320245385169983,1.1214118003845215,-0.04167095199227333,-1.2726478576660156,-0.012263898737728596,2.3847122192382812,1.4758317470550537
5407.891000,0.3931879699230194,1.1214120388031006,-0.04166410118341446,-1.2726479768753052,-0.012073416262865067,2.3847134113311768,1.4756520986557007
5407.911000,0.39318928122520447,1.1214123964309692,-0.04170287027955055,-1.2726489305496216,-0.01179648470133543,2.384714126586914,1.4754056930541992
5407.928000,0.3931351602077484,1.1214122772216797,-0.04163207858800888,-1.2726479768753052,-0.011730844154953957,2.3847153186798096,1.4753049612045288
5407.948000,0.3931291997432709,1.1214126348495483,-0.04164532199501991,-1.2726484537124634,-0.011543621309101582,2.384716272354126,1.4751219749450684
5407.965000,0.39313456416130066,1.1214131116867065,-0.04169557988643646,-1.2726496458053589,-0.011269353330135345,2.384716749191284,1.4748767614364624
5407.986000,0.3931412398815155,1.1214135885238647,-0.04176492989063263,-1.2726514339447021,-0.010924980975687504,2.3847172260284424,1.4745852947235107
5408.006000,0.393069326877594,1.1214134693145752,-0.041659899055957794,-1.2726500034332275,-0.010918056592345238,2.384718418121338,1.4745442867279053
5408.023000,0.3929899036884308,1.1214133501052856,-0.0414903424680233,-1.2726471424102783,-0.011131084524095058,2.3847203254699707,1.4746636152267456
5408.043000,0.39298778772354126,1.1214138269424438,-0.04145399481058121,-1.272646427154541,-0.01116996631026268,2.384721517562866,1.474655032157898
5408.065000,0.3929407298564911,1.1214135885238647,-0.041345544159412384,-1.2726444005966187,-0.011352965608239174,2.38472318649292,1.474717378616333
5408.086000,0.39294543862342834,1.1214138269424438,-0.04133708029985428,-1.2726441621780396,-0.01137622445821762,2.3847241401672363,1.4746644496917725
5408.106000,0.3929651379585266,1.1214141845703125,-0.04137938842177391,-1.2726449966430664,-0.011272960342466831,2.3847246170043945,1.4745228290557861
5408.123000,0.39298713207244873,1.1214146614074707,-0.04144961014389992,-1.2726465463638306,-0.011064975522458553,2.3847246170043945,1.474313735961914
5408.143000,0.39294448494911194,1.1214145421981812,-0.04142473265528679,-1.2726465463638306,-0.010982089675962925,2.38472580909729,1.4741610288619995
5408.163000,0.392862468957901,1.1214139461517334,-0.04131516069173813,-1.2726448774337769,-0.011076305992901325,2.384727716445923,1.4741055965423584
5408.183000,0.3928428888320923,1.1214138269424438,-0.04130108654499054,-1.2726446390151978,-0.011038916185498238,2.3847286701202393,1.4739660024642944
5408.205000,0.39284834265708923,1.121414065361023,-0.041338011622428894,-1.2726454734802246,-0.010893946513533592,2.3847291469573975,1.4737622737884521
5408.224000,0.39286333322525024,1.1214144229888916,-0.04140374809503555,-1.2726469039916992,-0.010658525861799717,2.3847291469573975,1.4735106229782104
5408.243000,0.3927913308143616,1.121414065361023,-0.04129118099808693,-1.2726452350616455,-0.010750916786491871,2.384730339050293,1.4734904766082764
5408.264000,0.3926917016506195,1.1214135885238647,-0.04106316715478897,-1.2726410627365112,-0.011168034747242928,2.384732246398926,1.473710298538208
5408.285000,0.39269500970840454,1.1214138269424438,-0.04100314527750015,-1.2726397514343262,-0.011371476575732231,2.3847334384918213,1.4737859964370728
5408.302000,0.3926228880882263,1.1214134693145752,-0.04076748341321945,-1.2726349830627441,-0.01196286454796791,2.384734869003296,1.4741462469100952
5408.323000,0.39254888892173767,1.121413230895996,-0.04046184569597244,-1.272628664970398,-0.012835625559091568,2.3847367763519287,1.4747236967086792
5408.343000,0.3924809992313385,1.1214131116867065,-0.04009433835744858,-1.2726207971572876,-0.014004386030137539,2.3847386837005615,1.4755338430404663
5408.364000,0.3924354910850525,1.1214133501052856,-0.039707500487565994,-1.2726120948791504,-0.015394819900393486,2.3847405910491943,1.4765180349349976
5408.384000,0.392404705286026,1.1214138269424438,-0.03928806260228157,-1.2726024389266968,-0.017029592767357826,2.384742259979248,1.4777017831802368
5408.405000,0.392391175031662,1.1214147806167603,-0.03883575275540352,-1.2725917100906372,-0.0189170204102993,2.3847434520721436,1.4791053533554077
5408.423000,0.3924049139022827,1.1214162111282349,-0.03838507831096649,-1.2725807428359985,-0.02098124660551548,2.38474440574646,1.4806689023971558
5408.443000,0.39243435859680176,1.1214182376861572,-0.0379110649228096,-1.2725690603256226,-0.023262469097971916,2.384744882583618,1.4824358224868774
5408.463000,0.39248955249786377,1.1214207410812378,-0.037446487694978714,-1.272557258605957,-0.02568643167614937,2.384744882583618,1.4843473434448242
5408.485000,0.3925572633743286,1.1214238405227661,-0.03696618974208832,-1.2725448608398438,-0.02828945405781269,2.384744167327881,1.486437439918518
5408.505000,0.39263808727264404,1.1214276552200317,-0.03646339848637581,-1.2725317478179932,-0.031090697273612022,2.3847429752349854,1.488731861114502
5408.522000,0.3928920030593872,1.1214290857315063,-0.03642885386943817,-1.2725272178649902,-0.03297644481062889,2.3847410678863525,1.4903043508529663
5408.543000,0.39313337206840515,1.1214278936386108,-0.03659101203083992,-1.2725266218185425,-0.03419525921344757,2.384737491607666,1.4913084506988525
5408.564000,0.3933297395706177,1.1214251518249512,-0.036855123937129974,-1.2725287675857544,-0.034871701151132584,2.384732961654663,1.4918667078018188
5408.585000,0.39347726106643677,1.1214216947555542,-0.03717070445418358,-1.2725328207015991,-0.035107847303152084,2.384728193283081,1.4920768737792969
5408.606000,0.3935805857181549,1.1214179992675781,-0.03750782087445259,-1.2725380659103394,-0.03499210625886917,2.384723663330078,1.4920167922973633
5408.623000,0.39347249269485474,1.121418833732605,-0.03728220611810684,-1.2725334167480469,-0.03590526804327965,2.384719133377075,1.4928613901138306
5408.643000,0.39338624477386475,1.1214230060577393,-0.03684097155928612,-1.2725242376327515,-0.03752543032169342,2.384716272354126,1.494398593902588
5408.665000,0.39353078603744507,1.1214237213134766,-0.03686581924557686,-1.2725224494934082,-0.03839350864291191,2.3847146034240723,1.4953469038009644
5408.685000,0.3934885561466217,1.121427297592163,-0.03641800582408905,-1.27251136302948,-0.040256567299366,2.3847105503082275,1.4971147775650024
5408.702000,0.39347076416015625,1.1214343309402466,-0.03578216955065727,-1.272496223449707,-0.04286082088947296,2.384706974029541,1.4995864629745483
5408.722000,0.3935161232948303,1.121443510055542,-0.03507695719599724,-1.2724788188934326,-0.04601942002773285,2.3847036361694336,1.5025843381881714
5408.743000,0.3936634659767151,1.1214512586593628,-0.03454203903675079,-1.2724634408950806,-0.049143340438604355,2.3847012519836426,1.5055454969406128
5408.764000,0.3939802646636963,1.1214510202407837,-0.034568704664707184,-1.272457480430603,-0.05114501342177391,2.3846981525421143,1.5075154304504395
5408.785000,0.3941388428211212,1.1214499473571777,-0.034485943615436554,-1.2724497318267822,-0.053102802485227585,2.3846936225891113,1.5093357563018799
5408.805000,0.39424270391464233,1.1214488744735718,-0.03438636660575867,-1.272442102432251,-0.05495724454522133,2.3846893310546875,1.5110279321670532
5408.822000,0.39433833956718445,1.121445894241333,-0.03438910096883774,-1.272436499595642,-0.056459277868270874,2.3846864700317383,1.5123664140701294
5408.842000,0.39440518617630005,1.1214404106140137,-0.03448279947042465,-1.272432565689087,-0.05756495147943497,2.3846843242645264,1.5132890939712524
5408.863000,0.39450788497924805,1.1214312314987183,-0.034790508449077606,-1.2724329233169556,-0.05799369141459465,2.3846802711486816,1.513630986213684
5408.884000,0.39451220631599426,1.1214220523834229,-0.03505745902657509,-1.2724335193634033,-0.05816417187452316,2.3846776485443115,1.5136723518371582
5408.904000,0.39453190565109253,1.1214115619659424,-0.03543555364012718,-1.2724370956420898,-0.05786140263080597,2.3846733570098877,1.5133311748504639
5408.921000,0.39446738362312317,1.1214017868041992,-0.03575509414076805,-1.2724405527114868,-0.057377059012651443,2.384671926498413,1.512763261795044
5408.942000,0.3943493664264679,1.121392011642456,-0.036042165011167526,-1.2724436521530151,-0.056729111820459366,2.384672164916992,1.5119770765304565
5408.963000,0.3941936790943146,1.1213823556900024,-0.03629525378346443,-1.2724463939666748,-0.05597474053502083,2.384673595428467,1.5110278129577637
5408.984000,0.3940180540084839,1.1213728189468384,-0.036531586199998856,-1.2724488973617554,-0.055121127516031265,2.3846757411956787,1.5099294185638428
5409.004000,0.3938290476799011,1.1213635206222534,-0.036747999489307404,-1.2724511623382568,-0.05420500785112381,2.384678363800049,1.5087236166000366
5409.021000,0.3936364948749542,1.1213546991348267,-0.03695050626993179,-1.2724534273147583,-0.05324261635541916,2.384680986404419,1.5074385404586792
5409.041000,0.39344459772109985,1.121346354484558,-0.03713949769735336,-1.2724556922912598,-0.05225328728556633,2.384683847427368,1.5061012506484985
5409.063000,0.39325809478759766,1.1213384866714478,-0.037319716066122055,-1.2724580764770508,-0.05124356597661972,2.3846867084503174,1.5047272443771362
5409.083000,0.39307907223701477,1.1213310956954956,-0.03749461844563484,-1.2724605798721313,-0.05021611601114273,2.3846893310546875,1.5033255815505981
5409.104000,0.39297160506248474,1.1213245391845703,-0.0377313457429409,-1.2724647521972656,-0.04908844456076622,2.384688377380371,1.50194251537323
5409.121000,0.3928566873073578,1.121319055557251,-0.03794926032423973,-1.2724692821502686,-0.047948207706213,2.3846890926361084,1.500563621520996
5409.142000,0.39279040694236755,1.121314287185669,-0.03820685297250748,-1.272475004196167,-0.04673090577125549,2.3846874237060547,1.4992173910140991
5409.163000,0.3927612602710724,1.1213105916976929,-0.03849627822637558,-1.2724820375442505,-0.045432209968566895,2.3846845626831055,1.4979058504104614
5409.185000,0.39269736409187317,1.1213077306747437,-0.038726795464754105,-1.2724883556365967,-0.04418939724564552,2.384683847427368,1.4966500997543335
5409.204000,0.3926658630371094,1.1213053464889526,-0.03898279368877411,-1.2724952697753906,-0.04289824143052101,2.3846817016601562,1.4954262971878052
5409.221000,0.39260727167129517,1.1213037967681885,-0.03917558118700981,-1.2725012302398682,-0.041707418859004974,2.384680986404419,1.4942967891693115
5409.241000,0.392537385225296,1.121302604675293,-0.03932555392384529,-1.2725062370300293,-0.040612831711769104,2.384680986404419,1.4932478666305542
5409.261000,0.39247050881385803,1.1213017702102661,-0.03944234177470207,-1.2725104093551636,-0.03962630778551102,2.384680986404419,1.492302417755127
5409.282000,0.3924144208431244,1.121301293373108,-0.03954257816076279,-1.2725141048431396,-0.03872597962617874,2.384681224822998,1.491443395614624
5409.302000,0.3923739790916443,1.121301293373108,-0.039629656821489334,-1.272517442703247,-0.03791367635130882,2.384680986404419,1.4906853437423706
5409.319000,0.3923496603965759,1.1213016510009766,-0.03971249982714653,-1.272520661354065,-0.03716830164194107,2.3846805095672607,1.4900106191635132
5409.339000,0.39234474301338196,1.121302604675293,-0.03978327289223671,-1.2725236415863037,-0.036514751613140106,2.3846793174743652,1.4894627332687378
5409.361000,0.3923689126968384,1.1213042736053467,-0.03984897583723068,-1.272526502609253,-0.03595208749175072,2.3846771717071533,1.4890661239624023
5409.381000,0.39241963624954224,1.1213066577911377,-0.039920635521411896,-1.2725296020507812,-0.03544820100069046,2.3846747875213623,1.4887890815734863
5409.398000,0.3924950063228607,1.1213096380233765,-0.039992306381464005,-1.2725327014923096,-0.03501269593834877,2.384671688079834,1.4886506795883179
5409.418000,0.3925912082195282,1.1213129758834839,-0.04007130116224289,-1.272536039352417,-0.03461904078722,2.3846683502197266,1.4886202812194824
5409.439000,0.3927081227302551,1.121316909790039,-0.040147073566913605,-1.2725393772125244,-0.03429161757230759,2.3846640586853027,1.4887336492538452
5409.460000,0.39284610748291016,1.1213213205337524,-0.040232304483652115,-1.272542953491211,-0.0339975580573082,2.3846595287323,1.4889572858810425
5409.481000,0.39300447702407837,1.1213263273239136,-0.04031636565923691,-1.2725465297698975,-0.03376060724258423,2.3846540451049805,1.489324688911438
5409.502000,0.39317718148231506,1.1213299036026,-0.040529653429985046,-1.272552490234375,-0.03321154788136482,2.3846514225006104,1.4894052743911743
5409.519000,0.3932974934577942,1.1213319301605225,-0.040762580931186676,-1.2725586891174316,-0.03248341381549835,2.3846495151519775,1.489263892173767
5409.540000,0.39337158203125,1.121333122253418,-0.04099388048052788,-1.2725650072097778,-0.03162676468491554,2.384648323059082,1.4889520406723022
5409.561000,0.39342156052589417,1.1213366985321045,-0.04102477431297302,-1.272567868232727,-0.031224187463521957,2.3846428394317627,1.4891564846038818
5409.582000,0.3935483396053314,1.1213428974151611,-0.04102500155568123,-1.2725704908370972,-0.031068021431565285,2.384636402130127,1.4897581338882446
5409.602000,0.39373400807380676,1.121350884437561,-0.04098867252469063,-1.2725722789764404,-0.03117634914815426,2.384629011154175,1.4907581806182861
5409.619000,0.39397138357162476,1.1213598251342773,-0.040949150919914246,-1.2725738286972046,-0.031469233334064484,2.3846213817596436,1.4920588731765747
5409.639000,0.3942324221134186,1.1213659048080444,-0.04113809019327164,-1.272579312324524,-0.03126227483153343,2.3846189975738525,1.4928408861160278
5409.660000,0.3943955898284912,1.121368646621704,-0.04135811701416969,-1.2725847959518433,-0.030788015574216843,2.384618043899536,1.4932169914245605
5409.682000,0.394475519657135,1.121369481086731,-0.041576310992240906,-1.272590160369873,-0.03012324497103691,2.384618043899536,1.4932770729064941
5409.698000,0.39451321959495544,1.121373176574707,-0.041510630398988724,-1.2725903987884521,-0.03010241873562336,2.3846120834350586,1.4940240383148193
5409.719000,0.3946576714515686,1.1213804483413696,-0.04140627384185791,-1.2725903987884521,-0.03042447566986084,2.3846046924591064,1.4952961206436157
5409.739000,0.3948695659637451,1.1213858127593994,-0.041574474424123764,-1.2725954055786133,-0.03020418807864189,2.384603261947632,1.4960335493087769
5409.760000,0.3949880301952362,1.1213877201080322,-0.0417761355638504,-1.2726004123687744,-0.029715921729803085,2.384603500366211,1.4963529109954834
5409.781000,0.3950244188308716,1.1213876008987427,-0.04197487235069275,-1.2726051807403564,-0.029040932655334473,2.3846046924591064,1.4963473081588745
5409.799000,0.3950018584728241,1.1213864088058472,-0.04216192662715912,-1.272609829902649,-0.028229566290974617,2.3846065998077393,1.4960908889770508
5409.819000,0.394939124584198,1.1213847398757935,-0.04233456775546074,-1.2726143598556519,-0.027320383116602898,2.3846092224121094,1.4956425428390503
5409.839000,0.3948500156402588,1.1213828325271606,-0.04249228537082672,-1.2726187705993652,-0.026343723759055138,2.3846120834350586,1.4950491189956665
5409.861000,0.3947444558143616,1.1213810443878174,-0.042635608464479446,-1.272623062133789,-0.025323310866951942,2.384615182876587,1.4943478107452393
5409.881000,0.39462947845458984,1.1213792562484741,-0.04276551306247711,-1.2726272344589233,-0.02427757903933525,2.3846185207366943,1.4935683012008667
5409.897000,0.3945100009441376,1.12137770652771,-0.04288312792778015,-1.272631287574768,-0.023220684379339218,2.3846218585968018,1.4927337169647217
5409.917000,0.3943893313407898,1.121376395225525,-0.04298955202102661,-1.2726351022720337,-0.02216344140470028,2.3846254348754883,1.491862416267395
5409.938000,0.394269734621048,1.1213752031326294,-0.043085794895887375,-1.2726387977600098,-0.021114075556397438,2.384629011154175,1.490968942642212
5409.959000,0.3941527009010315,1.121374249458313,-0.04317276552319527,-1.2726422548294067,-0.020078737288713455,2.3846325874328613,1.4900645017623901
5409.980000,0.39403918385505676,1.1213735342025757,-0.04325124993920326,-1.2726455926895142,-0.019061999395489693,2.384636163711548,1.4891579151153564
5409.995000,0.39392974972724915,1.1213730573654175,-0.043321944773197174,-1.272648811340332,-0.018067175522446632,2.3846397399902344,1.4882560968399048
5410.017000,0.39385586977005005,1.121376633644104,-0.04298526793718338,-1.2726436853408813,-0.018253758549690247,2.384634494781494,1.4887478351593018
5410.036000,0.3940103054046631,1.1213860511779785,-0.04260970652103424,-1.2726377248764038,-0.019117457792162895,2.384626626968384,1.4903119802474976
5410.058000,0.39430856704711914,1.1213949918746948,-0.042652521282434464,-1.2726398706436157,-0.01930730603635311,2.3846261501312256,1.491309642791748
5410.078000,0.3944973051548004,1.1213998794555664,-0.04275844246149063,-1.2726424932479858,-0.019197553396224976,2.384627342224121,1.4918630123138428
5410.100000,0.39457592368125916,1.121403694152832,-0.04265207797288895,-1.2726407051086426,-0.019483208656311035,2.3846259117126465,1.4927375316619873
5410.116000,0.3946811258792877,1.1214066743850708,-0.042725998908281326,-1.2726426124572754,-0.019373737275600433,2.3846275806427,1.4931857585906982
5410.136000,0.39471709728240967,1.1214076280593872,-0.042826540768146515,-1.2726449966430664,-0.019051602110266685,2.3846302032470703,1.4933017492294312
5410.158000,0.3946411907672882,1.1214070320129395,-0.042804960161447525,-1.2726452350616455,-0.018838148564100266,2.384634017944336,1.4933432340621948
5410.178000,0.39456960558891296,1.1214059591293335,-0.04284360632300377,-1.272646427154541,-0.01845216378569603,2.3846378326416016,1.493144154548645
5410.199000,0.3944835066795349,1.1214045286178589,-0.04290265589952469,-1.2726480960845947,-0.0179455503821373,2.384641647338867,1.4927605390548706
5410.217000,0.39438432455062866,1.1214028596878052,-0.0429689921438694,-1.272650122642517,-0.017348075285553932,2.384645462036133,1.4922373294830322
5410.237000,0.3942757844924927,1.1214011907577515,-0.043036118149757385,-1.2726523876190186,-0.016683388501405716,2.3846490383148193,1.4916099309921265
5410.258000,0.3941614627838135,1.1213996410369873,-0.043100498616695404,-1.27265465259552,-0.015970956534147263,2.384652614593506,1.4909064769744873
5410.279000,0.3940443694591522,1.1213982105255127,-0.04316031187772751,-1.272657036781311,-0.015226621180772781,2.3846561908721924,1.4901491403579712
5410.299000,0.39392685890197754,1.1213968992233276,-0.04321470856666565,-1.272659420967102,-0.014463127590715885,2.384659767150879,1.4893555641174316
5410.317000,0.3938106894493103,1.1213958263397217,-0.043263424187898636,-1.2726616859436035,-0.01369058433920145,2.3846633434295654,1.4885395765304565
5410.337000,0.3936971426010132,1.1213948726654053,-0.04330652207136154,-1.272663950920105,-0.012916895560920238,2.384666919708252,1.4877119064331055
5410.358000,0.3935870826244354,1.121394157409668,-0.043344222009181976,-1.272666096687317,-0.012148180045187473,2.3846702575683594,1.4868810176849365
5410.379000,0.3934811055660248,1.1213935613632202,-0.04337681457400322,-1.2726681232452393,-0.0113891726359725,2.384673595428467,1.486053466796875
5410.395000,0.3933795690536499,1.1213932037353516,-0.04340463876724243,-1.272670030593872,-0.01064340677112341,2.384676933288574,1.4852343797683716
5410.416000,0.3932826519012451,1.1213929653167725,-0.043428029865026474,-1.2726719379425049,-0.009913488291203976,2.3846800327301025,1.4844273328781128
5410.431000,0.3931904435157776,1.121392846107483,-0.043447304517030716,-1.2726737260818481,-0.009201321750879288,2.384683132171631,1.4836353063583374
5410.453000,0.3931029438972473,1.121392846107483,-0.04346277192234993,-1.2726753950119019,-0.008508224971592426,2.384686231613159,1.4828604459762573
5410.474000,0.393018513917923,1.1213929653167725,-0.043472763150930405,-1.272676944732666,-0.007838058285415173,2.3846893310546875,1.4821043014526367
5410.492000,0.3928016126155853,1.1213908195495605,-0.04331718012690544,-1.27267587184906,-0.007430655416101217,2.3846960067749023,1.4813491106033325
5410.512000,0.3924982249736786,1.1213867664337158,-0.04303378984332085,-1.2726719379425049,-0.007307743187993765,2.384704351425171,1.4805999994277954
5410.533000,0.3921965956687927,1.1213823556900024,-0.042696982622146606,-1.272666335105896,-0.007434005383402109,2.384711980819702,1.4799398183822632
5410.555000,0.3919243812561035,1.1213781833648682,-0.04235212504863739,-1.2726601362228394,-0.0077376957051455975,2.3847193717956543,1.4793529510498047
5410.574000,0.39171257615089417,1.1213750839233398,-0.042014770209789276,-1.272653579711914,-0.008216665126383305,2.3847248554229736,1.4789358377456665
5410.592000,0.39156028628349304,1.121373176574707,-0.041674789041280746,-1.2726467847824097,-0.00889184046536684,2.3847291469573975,1.478754997253418
5410.613000,0.3915362060070038,1.1213730573654175,-0.04152983799576759,-1.2726435661315918,-0.009321434423327446,2.3847320079803467,1.4784860610961914
5410.633000,0.39155930280685425,1.1213736534118652,-0.041485026478767395,-1.2726423740386963,-0.009557770565152168,2.3847336769104004,1.4781510829925537
5410.655000,0.39160019159317017,1.1213747262954712,-0.04149856045842171,-1.2726424932479858,-0.009629492647945881,2.384734630584717,1.4777673482894897
5410.676000,0.39156779646873474,1.1213754415512085,-0.041315190494060516,-1.2726390361785889,-0.010085620917379856,2.384735345840454,1.477777361869812
5410.693000,0.39154306054115295,1.121376872062683,-0.04102933034300804,-1.2726335525512695,-0.010885891504585743,2.3847360610961914,1.4781768321990967
5410.713000,0.3916318118572235,1.1213791370391846,-0.040967755019664764,-1.2726322412490845,-0.011337987147271633,2.3847367763519287,1.4783599376678467
5410.735000,0.39164403080940247,1.1213809251785278,-0.040697816759347916,-1.2726266384124756,-0.012247137725353241,2.3847365379333496,1.478978157043457
5410.755000,0.39176303148269653,1.1213834285736084,-0.040661949664354324,-1.2726255655288696,-0.012761587277054787,2.3847367763519287,1.4793245792388916
5410.772000,0.3917909264564514,1.1213854551315308,-0.04038340225815773,-1.272619605064392,-0.013792025856673717,2.3847358226776123,1.4801545143127441
5410.793000,0.39193156361579895,1.1213881969451904,-0.0403626449406147,-1.2726186513900757,-0.014374176040291786,2.3847358226776123,1.4806561470031738
5410.814000,0.39205989241600037,1.1213899850845337,-0.04042920470237732,-1.272619366645813,-0.014668788760900497,2.384735345840454,1.4809008836746216
5410.835000,0.3921607732772827,1.1213911771774292,-0.04053713008761406,-1.2726211547851562,-0.014736470766365528,2.384734869003296,1.4809455871582031
5410.856000,0.39223507046699524,1.121392011642456,-0.04066471382975578,-1.2726236581802368,-0.014622622169554234,2.3847343921661377,1.4808355569839478
5410.872000,0.39219212532043457,1.1213935613632202,-0.04037055745720863,-1.272618055343628,-0.01541153248399496,2.3847317695617676,1.481594443321228
5410.894000,0.3923102915287018,1.1213963031768799,-0.040375374257564545,-1.2726181745529175,-0.01574152521789074,2.3847312927246094,1.482031226158142
5410.916000,0.39241787791252136,1.121397852897644,-0.040460821241140366,-1.272619605064392,-0.015820326283574104,2.384730815887451,1.482216238975525
5410.934000,0.3923972547054291,1.1214001178741455,-0.04007941484451294,-1.2726118564605713,-0.016944119706749916,2.3847272396087646,1.483398199081421
5410.951000,0.3925614655017853,1.121403455734253,-0.04006877541542053,-1.2726112604141235,-0.017495380714535713,2.3847265243530273,1.4841489791870117
5410.975000,0.3926001489162445,1.121407151222229,-0.03962164372205734,-1.2726017236709595,-0.019064344465732574,2.3847222328186035,1.4858595132827759
5410.991000,0.39272212982177734,1.1214135885238647,-0.03906542435288429,-1.272589921951294,-0.021266240626573563,2.3847174644470215,1.4882991313934326
5411.012000,0.39292633533477783,1.121422290802002,-0.038440074771642685,-1.2725763320922852,-0.024041883647441864,2.384711503982544,1.491400122642517
5411.033000,0.3933141827583313,1.1214289665222168,-0.03838733583688736,-1.2725735902786255,-0.025789514183998108,2.384709596633911,1.4935766458511353
5411.054000,0.3936171233654022,1.1214313507080078,-0.038512859493494034,-1.272573709487915,-0.026894766837358475,2.3847076892852783,1.49502432346344
5411.074000,0.3937099874019623,1.1214361190795898,-0.038063980638980865,-1.2725629806518555,-0.029143597930669785,2.384699583053589,1.4975364208221436
5411.091000,0.39399972558021545,1.1214396953582764,-0.0381321981549263,-1.2725626230239868,-0.030408531427383423,2.3846969604492188,1.4992154836654663
5411.111000,0.3940991461277008,1.121445894241333,-0.037645939737558365,-1.272551417350769,-0.032827701419591904,2.384688138961792,1.501973032951355
5411.131000,0.39429157972335815,1.1214566230773926,-0.037030644714832306,-1.2725380659103394,-0.03592120483517647,2.384678363800049,1.5055439472198486
5411.151000,0.3945779502391815,1.1214708089828491,-0.03633841127157211,-1.2725231647491455,-0.03961966186761856,2.384666919708252,1.5098451375961304
5411.172000,0.3950693905353546,1.1214778423309326,-0.03637586161494255,-1.2725212574005127,-0.04188983142375946,2.3846628665924072,1.512819528579712
5411.189000,0.3954232633113861,1.1214771270751953,-0.036626145243644714,-1.2725220918655396,-0.043267279863357544,2.3846592903137207,1.5147488117218018
5411.210000,0.39550721645355225,1.121483564376831,-0.036151885986328125,-1.2725101709365845,-0.046019911766052246,2.384645938873291,1.517947793006897
5411.230000,0.3957006335258484,1.121497392654419,-0.03550806641578674,-1.272496223449707,-0.0495467334985733,2.3846311569213867,1.5221047401428223
5411.251000,0.3960081934928894,1.1215163469314575,-0.03477449715137482,-1.2724807262420654,-0.05374034121632576,2.3846144676208496,1.52708899974823
5411.271000,0.3964141607284546,1.1215392351150513,-0.03398981690406799,-1.2724641561508179,-0.05851813033223152,2.3845953941345215,1.5327955484390259
5411.287000,0.39703652262687683,1.1215461492538452,-0.034116230905056,-1.2724623680114746,-0.06140783429145813,2.3845884799957275,1.5366947650909424
5411.306000,0.3973216116428375,1.1215604543685913,-0.03356193006038666,-1.2724477052688599,-0.06550871580839157,2.384567975997925,1.5416160821914673
5411.326000,0.3976714611053467,1.1215832233428955,-0.03283660486340523,-1.2724316120147705,-0.07033109664916992,2.3845441341400146,1.5474131107330322
5411.344000,0.39812058210372925,1.1216109991073608,-0.03208034113049507,-1.2724155187606812,-0.07563569396734238,2.384518623352051,1.553845763206482
5411.361000,0.3987812101840973,1.1216143369674683,-0.032320499420166016,-1.272413969039917,-0.07875921577215195,2.384509563446045,1.5581586360931396
5411.379000,0.39919954538345337,1.1216005086898804,-0.032836079597473145,-1.272413730621338,-0.08049964159727097,2.38450288772583,1.5608047246932983
5411.393000,0.3993823528289795,1.1215777397155762,-0.03345802053809166,-1.2724146842956543,-0.08117163181304932,2.384498119354248,1.562145471572876
5411.413000,0.3992338180541992,1.1215823888778687,-0.033049363642930984,-1.272402286529541,-0.08373583853244781,2.384474515914917,1.5652644634246826
5411.434000,0.3992646336555481,1.1216038465499878,-0.03237852454185486,-1.2723885774612427,-0.0873827263712883,2.384448528289795,1.5697345733642578
5411.457000,0.3994777798652649,1.1216351985931396,-0.03157055005431175,-1.272372841835022,-0.09195102751255035,2.3844194412231445,1.5753570795059204
5411.480000,0.39984509348869324,1.1216729879379272,-0.03068956546485424,-1.272355318069458,-0.09730637073516846,2.3843865394592285,1.5819588899612427
5411.497000,0.40033963322639465,1.1217139959335327,-0.029816899448633194,-1.2723370790481567,-0.10321435332298279,2.3843507766723633,1.5892705917358398
5411.520000,0.40095606446266174,1.1217458248138428,-0.02926017716526985,-1.2723220586776733,-0.10878794640302658,2.3843188285827637,1.5963422060012817
5411.541000,0.4015483558177948,1.1217716932296753,-0.02881762385368347,-1.27230703830719,-0.114180788397789,2.384284496307373,1.603232741355896
5411.563000,0.4022104740142822,1.1217560768127441,-0.029340526089072227,-1.2723017930984497,-0.11708887666463852,2.384272575378418,1.6075541973114014
5411.580000,0.40247905254364014,1.1217494010925293,-0.02947896346449852,-1.2722879648208618,-0.12004624307155609,2.384247303009033,1.611627459526062
5411.601000,0.4027460813522339,1.121718406677246,-0.03021184727549553,-1.2722827196121216,-0.12110938876867294,2.3842403888702393,1.6137152910232544
5411.623000,0.40277013182640076,1.1216747760772705,-0.031079433858394623,-1.2722787857055664,-0.12091214954853058,2.3842384815216064,1.6142555475234985
5411.643000,0.4025481045246124,1.1216413974761963,-0.031649522483348846,-1.2722738981246948,-0.12059828639030457,2.3842310905456543,1.6144723892211914
5411.665000,0.40227779746055603,1.1216148138046265,-0.032128460705280304,-1.2722710371017456,-0.12008056789636612,2.3842251300811768,1.6144379377365112
5411.686000,0.4019906520843506,1.1215873956680298,-0.03264788165688515,-1.272269606590271,-0.11913533508777618,2.384225368499756,1.6138983964920044
5411.703000,0.4016539454460144,1.1215600967407227,-0.03313854709267616,-1.2722678184509277,-0.11791978776454926,2.384227991104126,1.6129727363586426
5411.723000,0.4012744724750519,1.121530294418335,-0.033655695617198944,-1.2722660303115845,-0.11632999032735825,2.3842363357543945,1.611526608467102
5411.743000,0.40083780884742737,1.1215002536773682,-0.03414202481508255,-1.272263765335083,-0.11450685560703278,2.384246826171875,1.609688639640808
5411.760000,0.4003501832485199,1.1214686632156372,-0.034635551273822784,-1.272261381149292,-0.11238624900579453,2.3842623233795166,1.6073728799819946
5411.782000,0.39979296922683716,1.121435284614563,-0.035124316811561584,-1.2722584009170532,-0.10998044908046722,2.3842828273773193,1.6045480966567993
5411.791000,0.3992524743080139,1.121401071548462,-0.035663146525621414,-1.2722580432891846,-0.10727204382419586,2.384298801422119,1.601359486579895
5411.814000,0.39864253997802734,1.121368646621704,-0.036159440875053406,-1.2722581624984741,-0.10437960922718048,2.384321451187134,1.5977962017059326
5411.836000,0.3979716897010803,1.121338129043579,-0.036583926528692245,-1.272257685661316,-0.10142069309949875,2.3843464851379395,1.5939686298370361
5411.859000,0.39736106991767883,1.1213101148605347,-0.03701966255903244,-1.2722598314285278,-0.0983850434422493,2.384364128112793,1.590079665184021
5411.876000,0.3967130482196808,1.1212832927703857,-0.03744274750351906,-1.2722625732421875,-0.095205157995224,2.384390354156494,1.5858843326568604
5411.897000,0.3960045576095581,1.1212574243545532,-0.037790000438690186,-1.2722638845443726,-0.09202474355697632,2.3844189643859863,1.5814818143844604
5411.919000,0.3952595591545105,1.121232509613037,-0.038084518164396286,-1.2722643613815308,-0.08884549885988235,2.3844497203826904,1.576880931854248
5411.940000,0.39461252093315125,1.121212124824524,-0.038353968411684036,-1.2722669839859009,-0.08581338822841644,2.3844685554504395,1.5725141763687134
5411.961000,0.39409610629081726,1.1211965084075928,-0.038670577108860016,-1.2722735404968262,-0.08281004428863525,2.3844821453094482,1.5683587789535522
5411.979000,0.3936731815338135,1.1211844682693481,-0.03901764005422592,-1.2722828388214111,-0.0798250213265419,2.384493112564087,1.564395546913147
5411.999000,0.3931851089000702,1.121171236038208,-0.039361096918582916,-1.2722914218902588,-0.07671204209327698,2.3845155239105225,1.5601603984832764
5412.020000,0.39259254932403564,1.1211568117141724,-0.03960602357983589,-1.2722967863082886,-0.07365652173757553,2.3845417499542236,1.5557447671890259
5412.041000,0.3920711874961853,1.1211462020874023,-0.03978663310408592,-1.2723023891448975,-0.07085397839546204,2.384556531906128,1.5516687631607056
5412.063000,0.3915387988090515,1.1211352348327637,-0.04000549763441086,-1.2723087072372437,-0.06793759763240814,2.3845808506011963,1.5473496913909912
5412.079000,0.3909316658973694,1.1211233139038086,-0.040150392800569534,-1.272312879562378,-0.06508824229240417,2.3846075534820557,1.5428731441497803
5412.101000,0.39028167724609375,1.1211113929748535,-0.040233105421066284,-1.272315502166748,-0.06233521178364754,2.3846349716186523,1.5382905006408691
5412.122000,0.38961803913116455,1.1211000680923462,-0.04026777297258377,-1.2723174095153809,-0.05969681963324547,2.384661912918091,1.5336579084396362
5412.141000,0.38895902037620544,1.1210896968841553,-0.04027125984430313,-1.272318959236145,-0.05716516822576523,2.384688377380371,1.528997540473938
5412.163000,0.3883134722709656,1.1210802793502808,-0.04025103151798248,-1.2723203897476196,-0.054738499224185944,2.384714126586914,1.52433180809021
5412.179000,0.3876892626285553,1.1210720539093018,-0.04021051526069641,-1.2723218202590942,-0.052422720938920975,2.3847384452819824,1.5196945667266846
5412.201000,0.3872413635253906,1.1210695505142212,-0.04015062004327774,-1.272324562072754,-0.05045492947101593,2.384748697280884,1.5156991481781006
5412.222000,0.3870075047016144,1.1210724115371704,-0.04019004479050636,-1.2723312377929688,-0.048602569848299026,2.3847532272338867,1.512227177619934
5412.243000,0.3867689073085785,1.1210741996765137,-0.04031217098236084,-1.2723397016525269,-0.04656253755092621,2.3847668170928955,1.5085786581039429
5412.263000,0.3864358067512512,1.1210737228393555,-0.04037075862288475,-1.272346019744873,-0.04454900696873665,2.3847827911376953,1.5048178434371948
5412.280000,0.38604387640953064,1.1210722923278809,-0.040371935814619064,-1.272350788116455,-0.04260551929473877,2.3847994804382324,1.5009965896606445
5412.301000,0.385626882314682,1.1210707426071167,-0.040331996977329254,-1.2723547220230103,-0.040748849511146545,2.3848161697387695,1.4971587657928467
5412.322000,0.3852084279060364,1.1210695505142212,-0.0402638278901577,-1.2723581790924072,-0.03898797184228897,2.3848321437835693,1.4933429956436157
5412.343000,0.3848026394844055,1.1210689544677734,-0.04017845541238785,-1.272361397743225,-0.037320464849472046,2.3848471641540527,1.4895708560943604
5412.363000,0.3844187259674072,1.121069073677063,-0.040080588310956955,-1.2723644971847534,-0.035750970244407654,2.3848612308502197,1.4858713150024414
5412.378000,0.3842082917690277,1.1210737228393555,-0.03997262939810753,-1.2723679542541504,-0.03450717777013779,2.38486385345459,1.4828360080718994
5412.397000,0.3840616047382355,1.1210792064666748,-0.03997325152158737,-1.2723743915557861,-0.033129800111055374,2.3848717212677,1.4797697067260742
5412.416000,0.3838768005371094,1.1210837364196777,-0.03994787111878395,-1.272379994392395,-0.03178500756621361,2.384880542755127,1.476700782775879
5412.435000,0.38366949558258057,1.1210877895355225,-0.03989440202713013,-1.272384762763977,-0.030502304434776306,2.3848893642425537,1.4736602306365967
5412.455000,0.38345688581466675,1.1210917234420776,-0.03982292488217354,-1.2723890542984009,-0.02928462065756321,2.3848979473114014,1.4706627130508423
5412.471000,0.38325387239456177,1.1210960149765015,-0.03973345831036568,-1.272392988204956,-0.028157681226730347,2.3849055767059326,1.467758059501648
5412.493000,0.3832072615623474,1.1211038827896118,-0.03964325040578842,-1.2723969221115112,-0.027303773909807205,2.384904146194458,1.4654629230499268
5412.515000,0.38334524631500244,1.1211154460906982,-0.039654482156038284,-1.272403597831726,-0.026513058692216873,2.3848989009857178,1.4636545181274414
5412.536000,0.383603036403656,1.1211292743682861,-0.039742611348629,-1.2724121809005737,-0.025737442076206207,2.3848915100097656,1.4622344970703125
5412.558000,0.3839300274848938,1.1211442947387695,-0.039880190044641495,-1.2724218368530273,-0.024959377944469452,2.384883165359497,1.4611241817474365
5412.574000,0.38413941860198975,1.121156930923462,-0.04000544920563698,-1.272431492805481,-0.02405429072678089,2.384882926940918,1.4597978591918945
5412.596000,0.384214848279953,1.1211668252944946,-0.04001282900571823,-1.2724380493164062,-0.02327020838856697,2.3848843574523926,1.4584251642227173
5412.617000,0.3842218518257141,1.1211751699447632,-0.039953093975782394,-1.2724428176879883,-0.022597424685955048,2.3848869800567627,1.4570262432098389
5412.638000,0.3842307925224304,1.1211835145950317,-0.03984148055315018,-1.2724460363388062,-0.02211621031165123,2.3848876953125,1.4557937383651733
5412.659000,0.38430628180503845,1.1211931705474854,-0.03971397504210472,-1.2724486589431763,-0.02184666134417057,2.384885787963867,1.4548777341842651
5412.676000,0.38452374935150146,1.1212047338485718,-0.03969926759600639,-1.2724533081054688,-0.021562259644269943,2.384880304336548,1.4542078971862793
5412.696000,0.38483375310897827,1.1212177276611328,-0.039772335439920425,-1.272459864616394,-0.021220456808805466,2.3848729133605957,1.4537328481674194
5412.717000,0.38519272208213806,1.1212315559387207,-0.0399012416601181,-1.2724676132202148,-0.020815230906009674,2.3848648071289062,1.4534114599227905
5412.738000,0.3855466842651367,1.121246099472046,-0.03995614871382713,-1.2724741697311401,-0.02060753107070923,2.3848557472229004,1.453447699546814
5412.758000,0.385922908782959,1.1212612390518188,-0.039994336664676666,-1.2724803686141968,-0.02052231691777706,2.3848466873168945,1.453759789466858
5412.775000,0.38632774353027344,1.12127685546875,-0.04001795873045921,-1.2724859714508057,-0.020575612783432007,2.3848369121551514,1.4543671607971191
5412.796000,0.38675951957702637,1.1212928295135498,-0.040049586445093155,-1.2724915742874146,-0.020712731406092644,2.384826898574829,1.4551982879638672
5412.817000,0.3872150182723999,1.1213090419769287,-0.04008164256811142,-1.2724969387054443,-0.02094656229019165,2.3848161697387695,1.4562655687332153
5412.838000,0.38769760727882385,1.1213254928588867,-0.040123745799064636,-1.2725023031234741,-0.02125592902302742,2.3848047256469727,1.4575529098510742
5412.858000,0.3881970942020416,1.1213420629501343,-0.04018286243081093,-1.272507905960083,-0.021602345630526543,2.384793281555176,1.459001064300537
5412.875000,0.38870716094970703,1.1213587522506714,-0.040245503187179565,-1.2725133895874023,-0.022004656493663788,2.3847813606262207,1.4606235027313232
5412.895000,0.389223575592041,1.121375322341919,-0.04032116010785103,-1.2725191116333008,-0.022428063675761223,2.3847692012786865,1.4623690843582153
5412.917000,0.3897411823272705,1.121391773223877,-0.04040151089429855,-1.2725248336791992,-0.022880230098962784,2.3847568035125732,1.4642362594604492
5412.937000,0.3902522325515747,1.1214081048965454,-0.04046465829014778,-1.2725300788879395,-0.023406803607940674,2.38474440574646,1.4662566184997559
5412.958000,0.39076030254364014,1.1214243173599243,-0.04052824154496193,-1.2725352048873901,-0.023971423506736755,2.384732246398926,1.4683811664581299
5412.974000,0.3912544250488281,1.1214402914047241,-0.04055695980787277,-1.272539496421814,-0.024652888998389244,2.3847198486328125,1.4706720113754272
5412.995000,0.3917454779148102,1.1214561462402344,-0.04057934507727623,-1.2725435495376587,-0.02540266513824463,2.3847076892852783,1.473075270652771
5413.016000,0.39222460985183716,1.121471881866455,-0.04056348279118538,-1.272546648979187,-0.02629528008401394,2.384695291519165,1.475654125213623
5413.037000,0.39270347356796265,1.1214873790740967,-0.04054125398397446,-1.2725495100021362,-0.027274366468191147,2.384683132171631,1.4783505201339722
5413.058000,0.39317989349365234,1.121502161026001,-0.040555428713560104,-1.2725528478622437,-0.028216177597641945,2.384671688079834,1.481020450592041
5413.078000,0.39361774921417236,1.1215131282806396,-0.0407891720533371,-1.2725601196289062,-0.028532670810818672,2.3846657276153564,1.4829367399215698
5413.095000,0.3939145803451538,1.121519923210144,-0.04104684293270111,-1.2725671529769897,-0.02848218008875847,2.3846616744995117,1.484257698059082
5413.115000,0.3940976858139038,1.1215240955352783,-0.04129647836089134,-1.2725739479064941,-0.028162790462374687,2.3846590518951416,1.4851099252700806
5413.136000,0.39419886469841003,1.1215265989303589,-0.04153001680970192,-1.2725803852081299,-0.02764134854078293,2.384657382965088,1.4855941534042358
5413.157000,0.3942427337169647,1.121528148651123,-0.04174519330263138,-1.2725865840911865,-0.026969868689775467,2.3846564292907715,1.4857909679412842
5413.173000,0.39424723386764526,1.1215291023254395,-0.04194202274084091,-1.272592544555664,-0.026189301162958145,2.3846561908721924,1.485764503479004
5413.195000,0.39422523975372314,1.1215298175811768,-0.04212155193090439,-1.2725982666015625,-0.025331690907478333,2.3846564292907715,1.4855657815933228
5413.215000,0.3941859006881714,1.1215304136276245,-0.042285218834877014,-1.2726037502288818,-0.02442198432981968,2.3846569061279297,1.485235571861267
5413.236000,0.39413556456565857,1.1215310096740723,-0.042434509843587875,-1.2726088762283325,-0.023479511961340904,2.384657621383667,1.4848060607910156
5413.256000,0.39407864212989807,1.12153160572052,-0.04257083311676979,-1.272613763809204,-0.02251916378736496,2.3846585750579834,1.4843028783798218
5413.277000,0.39401817321777344,1.1215323209762573,-0.042695432901382446,-1.2726184129714966,-0.021552374586462975,2.384659767150879,1.4837464094161987
5413.292000,0.3939390182495117,1.1215355396270752,-0.042504798620939255,-1.2726168632507324,-0.021406423300504684,2.3846564292907715,1.484047532081604
5413.313000,0.39399757981300354,1.12153959274292,-0.04255395755171776,-1.2726198434829712,-0.02094626985490322,2.3846566677093506,1.4841138124465942
5413.334000,0.39403554797172546,1.12154221534729,-0.0426449216902256,-1.2726231813430786,-0.02036484144628048,2.384657621383667,1.4839982986450195
5413.355000,0.3940437436103821,1.1215438842773438,-0.042745497077703476,-1.2726266384124756,-0.019704239442944527,2.3846588134765625,1.4837430715560913
5413.372000,0.39402830600738525,1.1215450763702393,-0.04284621775150299,-1.2726300954818726,-0.01898711547255516,2.384660005569458,1.483381986618042
5413.392000,0.39399582147598267,1.1215460300445557,-0.04294286295771599,-1.2726335525512695,-0.01823091320693493,2.3846614360809326,1.4829415082931519
5413.414000,0.3939515948295593,1.1215468645095825,-0.04303339496254921,-1.2726370096206665,-0.017449747771024704,2.3846631050109863,1.4824429750442505
5413.434000,0.39389970898628235,1.1215476989746094,-0.04311694577336311,-1.272640347480774,-0.016654932871460915,2.38466477394104,1.4819029569625854
5413.455000,0.3938432037830353,1.1215485334396362,-0.04319331794977188,-1.2726435661315918,-0.01585536263883114,2.384666681289673,1.4813348054885864
5413.472000,0.3937842845916748,1.1215494871139526,-0.04326265677809715,-1.2726466655731201,-0.015057982876896858,2.3846685886383057,1.4807487726211548
5413.492000,0.39372456073760986,1.121550440788269,-0.0433252677321434,-1.2726496458053589,-0.014268167316913605,2.3846704959869385,1.4801530838012695
5413.513000,0.3936651051044464,1.121551513671875,-0.04338155686855316,-1.272652506828308,-0.013489937409758568,2.3846724033355713,1.4795541763305664
5413.534000,0.393566370010376,1.121554970741272,-0.04289715364575386,-1.272644281387329,-0.014148136600852013,2.3846678733825684,1.480488896369934
5413.554000,0.39370906352996826,1.121561050415039,-0.04283778741955757,-1.2726445198059082,-0.014271162450313568,2.3846683502197266,1.4810692071914673
5413.570000,0.39382079243659973,1.1215651035308838,-0.04286413639783859,-1.2726458311080933,-0.014178728684782982,2.384669542312622,1.4813717603683472
5413.588000,0.39388346672058105,1.1215676069259644,-0.042918961495161057,-1.2726476192474365,-0.013937250711023808,2.3846709728240967,1.4814577102661133
5413.609000,0.3939061462879181,1.121569275856018,-0.04298437014222145,-1.2726496458053589,-0.01358164194971323,2.3846724033355713,1.4813759326934814
5413.631000,0.3938990831375122,1.121570348739624,-0.04305184632539749,-1.2726519107818604,-0.013139259070158005,2.384674072265625,1.4811651706695557
5413.651000,0.39387083053588867,1.1215711832046509,-0.043116938322782516,-1.2726542949676514,-0.012632559984922409,2.384675979614258,1.4808562994003296
5413.668000,0.3938280940055847,1.1215717792510986,-0.04317742958664894,-1.2726566791534424,-0.012079794891178608,2.3846778869628906,1.4804738759994507
5413.689000,0.3937758803367615,1.1215723752975464,-0.04323233664035797,-1.2726590633392334,-0.01149566750973463,2.3846800327301025,1.4800373315811157
5413.709000,0.3936661183834076,1.1215755939483643,-0.042562831193208694,-1.2726465463638306,-0.01280604861676693,2.384673595428467,1.4816298484802246
5413.729000,0.39382442831993103,1.121585726737976,-0.041749365627765656,-1.2726308107376099,-0.015274733304977417,2.38466477394104,1.484777808189392
5413.750000,0.39425918459892273,1.1215972900390625,-0.041632432490587234,-1.272628903388977,-0.016679704189300537,2.3846633434295654,1.487036943435669
5413.768000,0.39452454447746277,1.1216087341308594,-0.0408744290471077,-1.2726131677627563,-0.019685596227645874,2.3846523761749268,1.490912914276123
5413.789000,0.3950250446796417,1.1216204166412354,-0.04082554206252098,-1.2726120948791504,-0.021454619243741035,2.3846499919891357,1.4936912059783936
5413.808000,0.3953748047351837,1.121626377105713,-0.04093548282980919,-1.2726134061813354,-0.022556250914931297,2.3846490383148193,1.4956026077270508
5413.830000,0.39557307958602905,1.1216281652450562,-0.0411001555621624,-1.2726155519485474,-0.023158499971032143,2.3846490383148193,1.4968314170837402
5413.851000,0.39565494656562805,1.1216273307800293,-0.04128335043787956,-1.272618293762207,-0.02336960658431053,2.3846497535705566,1.497524619102478
5413.867000,0.3956523835659027,1.1216249465942383,-0.04146755859255791,-1.2726213932037354,-0.023276114836335182,2.3846511840820312,1.4977995157241821
5413.888000,0.39559057354927063,1.1216217279434204,-0.04164397716522217,-1.2726246118545532,-0.02294841967523098,2.384653091430664,1.4977495670318604
5413.908000,0.3954264521598816,1.1216261386871338,-0.04083890840411186,-1.272608995437622,-0.025037856772542,2.38464093208313,1.5002691745758057
5413.930000,0.3956111669540405,1.1216418743133545,-0.03983951359987259,-1.2725902795791626,-0.028572672978043556,2.38462495803833,1.5047551393508911
5413.951000,0.3960895538330078,1.1216660737991333,-0.038759708404541016,-1.2725701332092285,-0.03329547867178917,2.3846049308776855,1.5108790397644043
5413.968000,0.39679279923439026,1.1216973066329956,-0.03765808790922165,-1.272550344467163,-0.038985610008239746,2.3845808506011963,1.5183485746383667
5413.988000,0.3977261185646057,1.1217182874679565,-0.03766311705112457,-1.2725512981414795,-0.04251427948474884,2.384572982788086,1.5237101316452026
5414.009000,0.39834654331207275,1.1217248439788818,-0.03793097287416458,-1.2725541591644287,-0.044786930084228516,2.384568452835083,1.5274066925048828
5414.030000,0.39867663383483887,1.1217219829559326,-0.03829086571931839,-1.272557258605957,-0.04610618203878403,2.384566307067871,1.529792070388794
5414.051000,0.39872100949287415,1.1217340230941772,-0.03752152621746063,-1.2725411653518677,-0.04978933930397034,2.384542226791382,1.5345500707626343
5414.067000,0.39913061261177063,1.121739149093628,-0.037698183208703995,-1.2725434303283691,-0.05166259780526161,2.3845374584198,1.5377051830291748
5414.088000,0.39934927225112915,1.1217336654663086,-0.038050588220357895,-1.272546410560608,-0.05257401242852211,2.3845365047454834,1.5396008491516113
5414.109000,0.39930906891822815,1.1217474937438965,-0.03718952089548111,-1.272529125213623,-0.05616309866309166,2.384509563446045,1.5442216396331787
5414.131000,0.39970383048057556,1.1217542886734009,-0.03735213726758957,-1.2725239992141724,-0.057909801602363586,2.384511947631836,1.5472750663757324
5414.150000,0.39992567896842957,1.121751070022583,-0.037714529782533646,-1.2725099325180054,-0.05869418382644653,2.384524345397949,1.5490971803665161
5414.167000,0.3999764621257782,1.1217389106750488,-0.03811510652303696,-1.2724828720092773,-0.058832064270973206,2.384547710418701,1.5500608682632446
5414.188000,0.39982491731643677,1.1217402219772339,-0.03760170564055443,-1.2724418640136719,-0.060893069952726364,2.3845527172088623,1.5529531240463257
5414.209000,0.3999153673648834,1.1217564344406128,-0.036887653172016144,-1.2724034786224365,-0.06406287848949432,2.3845531940460205,1.5573142766952515
5414.231000,0.40035778284072876,1.1217461824417114,-0.037011414766311646,-1.2723631858825684,-0.06575961410999298,2.384580612182617,1.5604826211929321
5414.250000,0.40062931180000305,1.121731162071228,-0.036920011043548584,-1.2723032236099243,-0.06770294159650803,2.384601593017578,1.5638116598129272
5414.266000,0.4009891152381897,1.1216737031936646,-0.03722096234560013,-1.2722357511520386,-0.0686744824051857,2.384636640548706,1.566300392150879
5414.288000,0.4011856019496918,1.121607780456543,-0.03735363110899925,-1.2721467018127441,-0.0696636363863945,2.384669542312622,1.5687270164489746
5414.306000,0.4014469385147095,1.1214869022369385,-0.0377165824174881,-1.2720539569854736,-0.06998071819543839,2.384709119796753,1.5706409215927124
5414.328000,0.40158119797706604,1.1213539838790894,-0.03796710819005966,-1.2719390392303467,-0.07019917666912079,2.3847503662109375,1.5723925828933716
5414.349000,0.40165504813194275,1.1212071180343628,-0.038196876645088196,-1.2718145847320557,-0.0702262669801712,2.3847925662994385,1.5738993883132935
5414.370000,0.4016759693622589,1.1210498809814453,-0.03839442878961563,-1.2716827392578125,-0.07012235373258591,2.3848347663879395,1.5752065181732178
5414.386000,0.401668518781662,1.1208680868148804,-0.038604985922575,-1.2715486288070679,-0.06982288509607315,2.3848767280578613,1.576261281967163
5414.407000,0.4017965495586395,1.1205811500549316,-0.03892891854047775,-1.2714353799819946,-0.0693049356341362,2.3849036693573,1.5773987770080566
5414.428000,0.4020442068576813,1.1201896667480469,-0.03938666731119156,-1.2713189125061035,-0.06847800314426422,2.3849239349365234,1.5785921812057495
5414.449000,0.4023674726486206,1.1196788549423218,-0.039935484528541565,-1.2712024450302124,-0.06738017499446869,2.3849384784698486,1.5798829793930054
5414.465000,0.4027237892150879,1.1190659999847412,-0.04054723307490349,-1.2710752487182617,-0.06602846086025238,2.3849503993988037,1.5812400579452515
5414.486000,0.4029258191585541,1.1184147596359253,-0.041125278919935226,-1.270915150642395,-0.06439438462257385,2.3849751949310303,1.582230806350708
5414.507000,0.4029502868652344,1.117743968963623,-0.04158061742782593,-1.270738959312439,-0.06268510967493057,2.385005474090576,1.5829317569732666
5414.528000,0.4028696119785309,1.1170427799224854,-0.041958898305892944,-1.2705631256103516,-0.06092196702957153,2.385037899017334,1.583393931388855
5414.548000,0.40272411704063416,1.1163190603256226,-0.04228099808096886,-1.2703852653503418,-0.05913449078798294,2.3850715160369873,1.5836684703826904
5414.565000,0.4025486707687378,1.1155544519424438,-0.042573392391204834,-1.2702163457870483,-0.0573270283639431,2.3851044178009033,1.5838080644607544
5414.585000,0.40236741304397583,1.1147282123565674,-0.04285966604948044,-1.2700598239898682,-0.05549737066030502,2.38512921333313,1.583865761756897
5414.606000,0.4021797180175781,1.1138513088226318,-0.04314433038234711,-1.2699068784713745,-0.05364599823951721,2.385153293609619,1.583859920501709
5414.627000,0.4019928574562073,1.1129069328308105,-0.043431852012872696,-1.269763708114624,-0.051782116293907166,2.385166645050049,1.583840250968933
5414.648000,0.40194857120513916,1.111802577972412,-0.04378606751561165,-1.269665002822876,-0.050005748867988586,2.3851120471954346,1.5842845439910889
5414.669000,0.40190520882606506,1.110636591911316,-0.04423373565077782,-1.2695585489273071,-0.04802902042865753,2.385065793991089,1.5846573114395142
5414.685000,0.40179184079170227,1.1094006299972534,-0.04465849697589874,-1.2694482803344727,-0.046023931354284286,2.3849997520446777,1.5850332975387573
5414.706000,0.4016217291355133,1.1081126928329468,-0.04506554454565048,-1.2693357467651367,-0.04400033876299858,2.3849191665649414,1.585409164428711
5414.726000,0.40141624212265015,1.1067582368850708,-0.04545556381344795,-1.2692281007766724,-0.04200093448162079,2.384798049926758,1.5858564376831055
5414.747000,0.40128886699676514,1.105220913887024,-0.045902855694293976,-1.2691383361816406,-0.040062882006168365,2.3844668865203857,1.5866928100585938
5414.767000,0.40113458037376404,1.1036380529403687,-0.04640628769993782,-1.26904296875,-0.038023483008146286,2.3841168880462646,1.5875738859176636
5414.784000,0.40091487765312195,1.101990818977356,-0.04688103869557381,-1.268944501876831,-0.03602759912610054,2.3836963176727295,1.5885860919952393
5414.805000,0.40064507722854614,1.1003025770187378,-0.047345779836177826,-1.2688429355621338,-0.034051742404699326,2.383225202560425,1.5896925926208496
5414.825000,0.4003402292728424,1.098549246788025,-0.04778717830777168,-1.2687389850616455,-0.032162245362997055,2.382646322250366,1.5909838676452637
5414.846000,0.4000594913959503,1.0965778827667236,-0.048284467309713364,-1.268626093864441,-0.030304932966828346,2.3816640377044678,1.5925562381744385
5414.863000,0.3997384011745453,1.0945760011672974,-0.048795346170663834,-1.2685121297836304,-0.028480788692831993,2.3806169033050537,1.5943235158920288
5414.883000,0.3993731737136841,1.0925134420394897,-0.049278777092695236,-1.2683920860290527,-0.026781877502799034,2.3794267177581787,1.5963672399520874
5414.903000,0.39898812770843506,1.0902127027511597,-0.04982559382915497,-1.2682535648345947,-0.025063952431082726,2.377737522125244,1.5985928773880005
5414.924000,0.39853793382644653,1.0878912210464478,-0.05034898221492767,-1.268115520477295,-0.02345813438296318,2.375962257385254,1.6010868549346924
5414.944000,0.3980379104614258,1.0855717658996582,-0.050866372883319855,-1.2679778337478638,-0.02191583812236786,2.374133586883545,1.6037707328796387
5414.961000,0.39749354124069214,1.0832109451293945,-0.05135442316532135,-1.267835021018982,-0.02049541100859642,2.3721559047698975,1.6066961288452148
5414.982000,0.39689502120018005,1.0806071758270264,-0.05191706120967865,-1.267675757408142,-0.018969185650348663,2.3696448802948,1.6096047163009644
5415.003000,0.39618831872940063,1.0778311491012573,-0.052513595670461655,-1.2675080299377441,-0.017362622544169426,2.3667397499084473,1.6124799251556396
5415.023000,0.39536359906196594,1.074941873550415,-0.053129930049180984,-1.2673360109329224,-0.015679914504289627,2.363551378250122,1.6153093576431274
5415.045000,0.39444276690483093,1.0720858573913574,-0.05363919585943222,-1.2671658992767334,-0.01422884501516819,2.3603458404541016,1.618446707725525
5415.061000,0.3934266269207001,1.0689812898635864,-0.054213374853134155,-1.266993761062622,-0.01265588216483593,2.356637477874756,1.6214585304260254
5415.084000,0.39225202798843384,1.0656969547271729,-0.054790426045656204,-1.266819715499878,-0.0110301673412323,2.3525664806365967,1.6243523359298706
5415.103000,0.39098018407821655,1.062458872795105,-0.055246539413928986,-1.2666430473327637,-0.009690528735518456,2.3485121726989746,1.6275882720947266
5415.124000,0.3896293640136719,1.0590611696243286,-0.05580068379640579,-1.2664748430252075,-0.008168339729309082,2.3441479206085205,1.6306124925613403
5415.144000,0.3881247341632843,1.055553674697876,-0.05635484308004379,-1.266310453414917,-0.0065702698193490505,2.339573860168457,1.63345205783844
5415.164000,0.38652607798576355,1.0520784854888916,-0.05676082894206047,-1.2661439180374146,-0.005296632181853056,2.335015296936035,1.6366442441940308
5415.181000,0.3848475217819214,1.0484539270401,-0.05727047473192215,-1.2660025358200073,-0.0038275588303804398,2.3302416801452637,1.6395714282989502
5415.202000,0.3830743134021759,1.0448631048202515,-0.05763532221317291,-1.265854001045227,-0.0026693358086049557,2.3255081176757812,1.6428203582763672
5415.223000,0.3813115358352661,1.0413312911987305,-0.05798541009426117,-1.2657058238983154,-0.0016461423365399241,2.3208398818969727,1.6462950706481934
5415.244000,0.37954264879226685,1.0378135442733765,-0.05831782519817352,-1.2655686140060425,-0.0007319938158616424,2.3161845207214355,1.6499342918395996
5415.260000,0.3777613043785095,1.0343273878097534,-0.058639053255319595,-1.2654391527175903,0.0001120162196457386,2.3115715980529785,1.6536751985549927
5415.281000,0.37594470381736755,1.0308314561843872,-0.05893857777118683,-1.2653242349624634,0.0008885171846486628,2.30696177482605,1.657479166984558
5415.301000,0.37406930327415466,1.027288794517517,-0.059216663241386414,-1.2652268409729004,0.0016094199381768703,2.3023269176483154,1.6613017320632935
5415.322000,0.37213289737701416,1.0237256288528442,-0.059481922537088394,-1.2651374340057373,0.002297405619174242,2.2977051734924316,1.665112018585205
5415.343000,0.37011903524398804,1.0201126337051392,-0.05972817912697792,-1.2650606632232666,0.0029500527307391167,2.2930686473846436,1.668891191482544
5415.359000,0.3680325448513031,1.016478419303894,-0.059964586049318314,-1.2649890184402466,0.0035870992578566074,2.2884533405303955,1.6726200580596924
5415.380000,0.365874707698822,1.0128235816955566,-0.06018667668104172,-1.2649184465408325,0.004188925959169865,2.2838785648345947,1.6763224601745605
5415.401000,0.36365869641304016,1.0091683864593506,-0.06041162833571434,-1.264841914176941,0.004782466683536768,2.279367208480835,1.679978609085083
5415.421000,0.3613859713077545,1.005523920059204,-0.0605999156832695,-1.2647554874420166,0.005281129851937294,2.2749414443969727,1.6836867332458496
5415.441000,0.3590821325778961,1.0019010305404663,-0.06073538959026337,-1.2646552324295044,0.0056121572852134705,2.2706143856048584,1.687558889389038
5415.457000,0.3567783534526825,0.998314619064331,-0.060870908200740814,-1.2645409107208252,0.005854160524904728,2.2663941383361816,1.691530704498291
5415.478000,0.3544751703739166,0.9947757124900818,-0.06095964089035988,-1.2644134759902954,0.005921282805502415,2.262286901473999,1.6957038640975952
5415.499000,0.3521976172924042,0.9912962913513184,-0.061049044132232666,-1.2642757892608643,0.005894731730222702,2.2582955360412598,1.7000033855438232
5415.520000,0.3499443829059601,0.9878843426704407,-0.061089325696229935,-1.264129877090454,0.005689145531505346,2.254422903060913,1.7045295238494873
5415.540000,0.3477380871772766,0.9845479726791382,-0.06112934276461601,-1.2639788389205933,0.005389900878071785,2.250669002532959,1.7091989517211914
5415.558000,0.3455706536769867,0.9812926650047302,-0.0611739307641983,-1.2638249397277832,0.005037329159677029,2.247032880783081,1.7139464616775513
5415.578000,0.3433816730976105,0.978024959564209,-0.06122549995779991,-1.2636808156967163,0.0047115846537053585,2.2433366775512695,1.7185941934585571
5415.599000,0.34113842248916626,0.9747654795646667,-0.06119151785969734,-1.2635481357574463,0.004258160013705492,2.239621162414551,1.7233003377914429
5415.619000,0.33887583017349243,0.9715349078178406,-0.061132363975048065,-1.263425588607788,0.003749439027160406,2.235917091369629,1.7280186414718628
5415.641000,0.336541086435318,0.9682753086090088,-0.061154186725616455,-1.2633253335952759,0.003470497438684106,2.232109546661377,1.7323176860809326
5415.657000,0.33406931161880493,0.9650180339813232,-0.061144281178712845,-1.2632476091384888,0.0033038577530533075,2.228248119354248,1.7362629175186157
5415.678000,0.33142757415771484,0.9617141485214233,-0.061153002083301544,-1.2632043361663818,0.0033742187079042196,2.2242720127105713,1.7396411895751953
5415.699000,0.32859909534454346,0.9583945274353027,-0.061115797609090805,-1.263188123703003,0.003578601172193885,2.2202343940734863,1.742558240890503
5415.720000,0.325566828250885,0.9550201296806335,-0.061078887432813644,-1.2632044553756714,0.00398701336234808,2.2161145210266113,1.74489164352417
5415.741000,0.3222721517086029,0.9515613317489624,-0.06103082001209259,-1.2632496356964111,0.004582334775477648,2.211921453475952,1.7465819120407104
5415.758000,0.318730890750885,0.9480483531951904,-0.060950133949518204,-1.2633023262023926,0.005277523770928383,2.207700490951538,1.747763752937317
5415.777000,0.3148862421512604,0.9443559050559998,-0.06092679128050804,-1.2634049654006958,0.006159829441457987,2.2034130096435547,1.748358964920044
5415.799000,0.31070560216903687,0.940517783164978,-0.06094320863485336,-1.2635220289230347,0.007168461102992296,2.1991043090820312,1.7484971284866333
5415.821000,0.3061874508857727,0.9365657567977905,-0.06099533289670944,-1.2636421918869019,0.008267396129667759,2.1948089599609375,1.7482813596725464
5415.842000,0.30133727192878723,0.9325335025787354,-0.061077237129211426,-1.2637591361999512,0.009426777251064777,2.190554141998291,1.7477939128875732
5415.862000,0.2961970567703247,0.9284592866897583,-0.06119956821203232,-1.2638678550720215,0.010645462200045586,2.1863603591918945,1.7471001148223877
5415.879000,0.29078367352485657,0.9243716597557068,-0.061347439885139465,-1.2639687061309814,0.011900425888597965,2.1822428703308105,1.7462517023086548
5415.899000,0.2851419448852539,0.9202985167503357,-0.06152522563934326,-1.2640612125396729,0.013192377053201199,2.178213357925415,1.745289921760559
5415.920000,0.27928733825683594,0.9162607789039612,-0.06171548366546631,-1.264146089553833,0.014499442651867867,2.1742796897888184,1.744247317314148
5415.941000,0.27326157689094543,0.9122768640518188,-0.061922959983348846,-1.2642244100570679,0.01582406833767891,2.170447587966919,1.7431496381759644
5415.962000,0.26707571744918823,0.9083616733551025,-0.06213116645812988,-1.2642961740493774,0.017146917060017586,2.1667206287384033,1.7420170307159424
5415.978000,0.26076531410217285,0.9045261740684509,-0.062344688922166824,-1.264363169670105,0.018472593277692795,2.1631009578704834,1.7408652305603027
5416.000000,0.25433626770973206,0.9007797241210938,-0.0625501275062561,-1.2644250392913818,0.01978437788784504,2.1595892906188965,1.739704966545105
5416.019000,0.2477867752313614,0.8971267938613892,-0.06273886561393738,-1.2644872665405273,0.021066740155220032,2.1561856269836426,1.7385424375534058
5416.040000,0.24114394187927246,0.8935737609863281,-0.06292174011468887,-1.2645472288131714,0.022328589111566544,2.1528890132904053,1.7373861074447632
5416.050000,0.23440834879875183,0.8901193737983704,-0.06309089064598083,-1.2646137475967407,0.023559369146823883,2.149698257446289,1.7362399101257324
5416.071000,0.22757254540920258,0.8867656588554382,-0.06324081867933273,-1.2646899223327637,0.024749865755438805,2.146611452102661,1.735101580619812
5416.093000,0.22065939009189606,0.883515477180481,-0.06338325142860413,-1.2647764682769775,0.02591099590063095,2.143632411956787,1.7339774370193481
5416.115000,0.21366454660892487,0.8803681135177612,-0.06351246684789658,-1.2648717164993286,0.027041705325245857,2.1407575607299805,1.7328568696975708
5416.135000,0.20685532689094543,0.8773930668830872,-0.06335823237895966,-1.2649153470993042,0.027615152299404144,2.1380298137664795,1.7325172424316406
5416.152000,0.20025159418582916,0.874509334564209,-0.0634370744228363,-1.2649770975112915,0.02840322256088257,2.1353819370269775,1.7319929599761963
5416.173000,0.19362175464630127,0.8717103004455566,-0.0635254979133606,-1.2650521993637085,0.02922985702753067,2.1328141689300537,1.7313297986984253
5416.195000,0.18691153824329376,0.8689961433410645,-0.06360368430614471,-1.265136480331421,0.030075810849666595,2.130326509475708,1.7305399179458618
5416.216000,0.18012243509292603,0.8663656711578369,-0.06367848813533783,-1.265228271484375,0.030938521027565002,2.127918004989624,1.729657769203186
5416.237000,0.17324002087116241,0.8638185262680054,-0.06375003606081009,-1.265324354171753,0.0318196564912796,2.1255874633789062,1.7286773920059204
5416.254000,0.16624557971954346,0.8613556623458862,-0.06380940228700638,-1.2654201984405518,0.03271112218499184,2.123338222503662,1.7275943756103516
5416.274000,0.15950708091259003,0.8590350151062012,-0.06336421519517899,-1.2654598951339722,0.032680537551641464,2.121216058731079,1.7278550863265991
5416.295000,0.15310350060462952,0.8567909002304077,-0.06337225437164307,-1.2655160427093506,0.03311089798808098,2.1191530227661133,1.7277132272720337
5416.316000,0.14660117030143738,0.8546119332313538,-0.06338725984096527,-1.265580415725708,0.03364596888422966,2.1171505451202393,1.7272484302520752
5416.336000,0.1399630904197693,0.8524967432022095,-0.06338842213153839,-1.2656514644622803,0.03424425423145294,2.115208625793457,1.7265374660491943
5416.358000,0.1331799477338791,0.8504457473754883,-0.06338044255971909,-1.2657266855239868,0.03488980233669281,2.1133275032043457,1.7256296873092651
5416.374000,0.1266823410987854,0.8485151529312134,-0.06269362568855286,-1.2657474279403687,0.034338757395744324,2.111560106277466,1.7264875173568726
5416.396000,0.12104112654924393,0.8467073440551758,-0.061900775879621506,-1.2657299041748047,0.03310051187872887,2.109891653060913,1.728857159614563
5416.415000,0.11629916727542877,0.845012903213501,-0.06109848991036415,-1.2656842470169067,0.031386904418468475,2.1083109378814697,1.732377529144287
5416.436000,0.11238183081150055,0.8434203863143921,-0.060212474316358566,-1.265616536140442,0.029191089794039726,2.106809139251709,1.7369197607040405
5416.452000,0.10876556485891342,0.8418629169464111,-0.0600980706512928,-1.2655977010726929,0.028090838342905045,2.1053242683410645,1.7399786710739136
5416.473000,0.10472326725721359,0.8403252363204956,-0.06001608073711395,-1.2656114101409912,0.027441751211881638,2.10386323928833,1.7418709993362427
5416.493000,0.1001681312918663,0.8388094902038574,-0.059921350330114365,-1.2656561136245728,0.027114491909742355,2.102430582046509,1.742849349975586
5416.515000,0.0956013947725296,0.8373790383338928,-0.05888734385371208,-1.2656549215316772,0.025379275903105736,2.1010823249816895,1.7456992864608765
5416.535000,0.09178408980369568,0.836042582988739,-0.057735148817300797,-1.265623927116394,0.022922301664948463,2.0998077392578125,1.7501455545425415
5416.552000,0.08877520263195038,0.8347931504249573,-0.05659527704119682,-1.2655709981918335,0.01999261975288391,2.0985984802246094,1.7557934522628784
5416.573000,0.08599114418029785,0.8335570096969604,-0.05648638308048248,-1.2655912637710571,0.018493374809622765,2.0973961353302,1.7595744132995605
5416.594000,0.0825553834438324,0.8323251605033875,-0.05644723027944565,-1.2656728029251099,0.017595432698726654,2.0962064266204834,1.7618876695632935
5416.615000,0.07893674820661545,0.8311713337898254,-0.05524927377700806,-1.2657073736190796,0.015114901587367058,2.0950851440429688,1.7661566734313965
5416.636000,0.07550599426031113,0.8300387263298035,-0.055160026997327805,-1.2658194303512573,0.014017782174050808,2.093975305557251,1.7688008546829224
5416.656000,0.07143474370241165,0.8289198279380798,-0.05519266799092293,-1.265990138053894,0.013491184450685978,2.0928802490234375,1.7701719999313354
5416.674000,0.06668073683977127,0.8278268575668335,-0.05526180937886238,-1.2662174701690674,0.013366817496716976,2.091804027557373,1.7705506086349487
5416.693000,0.06131311133503914,0.8267672657966614,-0.05537836626172066,-1.2664945125579834,0.013571306131780148,2.090750217437744,1.7701603174209595
5416.714000,0.05594456195831299,0.8257997035980225,-0.05411563068628311,-1.2666925191879272,0.011638542637228966,2.0897693634033203,1.7728286981582642
5416.735000,0.051086366176605225,0.8248804211616516,-0.05418355017900467,-1.266957402229309,0.011121174320578575,2.088805913925171,1.774188756942749
5416.755000,0.046319931745529175,0.8240419030189514,-0.0528876855969429,-1.2671458721160889,0.008572505787014961,2.087906837463379,1.778367042541504
5416.771000,0.042073704302310944,0.8232540488243103,-0.05299261212348938,-1.2674036026000977,0.0076286680996418,2.087019681930542,1.7808493375778198
5416.793000,0.03727831318974495,0.8225358724594116,-0.053244784474372864,-1.267717719078064,0.007290255278348923,2.08614444732666,1.7819833755493164
5416.813000,0.032448552548885345,0.8218958973884583,-0.05184152349829674,-1.2679606676101685,0.004567930940538645,2.0853288173675537,1.7863150835037231
5416.834000,0.028790436685085297,0.8213176131248474,-0.05029987171292305,-1.268134593963623,0.000795962056145072,2.084568977355957,1.7930856943130493
5416.850000,0.026301195845007896,0.8207805752754211,-0.0486539751291275,-1.2682398557662964,-0.003848099848255515,2.0838563442230225,1.8018875122070312
5416.870000,0.02429327368736267,0.8203229904174805,-0.04880082979798317,-1.2683864831924438,-0.0061304811388254166,2.083143949508667,1.8076409101486206
5416.891000,0.02140902169048786,0.8199518322944641,-0.04913310706615448,-1.2685906887054443,-0.00740011828020215,2.0824289321899414,1.8110003471374512
5416.911000,0.01817438006401062,0.8196272253990173,-0.047509148716926575,-1.2687617540359497,-0.011218328028917313,2.081754207611084,1.817436933517456
5416.932000,0.015353677794337273,0.8194429278373718,-0.04774981737136841,-1.26895272731781,-0.012756012380123138,2.0810935497283936,1.8211232423782349
5416.949000,0.012254227884113789,0.819277822971344,-0.046067673712968826,-1.2691190242767334,-0.016836708411574364,2.0804672241210938,1.8279445171356201
5416.969000,0.010237962938845158,0.8191114068031311,-0.044222258031368256,-1.2692443132400513,-0.021965034306049347,2.0798821449279785,1.8371388912200928
