yuan18844-afk/dissertation/catkin_ws/src/franka_digital_twin/analysis/data/unity_static2_20250728_063951.csv
time,panda_joint1,panda_joint2,panda_joint3,panda_joint4,panda_joint5,panda_joint6,panda_joint7
4710.166000,0.5942431092262268,1.143000841140747,-0.38561543822288513,-1.2240360975265503,0.2422935962677002,2.2600643634796143,1.9406172037124634
4710.191000,0.5943257212638855,1.1430368423461914,-0.38567888736724854,-1.2240321636199951,0.24268227815628052,2.2600677013397217,1.9404646158218384
4710.211000,0.5944170355796814,1.1430524587631226,-0.38556206226348877,-1.2240190505981445,0.24267838895320892,2.2600820064544678,1.9408022165298462
4710.226000,0.5945886969566345,1.143083095550537,-0.3854164183139801,-1.2240018844604492,0.2424667477607727,2.260099172592163,1.9415160417556763
4710.245000,0.5948019027709961,1.1431457996368408,-0.3854459822177887,-1.2239924669265747,0.24252009391784668,2.260106086730957,1.941992998123169
4710.256000,0.5949649214744568,1.1432017087936401,-0.3855067193508148,-1.223987102508545,0.24268610775470734,2.26011061668396,1.9422837495803833
4710.279000,0.5951101183891296,1.1432313919067383,-0.3853871524333954,-1.2239733934402466,0.24248500168323517,2.260127067565918,1.9430092573165894
4710.300000,0.5953236818313599,1.1432737112045288,-0.3852473497390747,-1.223955750465393,0.24211055040359497,2.260146141052246,1.9440654516220093
4710.325000,0.5955914258956909,1.1433292627334595,-0.3851080536842346,-1.2239363193511963,0.24160973727703094,2.260166883468628,1.9453877210617065
4710.344000,0.5958942174911499,1.1433950662612915,-0.38497981429100037,-1.2239166498184204,0.24102410674095154,2.260188102722168,1.9469060897827148
4710.360000,0.5962173938751221,1.1434675455093384,-0.3848619759082794,-1.223897099494934,0.2403733730316162,2.2602100372314453,1.9485809803009033
4710.381000,0.5965501070022583,1.1435441970825195,-0.38475844264030457,-1.2238781452178955,0.2396845817565918,2.2602317333221436,1.9503650665283203
4710.402000,0.5968841314315796,1.143622875213623,-0.3846699297428131,-1.2238600254058838,0.2389771193265915,2.2602529525756836,1.9522225856781006
4710.425000,0.5972148776054382,1.143701195716858,-0.38458919525146484,-1.2238422632217407,0.23824933171272278,2.2602741718292236,1.954147458076477
4710.440000,0.5975032448768616,1.1437937021255493,-0.38471904397010803,-1.2238367795944214,0.23799483478069305,2.260279655456543,1.955471396446228
4710.458000,0.5977024435997009,1.143844485282898,-0.38467949628829956,-1.2238259315490723,0.23751476407051086,2.2602953910827637,1.9569597244262695
4710.478000,0.5979202389717102,1.1438953876495361,-0.38462328910827637,-1.2238125801086426,0.23697365820407867,2.26031231880188,1.9585645198822021
4710.494000,0.5981559157371521,1.1439496278762817,-0.3845677673816681,-1.2237980365753174,0.23639847338199615,2.260329484939575,1.9602563381195068
4710.518000,0.5984008312225342,1.144006371498108,-0.38451841473579407,-1.2237834930419922,0.23580685257911682,2.2603464126586914,1.962003469467163
4710.539000,0.5986082553863525,1.1440777778625488,-0.38467419147491455,-1.2237809896469116,0.23568643629550934,2.260347604751587,1.9631353616714478
4710.557000,0.5987293720245361,1.1441059112548828,-0.38463735580444336,-1.223772406578064,0.23529648780822754,2.260359764099121,1.964464783668518
4710.578000,0.598878800868988,1.1441360712051392,-0.38457536697387695,-1.2237610816955566,0.23481670022010803,2.26037335395813,1.9659374952316284
4710.600000,0.5990450382232666,1.1441690921783447,-0.3845091760158539,-1.2237493991851807,0.23428815603256226,2.2603859901428223,1.9674853086471558
4710.621000,0.5992165803909302,1.1442030668258667,-0.38443949818611145,-1.223738193511963,0.23372022807598114,2.2603979110717773,1.9690803289413452
4710.642000,0.5993787050247192,1.144237756729126,-0.38439425826072693,-1.2237296104431152,0.23318850994110107,2.260406732559204,1.9706043004989624
4710.659000,0.5995087623596191,1.144266963005066,-0.3843678832054138,-1.2237242460250854,0.2327163815498352,2.2604119777679443,1.9719860553741455
4710.679000,0.5995931029319763,1.1443055868148804,-0.384513795375824,-1.2237287759780884,0.23267056047916412,2.260406255722046,1.9727661609649658
4710.700000,0.5995762348175049,1.144303560256958,-0.3845266103744507,-1.223731279373169,0.2325073629617691,2.2604048252105713,1.9734982252120972
4710.723000,0.5995440483093262,1.1442923545837402,-0.3845069706439972,-1.223732829093933,0.232314333319664,2.2604031562805176,1.9741880893707275
4710.743000,0.5995035171508789,1.1442776918411255,-0.38448280096054077,-1.223734974861145,0.23213079571723938,2.26039981842041,1.9747952222824097
4710.758000,0.5994530320167542,1.1442594528198242,-0.3844490647315979,-1.2237375974655151,0.23194439709186554,2.2603960037231445,1.9753342866897583
4710.779000,0.599392831325531,1.144238829612732,-0.3844156861305237,-1.2237411737442017,0.2317730039358139,2.2603909969329834,1.9757856130599976
4710.800000,0.5993205904960632,1.1442152261734009,-0.38438141345977783,-1.2237457036972046,0.23161691427230835,2.260385036468506,1.9761476516723633
4710.822000,0.5992484092712402,1.144208312034607,-0.38448387384414673,-1.2237554788589478,0.231770321726799,2.260373830795288,1.9761112928390503
4710.842000,0.5991188287734985,1.1441746950149536,-0.3844825327396393,-1.2237626314163208,0.2318132519721985,2.260366201400757,1.9760884046554565
4710.859000,0.5989918112754822,1.1441375017166138,-0.38445377349853516,-1.2237684726715088,0.23181341588497162,2.260359048843384,1.9760760068893433
4710.879000,0.5988751649856567,1.1441010236740112,-0.38441160321235657,-1.2237735986709595,0.23177973926067352,2.260352373123169,1.9760780334472656
4710.899000,0.5987722873687744,1.1440671682357788,-0.38436052203178406,-1.2237780094146729,0.23171120882034302,2.2603464126586914,1.9761086702346802
4710.921000,0.5986832976341248,1.144036889076233,-0.3843085467815399,-1.223781943321228,0.23162014782428741,2.260341167449951,1.976161241531372
4710.941000,0.5986116528511047,1.1440285444259644,-0.38440102338790894,-1.2237908840179443,0.23182420432567596,2.26033091545105,1.9758859872817993
4710.958000,0.5985004305839539,1.143993616104126,-0.3843502700328827,-1.2237944602966309,0.23180140554904938,2.2603278160095215,1.9758203029632568
4710.978000,0.5984232425689697,1.1439627408981323,-0.3842715620994568,-1.2237955331802368,0.23167447745800018,2.2603261470794678,1.9759169816970825
4710.999000,0.5983774662017822,1.1439387798309326,-0.3841850459575653,-1.2237954139709473,0.23147480189800262,2.2603251934051514,1.9761382341384888
4711.020000,0.5983483791351318,1.1439212560653687,-0.3841158151626587,-1.2237962484359741,0.231267511844635,2.2603230476379395,1.976385235786438
4711.040000,0.5983211994171143,1.1439050436019897,-0.38404837250709534,-1.2237976789474487,0.23104165494441986,2.2603206634521484,1.976650357246399
4711.058000,0.598294734954834,1.1438895463943481,-0.3839825391769409,-1.223799467086792,0.23080134391784668,2.2603182792663574,1.976927638053894
4711.077000,0.5982561111450195,1.1438746452331543,-0.38394787907600403,-1.2238038778305054,0.23062750697135925,2.260312557220459,1.9770926237106323
4711.098000,0.5981857776641846,1.1438535451889038,-0.38392528891563416,-1.2238106727600098,0.2305140346288681,2.2603044509887695,1.9771132469177246
4711.120000,0.5980846285820007,1.1438239812850952,-0.38389551639556885,-1.2238187789916992,0.23042738437652588,2.2602951526641846,1.9770221710205078
4711.141000,0.5979622006416321,1.1437890529632568,-0.38386717438697815,-1.2238279581069946,0.2303776890039444,2.260284662246704,1.9768160581588745
4711.156000,0.5978240966796875,1.1437495946884155,-0.38383394479751587,-1.2238376140594482,0.23034809529781342,2.2602739334106445,1.9765225648880005
4711.177000,0.597676157951355,1.1437073945999146,-0.3838004171848297,-1.2238476276397705,0.2303418219089508,2.2602627277374268,1.9761466979980469
4711.198000,0.5975205898284912,1.143662452697754,-0.38376113772392273,-1.2238576412200928,0.23034444451332092,2.26025128364563,1.9757097959518433
4711.219000,0.5973555445671082,1.1436113119125366,-0.38369083404541016,-1.2238670587539673,0.23029914498329163,2.260240077972412,1.9752706289291382
4711.239000,0.5971851944923401,1.1435520648956299,-0.3835650682449341,-1.2238754034042358,0.2301349639892578,2.2602295875549316,1.974907636642456
4711.256000,0.5970277786254883,1.1434935331344604,-0.38341665267944336,-1.2238832712173462,0.22988493740558624,2.2602193355560303,1.9746060371398926
4711.277000,0.5968766808509827,1.143431305885315,-0.38322001695632935,-1.2238903045654297,0.22949080169200897,2.2602100372314453,1.9744203090667725
4711.298000,0.5967445373535156,1.1433721780776978,-0.383005827665329,-1.2238972187042236,0.22899143397808075,2.2602012157440186,1.9743252992630005
4711.318000,0.5966392159461975,1.1433249711990356,-0.38282912969589233,-1.223905086517334,0.2284974753856659,2.260192394256592,1.974221110343933
4711.337000,0.5965438485145569,1.1432826519012451,-0.38267019391059875,-1.2239131927490234,0.2280004918575287,2.2601842880249023,1.97411048412323
4711.354000,0.5965073704719543,1.1432782411575317,-0.38270288705825806,-1.223923683166504,0.2278486043214798,2.2601771354675293,1.9737235307693481
4711.375000,0.5964691042900085,1.1432828903198242,-0.38282498717308044,-1.2239336967468262,0.22794900834560394,2.26017165184021,1.97312593460083
4711.396000,0.5964173674583435,1.1432877779006958,-0.38299471139907837,-1.223942518234253,0.2282509207725525,2.260166883468628,1.9723697900772095
4711.417000,0.5963507890701294,1.1432896852493286,-0.3831877112388611,-1.223949909210205,0.2287120670080185,2.260162353515625,1.97149658203125
4711.436000,0.5962714552879333,1.1432878971099854,-0.3833889067173004,-1.2239559888839722,0.229296013712883,2.260158061981201,1.9705389738082886
4711.454000,0.5961313843727112,1.1432445049285889,-0.38338103890419006,-1.2239573001861572,0.22956059873104095,2.2601547241210938,1.9698742628097534
4711.474000,0.596004843711853,1.1431938409805298,-0.3832826316356659,-1.2239573001861572,0.22960565984249115,2.260150671005249,1.9694403409957886
4711.495000,0.5959001779556274,1.143140196800232,-0.38309967517852783,-1.2239562273025513,0.22939716279506683,2.2601475715637207,1.9692697525024414
4711.516000,0.5958852767944336,1.143136739730835,-0.38312625885009766,-1.223960280418396,0.22948868572711945,2.2601425647735596,1.9688701629638672
4711.536000,0.5958718657493591,1.1431448459625244,-0.3832339346408844,-1.2239657640457153,0.22976773977279663,2.260138750076294,1.9682965278625488
4711.552000,0.5958463549613953,1.143154501914978,-0.3833828568458557,-1.2239711284637451,0.23019294440746307,2.2601356506347656,1.9675925970077515
4711.572000,0.5958073735237122,1.1431623697280884,-0.38355177640914917,-1.2239758968353271,0.2307327538728714,2.2601327896118164,1.9667929410934448
4711.593000,0.5957567095756531,1.14316725730896,-0.38372769951820374,-1.2239799499511719,0.23135992884635925,2.260129928588867,1.9659249782562256
4711.614000,0.5956972241401672,1.1431694030761719,-0.38390272855758667,-1.2239832878112793,0.23205141723155975,2.260126829147339,1.965010404586792
4711.630000,0.5955787301063538,1.14310622215271,-0.3836631774902344,-1.2239742279052734,0.23193314671516418,2.2601335048675537,1.9649262428283691
4711.649000,0.5956032276153564,1.1431119441986084,-0.3836948871612549,-1.2239727973937988,0.23215565085411072,2.260131597518921,1.9646238088607788
4711.662000,0.5956211090087891,1.1431275606155396,-0.38379719853401184,-1.2239744663238525,0.23252995312213898,2.26012921333313,1.964154839515686
4711.684000,0.5956185460090637,1.1431424617767334,-0.3839293122291565,-1.2239773273468018,0.23301273584365845,2.260126829147339,1.9635605812072754
4711.707000,0.5955976247787476,1.143154263496399,-0.38407424092292786,-1.22398042678833,0.23357811570167542,2.260124444961548,1.9628738164901733
4711.727000,0.5955625176429749,1.1431626081466675,-0.38422220945358276,-1.2239832878112793,0.23420479893684387,2.2601218223571777,1.9621202945709229
4711.745000,0.5955173373222351,1.1431678533554077,-0.3843674063682556,-1.2239857912063599,0.2348749190568924,2.2601189613342285,1.9613206386566162
4711.767000,0.595434308052063,1.143119215965271,-0.3841496407985687,-1.2239762544631958,0.23481298983097076,2.260127067565918,1.9612950086593628
4711.788000,0.5954774022102356,1.1431320905685425,-0.38417917490005493,-1.2239739894866943,0.23506014049053192,2.2601258754730225,1.961063027381897
4711.809000,0.5954779386520386,1.1431056261062622,-0.3839530646800995,-1.2239646911621094,0.2347673922777176,2.2601335048675537,1.9613748788833618
4711.830000,0.5955384373664856,1.1430799961090088,-0.383606880903244,-1.2239512205123901,0.23403644561767578,2.2601447105407715,1.9622329473495483
4711.847000,0.5956724882125854,1.1430699825286865,-0.38322553038597107,-1.2239367961883545,0.23299764096736908,2.2601571083068848,1.9635066986083984
4711.867000,0.5958473682403564,1.143068552017212,-0.3828159272670746,-1.2239234447479248,0.23169276118278503,2.26016902923584,1.965099573135376
4711.888000,0.5960514545440674,1.1430755853652954,-0.3824000954627991,-1.2239116430282593,0.23018492758274078,2.260180950164795,1.9669277667999268
4711.910000,0.5962618589401245,1.1430829763412476,-0.3819645643234253,-1.223901629447937,0.22847963869571686,2.2601921558380127,1.9689496755599976
4711.931000,0.5965378880500793,1.1431578397750854,-0.3819473385810852,-1.2239048480987549,0.22749829292297363,2.2601938247680664,1.970245122909546
4711.949000,0.5967284440994263,1.1432287693023682,-0.3820786476135254,-1.2239125967025757,0.22697342932224274,2.2601943016052246,1.9709707498550415
4711.964000,0.5967533588409424,1.1432056427001953,-0.38180166482925415,-1.2239092588424683,0.2258165180683136,2.260202646255493,1.9722001552581787
4711.979000,0.5968791842460632,1.143246054649353,-0.38187485933303833,-1.2239141464233398,0.22528325021266937,2.2602016925811768,1.9728610515594482
4712.006000,0.596866250038147,1.143202304840088,-0.3815406560897827,-1.22390878200531,0.2240651547908783,2.26020884513855,1.9740900993347168
4712.027000,0.5968906879425049,1.143150806427002,-0.38107597827911377,-1.2239004373550415,0.22243918478488922,2.260215997695923,1.975749135017395
4712.042000,0.5969593524932861,1.1431000232696533,-0.38051164150238037,-1.223890781402588,0.22041405737400055,2.2602241039276123,1.9778228998184204
4712.065000,0.5970752239227295,1.1430552005767822,-0.379878968000412,-1.2238808870315552,0.2180226743221283,2.2602334022521973,1.980278730392456
4712.085000,0.5973421931266785,1.1431187391281128,-0.3798356354236603,-1.2238867282867432,0.21660377085208893,2.260232925415039,1.9818302392959595
4712.104000,0.5974305868148804,1.143088459968567,-0.37936675548553467,-1.223881483078003,0.21447870135307312,2.260244131088257,1.9839575290679932
4712.128000,0.5975518822669983,1.1430459022521973,-0.37874293327331543,-1.223871111869812,0.21187609434127808,2.2602577209472656,1.9866294860839844
4712.145000,0.597844660282135,1.1431196928024292,-0.37876832485198975,-1.223876953125,0.2103794664144516,2.260258674621582,1.988303542137146
4712.165000,0.5979419350624084,1.1430859565734863,-0.37827757000923157,-1.2238686084747314,0.2080325335264206,2.2602739334106445,1.990723729133606
4712.187000,0.5982036590576172,1.1431586742401123,-0.3784010112285614,-1.2238744497299194,0.20677973330020905,2.260275363922119,1.9921748638153076
4712.208000,0.5983746647834778,1.1432297229766846,-0.3787258267402649,-1.2238843441009521,0.20619957149028778,2.2602756023406982,1.9928675889968872
4712.229000,0.5984445214271545,1.1432814598083496,-0.37914377450942993,-1.2238945960998535,0.20613951981067657,2.260274887084961,1.9929699897766113
4712.244000,0.5983278155326843,1.1431915760040283,-0.3787420094013214,-1.2238801717758179,0.20468589663505554,2.2602930068969727,1.9944589138031006
4712.266000,0.5984588861465454,1.1432276964187622,-0.3789484202861786,-1.2238801717758179,0.204219788312912,2.2602932453155518,1.9951648712158203
4712.286000,0.5985285043716431,1.1432682275772095,-0.37931451201438904,-1.223885416984558,0.20428140461444855,2.260291337966919,1.9952614307403564
4712.307000,0.5984261631965637,1.143165111541748,-0.37876611948013306,-1.223863959312439,0.202663391828537,2.260314464569092,1.9970686435699463
4712.325000,0.5985233187675476,1.143083095550537,-0.3779605031013489,-1.2238328456878662,0.200071319937706,2.260340929031372,2.0001838207244873
4712.345000,0.5988141894340515,1.1430374383926392,-0.37699031829833984,-1.2237969636917114,0.19660109281539917,2.2603726387023926,2.004492998123169
4712.366000,0.5992774367332458,1.1430387496948242,-0.3759896159172058,-1.2237619161605835,0.19251114130020142,2.260406017303467,2.0096938610076904
4712.386000,0.5998663306236267,1.1430745124816895,-0.37494897842407227,-1.2237273454666138,0.1878349483013153,2.2604432106018066,2.0157275199890137
4712.408000,0.6005593538284302,1.1431457996368408,-0.3739472031593323,-1.2236953973770142,0.18277713656425476,2.2604808807373047,2.022362232208252
4712.428000,0.6013974547386169,1.1433738470077515,-0.37411966919898987,-1.2236982583999634,0.17984823882579803,2.260488986968994,2.0268466472625732
4712.445000,0.601869523525238,1.1434215307235718,-0.3734036087989807,-1.2236758470535278,0.17550089955329895,2.260526657104492,2.0326404571533203
4712.465000,0.6025320887565613,1.1436172723770142,-0.3737940490245819,-1.2236807346343994,0.17324739694595337,2.2605323791503906,2.0364038944244385
4712.486000,0.6028560400009155,1.1436258554458618,-0.3731495141983032,-1.2236555814743042,0.16932623088359833,2.2605690956115723,2.041795492172241
4712.508000,0.6033701300621033,1.143652081489563,-0.37222662568092346,-1.2236167192459106,0.1644624024629593,2.2606120109558105,2.048612356185913
4712.529000,0.6041425466537476,1.14386785030365,-0.3726487159729004,-1.2236144542694092,0.16203010082244873,2.2606167793273926,2.0530543327331543
4712.545000,0.6045393943786621,1.143886923789978,-0.3719351589679718,-1.2235828638076782,0.15773145854473114,2.260655164718628,2.0593039989471436
4712.565000,0.6051883697509766,1.1440790891647339,-0.3724948763847351,-1.2235829830169678,0.15580376982688904,2.2606570720672607,2.0632333755493164
4712.586000,0.6055114269256592,1.1442128419876099,-0.37335866689682007,-1.2235941886901855,0.15518637001514435,2.2606515884399414,2.0653438568115234
4712.607000,0.6055361032485962,1.144273281097412,-0.3743250370025635,-1.2236088514328003,0.15554217994213104,2.2606420516967773,2.066035032272339
4712.628000,0.6053386926651001,1.1442731618881226,-0.37531358003616333,-1.2236238718032837,0.15664628148078918,2.260629415512085,2.0656259059906006
4712.645000,0.6049739718437195,1.1440752744674683,-0.37456029653549194,-1.2235883474349976,0.154535710811615,2.2606639862060547,2.0687646865844727
4712.665000,0.6051631569862366,1.1441328525543213,-0.37512099742889404,-1.2235814332962036,0.1544661670923233,2.2606587409973145,2.0702261924743652
4712.686000,0.6051627993583679,1.144168496131897,-0.3759281635284424,-1.2235867977142334,0.15531295537948608,2.2606470584869385,2.0703823566436768
4712.707000,0.6049619913101196,1.1440839767456055,-0.37586891651153564,-1.2235682010650635,0.15474973618984222,2.26065993309021,2.071934938430786
4712.724000,0.6049670577049255,1.1441177129745483,-0.37655165791511536,-1.2235685586929321,0.15555201470851898,2.2606499195098877,2.0721497535705566
4712.744000,0.6048046350479126,1.1440664529800415,-0.37670907378196716,-1.223557710647583,0.15558193624019623,2.260655403137207,2.0730502605438232
4712.764000,0.6047436594963074,1.1440329551696777,-0.37675637006759644,-1.223542332649231,0.1552720069885254,2.2606635093688965,2.0744738578796387
4712.786000,0.6047709584236145,1.144036889076233,-0.37694689631462097,-1.223530888557434,0.155131995677948,2.260666608810425,2.0758039951324463
4712.807000,0.6047883033752441,1.144042730331421,-0.37715762853622437,-1.2235217094421387,0.1550440788269043,2.2606687545776367,2.0770528316497803
4712.827000,0.6047734022140503,1.1440531015396118,-0.377501517534256,-1.2235187292099,0.15529322624206543,2.260664939880371,2.0778403282165527
4712.843000,0.604690432548523,1.1440786123275757,-0.37820637226104736,-1.2235280275344849,0.15648062527179718,2.260650634765625,2.077423095703125
4712.865000,0.6044278740882874,1.1440649032592773,-0.3789856433868408,-1.2235428094863892,0.15824279189109802,2.2606334686279297,2.0760786533355713
4712.885000,0.6039777398109436,1.143980860710144,-0.37958016991615295,-1.2235593795776367,0.16005001962184906,2.260615110397339,2.0743446350097656
4712.907000,0.6034978628158569,1.1438974142074585,-0.3802640438079834,-1.2235782146453857,0.16227516531944275,2.260594367980957,2.072005033493042
4712.927000,0.6029077768325806,1.143769383430481,-0.3808102607727051,-1.2235989570617676,0.1645185500383377,2.260571002960205,2.069363832473755
4712.945000,0.6022690534591675,1.1436209678649902,-0.3812601566314697,-1.2236195802688599,0.16674941778182983,2.2605459690093994,2.0665085315704346
4712.965000,0.6016049981117249,1.1434648036956787,-0.38167136907577515,-1.2236419916152954,0.16902689635753632,2.2605180740356445,2.063382625579834
4712.985000,0.6009112000465393,1.143301248550415,-0.38205191493034363,-1.2236669063568115,0.17135536670684814,2.2604875564575195,2.0599660873413086
4713.006000,0.6002751588821411,1.1431608200073242,-0.3824612498283386,-1.223690390586853,0.17377188801765442,2.260462522506714,2.0564277172088623
4713.024000,0.599611222743988,1.1430121660232544,-0.3828454911708832,-1.223716139793396,0.17624278366565704,2.260432004928589,2.0526552200317383
4713.044000,0.598911702632904,1.1428508758544922,-0.3831619620323181,-1.2237434387207031,0.17867353558540344,2.26039981842041,2.0487282276153564
4713.065000,0.5981917381286621,1.1426831483840942,-0.3834337890148163,-1.223772644996643,0.1810774952173233,2.2603654861450195,2.044638156890869
4713.085000,0.5975625514984131,1.1425436735153198,-0.383698046207428,-1.22379732131958,0.1834174543619156,2.260341167449951,2.0406908988952637
4713.106000,0.5969358086585999,1.1424064636230469,-0.3839752674102783,-1.2238247394561768,0.1858109086751938,2.2603094577789307,2.0365843772888184
4713.127000,0.5962706804275513,1.1422569751739502,-0.3842013478279114,-1.223854660987854,0.1881663054227829,2.260274648666382,2.032338857650757
4713.145000,0.5955857038497925,1.1420997381210327,-0.3843716084957123,-1.2238858938217163,0.1904444396495819,2.2602391242980957,2.028015613555908
4713.164000,0.5948992371559143,1.1419410705566406,-0.3845045268535614,-1.223918080329895,0.19265401363372803,2.260202646255493,2.0236291885375977
4713.182000,0.5942227244377136,1.1417838335037231,-0.3846011161804199,-1.2239503860473633,0.19477832317352295,2.260166645050049,2.0192246437072754
4713.200000,0.5935647487640381,1.1416311264038086,-0.3846730887889862,-1.223982810974121,0.19682644307613373,2.2601306438446045,2.014814853668213
4713.217000,0.5929299592971802,1.1414843797683716,-0.38472458720207214,-1.2240148782730103,0.19879886507987976,2.2600953578948975,2.010420083999634
4713.234000,0.5923222899436951,1.141344428062439,-0.38475629687309265,-1.2240463495254517,0.20069029927253723,2.260061025619507,2.0060675144195557
4713.253000,0.5917451977729797,1.1412122249603271,-0.38477152585983276,-1.2240768671035767,0.20250120759010315,2.2600278854370117,2.0017762184143066
4713.273000,0.5912005305290222,1.1410881280899048,-0.38477247953414917,-1.2241063117980957,0.20423197746276855,2.259995937347412,1.997562050819397
4713.292000,0.590690553188324,1.1409721374511719,-0.3847551941871643,-1.2241343259811401,0.20586949586868286,2.2599658966064453,1.9934574365615845
4713.313000,0.5902190804481506,1.1408660411834717,-0.3847291171550751,-1.22416090965271,0.20742635428905487,2.259937286376953,1.9894659519195557
4713.330000,0.5898985862731934,1.1408016681671143,-0.3847048878669739,-1.2241772413253784,0.2088167518377304,2.2599260807037354,1.9859755039215088
4713.350000,0.5897403359413147,1.1407866477966309,-0.3847634792327881,-1.2241861820220947,0.21019352972507477,2.2599220275878906,1.982896089553833
4713.372000,0.5896894931793213,1.1408045291900635,-0.3848828077316284,-1.22419011592865,0.21157896518707275,2.2599220275878906,1.98015558719635
4713.393000,0.589704692363739,1.1408426761627197,-0.38503921031951904,-1.2241908311843872,0.21297472715377808,2.2599244117736816,1.9776959419250488
4713.414000,0.5897592902183533,1.1408926248550415,-0.38521552085876465,-1.2241894006729126,0.21437674760818481,2.2599282264709473,1.9754701852798462
4713.429000,0.5898367762565613,1.1409492492675781,-0.38540002703666687,-1.224186658859253,0.21577878296375275,2.25993275642395,1.9734406471252441
4713.449000,0.5899270176887512,1.1410092115402222,-0.3855849504470825,-1.2241829633712769,0.21717403829097748,2.2599375247955322,1.9715766906738281
4713.469000,0.590023934841156,1.1410706043243408,-0.38576528429985046,-1.2241787910461426,0.2185560166835785,2.2599425315856934,1.9698536396026611
4713.491000,0.5901239514350891,1.1411323547363281,-0.38593789935112,-1.2241742610931396,0.21991896629333496,2.2599472999572754,1.968251347541809
4713.506000,0.5902250409126282,1.1411937475204468,-0.3861009478569031,-1.2241696119308472,0.2212580144405365,2.2599520683288574,1.9667534828186035
4713.522000,0.5903260111808777,1.1412544250488281,-0.3862534463405609,-1.2241648435592651,0.22256921231746674,2.2599565982818604,1.9653466939926147
4713.542000,0.5904263257980347,1.141314148902893,-0.38639500737190247,-1.224160075187683,0.22384949028491974,2.259960651397705,1.964020013809204
4713.563000,0.59052574634552,1.1413729190826416,-0.38652560114860535,-1.2241554260253906,0.22509656846523285,2.2599644660949707,1.9627645015716553
4713.584000,0.590490996837616,1.1413758993148804,-0.3864845335483551,-1.224156141281128,0.22608140110969543,2.2599546909332275,1.9615108966827393
4713.605000,0.5904961228370667,1.1413953304290771,-0.38645800948143005,-1.2241566181182861,0.22699899971485138,2.2599525451660156,1.960329294204712
4713.622000,0.5905502438545227,1.1414330005645752,-0.386473685503006,-1.2241559028625488,0.22791168093681335,2.259953260421753,1.9592114686965942
4713.642000,0.5906343460083008,1.1414815187454224,-0.3865184485912323,-1.224153995513916,0.2288268506526947,2.259955644607544,1.9581507444381714
4713.662000,0.5907344818115234,1.1415355205535889,-0.3865799307823181,-1.2241512537002563,0.22974328696727753,2.2599587440490723,1.9571415185928345
4713.684000,0.5906798243522644,1.1415163278579712,-0.3863805830478668,-1.224151611328125,0.2302190363407135,2.25994873046875,1.956290364265442
4713.703000,0.5905352830886841,1.141450047492981,-0.38596251606941223,-1.2241556644439697,0.23020009696483612,2.2599332332611084,1.9556413888931274
4713.720000,0.590537428855896,1.141448974609375,-0.38573169708251953,-1.2241605520248413,0.23029202222824097,2.2599282264709473,1.9549674987792969
4713.740000,0.5904481410980225,1.1413971185684204,-0.3852861225605011,-1.2241653203964233,0.22991426289081573,2.259916305541992,1.9545395374298096
4713.761000,0.5903291702270508,1.1413236856460571,-0.38471609354019165,-1.224172592163086,0.22914090752601624,2.259901285171509,1.9543043375015259
4713.783000,0.5902069211006165,1.1412383317947388,-0.38403722643852234,-1.224180817604065,0.227952778339386,2.2598865032196045,1.954313039779663
4713.803000,0.5902944803237915,1.1412514448165894,-0.38371002674102783,-1.2241898775100708,0.2271406650543213,2.2598836421966553,1.9541562795639038
4713.818000,0.5904760360717773,1.1413118839263916,-0.3835998773574829,-1.2241958379745483,0.22666020691394806,2.259887933731079,1.953872799873352
4713.839000,0.5905042886734009,1.1412848234176636,-0.3831372559070587,-1.2241954803466797,0.22557145357131958,2.259888172149658,1.9540709257125854
4713.858000,0.5906943678855896,1.1413360834121704,-0.38299474120140076,-1.2241976261138916,0.22492465376853943,2.2598929405212402,1.9540621042251587
4713.879000,0.5907356142997742,1.1413019895553589,-0.38248124718666077,-1.2241939306259155,0.22361218929290771,2.2598953247070312,1.954585313796997
4713.899000,0.5907628536224365,1.141243815422058,-0.38180238008499146,-1.224190354347229,0.22181779146194458,2.259894847869873,1.9555156230926514
4713.914000,0.5908085703849792,1.1411765813827515,-0.3809914290904999,-1.2241864204406738,0.21952901780605316,2.2598955631256104,1.9568859338760376
4713.932000,0.5909015536308289,1.1411185264587402,-0.38013923168182373,-1.2241837978363037,0.21688072383403778,2.259896993637085,1.9585864543914795
4713.950000,0.5910391211509705,1.141066551208496,-0.3792256712913513,-1.2241802215576172,0.2138315588235855,2.259902238845825,1.960688829421997
4713.970000,0.591293454170227,1.1410681009292603,-0.37851274013519287,-1.2241793870925903,0.21088258922100067,2.2599098682403564,1.9628028869628906
4713.991000,0.591586709022522,1.1410917043685913,-0.3779178261756897,-1.2241787910461426,0.20801788568496704,2.259920120239258,1.9649113416671753
4714.002000,0.5920267701148987,1.141210913658142,-0.37786778807640076,-1.2241837978363037,0.2061316967010498,2.259932518005371,1.9663019180297852
4714.030000,0.5924461483955383,1.1413484811782837,-0.3780841827392578,-1.2241874933242798,0.20498207211494446,2.2599480152130127,1.9671285152435303
4714.052000,0.5928089618682861,1.1414802074432373,-0.3784492611885071,-1.2241880893707275,0.20443329215049744,2.2599644660949707,1.9675137996673584
4714.072000,0.5930484533309937,1.1415494680404663,-0.37859585881233215,-1.2241793870925903,0.20377184450626373,2.259984016418457,1.9681041240692139
4714.090000,0.5932680368423462,1.1415942907333374,-0.3786103129386902,-1.2241649627685547,0.20297199487686157,2.2600040435791016,1.9689793586730957
4714.109000,0.5935696363449097,1.1416910886764526,-0.3789255917072296,-1.2241562604904175,0.20281298458576202,2.2600183486938477,1.9693893194198608
4714.121000,0.5938277840614319,1.1417875289916992,-0.3793400228023529,-1.2241491079330444,0.20307253301143646,2.2600319385528564,1.9694371223449707
4714.141000,0.5940333008766174,1.1418739557266235,-0.3797959089279175,-1.224142074584961,0.2036551982164383,2.260044574737549,1.9692051410675049
4714.154000,0.5941924452781677,1.141948938369751,-0.3802643120288849,-1.2241345643997192,0.2044888436794281,2.260056257247925,1.9687585830688477
4714.177000,0.5943137407302856,1.1420135498046875,-0.3807283341884613,-1.2241265773773193,0.20551368594169617,2.2600669860839844,1.9681495428085327
4714.196000,0.5943170189857483,1.1419953107833862,-0.38071495294570923,-1.2241084575653076,0.20574194192886353,2.260082721710205,1.9682937860488892
4714.217000,0.594372034072876,1.1419708728790283,-0.38051584362983704,-1.2240877151489258,0.20544849336147308,2.2600975036621094,1.969018578529358
4714.239000,0.5945016741752625,1.141964077949524,-0.38026994466781616,-1.2240681648254395,0.20483939349651337,2.2601113319396973,1.9701060056686401
4714.260000,0.5947018265724182,1.1419882774353027,-0.3801046311855316,-1.2240526676177979,0.20418818295001984,2.2601239681243896,1.9712698459625244
4714.280000,0.594920814037323,1.142024040222168,-0.3799726366996765,-1.2240394353866577,0.20348510146141052,2.260136842727661,1.9724845886230469
4714.298000,0.5951533317565918,1.1420674324035645,-0.3798648416996002,-1.2240270376205444,0.2027413696050644,2.260150909423828,1.9737591743469238
4714.320000,0.5954416394233704,1.1421619653701782,-0.3800932765007019,-1.2240225076675415,0.20262455940246582,2.260159730911255,1.9744441509246826
4714.340000,0.5956669449806213,1.1422535181045532,-0.38044488430023193,-1.2240204811096191,0.2029210776090622,2.2601678371429443,1.974669098854065
4714.361000,0.5958247184753418,1.1423320770263672,-0.38085293769836426,-1.2240188121795654,0.20353858172893524,2.2601752281188965,1.9745373725891113
4714.383000,0.5959252715110779,1.142396330833435,-0.3812825679779053,-1.2240166664123535,0.20440608263015747,2.2601816654205322,1.9741311073303223
4714.399000,0.5959320068359375,1.1423850059509277,-0.3812521994113922,-1.2240010499954224,0.20449218153953552,2.2601985931396484,1.9745261669158936
4714.420000,0.5960236191749573,1.1423782110214233,-0.38107526302337646,-1.2239803075790405,0.20411504805088043,2.260216236114502,1.9755373001098633
4714.441000,0.5961998701095581,1.142382264137268,-0.3807801306247711,-1.2239563465118408,0.2032690793275833,2.2602365016937256,1.9771610498428345
4714.462000,0.59650719165802,1.1424745321273804,-0.3809628486633301,-1.223947286605835,0.20318010449409485,2.2602438926696777,1.978091835975647
4714.483000,0.5966899991035461,1.1424916982650757,-0.38071584701538086,-1.2239272594451904,0.20229603350162506,2.260265827178955,1.9797916412353516
4714.499000,0.596957266330719,1.1425130367279053,-0.38031482696533203,-1.2239009141921997,0.2008560448884964,2.2602925300598145,1.9822412729263306
4714.520000,0.5973256826400757,1.1425573825836182,-0.3798781931400299,-1.2238730192184448,0.19904345273971558,2.2603201866149902,1.9852527379989624
4714.541000,0.5977711081504822,1.1426174640655518,-0.3793831467628479,-1.2238432168960571,0.19682492315769196,2.2603514194488525,1.9888508319854736
4714.562000,0.5983211398124695,1.1427793502807617,-0.3795861303806305,-1.223835825920105,0.19583283364772797,2.260361433029175,1.9912244081497192
4714.583000,0.5986655950546265,1.1428327560424805,-0.37923771142959595,-1.2238130569458008,0.1939137727022171,2.2603919506073,1.994476318359375
4714.600000,0.5990979075431824,1.1428948640823364,-0.3787917196750641,-1.2237844467163086,0.1915687471628189,2.260424852371216,1.9983837604522705
4714.621000,0.5996376872062683,1.1430596113204956,-0.37908098101615906,-1.2237786054611206,0.19057463109493256,2.2604334354400635,2.000929832458496
4714.641000,0.5999646782875061,1.143100619316101,-0.3786790072917938,-1.2237523794174194,0.18840515613555908,2.260467767715454,2.0046446323394775
4714.662000,0.6004407405853271,1.1432526111602783,-0.37903672456741333,-1.223747730255127,0.18763016164302826,2.260474681854248,2.006998062133789
4714.682000,0.6007149815559387,1.1433709859848022,-0.3795683979988098,-1.2237519025802612,0.18760864436626434,2.2604756355285645,2.008284091949463
4714.699000,0.6008163690567017,1.1433448791503906,-0.37912681698799133,-1.2237236499786377,0.18585970997810364,2.260511875152588,2.0114214420318604
4714.720000,0.6011736989021301,1.1434621810913086,-0.37951400876045227,-1.2237173318862915,0.18552188575267792,2.2605159282684326,2.01328182220459
4714.740000,0.6013733744621277,1.1434484720230103,-0.3789607286453247,-1.2236820459365845,0.18341997265815735,2.2605555057525635,2.017049551010132
4714.761000,0.601845383644104,1.1434855461120605,-0.378231406211853,-1.2236355543136597,0.18042653799057007,2.260601282119751,2.022263526916504
4714.779000,0.6025633811950684,1.1436190605163574,-0.3778011202812195,-1.2235958576202393,0.17752483487129211,2.2606399059295654,2.0277843475341797
4714.798000,0.6033276915550232,1.1437978744506836,-0.3776713013648987,-1.223567008972168,0.1750388741493225,2.2606706619262695,2.033003807067871
4714.820000,0.603976309299469,1.1440132856369019,-0.37823057174682617,-1.2235651016235352,0.1741255521774292,2.260674476623535,2.0363211631774902
4714.840000,0.6043075919151306,1.1441205739974976,-0.37851428985595703,-1.2235586643218994,0.17316694557666779,2.260687828063965,2.0393590927124023
4714.859000,0.6045287847518921,1.1442313194274902,-0.3791963458061218,-1.2235655784606934,0.17334531247615814,2.260683059692383,2.040947914123535
4714.881000,0.6045193672180176,1.1442553997039795,-0.3796164095401764,-1.2235668897628784,0.17348341643810272,2.2606844902038574,2.0422797203063965
4714.898000,0.6044394969940186,1.144258737564087,-0.38005056977272034,-1.223569393157959,0.1739165335893631,2.2606804370880127,2.0431220531463623
4714.919000,0.6042843461036682,1.1442381143569946,-0.3804480731487274,-1.2235726118087769,0.17452649772167206,2.260673999786377,2.0435802936553955
4714.938000,0.6040568947792053,1.1442006826400757,-0.380869597196579,-1.2235796451568604,0.1754157543182373,2.2606616020202637,2.04350209236145
4714.958000,0.6037503480911255,1.1441402435302734,-0.3812539279460907,-1.2235888242721558,0.17645800113677979,2.2606468200683594,2.0430102348327637
4714.978000,0.6033934354782104,1.1440643072128296,-0.3815987706184387,-1.2235991954803467,0.1775989681482315,2.2606308460235596,2.0422022342681885
4714.995000,0.6029917001724243,1.1439785957336426,-0.381950706243515,-1.223612666130066,0.17891258001327515,2.260610818862915,2.0409843921661377
4715.013000,0.6025263071060181,1.1438779830932617,-0.38230153918266296,-1.2236300706863403,0.18039849400520325,2.2605865001678467,2.039313554763794
4715.034000,0.6020660996437073,1.14378821849823,-0.382713258266449,-1.2236485481262207,0.18212756514549255,2.2605645656585693,2.0372672080993652
4715.055000,0.60160893201828,1.1437039375305176,-0.3831544518470764,-1.2236665487289429,0.18404924869537354,2.2605440616607666,2.034945011138916
4715.075000,0.6011537313461304,1.1436222791671753,-0.3836011588573456,-1.2236838340759277,0.18611255288124084,2.260524272918701,2.032425880432129
4715.092000,0.6006127595901489,1.1435120105743408,-0.38398563861846924,-1.2237049341201782,0.18824295699596405,2.260495662689209,2.029588460922241
4715.113000,0.5999955534934998,1.1433748006820679,-0.38427236676216125,-1.223728895187378,0.1903301179409027,2.2604637145996094,2.0265250205993652
4715.133000,0.5994325280189514,1.143254041671753,-0.3845347762107849,-1.2237497568130493,0.19237592816352844,2.260439872741699,2.0234925746917725
4715.154000,0.5989459753036499,1.1431576013565063,-0.3848194479942322,-1.223767876625061,0.1944424957036972,2.2604193687438965,2.02050518989563
4715.174000,0.598406195640564,1.1430461406707764,-0.38509461283683777,-1.223791480064392,0.19658318161964417,2.260387420654297,2.017235517501831
4715.191000,0.5977807641029358,1.1429078578948975,-0.3852967917919159,-1.2238199710845947,0.19869497418403625,2.260349988937378,2.0137031078338623
4715.212000,0.5971022844314575,1.1427513360977173,-0.38542377948760986,-1.223851203918457,0.20072609186172485,2.260310649871826,2.0099925994873047
4715.233000,0.5965241193771362,1.142620325088501,-0.3854997158050537,-1.223874807357788,0.20256297290325165,2.260286569595337,2.0065758228302
4715.255000,0.5960849523544312,1.142531156539917,-0.3856249153614044,-1.2238926887512207,0.20435847342014313,2.260268449783325,2.0034096240997314
4715.276000,0.5956127047538757,1.142435073852539,-0.3857806324958801,-1.2239168882369995,0.20624464750289917,2.2602360248565674,2.0000078678131104
4715.293000,0.5950615406036377,1.1423101425170898,-0.3858333230018616,-1.2239441871643066,0.20799671113491058,2.2602007389068604,1.9965176582336426
4715.313000,0.5944796800613403,1.14217209815979,-0.38581621646881104,-1.223973274230957,0.20961515605449677,2.260164260864258,1.9929836988449097
4715.333000,0.5939217209815979,1.1420358419418335,-0.3857361674308777,-1.2240004539489746,0.2110460251569748,2.260132074356079,1.9895730018615723
4715.355000,0.5935165286064148,1.1419451236724854,-0.38568586111068726,-1.2240192890167236,0.21234939992427826,2.260114908218384,1.9865301847457886
4715.375000,0.5932585597038269,1.1419004201889038,-0.3857162892818451,-1.2240318059921265,0.21364371478557587,2.2601044178009033,1.9837926626205444
4715.392000,0.5930977463722229,1.1418862342834473,-0.3858039677143097,-1.2240400314331055,0.21494673192501068,2.2600977420806885,1.9813097715377808
4715.413000,0.5929977297782898,1.1418907642364502,-0.38592636585235596,-1.2240452766418457,0.21625924110412598,2.2600934505462646,1.9790409803390503
4715.433000,0.5928618907928467,1.1418712139129639,-0.38593077659606934,-1.2240495681762695,0.217345729470253,2.2600855827331543,1.9770419597625732
4715.455000,0.5927166938781738,1.1418410539627075,-0.3858577013015747,-1.2240543365478516,0.21822786331176758,2.2600760459899902,1.9752652645111084
4715.475000,0.5926508903503418,1.1418437957763672,-0.3858735263347626,-1.2240588665008545,0.2191648632287979,2.260071039199829,1.9735839366912842
4715.493000,0.5926309823989868,1.1418653726577759,-0.3859468698501587,-1.2240620851516724,0.22015637159347534,2.260068655014038,1.9719878435134888
4715.512000,0.5925742983818054,1.1418639421463013,-0.3859136700630188,-1.2240638732910156,0.22094212472438812,2.2600643634796143,1.9706096649169922
4715.532000,0.5925098061561584,1.141848087310791,-0.3857734203338623,-1.2240642309188843,0.22145532071590424,2.2600607872009277,1.969522476196289
4715.552000,0.5924724340438843,1.1418366432189941,-0.38560613989830017,-1.224064588546753,0.2218019813299179,2.260057210922241,1.9686373472213745
4715.571000,0.5924575924873352,1.1418302059173584,-0.38542479276657104,-1.2240653038024902,0.22201144695281982,2.260053873062134,1.967914342880249
4715.589000,0.5924614667892456,1.1418285369873047,-0.3852386772632599,-1.2240662574768066,0.22211065888404846,2.2600510120391846,1.967321515083313
4715.608000,0.592538058757782,1.1418659687042236,-0.3852211833000183,-1.2240689992904663,0.22243747115135193,2.2600502967834473,1.9666095972061157
4715.629000,0.5926293730735779,1.141916275024414,-0.3852883279323578,-1.2240713834762573,0.2229326069355011,2.2600514888763428,1.9658106565475464
4715.647000,0.5926615595817566,1.141937494277954,-0.3852565586566925,-1.224071979522705,0.22329464554786682,2.2600512504577637,1.9651234149932861
4715.665000,0.5927314758300781,1.1419788599014282,-0.3853205442428589,-1.224073052406311,0.22382299602031708,2.260051965713501,1.9643539190292358
4715.685000,0.5928062796592712,1.1420259475708008,-0.3854299783706665,-1.2240735292434692,0.22447307407855988,2.2600536346435547,1.9635263681411743
4715.705000,0.5928768515586853,1.1420732736587524,-0.3855622708797455,-1.2240732908248901,0.22521768510341644,2.2600557804107666,1.9626595973968506
4715.728000,0.5929402112960815,1.1421188116073608,-0.3857039511203766,-1.2240722179412842,0.22603361308574677,2.2600579261779785,1.961768627166748
4715.747000,0.5929961204528809,1.1421617269515991,-0.38584664463996887,-1.22407066822052,0.22690081596374512,2.2600600719451904,1.9608652591705322
4715.768000,0.5930454134941101,1.1422020196914673,-0.38598528504371643,-1.2240686416625977,0.22780244052410126,2.2600619792938232,1.959958553314209
4715.786000,0.5930894017219543,1.142240047454834,-0.38611698150634766,-1.2240663766860962,0.22872459888458252,2.260063648223877,1.9590556621551514
4715.805000,0.5931293368339539,1.1422760486602783,-0.3862401843070984,-1.2240639925003052,0.22965605556964874,2.2600650787353516,1.9581619501113892
4715.826000,0.5931663513183594,1.142310380935669,-0.3863541781902313,-1.2240614891052246,0.2305878847837448,2.260066270828247,1.9572817087173462
4715.847000,0.5931151509284973,1.142272710800171,-0.3860606849193573,-1.224050760269165,0.23071469366550446,2.260071277618408,1.957131266593933
4715.868000,0.5931997895240784,1.1422995328903198,-0.3860037326812744,-1.2240467071533203,0.23108486831188202,2.260071277618408,1.956831932067871
4715.885000,0.5932945609092712,1.1423406600952148,-0.3860222101211548,-1.2240451574325562,0.2315634936094284,2.2600719928741455,1.956419825553894
4715.904000,0.5933808088302612,1.1423845291137695,-0.38607800006866455,-1.2240444421768188,0.23212145268917084,2.260073184967041,1.9559234380722046
4715.925000,0.5934552550315857,1.1424270868301392,-0.38615307211875916,-1.224043846130371,0.23274068534374237,2.2600743770599365,1.955365538597107
4715.945000,0.5935181975364685,1.1424669027328491,-0.3862365484237671,-1.2240430116653442,0.2334054857492447,2.260075569152832,1.9547638893127441
4715.966000,0.5935712456703186,1.1425036191940308,-0.3863217234611511,-1.2240418195724487,0.23410218954086304,2.2600765228271484,1.9541326761245728
4715.981000,0.5935548543930054,1.1424686908721924,-0.3859713077545166,-1.224028468132019,0.23391874134540558,2.260087013244629,1.95437490940094
4716.001000,0.5936862826347351,1.1425058841705322,-0.3859078884124756,-1.2240233421325684,0.2340681403875351,2.2600886821746826,1.9543980360031128
4716.022000,0.593766450881958,1.1425024271011353,-0.385599285364151,-1.2240123748779297,0.2336842566728592,2.2600975036621094,1.954930067062378
4716.042000,0.5938954949378967,1.1425031423568726,-0.3852231502532959,-1.2239999771118164,0.2329719066619873,2.2601072788238525,1.955851435661316
4716.061000,0.5940811038017273,1.1425248384475708,-0.38489285111427307,-1.223989725112915,0.23215508460998535,2.2601161003112793,1.9569287300109863
4716.079000,0.594294011592865,1.1425621509552002,-0.3846253752708435,-1.2239819765090942,0.23132921755313873,2.260124683380127,1.9580388069152832
4716.099000,0.5945348739624023,1.142637014389038,-0.3846082091331482,-1.2239818572998047,0.23094578087329865,2.2601280212402344,1.9587063789367676
4716.120000,0.5947195291519165,1.1427080631256104,-0.38468390703201294,-1.2239844799041748,0.23084841668605804,2.2601306438446045,1.9590277671813965
4716.139000,0.5948486924171448,1.1427679061889648,-0.3848053216934204,-1.2239875793457031,0.23097380995750427,2.2601325511932373,1.9590795040130615
4716.157000,0.5949326753616333,1.1428159475326538,-0.384948194026947,-1.2239902019500732,0.23127414286136627,2.260133743286133,1.9589227437973022
4716.174000,0.5949819684028625,1.1428536176681519,-0.38509809970855713,-1.2239922285079956,0.23170942068099976,2.260134220123291,1.9586060047149658
4716.195000,0.5950056910514832,1.1428829431533813,-0.38524654507637024,-1.2239935398101807,0.23224641382694244,2.260133981704712,1.9581680297851562
4716.214000,0.5950112342834473,1.142905831336975,-0.3853887915611267,-1.2239943742752075,0.23285801708698273,2.2601332664489746,1.9576395750045776
4716.235000,0.5949960350990295,1.1429022550582886,-0.38536104559898376,-1.2239890098571777,0.23317301273345947,2.2601380348205566,1.957429051399231
4716.255000,0.5950302481651306,1.142904281616211,-0.3852804899215698,-1.2239805459976196,0.2333046793937683,2.2601447105407715,1.9574916362762451
4716.272000,0.5951105356216431,1.1429163217544556,-0.3851820230484009,-1.2239710092544556,0.23330487310886383,2.2601523399353027,1.9577646255493164
4716.293000,0.5952303409576416,1.1429386138916016,-0.38507670164108276,-1.2239607572555542,0.2331952154636383,2.2601616382598877,1.9582260847091675
4716.314000,0.5953797698020935,1.1429698467254639,-0.3849771022796631,-1.2239503860473633,0.23301079869270325,2.26017165184021,1.9588297605514526
4716.334000,0.5955541133880615,1.143007755279541,-0.38487622141838074,-1.223939299583435,0.23274542391300201,2.260183572769165,1.9595890045166016
4716.356000,0.5957536101341248,1.143053412437439,-0.38478630781173706,-1.223927617073059,0.23242752254009247,2.2601966857910156,1.9604817628860474
4716.372000,0.5959521532058716,1.1431211233139038,-0.38488563895225525,-1.2239243984222412,0.2324836552143097,2.260199785232544,1.960964560508728
4716.393000,0.5960718393325806,1.143174409866333,-0.3850232660770416,-1.223925232887268,0.23274032771587372,2.260200023651123,1.9611274003982544
4716.414000,0.5961522459983826,1.1431959867477417,-0.3849833607673645,-1.2239179611206055,0.2327030599117279,2.260211229324341,1.9616124629974365
4716.435000,0.5962857604026794,1.1432257890701294,-0.38492026925086975,-1.2239066362380981,0.2325451523065567,2.2602245807647705,1.9623429775238037
4716.456000,0.5964637398719788,1.1432658433914185,-0.384856253862381,-1.223893404006958,0.2323066145181656,2.2602391242980957,1.9632664918899536
4716.471000,0.5966703295707703,1.1433137655258179,-0.38479840755462646,-1.2238795757293701,0.23201414942741394,2.26025390625,1.9643325805664062
4716.492000,0.5968952775001526,1.1433665752410889,-0.38474124670028687,-1.2238653898239136,0.23166730999946594,2.2602696418762207,1.965530514717102
4716.514000,0.5971319675445557,1.1434234380722046,-0.38469260931015015,-1.2238513231277466,0.23129044473171234,2.2602853775024414,1.9668217897415161
4716.535000,0.5973734855651855,1.1434826850891113,-0.3846537470817566,-1.2238376140594482,0.230897918343544,2.260301113128662,1.9681791067123413
4716.556000,0.597613513469696,1.1435425281524658,-0.38462406396865845,-1.2238245010375977,0.23050029575824738,2.2603163719177246,1.9695779085159302
4716.572000,0.5978490114212036,1.143601655960083,-0.3845997154712677,-1.2238117456436157,0.23009765148162842,2.260331392288208,1.9710111618041992
4716.592000,0.5980781316757202,1.1436597108840942,-0.38458243012428284,-1.223799467086792,0.22969932854175568,2.260345935821533,1.9724609851837158
4716.612000,0.5982980132102966,1.1437158584594727,-0.3845711350440979,-1.223787784576416,0.2293098270893097,2.260359764099121,1.973913550376892
4716.633000,0.5985097885131836,1.1437697410583496,-0.3845612704753876,-1.2237763404846191,0.22892171144485474,2.26037335395813,1.9753769636154175
4716.651000,0.5986762642860413,1.1438353061676025,-0.3847544491291046,-1.2237765789031982,0.22901871800422668,2.260371685028076,1.9761964082717896
4716.671000,0.598715603351593,1.1438722610473633,-0.3849668800830841,-1.2237826585769653,0.2293662279844284,2.2603652477264404,1.9765130281448364
4716.692000,0.5986586213111877,1.143883466720581,-0.385170578956604,-1.223791480064392,0.2298884391784668,2.2603561878204346,1.976439118385315
4716.713000,0.5985369682312012,1.1438755989074707,-0.3853585124015808,-1.2238013744354248,0.23053668439388275,2.260345220565796,1.9760642051696777
4716.733000,0.5983742475509644,1.1438546180725098,-0.3855285942554474,-1.2238115072250366,0.23127388954162598,2.260333299636841,1.9754595756530762
4716.752000,0.5981872081756592,1.1438250541687012,-0.3856808543205261,-1.2238216400146484,0.23207136988639832,2.2603206634521484,1.9746817350387573
4716.771000,0.5979874730110168,1.143790364265442,-0.3858162462711334,-1.2238315343856812,0.23290708661079407,2.260307550430298,1.9737756252288818
4716.791000,0.5977829694747925,1.1437530517578125,-0.3859361708164215,-1.2238410711288452,0.23376411199569702,2.2602944374084473,1.9727767705917358
4716.812000,0.597600519657135,1.1436877250671387,-0.38577088713645935,-1.2238373756408691,0.23400770127773285,2.2602970600128174,1.9724851846694946
4716.833000,0.5975273251533508,1.1436747312545776,-0.38582107424736023,-1.223840355873108,0.23453401029109955,2.2602882385253906,1.9719698429107666
4716.851000,0.5974305272102356,1.1436623334884644,-0.3859027326107025,-1.2238467931747437,0.2351522594690323,2.26027774810791,1.9712852239608765
4716.871000,0.597323477268219,1.1436175107955933,-0.3857257664203644,-1.2238426208496094,0.2352256178855896,2.2602813243865967,1.9712059497833252
4716.892000,0.5973159074783325,1.1435908079147339,-0.38550037145614624,-1.2238335609436035,0.23500381410121918,2.2602882385253906,1.9715945720672607
4716.913000,0.5973800420761108,1.1435868740081787,-0.38530904054641724,-1.223825216293335,0.23467352986335754,2.26029372215271,1.9722000360488892
4716.934000,0.5974729657173157,1.1435928344726562,-0.38512536883354187,-1.2238178253173828,0.23423704504966736,2.2602994441986084,1.9729686975479126
4716.953000,0.5975750088691711,1.1436296701431274,-0.38517022132873535,-1.2238209247589111,0.23421479761600494,2.2602944374084473,1.9732685089111328
4716.971000,0.597579836845398,1.1436243057250977,-0.38505908846855164,-1.223821759223938,0.23396480083465576,2.26029372215271,1.973686933517456
4716.991000,0.5975780487060547,1.1436113119125366,-0.384907990694046,-1.2238218784332275,0.23360177874565125,2.2602930068969727,1.9741939306259155
4717.011000,0.5975964665412903,1.1436265707015991,-0.3849506974220276,-1.2238291501998901,0.2336057424545288,2.2602851390838623,1.974283218383789
4717.033000,0.5975598692893982,1.1436346769332886,-0.38504594564437866,-1.2238391637802124,0.23382118344306946,2.2602758407592773,1.9740493297576904
4717.053000,0.5974758863449097,1.143632173538208,-0.38516107201576233,-1.2238500118255615,0.23419329524040222,2.260265827178955,1.9735676050186157
4717.069000,0.5973581075668335,1.1436203718185425,-0.3852817714214325,-1.2238606214523315,0.2346838116645813,2.2602553367614746,1.9728978872299194
4717.091000,0.5972179770469666,1.1436015367507935,-0.3854002058506012,-1.2238707542419434,0.23526185750961304,2.260244607925415,1.9720876216888428
4717.112000,0.5970644354820251,1.1435776948928833,-0.385512113571167,-1.2238802909851074,0.23590241372585297,2.2602336406707764,1.9711745977401733
4717.131000,0.5969042181968689,1.1435508728027344,-0.38561543822288513,-1.2238892316818237,0.23658552765846252,2.2602226734161377,1.9701884984970093
4717.153000,0.5967422127723694,1.1435223817825317,-0.38570937514305115,-1.2238976955413818,0.23729540407657623,2.260211706161499,1.9691529273986816
4717.169000,0.5965818166732788,1.143493413925171,-0.38579386472702026,-1.2239056825637817,0.23801971971988678,2.2602009773254395,1.9680863618850708
4717.190000,0.5964254140853882,1.1434648036956787,-0.38586926460266113,-1.2239131927490234,0.2387489229440689,2.260190486907959,1.967003345489502
4717.210000,0.5962746143341064,1.1434370279312134,-0.38593608140945435,-1.2239203453063965,0.23947566747665405,2.2601802349090576,1.9659150838851929
4717.231000,0.5961303114891052,1.1434104442596436,-0.38599491119384766,-1.2239271402359009,0.2401943951845169,2.2601704597473145,1.9648303985595703
4717.249000,0.595993161201477,1.1433852910995483,-0.3860463500022888,-1.2239335775375366,0.24090096354484558,2.2601609230041504,1.9637560844421387
4717.268000,0.595863401889801,1.1433616876602173,-0.386091023683548,-1.2239397764205933,0.24159231781959534,2.2601516246795654,1.9626972675323486
4717.289000,0.5957410931587219,1.14333975315094,-0.3861294388771057,-1.2239456176757812,0.24226628243923187,2.2601428031921387,1.9616578817367554
4717.308000,0.595626175403595,1.1433194875717163,-0.38616207242012024,-1.2239512205123901,0.24292130768299103,2.260134220123291,1.960640549659729
4717.320000,0.5955184698104858,1.1433007717132568,-0.38618937134742737,-1.2239564657211304,0.24355638027191162,2.2601261138916016,1.9596474170684814
4717.345000,0.5954164266586304,1.1432830095291138,-0.3862098455429077,-1.223961591720581,0.24416793882846832,2.260118007659912,1.9586800336837769
4717.365000,0.5953202843666077,1.1432664394378662,-0.38622429966926575,-1.2239664793014526,0.24475564062595367,2.2601101398468018,1.9577391147613525
4717.385000,0.5952311754226685,1.1432511806488037,-0.3862326443195343,-1.2239710092544556,0.24531666934490204,2.2601029872894287,1.9568310976028442
4717.407000,0.5951496362686157,1.1432377099990845,-0.38623708486557007,-1.2239753007888794,0.24585379660129547,2.2600960731506348,1.955954670906067
4717.428000,0.5950750708580017,1.1432257890701294,-0.3862381875514984,-1.2239792346954346,0.24636824429035187,2.26008939743042,1.955108880996704
4717.448000,0.5950068831443787,1.143215298652649,-0.386236310005188,-1.2239830493927002,0.2468610256910324,2.2600831985473633,1.9542925357818604
4717.464000,0.594869077205658,1.1431140899658203,-0.38566094636917114,-1.2239694595336914,0.2461397349834442,2.260091543197632,1.9546993970870972
4717.485000,0.5948700904846191,1.1430169343948364,-0.3848440945148468,-1.2239476442337036,0.2445075958967209,2.260105609893799,1.956211805343628
4717.507000,0.5950241684913635,1.1429516077041626,-0.3839453458786011,-1.2239245176315308,0.24221356213092804,2.260122299194336,1.9585673809051514
4717.527000,0.5953661799430847,1.1430155038833618,-0.38365915417671204,-1.2239230871200562,0.2407500147819519,2.2601232528686523,1.9601929187774658
4717.548000,0.5956352949142456,1.1430914402008057,-0.38358381390571594,-1.2239303588867188,0.23975446820259094,2.2601232528686523,1.9612433910369873
4717.563000,0.5958161950111389,1.1431564092636108,-0.3836178183555603,-1.2239402532577515,0.23912400007247925,2.2601230144500732,1.961842656135559
4717.584000,0.5959221124649048,1.1432054042816162,-0.3837119936943054,-1.2239500284194946,0.23878800868988037,2.260122060775757,1.9620893001556396
4717.604000,0.5959692597389221,1.1432386636734009,-0.3838368058204651,-1.2239586114883423,0.2386867105960846,2.260120153427124,1.9620620012283325
4717.626000,0.5959724187850952,1.1432585716247559,-0.38397422432899475,-1.2239658832550049,0.23876936733722687,2.260117530822754,1.9618233442306519
4717.646000,0.5959441065788269,1.1432679891586304,-0.3841135799884796,-1.223971962928772,0.23899389803409576,2.2601141929626465,1.9614232778549194
4717.663000,0.5958942174911499,1.143269658088684,-0.3842487931251526,-1.2239770889282227,0.2393258959054947,2.260110378265381,1.9609012603759766
4717.682000,0.5958303809165955,1.143265962600708,-0.3843766748905182,-1.2239813804626465,0.2397376447916031,2.260106325149536,1.9602887630462646
4717.705000,0.5957345366477966,1.1431330442428589,-0.383527934551239,-1.2239470481872559,0.23808377981185913,2.2601428031921387,1.9620088338851929
4717.725000,0.5959948301315308,1.1431759595870972,-0.3834069073200226,-1.223935604095459,0.23734533786773682,2.2601473331451416,1.9631197452545166
4717.745000,0.5961790680885315,1.1431010961532593,-0.3824177384376526,-1.2238937616348267,0.23470310866832733,2.260192632675171,1.9663424491882324
4717.762000,0.5966488122940063,1.1430764198303223,-0.38125500082969666,-1.2238413095474243,0.23099443316459656,2.2602458000183105,1.9711731672286987
4717.782000,0.5973670482635498,1.1432394981384277,-0.38109472393989563,-1.2238284349441528,0.2287946194410324,2.260258674621582,1.9746218919754028
4717.803000,0.5978756546974182,1.1432528495788574,-0.38004401326179504,-1.2237861156463623,0.22479920089244843,2.2603163719177246,1.979966640472412
4717.824000,0.5986148715019226,1.1434398889541626,-0.3800184726715088,-1.2237799167633057,0.22247755527496338,2.2603299617767334,1.983750820159912
4717.845000,0.5991076827049255,1.1435976028442383,-0.38024669885635376,-1.2237887382507324,0.22102509438991547,2.2603349685668945,1.9863038063049316
4717.861000,0.5993709564208984,1.143705129623413,-0.38057681918144226,-1.223802924156189,0.22021940350532532,2.2603352069854736,1.987888216972351
4717.883000,0.5994609594345093,1.143767237663269,-0.38094884157180786,-1.2238179445266724,0.21991923451423645,2.260331869125366,1.9887138605117798
4717.902000,0.5994266271591187,1.143792986869812,-0.38133037090301514,-1.2238320112228394,0.22001172602176666,2.2603259086608887,1.988947868347168
4717.923000,0.5993061065673828,1.1437915563583374,-0.38170331716537476,-1.2238447666168213,0.2204049825668335,2.260317802429199,1.9887235164642334
4717.944000,0.5991733074188232,1.1436190605163574,-0.3806290626525879,-1.2237969636917114,0.2178173065185547,2.2603759765625,1.9919767379760742
4717.960000,0.5995947122573853,1.1435470581054688,-0.3792555034160614,-1.2237240076065063,0.21359500288963318,2.260448694229126,1.9978922605514526
4717.981000,0.6004148125648499,1.1437351703643799,-0.37924864888191223,-1.2237027883529663,0.2114151418209076,2.2604620456695557,2.0019919872283936
4718.002000,0.6009437441825867,1.1438963413238525,-0.3795476257801056,-1.2237054109573364,0.2101912796497345,2.2604641914367676,2.0046613216400146
4718.023000,0.6011941432952881,1.1440004110336304,-0.37996044754981995,-1.2237181663513184,0.2096596658229828,2.260460615158081,2.0062074661254883
4718.042000,0.6013110876083374,1.1438918113708496,-0.37877094745635986,-1.2236669063568115,0.20594997704029083,2.260530471801758,2.01137375831604
4718.060000,0.6019877195358276,1.1438857316970825,-0.37728917598724365,-1.223589539527893,0.20059241354465485,2.2606146335601807,2.019299268722534
4718.079000,0.6031230688095093,1.1439908742904663,-0.3756883442401886,-1.2235029935836792,0.19391010701656342,2.2607076168060303,2.0295298099517822
4718.100000,0.604593813419342,1.1441982984542847,-0.3741227686405182,-1.2234199047088623,0.18631605803966522,2.2608015537261963,2.041468858718872
4718.113000,0.6061904430389404,1.1446313858032227,-0.37437424063682556,-1.2234103679656982,0.18199026584625244,2.2608211040496826,2.0499155521392822
4718.136000,0.6072465181350708,1.1447927951812744,-0.37316858768463135,-1.2233599424362183,0.17516617476940155,2.2609002590179443,2.0608010292053223
4718.153000,0.6085854768753052,1.145005226135254,-0.3717845380306244,-1.2232969999313354,0.16730277240276337,2.260984182357788,2.073493719100952
4718.173000,0.6101765632629395,1.145282506942749,-0.37034285068511963,-1.2232310771942139,0.15860937535762787,2.261068344116211,2.0877323150634766
4718.196000,0.6118499040603638,1.145765781402588,-0.3709361255168915,-1.223235845565796,0.1538446992635727,2.261077642440796,2.0976316928863525
4718.217000,0.6128614544868469,1.145940899848938,-0.3699229061603546,-1.223197102546692,0.1465902179479599,2.26113224029541,2.1097872257232666
4718.236000,0.6140286326408386,1.1462996006011963,-0.3707467317581177,-1.2232095003128052,0.1430048793554306,2.2611234188079834,2.117924213409424
4718.255000,0.6145261526107788,1.1465059518814087,-0.3719220459461212,-1.2232378721237183,0.14137549698352814,2.261099338531494,2.1229019165039062
4718.277000,0.6144647598266602,1.1465600728988647,-0.3731776773929596,-1.2232699394226074,0.14117299020290375,2.2610676288604736,2.1254053115844727
4718.297000,0.6140070557594299,1.1464979648590088,-0.37442031502723694,-1.2233014106750488,0.14205579459667206,2.261030673980713,2.125981092453003
4718.314000,0.6134223341941833,1.146208643913269,-0.3733128011226654,-1.2232612371444702,0.1385706514120102,2.2610630989074707,2.131479263305664
4718.330000,0.613705575466156,1.1461114883422852,-0.3717612326145172,-1.2231910228729248,0.1328778713941574,2.2611093521118164,2.140739679336548
4718.346000,0.6145496964454651,1.1463415622711182,-0.37242451310157776,-1.223179817199707,0.13083961606025696,2.2610924243927,2.146425485610962
4718.367000,0.6149701476097107,1.1463184356689453,-0.3710916042327881,-1.22312331199646,0.1250697821378708,2.261131763458252,2.1560540199279785
4718.387000,0.6159704327583313,1.1464343070983887,-0.36947447061538696,-1.2230535745620728,0.11755875498056412,2.2611775398254395,2.1686596870422363
4718.404000,0.6174360513687134,1.1466878652572632,-0.36785030364990234,-1.2229853868484497,0.10887801647186279,2.2612204551696777,2.183475971221924
4718.425000,0.6190690398216248,1.14716637134552,-0.3687353730201721,-1.2229857444763184,0.10485681146383286,2.2612035274505615,2.1931533813476562
4718.441000,0.619785487651825,1.1474298238754272,-0.37013813853263855,-1.2230076789855957,0.10328099131584167,2.2611732482910156,2.1987953186035156
4718.463000,0.6197364926338196,1.1474839448928833,-0.3716783821582794,-1.2230359315872192,0.1034824401140213,2.261136293411255,2.201282262802124
4718.485000,0.6192600131034851,1.1472573280334473,-0.3707762658596039,-1.2230082750320435,0.09954685717821121,2.2611441612243652,2.2080583572387695
4718.505000,0.6194908618927002,1.1471928358078003,-0.36940503120422363,-1.222959041595459,0.09363415092229843,2.2611587047576904,2.2180988788604736
4718.526000,0.6203138828277588,1.147292971611023,-0.36792925000190735,-1.2229046821594238,0.0863620787858963,2.261172294616699,2.2305896282196045
4718.543000,0.6215355396270752,1.1475169658660889,-0.36647430062294006,-1.2228537797927856,0.07811706513166428,2.261181354522705,2.244885206222534
4718.564000,0.6230012774467468,1.1478263139724731,-0.36510080099105835,-1.22281014919281,0.06920276582241058,2.261183738708496,2.260474681854248
4718.585000,0.6246176958084106,1.1482218503952026,-0.3642753064632416,-1.222779393196106,0.060804300010204315,2.261174201965332,2.275891065597534
4718.605000,0.6261724233627319,1.1486443281173706,-0.3641134202480316,-1.2227603197097778,0.0536537691950798,2.2611541748046875,2.290045976638794
4718.627000,0.6274687051773071,1.149011492729187,-0.36421000957489014,-1.2227447032928467,0.0473710335791111,2.2611279487609863,2.303128242492676
4718.644000,0.6285544037818909,1.1493397951126099,-0.36483773589134216,-1.22273588180542,0.04264792054891586,2.2610957622528076,2.3143746852874756
4718.665000,0.6291438937187195,1.1495718955993652,-0.3668384552001953,-1.2227447032928467,0.04182787984609604,2.261056423187256,2.3203823566436768
4718.687000,0.6288003325462341,1.1495323181152344,-0.3690091073513031,-1.2227553129196167,0.04329067841172218,2.261016845703125,2.322303295135498
4718.707000,0.6277583837509155,1.1492838859558105,-0.3711221218109131,-1.2227671146392822,0.04640230908989906,2.2609775066375732,2.3210556507110596
4718.729000,0.6264112591743469,1.1489180326461792,-0.372406542301178,-1.2227703332901,0.04904003441333771,2.2609424591064453,2.3197662830352783
4718.744000,0.6251956224441528,1.148590087890625,-0.3736744225025177,-1.222775936126709,0.05212351307272911,2.260908842086792,2.3179407119750977
4718.765000,0.62391597032547,1.148267149925232,-0.37541627883911133,-1.2227904796600342,0.05680432170629501,2.2608723640441895,2.313830852508545
4718.785000,0.6223275065422058,1.14785897731781,-0.37709254026412964,-1.2228114604949951,0.06228741258382797,2.2608349323272705,2.307985782623291
4718.805000,0.6205260753631592,1.1473931074142456,-0.37863555550575256,-1.2228388786315918,0.06828536838293076,2.260796546936035,2.300841808319092
4718.828000,0.618658721446991,1.1468929052352905,-0.3797113597393036,-1.2228680849075317,0.07383805513381958,2.2607617378234863,2.2937850952148438
4718.842000,0.6169325113296509,1.146430492401123,-0.38063347339630127,-1.2228991985321045,0.07919587194919586,2.260728359222412,2.2868452072143555
4718.863000,0.6153163313865662,1.1460058689117432,-0.38153088092803955,-1.2229313850402832,0.08456555008888245,2.2606942653656006,2.2797532081604004
4718.884000,0.6137588620185852,1.1456013917922974,-0.38234519958496094,-1.2229646444320679,0.08983904123306274,2.260660171508789,2.2725932598114014
4718.905000,0.6122349500656128,1.1452122926712036,-0.38313421607017517,-1.2230006456375122,0.09512732177972794,2.260624647140503,2.2651987075805664
4718.925000,0.6107258200645447,1.1448427438735962,-0.38404765725135803,-1.223042607307434,0.10077188909053802,2.2605855464935303,2.2571568489074707
4718.942000,0.6091710925102234,1.144466519355774,-0.384927898645401,-1.2230887413024902,0.10654861479997635,2.260545253753662,2.248671531677246
4718.963000,0.6075549125671387,1.1440682411193848,-0.3856247663497925,-1.2231371402740479,0.11214027553796768,2.2605035305023193,2.2400596141815186
4718.984000,0.6059289574623108,1.1436675786972046,-0.3862251341342926,-1.2231886386871338,0.11762204021215439,2.2604589462280273,2.2312722206115723
4719.004000,0.6043117642402649,1.1432693004608154,-0.3867212235927582,-1.2232422828674316,0.12293072789907455,2.26041316986084,2.2224104404449463
4719.025000,0.6027167439460754,1.1428792476654053,-0.38715502619743347,-1.2232985496520996,0.12811478972434998,2.2603650093078613,2.2134387493133545
4719.042000,0.6011508703231812,1.1424980163574219,-0.38751211762428284,-1.2233562469482422,0.133124440908432,2.2603158950805664,2.2044451236724854
4719.063000,0.5996199250221252,1.1421289443969727,-0.3878273069858551,-1.2234159708023071,0.13801278173923492,2.2602648735046387,2.195387840270996
4719.083000,0.5981254577636719,1.1417707204818726,-0.38808193802833557,-1.2234766483306885,0.14273498952388763,2.2602133750915527,2.186344623565674
4719.104000,0.5966721773147583,1.141425609588623,-0.38829872012138367,-1.2235383987426758,0.14732536673545837,2.260160446166992,2.1772971153259277
4719.125000,0.5952540040016174,1.1410914659500122,-0.38847795128822327,-1.223601222038269,0.15178850293159485,2.260106325149536,2.1682448387145996
4719.145000,0.5938763618469238,1.1407684087753296,-0.3886082172393799,-1.2236642837524414,0.1560927778482437,2.260051965713501,2.1592516899108887
4719.162000,0.5925448536872864,1.1404588222503662,-0.3887059986591339,-1.2237275838851929,0.16026103496551514,2.2599968910217285,2.1503138542175293
4719.183000,0.5912569761276245,1.1401616334915161,-0.3887719213962555,-1.2237910032272339,0.16429518163204193,2.259941339492798,2.141439199447632
4719.202000,0.5900173187255859,1.139877200126648,-0.3887996971607208,-1.2238538265228271,0.16817514598369598,2.2598860263824463,2.1326751708984375
4719.225000,0.588833212852478,1.139607310295105,-0.3887921869754791,-1.223915457725525,0.17189408838748932,2.259831666946411,2.1240575313568115
4719.240000,0.5877075791358948,1.1393533945083618,-0.3887630105018616,-1.2239761352539062,0.17547284066677094,2.259777545928955,2.115581512451172
4719.261000,0.5866385102272034,1.1391141414642334,-0.38870635628700256,-1.224035382270813,0.1788993924856186,2.2597243785858154,2.107274055480957
4719.282000,0.5856292843818665,1.1388903856277466,-0.3886256515979767,-1.224092960357666,0.18217407166957855,2.2596726417541504,2.0991547107696533
4719.303000,0.584678590297699,1.13868248462677,-0.38853317499160767,-1.224149227142334,0.1853216141462326,2.2596216201782227,2.0912044048309326
4719.324000,0.5837815403938293,1.1384880542755127,-0.3884209990501404,-1.2242038249969482,0.18833085894584656,2.2595717906951904,2.083440065383911
4719.341000,0.5830731987953186,1.1383439302444458,-0.38827913999557495,-1.2242463827133179,0.19104763865470886,2.2595407962799072,2.076380968093872
4719.360000,0.5824486613273621,1.138227939605713,-0.38823145627975464,-1.224289894104004,0.1938171237707138,2.259500741958618,2.069425582885742
4719.382000,0.5818212032318115,1.1381083726882935,-0.3881506323814392,-1.2243337631225586,0.1964847594499588,2.2594592571258545,2.062598705291748
4719.402000,0.5812051296234131,1.1379889249801636,-0.38803502917289734,-1.2243772745132446,0.19902969896793365,2.259418249130249,2.055924415588379
4719.423000,0.5806148648262024,1.1378740072250366,-0.38789376616477966,-1.2244197130203247,0.20145170390605927,2.259377956390381,2.0494143962860107
4719.439000,0.5800625085830688,1.1377668380737305,-0.38772857189178467,-1.224460244178772,0.20373843610286713,2.2593395709991455,2.043102741241455
4719.460000,0.5795608758926392,1.1376705169677734,-0.38754069805145264,-1.2244980335235596,0.2058745175600052,2.2593042850494385,2.037036418914795
4719.481000,0.5791146755218506,1.1375876665115356,-0.38734662532806396,-1.2245334386825562,0.2078847587108612,2.2592709064483643,2.0312018394470215
4719.497000,0.578838050365448,1.1375504732131958,-0.38715508580207825,-1.2245572805404663,0.20967768132686615,2.25925612449646,2.0259971618652344
4719.522000,0.5786093473434448,1.1375256776809692,-0.38700759410858154,-1.2245817184448242,0.21144656836986542,2.25923228263855,2.0209600925445557
4719.538000,0.5783668756484985,1.137492299079895,-0.38681697845458984,-1.2246068716049194,0.213080495595932,2.259206771850586,2.016087770462036
4719.559000,0.5782569050788879,1.1374962329864502,-0.38663721084594727,-1.2246229648590088,0.2145491987466812,2.2591984272003174,2.0117313861846924
4719.580000,0.5782949328422546,1.1375455856323242,-0.38654574751853943,-1.224631905555725,0.2160009890794754,2.259197235107422,2.0078039169311523
4719.601000,0.5784302353858948,1.1376246213912964,-0.38651955127716064,-1.2246359586715698,0.2174564003944397,2.259200096130371,2.004234790802002
4719.621000,0.5786246657371521,1.1377211809158325,-0.38653460144996643,-1.2246365547180176,0.21891596913337708,2.2592053413391113,2.000967264175415
4719.635000,0.5788537263870239,1.1378273963928223,-0.38657358288764954,-1.2246348857879639,0.2203749418258667,2.259212017059326,1.997955560684204
4719.660000,0.5791023373603821,1.1379384994506836,-0.386624813079834,-1.2246315479278564,0.2218267172574997,2.2592194080352783,1.9951622486114502
4719.677000,0.5793613195419312,1.1380516290664673,-0.386680543422699,-1.224627137184143,0.2232643961906433,2.2592272758483887,1.9925570487976074
4719.697000,0.5796252489089966,1.1381648778915405,-0.3867357671260834,-1.2246218919754028,0.22468149662017822,2.259235382080078,1.9901152849197388
4719.712000,0.5798909664154053,1.1382774114608765,-0.38678738474845886,-1.2246161699295044,0.22607243061065674,2.2592434883117676,1.9878168106079102
4719.726000,0.5801566243171692,1.1383886337280273,-0.3868335783481598,-1.2246099710464478,0.22743253409862518,2.259251594543457,1.9856449365615845
4719.744000,0.5804212093353271,1.138498306274414,-0.386873334646225,-1.224603533744812,0.22875815629959106,2.2592594623565674,1.983586072921753
4719.762000,0.5806841254234314,1.1386061906814575,-0.3869062066078186,-1.2245968580245972,0.23004655539989471,2.2592670917510986,1.9816287755966187
4719.781000,0.5808274745941162,1.138646125793457,-0.3866417407989502,-1.2245889902114868,0.23076748847961426,2.2592689990997314,1.980088233947754
4719.802000,0.5810607671737671,1.138727068901062,-0.38650843501091003,-1.2245841026306152,0.23155905306339264,2.259273052215576,1.97855544090271
4719.820000,0.5813252329826355,1.1388245820999146,-0.3864401876926422,-1.2245795726776123,0.23238973319530487,2.2592790126800537,1.9770393371582031
4719.839000,0.581600546836853,1.1389286518096924,-0.38641026616096497,-1.2245746850967407,0.23325031995773315,2.259286403656006,1.9755467176437378
4719.861000,0.5818771123886108,1.1390342712402344,-0.38640260696411133,-1.2245692014694214,0.23413217067718506,2.259294271469116,1.9740827083587646
4719.883000,0.5820288062095642,1.139053463935852,-0.38596785068511963,-1.22455632686615,0.23417282104492188,2.259302854537964,1.973343014717102
4719.904000,0.5822017788887024,1.1390489339828491,-0.3852963149547577,-1.2245404720306396,0.23348860442638397,2.2593116760253906,1.9733097553253174
4719.917000,0.5824400186538696,1.1390509605407715,-0.3845243752002716,-1.2245252132415771,0.23225627839565277,2.2593204975128174,1.973821997642517
4719.940000,0.5827751159667969,1.1390902996063232,-0.38383159041404724,-1.2245134115219116,0.23082219064235687,2.2593307495117188,1.9745787382125854
4719.960000,0.5832411050796509,1.139216423034668,-0.38356584310531616,-1.2245110273361206,0.22997547686100006,2.2593395709991455,1.9748581647872925
4719.980000,0.583632230758667,1.1393097639083862,-0.38319891691207886,-1.224503993988037,0.22893346846103668,2.259355068206787,1.9753221273422241
4720.002000,0.5840815901756287,1.139449119567871,-0.3831283748149872,-1.2245017290115356,0.22841443121433258,2.2593672275543213,1.9753702878952026
4720.020000,0.5844884514808655,1.139588475227356,-0.38317999243736267,-1.2244999408721924,0.22825022041797638,2.2593796253204346,1.9750970602035522
4720.042000,0.5848281979560852,1.1396875381469727,-0.383076548576355,-1.2244898080825806,0.22789636254310608,2.259399175643921,1.9750826358795166
4720.063000,0.5851863622665405,1.1397829055786133,-0.3829458951950073,-1.2244757413864136,0.22747769951820374,2.2594194412231445,1.9752681255340576
4720.082000,0.5855770707130432,1.1398845911026,-0.38282114267349243,-1.2244590520858765,0.22703003883361816,2.259441614151001,1.975630521774292
4720.105000,0.5859913229942322,1.1400165557861328,-0.3829193711280823,-1.2244492769241333,0.22703400254249573,2.259455442428589,1.9755982160568237
4720.122000,0.5863463282585144,1.1401166915893555,-0.38287708163261414,-1.2244336605072021,0.22685293853282928,2.2594776153564453,1.9758052825927734
4720.143000,0.5867248773574829,1.1402182579040527,-0.3828197717666626,-1.2244153022766113,0.22661830484867096,2.2595009803771973,1.9761956930160522
4720.164000,0.587113618850708,1.140344500541687,-0.38296428322792053,-1.2244044542312622,0.22680610418319702,2.259514331817627,1.9761810302734375
4720.185000,0.5874253511428833,1.1404564380645752,-0.383150577545166,-1.2243971824645996,0.22722762823104858,2.2595250606536865,1.975853681564331
4720.205000,0.5876709818840027,1.140552043914795,-0.3833467662334442,-1.2243914604187012,0.22781795263290405,2.2595341205596924,1.9752871990203857
4720.222000,0.5878927111625671,1.1406177282333374,-0.38334834575653076,-1.2243763208389282,0.2280832678079605,2.259554147720337,1.9751231670379639
4720.242000,0.5881553888320923,1.1407099962234497,-0.3835110664367676,-1.224366545677185,0.22865359485149384,2.259564161300659,1.974687933921814
4720.264000,0.5883671641349792,1.1407922506332397,-0.38369059562683105,-1.2243595123291016,0.22935892641544342,2.2595717906951904,1.974046230316162
4720.285000,0.5885667204856873,1.1408480405807495,-0.38366761803627014,-1.2243430614471436,0.2296827733516693,2.259591817855835,1.9738727807998657
4720.306000,0.5888136625289917,1.1409337520599365,-0.38381427526474,-1.2243328094482422,0.23029650747776031,2.259600877761841,1.9734389781951904
4720.322000,0.5890086889266968,1.1410099267959595,-0.38397714495658875,-1.2243258953094482,0.23102475702762604,2.2596070766448975,1.9728071689605713
4720.343000,0.5891583561897278,1.1410746574401855,-0.384134978055954,-1.2243207693099976,0.2318238765001297,2.2596118450164795,1.9720268249511719
4720.363000,0.5892757177352905,1.1411302089691162,-0.3842829167842865,-1.2243163585662842,0.23266907036304474,2.259615659713745,1.971137285232544
4720.384000,0.5893710851669312,1.141178846359253,-0.38441938161849976,-1.224312424659729,0.23354186117649078,2.2596187591552734,1.9701696634292603
4720.405000,0.5894519686698914,1.141222596168518,-0.3845440447330475,-1.2243086099624634,0.23442791402339935,2.2596213817596436,1.9691483974456787
4720.420000,0.5895631313323975,1.1412487030029297,-0.38445428013801575,-1.2242929935455322,0.23482871055603027,2.259639024734497,1.9687539339065552
4720.442000,0.5897905826568604,1.1412993669509888,-0.38433924317359924,-1.224271535873413,0.23498034477233887,2.2596609592437744,1.968846082687378
4720.463000,0.5901044607162476,1.1413722038269043,-0.3842261731624603,-1.2242475748062134,0.23495271801948547,2.2596850395202637,1.9693195819854736
4720.483000,0.5904330015182495,1.141474962234497,-0.3843275308609009,-1.224234938621521,0.23528514802455902,2.2596945762634277,1.9694169759750366
4720.504000,0.5907102227210999,1.1415468454360962,-0.3842545747756958,-1.2242164611816406,0.23528216779232025,2.2597157955169678,1.969883680343628
4720.521000,0.5910359621047974,1.1416274309158325,-0.38416293263435364,-1.2241950035095215,0.23512376844882965,2.259739398956299,1.970649003982544
4720.542000,0.5913585424423218,1.141731858253479,-0.38428279757499695,-1.2241847515106201,0.23536118865013123,2.2597477436065674,1.970962405204773
4720.562000,0.5916194915771484,1.141800880432129,-0.38421934843063354,-1.224168062210083,0.23527561128139496,2.259768009185791,1.9716057777404785
4720.582000,0.5918814539909363,1.1418906450271606,-0.38434526324272156,-1.2241606712341309,0.23555809259414673,2.2597739696502686,1.9718183279037476
4720.603000,0.5920939445495605,1.14194655418396,-0.38428136706352234,-1.224145770072937,0.23550310730934143,2.2597923278808594,1.9723812341690063
4720.620000,0.5923610329627991,1.1420117616653442,-0.38419774174690247,-1.224127173423767,0.2353067696094513,2.2598133087158203,1.9732131958007812
4720.641000,0.5926705002784729,1.1420872211456299,-0.3841175436973572,-1.2241071462631226,0.2350187748670578,2.2598350048065186,1.9742470979690552
4720.660000,0.5930046439170837,1.142169713973999,-0.3840447664260864,-1.224086880683899,0.23466527462005615,2.259856939315796,1.97543203830719
4720.682000,0.5933061838150024,1.1422697305679321,-0.38418900966644287,-1.2240794897079468,0.23477037250995636,2.259862184524536,1.9760361909866333
4720.701000,0.5934808254241943,1.1423423290252686,-0.38435474038124084,-1.2240787744522095,0.23509488999843597,2.2598624229431152,1.9761875867843628
4720.719000,0.5935577154159546,1.1423894166946411,-0.3845137357711792,-1.22408127784729,0.2355688363313675,2.259859800338745,1.9759883880615234
4720.739000,0.5936118960380554,1.1424040794372559,-0.3844548165798187,-1.224072813987732,0.23565353453159332,2.2598717212677,1.9762009382247925
4720.760000,0.5937501788139343,1.1424336433410645,-0.38436877727508545,-1.224058747291565,0.23556768894195557,2.2598869800567627,1.9767314195632935
4720.781000,0.593909502029419,1.1424921751022339,-0.3844880759716034,-1.2240546941757202,0.2358645647764206,2.259887456893921,1.9768211841583252
4720.803000,0.5939825177192688,1.142533302307129,-0.38462573289871216,-1.2240558862686157,0.23632389307022095,2.2598838806152344,1.9765698909759521
4720.818000,0.5939869284629822,1.14255690574646,-0.3847567141056061,-1.2240597009658813,0.23688867688179016,2.259878396987915,1.9760571718215942
4720.839000,0.5939903855323792,1.142553687095642,-0.3846668601036072,-1.2240519523620605,0.23701918125152588,2.2598886489868164,1.9760429859161377
4720.862000,0.5940952897071838,1.1425706148147583,-0.3845522701740265,-1.2240382432937622,0.236948624253273,2.2599029541015625,1.976414442062378
4720.881000,0.5942321419715881,1.1426204442977905,-0.3846500515937805,-1.2240346670150757,0.23724864423274994,2.259902238845825,1.9763835668563843
4720.902000,0.594333291053772,1.142641305923462,-0.384559690952301,-1.224023699760437,0.2371915578842163,2.2599146366119385,1.9767405986785889
4720.918000,0.5944545865058899,1.1426889896392822,-0.3846624791622162,-1.2240219116210938,0.23748937249183655,2.2599129676818848,1.9766963720321655
4720.938000,0.5945410132408142,1.1427067518234253,-0.38457345962524414,-1.2240121364593506,0.23742814362049103,2.25992488861084,1.977041482925415
4720.960000,0.5946947336196899,1.1427375078201294,-0.38446691632270813,-1.2239983081817627,0.23721358180046082,2.259939670562744,1.977684736251831
4720.981000,0.5948999524116516,1.1427818536758423,-0.3843694031238556,-1.2239830493927002,0.23690718412399292,2.259955406188965,1.9785423278808594
4721.001000,0.5951350927352905,1.142835021018982,-0.3842819035053253,-1.2239675521850586,0.2365347445011139,2.259971857070923,1.9795594215393066
4721.018000,0.5953856706619263,1.1428935527801514,-0.3842046558856964,-1.223952293395996,0.2361166626214981,2.259988307952881,1.9806932210922241
4721.038000,0.5956423878669739,1.1429544687271118,-0.3841334879398346,-1.2239373922348022,0.23566004633903503,2.260004758834839,1.9819214344024658
4721.058000,0.5959000587463379,1.1430164575576782,-0.38407114148139954,-1.2239230871200562,0.2351817935705185,2.2600209712982178,1.983214020729065
4721.080000,0.5961529612541199,1.1430785655975342,-0.38402101397514343,-1.223909616470337,0.2347017377614975,2.2600364685058594,1.9845356941223145
4721.100000,0.5963961482048035,1.1431387662887573,-0.3839787542819977,-1.2238969802856445,0.23422330617904663,2.2600512504577637,1.9858707189559937
4721.117000,0.5965830087661743,1.1432095766067505,-0.3841492831707001,-1.2238975763320923,0.23425151407718658,2.2600486278533936,1.9865177869796753
4721.138000,0.5966736078262329,1.143235206604004,-0.3841303884983063,-1.223892331123352,0.2340342104434967,2.260057210922241,1.987318515777588
4721.159000,0.5967880487442017,1.1432617902755737,-0.38408926129341125,-1.223884105682373,0.23374734818935394,2.2600674629211426,1.9882322549819946
4721.180000,0.5969264507293701,1.1432926654815674,-0.38404321670532227,-1.2238743305206299,0.23341362178325653,2.2600784301757812,1.9892388582229614
4721.201000,0.5970809459686279,1.1433274745941162,-0.38399985432624817,-1.2238640785217285,0.23305149376392365,2.260089635848999,1.9903101921081543
4721.217000,0.5972433686256409,1.1433647871017456,-0.383961021900177,-1.2238539457321167,0.23267227411270142,2.2601006031036377,1.9914240837097168
4721.238000,0.5974077582359314,1.143403172492981,-0.38392722606658936,-1.2238441705703735,0.23228448629379272,2.2601113319396973,1.9925631284713745
4721.258000,0.5975607633590698,1.1434352397918701,-0.38386717438697815,-1.2238343954086304,0.23183418810367584,2.2601218223571777,1.9937610626220703
4721.279000,0.5977012515068054,1.143466591835022,-0.3838282823562622,-1.2238272428512573,0.23141862452030182,2.2601287364959717,1.9948869943618774
4721.299000,0.5978167057037354,1.1434917449951172,-0.3837868869304657,-1.223821759223938,0.23101022839546204,2.26013445854187,1.995949387550354
4721.316000,0.597902774810791,1.14351224899292,-0.383769690990448,-1.223819375038147,0.23067539930343628,2.260136604309082,1.996852159500122
4721.336000,0.5979354977607727,1.1435410976409912,-0.3839348256587982,-1.2238277196884155,0.23080261051654816,2.2601261138916016,1.99708890914917
4721.357000,0.5978527665138245,1.1435445547103882,-0.384123295545578,-1.2238410711288452,0.23118425905704498,2.2601118087768555,1.9968098402023315
4721.378000,0.5976847410202026,1.1435253620147705,-0.3843076229095459,-1.2238564491271973,0.23174597322940826,2.2600955963134766,1.9961345195770264
4721.399000,0.5974612832069397,1.1434897184371948,-0.3844793736934662,-1.2238723039627075,0.23243781924247742,2.260078191757202,1.9951578378677368
4721.415000,0.5972046256065369,1.1434431076049805,-0.38463541865348816,-1.2238880395889282,0.23322132229804993,2.2600600719451904,1.9939552545547485
4721.435000,0.5969306230545044,1.1433898210525513,-0.3847750127315521,-1.2239032983779907,0.2340664565563202,2.2600417137145996,1.9925867319107056
4721.456000,0.5966503024101257,1.1433331966400146,-0.3848986327648163,-1.2239179611206055,0.2349500209093094,2.260023355484009,1.9910995960235596
4721.477000,0.5963712334632874,1.143275499343872,-0.38500741124153137,-1.2239320278167725,0.23585419356822968,2.260005235671997,1.9895312786102295
4721.498000,0.5960983633995056,1.1432183980941772,-0.38510262966156006,-1.2239453792572021,0.23676538467407227,2.2599875926971436,1.9879112243652344
4721.514000,0.5958349704742432,1.1431628465652466,-0.3851856589317322,-1.223958134651184,0.23767340183258057,2.2599704265594482,1.986262559890747
4721.536000,0.5955830216407776,1.143109679222107,-0.385257750749588,-1.2239702939987183,0.23857061564922333,2.2599539756774902,1.9846032857894897
4721.556000,0.5953436493873596,1.1430593729019165,-0.3853200674057007,-1.2239819765090942,0.23945143818855286,2.2599380016326904,1.9829473495483398
4721.577000,0.5951173901557922,1.1430120468139648,-0.3853735327720642,-1.2239930629730225,0.24031177163124084,2.259922742843628,1.9813055992126465
4721.597000,0.5949043035507202,1.1429678201675415,-0.3854190409183502,-1.224003553390503,0.24114874005317688,2.2599081993103027,1.9796861410140991
4721.614000,0.5947043299674988,1.1429266929626465,-0.3854573667049408,-1.2240135669708252,0.24196039140224457,2.2598941326141357,1.978095293045044
4721.635000,0.5945172309875488,1.1428885459899902,-0.3854891359806061,-1.2240229845046997,0.24274544417858124,2.259880781173706,1.9765375852584839
4721.656000,0.5943425297737122,1.1428533792495728,-0.38551491498947144,-1.224031925201416,0.2435031682252884,2.2598681449890137,1.9750163555145264
4721.676000,0.5941784381866455,1.1428204774856567,-0.38553327322006226,-1.2240403890609741,0.2442302405834198,2.2598559856414795,1.9735339879989624
4721.696000,0.5940249562263489,1.1427898406982422,-0.38554513454437256,-1.2240484952926636,0.2449265718460083,2.2598443031311035,1.9720919132232666
4721.713000,0.593882143497467,1.1427617073059082,-0.3855515122413635,-1.2240561246871948,0.24559281766414642,2.2598330974578857,1.9706909656524658
4721.733000,0.5937497615814209,1.1427359580993652,-0.38555318117141724,-1.2240633964538574,0.2462298572063446,2.259822368621826,1.9693315029144287
4721.753000,0.5936284065246582,1.1427125930786133,-0.38554975390434265,-1.2240700721740723,0.24683547019958496,2.259812593460083,1.9680194854736328
4721.776000,0.5934920907020569,1.1426093578338623,-0.38494497537612915,-1.2240532636642456,0.24611131846904755,2.2598273754119873,1.9681940078735352
4721.796000,0.5935871601104736,1.1426188945770264,-0.38478681445121765,-1.2240502834320068,0.24589146673679352,2.2598235607147217,1.9680683612823486
4721.812000,0.5936592817306519,1.1426407098770142,-0.3847348690032959,-1.2240536212921143,0.24585749208927155,2.2598183155059814,1.9677119255065918
4721.833000,0.5936911702156067,1.142659306526184,-0.3847290277481079,-1.2240595817565918,0.24595153331756592,2.259812831878662,1.9671796560287476
4721.854000,0.593690037727356,1.142671823501587,-0.38474708795547485,-1.2240663766860962,0.24614477157592773,2.2598071098327637,1.9665155410766602
4721.873000,0.5936594009399414,1.142580270767212,-0.38401108980178833,-1.2240408658981323,0.24472123384475708,2.2598366737365723,1.9676984548568726
4721.895000,0.5938987731933594,1.1426266431808472,-0.38387176394462585,-1.2240341901779175,0.24406470358371735,2.259838581085205,1.9683549404144287
4721.911000,0.5940738916397095,1.1426784992218018,-0.3838648796081543,-1.2240363359451294,0.24371959269046783,2.2598369121551514,1.9686002731323242
4721.932000,0.5941715836524963,1.1427183151245117,-0.3839111626148224,-1.2240421772003174,0.2435934692621231,2.259833812713623,1.9685266017913818
4721.953000,0.594208836555481,1.142744541168213,-0.38398274779319763,-1.2240492105484009,0.2436373084783554,2.2598297595977783,1.9682071208953857
4721.973000,0.5942250490188599,1.1426461935043335,-0.38311371207237244,-1.2240139245986938,0.24168184399604797,2.259873628616333,1.9702197313308716
4721.994000,0.5945937633514404,1.1426061391830444,-0.3820531666278839,-1.2239609956741333,0.23861731588840485,2.259927988052368,1.974018931388855
4722.011000,0.5952228903770447,1.1427463293075562,-0.38190680742263794,-1.223945140838623,0.23689045011997223,2.2599399089813232,1.9766511917114258
4722.031000,0.5957030653953552,1.1427528858184814,-0.380890429019928,-1.2238978147506714,0.23334576189517975,2.260000705718994,1.9813050031661987
4722.053000,0.5964555740356445,1.1428099870681763,-0.37975409626960754,-1.2238390445709229,0.2288903295993805,2.260070562362671,1.9874871969223022
4722.072000,0.5974353551864624,1.1429204940795898,-0.3785597085952759,-1.2237752676010132,0.22365622222423553,2.2601475715637207,1.9950175285339355
4722.093000,0.5985386371612549,1.1432058811187744,-0.3785678744316101,-1.2237638235092163,0.22052405774593353,2.2601680755615234,2.0003840923309326
4722.110000,0.5993098020553589,1.1433076858520508,-0.3776375651359558,-1.2237216234207153,0.21573425829410553,2.260236978530884,2.007412910461426
4722.130000,0.6002145409584045,1.143560767173767,-0.37782472372055054,-1.2237204313278198,0.21301589906215668,2.260251760482788,2.012305736541748
4722.151000,0.6007503271102905,1.1437482833862305,-0.3782530128955841,-1.2237358093261719,0.21139319241046906,2.260253667831421,2.0155153274536133
4722.172000,0.6009699702262878,1.1438581943511963,-0.3787600100040436,-1.2237569093704224,0.21057823300361633,2.2602486610412598,2.0174031257629395
4722.192000,0.6009603142738342,1.1439040899276733,-0.37928658723831177,-1.2237786054611206,0.2103864848613739,2.2602386474609375,2.018256902694702
4722.209000,0.6008844971656799,1.1437673568725586,-0.3783556818962097,-1.2237374782562256,0.20738306641578674,2.2602972984313965,2.022353172302246
4722.231000,0.6013560891151428,1.1437309980392456,-0.3771563768386841,-1.223669409751892,0.2029407024383545,2.2603704929351807,2.0289244651794434
4722.250000,0.6022736430168152,1.143800139427185,-0.37583765387535095,-1.2235901355743408,0.19732075929641724,2.260453701019287,2.0375938415527344
4722.272000,0.6035324931144714,1.143961787223816,-0.3744697868824005,-1.223508358001709,0.19071586430072784,2.2605435848236084,2.048060655593872
4722.293000,0.6049277186393738,1.144337773323059,-0.37477415800094604,-1.2234957218170166,0.1871158927679062,2.2605602741241455,2.0553245544433594
4722.309000,0.6057282090187073,1.1446086168289185,-0.3754386305809021,-1.2235136032104492,0.18508107960224152,2.2605693340301514,2.0600647926330566
4722.330000,0.6060267686843872,1.1447581052780151,-0.3762185871601105,-1.2235426902770996,0.18419381976127625,2.2605764865875244,2.0628230571746826
4722.351000,0.6060947179794312,1.1446690559387207,-0.37526482343673706,-1.223504900932312,0.18017525970935822,2.2606546878814697,2.069028615951538
4722.371000,0.606599748134613,1.1448289155960083,-0.37577638030052185,-1.2235043048858643,0.17867369949817657,2.2606914043426514,2.0728554725646973
4722.391000,0.6068893074989319,1.1447796821594238,-0.374686598777771,-1.2234461307525635,0.1741267889738083,2.2607834339141846,2.0800633430480957
4722.407000,0.6077311038970947,1.1448371410369873,-0.3732773959636688,-1.2233625650405884,0.1679343283176422,2.260881185531616,2.0900824069976807
4722.429000,0.6090452671051025,1.1450222730636597,-0.3718528747558594,-1.2232738733291626,0.1606661081314087,2.2609739303588867,2.1022021770477295
4722.450000,0.6106768846511841,1.1453014612197876,-0.37041422724723816,-1.2231868505477905,0.1524612307548523,2.261061429977417,2.1161136627197266
4722.471000,0.6123475432395935,1.1458202600479126,-0.3710649311542511,-1.2231786251068115,0.1482466757297516,2.2611889839172363,2.125560760498047
4722.491000,0.6133514642715454,1.14601731300354,-0.37005409598350525,-1.2231160402297974,0.14135298132896423,2.261340618133545,2.137500286102295
4722.512000,0.6146594285964966,1.146264910697937,-0.3688490092754364,-1.2230355739593506,0.13342925906181335,2.2614710330963135,2.1512808799743652
4722.528000,0.6160288453102112,1.1467525959014893,-0.36973512172698975,-1.2230263948440552,0.12965548038482666,2.2617177963256836,2.160381317138672
4722.548000,0.6167435646057129,1.1469542980194092,-0.3692924380302429,-1.2229750156402588,0.12407701462507248,2.261993646621704,2.1709117889404297
4722.570000,0.6174232959747314,1.1473069190979004,-0.370414137840271,-1.222966194152832,0.1219533383846283,2.262402057647705,2.177366018295288
4722.591000,0.6175927519798279,1.1474350690841675,-0.37050551176071167,-1.2229132652282715,0.11867211014032364,2.26283597946167,2.1846089363098145
4722.607000,0.6176834106445312,1.1476621627807617,-0.37173992395401,-1.2228844165802002,0.11817996948957443,2.2633936405181885,2.188429355621338
4722.628000,0.6171578168869019,1.1477638483047485,-0.37306877970695496,-1.2228436470031738,0.11915692687034607,2.264064311981201,2.1895804405212402
4722.649000,0.6163480281829834,1.1477150917053223,-0.37364035844802856,-1.2227739095687866,0.11944516003131866,2.2647664546966553,2.191103458404541
4722.669000,0.6155009269714355,1.147724986076355,-0.3747813403606415,-1.2226967811584473,0.12141484767198563,2.265528440475464,2.190462589263916
4722.691000,0.6144494414329529,1.1476333141326904,-0.37536144256591797,-1.2225983142852783,0.12291833013296127,2.266310930252075,2.1899895668029785
4722.707000,0.6133573055267334,1.1475895643234253,-0.37633219361305237,-1.2224922180175781,0.12570473551750183,2.267125368118286,2.1878154277801514
4722.728000,0.6119922399520874,1.147505521774292,-0.37721502780914307,-1.2223697900772095,0.12918831408023834,2.2679641246795654,2.184343099594116
4722.748000,0.6104670763015747,1.147343635559082,-0.3776375651359558,-1.2222412824630737,0.13234759867191315,2.268810987472534,2.180866241455078
4722.769000,0.6089989542961121,1.1471792459487915,-0.3779052793979645,-1.2221083641052246,0.13538934290409088,2.2696540355682373,2.1774098873138428
4722.788000,0.6075708270072937,1.1470270156860352,-0.37815430760383606,-1.2219698429107666,0.1385442316532135,2.270491361618042,2.1736910343170166
4722.805000,0.6061525940895081,1.1469570398330688,-0.3785687983036041,-1.221803903579712,0.14246459305286407,2.271324396133423,2.1691253185272217
4722.825000,0.6045866012573242,1.146836280822754,-0.3786813020706177,-1.2216445207595825,0.14631050825119019,2.2721476554870605,2.164386510848999
4722.845000,0.6029906868934631,1.1466975212097168,-0.3786237835884094,-1.2214891910552979,0.15009745955467224,2.272956609725952,2.1595473289489746
4722.866000,0.6013912558555603,1.1465650796890259,-0.37849223613739014,-1.2213307619094849,0.15396983921527863,2.2737510204315186,2.1544878482818604
4722.887000,0.5997798442840576,1.1464303731918335,-0.37825268507003784,-1.2211711406707764,0.15785109996795654,2.274529218673706,2.149293899536133
4722.903000,0.5982351303100586,1.1464180946350098,-0.37805861234664917,-1.2209714651107788,0.16224269568920135,2.2753002643585205,2.143756151199341
4722.924000,0.5966072678565979,1.1464122533798218,-0.37765657901763916,-1.2207789421081543,0.16678139567375183,2.276050329208374,2.1380083560943604
4722.945000,0.5949307680130005,1.1464086771011353,-0.3770535886287689,-1.220597743988037,0.17136338353157043,2.276780128479004,2.132138252258301
4722.965000,0.5932443737983704,1.1464319229125977,-0.3762950301170349,-1.2204179763793945,0.1760128289461136,2.277489423751831,2.1261520385742188
4722.986000,0.5915651917457581,1.1464788913726807,-0.3753811717033386,-1.2202435731887817,0.18067008256912231,2.2781782150268555,2.1201181411743164
4723.002000,0.5899182558059692,1.1465648412704468,-0.37433525919914246,-1.2200672626495361,0.18534407019615173,2.278841018676758,2.114063262939453
4723.023000,0.5883195400238037,1.146700143814087,-0.3731576204299927,-1.219887614250183,0.19001829624176025,2.2794792652130127,2.1080379486083984
4723.043000,0.5867779850959778,1.1468791961669922,-0.37185418605804443,-1.2197109460830688,0.1946636140346527,2.2800936698913574,2.1020772457122803
4723.063000,0.5853108167648315,1.1471067667007446,-0.3704356551170349,-1.2195353507995605,0.1992560774087906,2.2806856632232666,2.0962331295013428
4723.084000,0.5839895606040955,1.1474101543426514,-0.3690011203289032,-1.2193440198898315,0.2038949728012085,2.2812623977661133,2.090561866760254
4723.101000,0.5827418565750122,1.1477419137954712,-0.3674701154232025,-1.2191600799560547,0.2084575742483139,2.281815528869629,2.085066080093384
4723.119000,0.581575334072113,1.1481043100357056,-0.3658375144004822,-1.2189793586730957,0.21287404000759125,2.282349109649658,2.0798144340515137
4723.140000,0.5804997682571411,1.1484960317611694,-0.3641400933265686,-1.2188044786453247,0.21715590357780457,2.282863140106201,2.0747880935668945
4723.160000,0.5795210599899292,1.1489192247390747,-0.36239132285118103,-1.2186228036880493,0.2212706357240677,2.283360242843628,2.0700337886810303
4723.181000,0.5786386728286743,1.149367094039917,-0.3606233298778534,-1.218436598777771,0.22524018585681915,2.2838401794433594,2.0655226707458496
4723.197000,0.5778483748435974,1.1498379707336426,-0.3588368892669678,-1.21823251247406,0.22902098298072815,2.2843058109283447,2.0613131523132324
4723.217000,0.5771470069885254,1.1503249406814575,-0.3570648729801178,-1.2180144786834717,0.23264798521995544,2.2847564220428467,2.057365894317627
4723.236000,0.5765255093574524,1.1508234739303589,-0.3553049862384796,-1.2177681922912598,0.2360876351594925,2.2851855754852295,2.053725004196167
4723.257000,0.5759778618812561,1.151327133178711,-0.3535826504230499,-1.2174999713897705,0.2393774539232254,2.2855942249298096,2.0503461360931396
4723.277000,0.5754886269569397,1.1518338918685913,-0.3518916368484497,-1.2171982526779175,0.24248965084552765,2.2859838008880615,2.0472567081451416
4723.294000,0.5750462412834167,1.1523427963256836,-0.3502406179904938,-1.2168530225753784,0.2454184889793396,2.2863552570343018,2.0444674491882324
4723.315000,0.5746418237686157,1.1528489589691162,-0.3486497402191162,-1.2164725065231323,0.2482033222913742,2.2867090702056885,2.0419294834136963
4723.336000,0.5742529630661011,1.1533485651016235,-0.347106009721756,-1.2160499095916748,0.25082579255104065,2.2870473861694336,2.039649248123169
4723.356000,0.5738627314567566,1.1538426876068115,-0.34560877084732056,-1.2155760526657104,0.2532854676246643,2.2873716354370117,2.037623167037964
4723.377000,0.5734644532203674,1.1543245315551758,-0.344168484210968,-1.215064525604248,0.2556140720844269,2.287686586380005,2.0358073711395264
4723.393000,0.5730398297309875,1.1547973155975342,-0.3427709639072418,-1.2145047187805176,0.25780197978019714,2.2879936695098877,2.034200429916382
4723.413000,0.5725194811820984,1.155303716659546,-0.34157171845436096,-1.2138471603393555,0.26027512550354004,2.288273572921753,2.032233476638794
4723.433000,0.5718932151794434,1.1557544469833374,-0.3402674198150635,-1.2131505012512207,0.26243695616722107,2.2885549068450928,2.0305628776550293
4723.455000,0.5712630152702332,1.1561853885650635,-0.3389909863471985,-1.2124285697937012,0.2644471228122711,2.2888288497924805,2.029132843017578
4723.474000,0.5705609321594238,1.1566429138183594,-0.33790701627731323,-1.2116427421569824,0.2667507231235504,2.289081573486328,2.0273380279541016
4723.492000,0.5697143077850342,1.1570810079574585,-0.33686619997024536,-1.2108062505722046,0.2691609263420105,2.2893226146698,2.0252740383148193
