yuan18844-afk/dissertation/catkin_ws/src/franka_digital_twin/analysis/data/unity_slow1_20250728_064855.csv
time,panda_joint1,panda_joint2,panda_joint3,panda_joint4,panda_joint5,panda_joint6,panda_joint7
5247.558000,0.2596834897994995,1.1722561120986938,0.1354093849658966,-1.207363486289978,-0.16444708406925201,2.326195478439331,2.758194923400879
5247.579000,0.25968214869499207,1.1722525358200073,0.13538692891597748,-1.207369089126587,-0.16377006471157074,2.326214075088501,2.758265256881714
5247.600000,0.25970831513404846,1.1722463369369507,0.13536608219146729,-1.2073748111724854,-0.1631709486246109,2.3262314796447754,2.758457899093628
5247.621000,0.2597513198852539,1.1722382307052612,0.13534590601921082,-1.2073802947998047,-0.16263334453105927,2.3262479305267334,2.7587435245513916
5247.640000,0.25980374217033386,1.1722290515899658,0.13532644510269165,-1.2073854207992554,-0.16214507818222046,2.326263904571533,2.7590999603271484
5247.654000,0.25986042618751526,1.172219157218933,0.13530771434307098,-1.2073901891708374,-0.1616959422826767,2.326279401779175,2.7595086097717285
5247.675000,0.25991836190223694,1.17220938205719,0.13529427349567413,-1.2073945999145508,-0.16128939390182495,2.326294422149658,2.7599687576293945
5247.693000,0.25997698307037354,1.1721994876861572,0.13528260588645935,-1.2073986530303955,-0.16091416776180267,2.3263089656829834,2.760465621948242
5247.707000,0.2600342035293579,1.172189712524414,0.1352725327014923,-1.2074023485183716,-0.16056415438652039,2.3263232707977295,2.7609877586364746
5247.729000,0.26004093885421753,1.1721678972244263,0.13502401113510132,-1.2074031829833984,-0.1595809906721115,2.32635760307312,2.7606747150421143
5247.747000,0.2598877251148224,1.1721585988998413,0.13477100431919098,-1.2073993682861328,-0.15828320384025574,2.326397657394409,2.759718894958496
5247.763000,0.25961658358573914,1.1721619367599487,0.13454410433769226,-1.2073932886123657,-0.15677699446678162,2.3264405727386475,2.7582733631134033
5247.781000,0.2592703104019165,1.1721750497817993,0.13434763252735138,-1.2073862552642822,-0.15512987971305847,2.3264846801757812,2.756459951400757
5247.802000,0.2588804066181183,1.1721951961517334,0.13418076932430267,-1.2073789834976196,-0.15339238941669464,2.3265292644500732,2.7543752193450928
5247.821000,0.25849899649620056,1.172232747077942,0.13427382707595825,-1.207373023033142,-0.15221622586250305,2.326557159423828,2.752861976623535
5247.840000,0.25823974609375,1.1722629070281982,0.13439998030662537,-1.2073696851730347,-0.15131328999996185,2.3265810012817383,2.751760244369507
5247.861000,0.25807425379753113,1.1722846031188965,0.13453450798988342,-1.2073673009872437,-0.15061919391155243,2.326601982116699,2.750983953475952
5247.883000,0.25797250866889954,1.1722990274429321,0.1346614509820938,-1.2073649168014526,-0.15006768703460693,2.3266215324401855,2.750434160232544
5247.904000,0.2579106390476227,1.1723084449768066,0.13478462398052216,-1.207362174987793,-0.14963452517986298,2.3266396522521973,2.750062942504883
5247.921000,0.2578733563423157,1.1723142862319946,0.1348986178636551,-1.2073590755462646,-0.14928105473518372,2.3266570568084717,2.7498111724853516
5247.939000,0.25782856345176697,1.1723061800003052,0.13479620218276978,-1.2073549032211304,-0.1484443098306656,2.3266873359680176,2.74897837638855
5247.960000,0.25767943263053894,1.1723049879074097,0.1346682906150818,-1.2073484659194946,-0.14736488461494446,2.326720714569092,2.7477030754089355
5247.984000,0.2574508786201477,1.1723119020462036,0.1345457285642624,-1.2073410749435425,-0.14612248539924622,2.3267552852630615,2.7460947036743164
5248.000000,0.2571905553340912,1.172337293624878,0.13464821875095367,-1.2073341608047485,-0.14531546831130981,2.326777219772339,2.7449071407318115
5248.021000,0.25701120495796204,1.1723591089248657,0.1347856968641281,-1.207329273223877,-0.1447216421365738,2.326795816421509,2.74403977394104
5248.043000,0.2568807601928711,1.1723638772964478,0.13472363352775574,-1.2073249816894531,-0.14374937117099762,2.3268251419067383,2.742772102355957
5248.058000,0.25671055912971497,1.1723829507827759,0.1348470002412796,-1.2073194980621338,-0.14314976334571838,2.32684326171875,2.741863965988159
5248.078000,0.25660452246665955,1.172398567199707,0.1349976509809494,-1.2073153257369995,-0.14274248480796814,2.3268580436706543,2.7412517070770264
5248.099000,0.2565552294254303,1.172408938407898,0.1351487934589386,-1.2073118686676025,-0.14247103035449982,2.326870918273926,2.7408719062805176
5248.118000,0.2565488815307617,1.172414779663086,0.13529743254184723,-1.2073088884353638,-0.142313614487648,2.3268818855285645,2.740692377090454
5248.135000,0.2565499246120453,1.1724058389663696,0.1352241039276123,-1.207305669784546,-0.1416814923286438,2.3269050121307373,2.7399792671203613
5248.153000,0.2564541697502136,1.1724032163619995,0.13512250781059265,-1.2073004245758057,-0.14081402122974396,2.3269312381744385,2.738858938217163
5248.176000,0.25628310441970825,1.1724082231521606,0.13502363860607147,-1.2072943449020386,-0.13978765904903412,2.326958656311035,2.7374322414398193
5248.195000,0.2560941278934479,1.172430157661438,0.13515952229499817,-1.2072888612747192,-0.13924358785152435,2.3269715309143066,2.7365238666534424
5248.215000,0.2560088038444519,1.1724461317062378,0.13532733917236328,-1.2072861194610596,-0.13894689083099365,2.326979637145996,2.7360386848449707
5248.229000,0.2560095191001892,1.1724541187286377,0.13549262285232544,-1.207284927368164,-0.13882149755954742,2.3269851207733154,2.7358834743499756
5248.247000,0.2560715675354004,1.1724555492401123,0.13565053045749664,-1.2072845697402954,-0.13883203268051147,2.326988458633423,2.7359986305236816
5248.266000,0.25617554783821106,1.1724518537521362,0.13579566776752472,-1.2072845697402954,-0.13894020020961761,2.3269906044006348,2.7363216876983643
5248.285000,0.25626975297927856,1.1724340915679932,0.1356993466615677,-1.2072839736938477,-0.138508602976799,2.327007532119751,2.7360270023345947
5248.303000,0.2562407851219177,1.172425389289856,0.13557863235473633,-1.2072806358337402,-0.1378106325864792,2.327028512954712,2.735257387161255
5248.321000,0.2561170160770416,1.1724263429641724,0.13546571135520935,-1.2072758674621582,-0.1369323432445526,2.3270514011383057,2.734126567840576
5248.342000,0.25593093037605286,1.17243492603302,0.1353677660226822,-1.207270622253418,-0.13592776656150818,2.327075481414795,2.732724666595459
5248.363000,0.2557070255279541,1.172448992729187,0.13528649508953094,-1.2072653770446777,-0.13483768701553345,2.3270998001098633,2.731123208999634
5248.385000,0.2554627060890198,1.1724666357040405,0.13522151112556458,-1.207260251045227,-0.13369357585906982,2.3271241188049316,2.7293789386749268
5248.405000,0.25522708892822266,1.1725045442581177,0.13550204038619995,-1.2072546482086182,-0.13335801661014557,2.3271307945251465,2.7285306453704834
5248.423000,0.25513219833374023,1.1725138425827026,0.13551059365272522,-1.2072516679763794,-0.13263697922229767,2.3271496295928955,2.727385997772217
5248.442000,0.2550064027309418,1.1725221872329712,0.1354801505804062,-1.2072474956512451,-0.13178032636642456,2.3271701335906982,2.726020336151123
5248.464000,0.2548472583293915,1.1725329160690308,0.13544440269470215,-1.207242727279663,-0.13084305822849274,2.327190637588501,2.7244937419891357
5248.484000,0.2546667158603668,1.172546148300171,0.1354116052389145,-1.2072378396987915,-0.12985378503799438,2.3272111415863037,2.722853422164917
5248.505000,0.25447097420692444,1.1725894212722778,0.1358601301908493,-1.2072306871414185,-0.1300029754638672,2.3272109031677246,2.7224607467651367
5248.519000,0.2544688284397125,1.1725926399230957,0.13592761754989624,-1.207227349281311,-0.12964193522930145,2.327225685119629,2.721710205078125
5248.543000,0.2544296085834503,1.1725932359695435,0.13592442870140076,-1.207222819328308,-0.12908843159675598,2.327242136001587,2.720688581466675
5248.564000,0.2543453574180603,1.1725965738296509,0.13590019941329956,-1.2072179317474365,-0.12841054797172546,2.327258825302124,2.7194647789001465
5248.586000,0.25421518087387085,1.1726387739181519,0.13645823299884796,-1.2072097063064575,-0.12908101081848145,2.32725191116333,2.719700813293457
5248.603000,0.25430727005004883,1.172633171081543,0.13654261827468872,-1.20720636844635,-0.12908843159675598,2.3272628784179688,2.719454765319824
5248.619000,0.25434422492980957,1.1726254224777222,0.1365327388048172,-1.2072019577026367,-0.12882176041603088,2.3272762298583984,2.7188384532928467
5248.639000,0.25429418683052063,1.1726605892181396,0.13711440563201904,-1.20719313621521,-0.12987765669822693,2.3272664546966553,2.7196083068847656
5248.661000,0.2544519305229187,1.1726473569869995,0.13719011843204498,-1.2071895599365234,-0.1301717311143875,2.327275276184082,2.7197751998901367
5248.682000,0.2545078992843628,1.172673225402832,0.13778719305992126,-1.2071809768676758,-0.13163679838180542,2.327263355255127,2.7211430072784424
5248.701000,0.2547411620616913,1.1726511716842651,0.13785088062286377,-1.2071771621704102,-0.13223440945148468,2.3272705078125,2.7217609882354736
5248.724000,0.2548437714576721,1.1726709604263306,0.13842621445655823,-1.2071683406829834,-0.13392503559589386,2.3272571563720703,2.723463296890259
5248.740000,0.25507164001464844,1.172686219215393,0.13909627497196198,-1.2071603536605835,-0.136210098862648,2.327239751815796,2.7259910106658936
5248.759000,0.2554444372653961,1.1726491451263428,0.13914334774017334,-1.207156777381897,-0.13738663494586945,2.3272440433502197,2.7274703979492188
5248.781000,0.25563451647758484,1.172658085823059,0.1396733969449997,-1.2071479558944702,-0.13949191570281982,2.327228546142578,2.7297980785369873
5248.796000,0.25594499707221985,1.172622561454773,0.1396455615758896,-1.2071441411972046,-0.14052651822566986,2.3272335529327393,2.7310965061187744
5248.817000,0.2561139464378357,1.1725916862487793,0.13948453962802887,-1.2071397304534912,-0.1409655511379242,2.327242374420166,2.7315914630889893
5248.834000,0.25610822439193726,1.1726175546646118,0.13992205262184143,-1.2071317434310913,-0.14250260591506958,2.327230215072632,2.7331154346466064
5248.855000,0.2562219798564911,1.1726436614990234,0.14049391448497772,-1.207125186920166,-0.14462429285049438,2.327214241027832,2.7354233264923096
5248.878000,0.25642484426498413,1.1726655960083008,0.14112672209739685,-1.2071175575256348,-0.14718817174434662,2.3271992206573486,2.7382919788360596
5248.896000,0.2566904127597809,1.1726820468902588,0.14178265631198883,-1.2071081399917603,-0.1500941663980484,2.327183723449707,2.7415733337402344
5248.913000,0.2569761574268341,1.1726975440979004,0.14246279001235962,-1.2070962190628052,-0.1532912701368332,2.327169895172119,2.7451436519622803
5248.933000,0.2572740614414215,1.1727114915847778,0.14314481616020203,-1.2070822715759277,-0.15670648217201233,2.3271563053131104,2.7489120960235596
5248.952000,0.25755733251571655,1.172728419303894,0.14384523034095764,-1.2070659399032593,-0.16032862663269043,2.3271443843841553,2.752821683883667
5248.972000,0.2578315734863281,1.1727463006973267,0.14454172551631927,-1.2070478200912476,-0.16409675776958466,2.3271329402923584,2.7568130493164062
5248.993000,0.258078008890152,1.1727690696716309,0.14525553584098816,-1.207027554512024,-0.16801992058753967,2.3271231651306152,2.7608633041381836
5249.010000,0.25831836462020874,1.172775149345398,0.14571772515773773,-1.2070056200027466,-0.17144736647605896,2.3271255493164062,2.764270067214966
5249.030000,0.2585866153240204,1.1727324724197388,0.14558590948581696,-1.2069875001907349,-0.17345008254051208,2.3271360397338867,2.7661612033843994
5249.050000,0.25870993733406067,1.1726875305175781,0.14522109925746918,-1.2069730758666992,-0.1744469553232193,2.327146291732788,2.766868829727173
5249.070000,0.25869643688201904,1.172652006149292,0.144742950797081,-1.2069635391235352,-0.1746520847082138,2.3271567821502686,2.766657829284668
5249.091000,0.25850123167037964,1.1726586818695068,0.14451026916503906,-1.2069553136825562,-0.17487169802188873,2.327165365219116,2.766299247741699
5249.111000,0.25833451747894287,1.1726508140563965,0.14407949149608612,-1.2069514989852905,-0.17440491914749146,2.327178716659546,2.7652690410614014
5249.127000,0.25812187790870667,1.172645092010498,0.14359541237354279,-1.2069505453109741,-0.17346931993961334,2.3271923065185547,2.7637276649475098
5249.148000,0.2578681707382202,1.1726444959640503,0.14309877157211304,-1.2069522142410278,-0.17217984795570374,2.3272061347961426,2.7618021965026855
5249.168000,0.2575857937335968,1.1726489067077637,0.14260898530483246,-1.2069560289382935,-0.1706247627735138,2.3272202014923096,2.7595934867858887
5249.188000,0.2572861313819885,1.1726574897766113,0.14213669300079346,-1.2069613933563232,-0.16887548565864563,2.3272342681884766,2.7571816444396973
5249.208000,0.25697848200798035,1.1726692914962769,0.14168745279312134,-1.206967830657959,-0.16698959469795227,2.3272483348846436,2.7546298503875732
5249.225000,0.25660985708236694,1.1727101802825928,0.14154857397079468,-1.2069721221923828,-0.16564105451107025,2.3272578716278076,2.7525670528411865
5249.245000,0.256352037191391,1.172727346420288,0.14124949276447296,-1.206977128982544,-0.16402730345726013,2.3272719383239746,2.750316858291626
5249.267000,0.25604093074798584,1.172769546508789,0.1412513256072998,-1.2069787979125977,-0.16302749514579773,2.327279567718506,2.748631000518799
5249.288000,0.2558567225933075,1.172781229019165,0.14102739095687866,-1.2069814205169678,-0.16169467568397522,2.3272924423217773,2.746699333190918
5249.307000,0.255677193403244,1.172785997390747,0.14074400067329407,-1.2069841623306274,-0.16019530594348907,2.3273046016693115,2.744591236114502
5249.318000,0.2554895877838135,1.1727895736694336,0.140439972281456,-1.206987738609314,-0.15858125686645508,2.3273160457611084,2.7423617839813232
5249.327000,0.255295068025589,1.1727938652038574,0.1401326209306717,-1.206992268562317,-0.15688785910606384,2.327327251434326,2.740054130554199
5249.349000,0.2550969421863556,1.1727993488311768,0.1398317664861679,-1.2069976329803467,-0.15514402091503143,2.3273379802703857,2.7377023696899414
5249.361000,0.25489872694015503,1.1728060245513916,0.13954299688339233,-1.2070035934448242,-0.15337355434894562,2.327348470687866,2.735332727432251
5249.378000,0.25463151931762695,1.1728523969650269,0.1397332400083542,-1.2070059776306152,-0.15265148878097534,2.32734751701355,2.734005928039551
5249.390000,0.2545483410358429,1.1728588342666626,0.13961519300937653,-1.20701003074646,-0.15155473351478577,2.3273563385009766,2.7324535846710205
5249.408000,0.2544666528701782,1.172857403755188,0.13942520320415497,-1.207013487815857,-0.15030942857265472,2.3273653984069824,2.7307379245758057
5249.429000,0.25436919927597046,1.172855019569397,0.13920961320400238,-1.2070170640945435,-0.14896738529205322,2.32737398147583,2.728908061981201
5249.447000,0.25425809621810913,1.1728535890579224,0.1389864832162857,-1.2070211172103882,-0.14755864441394806,2.3273823261260986,2.7270030975341797
5249.470000,0.2540947198867798,1.172879695892334,0.13909406960010529,-1.2070231437683105,-0.14686454832553864,2.3273816108703613,2.725818395614624
5249.490000,0.2540114223957062,1.1729047298431396,0.1393018513917923,-1.207024335861206,-0.1466224640607834,2.3273794651031494,2.725198268890381
5249.505000,0.2540017366409302,1.1729278564453125,0.13961422443389893,-1.2070238590240479,-0.14687959849834442,2.327373743057251,2.725186586380005
5249.523000,0.2540741264820099,1.172942876815796,0.13995461165905,-1.207021951675415,-0.14749658107757568,2.327366590499878,2.725644588470459
5249.546000,0.25425368547439575,1.172919750213623,0.13990618288516998,-1.2070218324661255,-0.14747656881809235,2.3273696899414062,2.7255284786224365
5249.566000,0.2543675899505615,1.1728938817977905,0.13974259793758392,-1.207021713256836,-0.14709649980068207,2.32737398147583,2.7249701023101807
5249.584000,0.25441280007362366,1.1728723049163818,0.1395295411348343,-1.2070226669311523,-0.1464473456144333,2.327378749847412,2.724074125289917
5249.603000,0.2544039785861969,1.1728564500808716,0.13929642736911774,-1.2070250511169434,-0.14559197425842285,2.3273839950561523,2.722923755645752
5249.626000,0.2543558180332184,1.1728459596633911,0.13905979692935944,-1.2070287466049194,-0.1445818841457367,2.327389717102051,2.7215847969055176
5249.646000,0.25418564677238464,1.1728858947753906,0.13938772678375244,-1.2070276737213135,-0.1447199285030365,2.3273842334747314,2.7213315963745117
5249.664000,0.25421208143234253,1.1728821992874146,0.13934138417243958,-1.2070297002792358,-0.14433102309703827,2.327389717102051,2.7206966876983643
5249.685000,0.25411468744277954,1.1729254722595215,0.13985826075077057,-1.2070248126983643,-0.14517739415168762,2.3273816108703613,2.721214771270752
5249.705000,0.25412803888320923,1.1729681491851807,0.14054027199745178,-1.2070168256759644,-0.14679975807666779,2.3273720741271973,2.7226195335388184
5249.726000,0.2543630301952362,1.172946810722351,0.14062462747097015,-1.2070125341415405,-0.14751937985420227,2.3273754119873047,2.7232556343078613
5249.747000,0.2544268071651459,1.172974705696106,0.14122949540615082,-1.2070019245147705,-0.14933839440345764,2.3273630142211914,2.724869966506958
5249.764000,0.254688560962677,1.1729446649551392,0.1412479430437088,-1.2069969177246094,-0.15018440783023834,2.327364444732666,2.725651979446411
5249.785000,0.25487929582595825,1.1729084253311157,0.1410841941833496,-1.206993579864502,-0.1504635214805603,2.327366828918457,2.7257862091064453
5249.806000,0.2548584043979645,1.172940969467163,0.1415945142507553,-1.2069854736328125,-0.15202346444129944,2.327352523803711,2.7270870208740234
5249.827000,0.2550570070743561,1.1729159355163574,0.1415412873029709,-1.2069834470748901,-0.15263055264949799,2.3273539543151855,2.727611541748047
5249.848000,0.25506529211997986,1.1729505062103271,0.14209242165088654,-1.2069753408432007,-0.15442542731761932,2.3273401260375977,2.729200839996338
5249.864000,0.25515565276145935,1.1729905605316162,0.14281757175922394,-1.2069652080535889,-0.15693436563014984,2.3273253440856934,2.7316012382507324
5249.884000,0.25533902645111084,1.1730250120162964,0.1436063051223755,-1.206952691078186,-0.159972682595253,2.3273098468780518,2.7346110343933105
5249.905000,0.25559356808662415,1.173052430152893,0.14441098272800446,-1.2069379091262817,-0.1634114682674408,2.3272933959960938,2.738070249557495
5249.926000,0.256035715341568,1.173003077507019,0.14443014562129974,-1.2069283723831177,-0.16540534794330597,2.3272924423217773,2.740184783935547
5249.944000,0.2562161087989807,1.1730157136917114,0.14494827389717102,-1.2069144248962402,-0.168214812874794,2.327275037765503,2.7429139614105225
5249.966000,0.25655466318130493,1.1729669570922852,0.1448052078485489,-1.2069073915481567,-0.1696915328502655,2.327273368835449,2.7444310188293457
5249.983000,0.2566399872303009,1.172986388206482,0.14522229135036469,-1.2068969011306763,-0.17206239700317383,2.327256202697754,2.746669292449951
5250.004000,0.2567584216594696,1.1730180978775024,0.14579138159751892,-1.2068862915039062,-0.17491097748279572,2.3272385597229004,2.749448776245117
5250.026000,0.25693291425704956,1.1730494499206543,0.14641603827476501,-1.2068744897842407,-0.17810164391994476,2.327220916748047,2.752626657485962
5250.045000,0.2571472227573395,1.1730778217315674,0.1470581293106079,-1.2068607807159424,-0.18154376745224,2.3272037506103516,2.7560770511627197
5250.065000,0.2575364410877228,1.173025369644165,0.14691345393657684,-1.2068513631820679,-0.18341918289661407,2.327202320098877,2.758059024810791
5250.079000,0.25779688358306885,1.1729621887207031,0.14649127423763275,-1.2068443298339844,-0.18426933884620667,2.3272011280059814,2.7588934898376465
5250.090000,0.2577293813228607,1.172989845275879,0.14676804840564728,-1.2068318128585815,-0.1861356794834137,2.327178716659546,2.760477304458618
5250.111000,0.2578541338443756,1.172955870628357,0.14645041525363922,-1.206827163696289,-0.18677425384521484,2.327177047729492,2.7609875202178955
5250.129000,0.25769880414009094,1.1730027198791504,0.14681220054626465,-1.206814169883728,-0.1885128766298294,2.3271536827087402,2.762326955795288
5250.144000,0.25756606459617615,1.1730669736862183,0.14741341769695282,-1.2067959308624268,-0.1909296065568924,2.3271236419677734,2.7642974853515625
5250.166000,0.25749534368515015,1.1731314659118652,0.14812485873699188,-1.2067724466323853,-0.19386206567287445,2.327087879180908,2.7667415142059326
5250.187000,0.25745993852615356,1.1731938123703003,0.148900106549263,-1.206742286682129,-0.19720233976840973,2.3270466327667236,2.7694907188415527
5250.210000,0.25745368003845215,1.1732523441314697,0.14970414340496063,-1.2067070007324219,-0.20086567103862762,2.3269991874694824,2.772456169128418
5250.231000,0.2577110230922699,1.1732100248336792,0.14961963891983032,-1.2066822052001953,-0.20287460088729858,2.3269734382629395,2.773949384689331
5250.249000,0.2579081654548645,1.1731442213058472,0.14916718006134033,-1.2066664695739746,-0.203737273812294,2.3269548416137695,2.7742955684661865
5250.269000,0.258004754781723,1.1730791330337524,0.14852218329906464,-1.2066606283187866,-0.20368731021881104,2.3269433975219727,2.7737538814544678
5250.289000,0.2578515112400055,1.173081874847412,0.14830680191516876,-1.2066541910171509,-0.2040143460035324,2.326923370361328,2.7734384536743164
5250.311000,0.2576516270637512,1.1731079816818237,0.14826972782611847,-1.20664644241333,-0.20455071330070496,2.326902151107788,2.7733001708984375
5250.333000,0.2574790120124817,1.1731274127960205,0.148185133934021,-1.2066378593444824,-0.20492826402187347,2.326887607574463,2.772988796234131
5250.352000,0.2573176622390747,1.1731351613998413,0.14800238609313965,-1.2066285610198975,-0.20499663054943085,2.3268768787384033,2.772331953048706
5250.370000,0.25713324546813965,1.1731417179107666,0.14779245853424072,-1.2066192626953125,-0.20485718548297882,2.326866865158081,2.7714128494262695
5250.391000,0.25694411993026733,1.173142433166504,0.14751145243644714,-1.206611156463623,-0.2044222056865692,2.3268585205078125,2.770171642303467
5250.410000,0.2567344903945923,1.173143744468689,0.1472088098526001,-1.2066047191619873,-0.20377559959888458,2.326850414276123,2.768690347671509
5250.432000,0.2565179765224457,1.1731432676315308,0.146866112947464,-1.206600308418274,-0.2028914839029312,2.32684326171875,2.7669637203216553
5250.453000,0.25629398226737976,1.1731419563293457,0.14649449288845062,-1.2065980434417725,-0.20179270207881927,2.326836585998535,2.7650227546691895
5250.469000,0.2560598850250244,1.1731423139572144,0.14611898362636566,-1.2065978050231934,-0.2005387842655182,2.3268301486968994,2.762929677963257
5250.491000,0.2558954358100891,1.173126459121704,0.14559771120548248,-1.2066051959991455,-0.19889280200004578,2.3268284797668457,2.7605838775634766
5250.511000,0.2557564079761505,1.1731053590774536,0.1450032740831375,-1.2066190242767334,-0.19693976640701294,2.326831817626953,2.75805926322937
5250.533000,0.25555849075317383,1.1731007099151611,0.1445135474205017,-1.2066330909729004,-0.19500140845775604,2.326838254928589,2.755552053451538
5250.550000,0.25533396005630493,1.1731061935424805,0.14411266148090363,-1.2066460847854614,-0.19313238561153412,2.3268465995788574,2.7531120777130127
5250.569000,0.255176305770874,1.1730974912643433,0.143617182970047,-1.2066625356674194,-0.1910431981086731,2.3268582820892334,2.7505669593811035
5250.591000,0.2550448477268219,1.1730825901031494,0.14308378100395203,-1.2066810131072998,-0.1887962371110916,2.3268675804138184,2.7479584217071533
5250.611000,0.2549249231815338,1.1730660200119019,0.14253941178321838,-1.2067012786865234,-0.18643520772457123,2.326875686645508,2.745319128036499
5250.631000,0.25473782420158386,1.17306649684906,0.1421196460723877,-1.2067190408706665,-0.18420028686523438,2.326889991760254,2.7427430152893066
5250.646000,0.25451669096946716,1.1730760335922241,0.1417931765317917,-1.2067333459854126,-0.18210403621196747,2.3269073963165283,2.7402334213256836
5250.669000,0.25428399443626404,1.1730892658233643,0.1415300816297531,-1.2067445516586304,-0.180134579539299,2.3269264698028564,2.737781047821045
5250.689000,0.2540518641471863,1.1731036901474,0.14131461083889008,-1.2067532539367676,-0.17828845977783203,2.326946258544922,2.7353899478912354
5250.711000,0.2538283169269562,1.173117995262146,0.1411340832710266,-1.2067601680755615,-0.17655731737613678,2.326965808868408,2.733062744140625
5250.728000,0.25369060039520264,1.1731152534484863,0.14086361229419708,-1.206769585609436,-0.17473793029785156,2.3269782066345215,2.7307446002960205
5250.748000,0.2536063492298126,1.1731032133102417,0.140535369515419,-1.2067822217941284,-0.17283588647842407,2.326986789703369,2.728449583053589
5250.764000,0.2535516619682312,1.1730871200561523,0.1401774138212204,-1.206797480583191,-0.17087045311927795,2.326993227005005,2.7261884212493896
5250.784000,0.25351250171661377,1.173069715499878,0.13980895280838013,-1.2068145275115967,-0.16886237263679504,2.326998710632324,2.7239692211151123
5250.802000,0.25339406728744507,1.1730735301971436,0.1396116316318512,-1.206828236579895,-0.16713844239711761,2.327009677886963,2.721951961517334
5250.823000,0.2533332407474518,1.1730655431747437,0.13935309648513794,-1.2068421840667725,-0.16535836458206177,2.3270177841186523,2.7199506759643555
5250.842000,0.2532043159008026,1.173076868057251,0.1392754167318344,-1.2068521976470947,-0.1639367938041687,2.3270294666290283,2.7182085514068604
5250.858000,0.253158837556839,1.1730700731277466,0.13908971846103668,-1.2068630456924438,-0.16241423785686493,2.327038049697876,2.7164459228515625
5250.879000,0.25314828753471375,1.1730555295944214,0.1388523280620575,-1.2068753242492676,-0.16082380712032318,2.3270442485809326,2.714679479598999
5250.901000,0.2530410587787628,1.173072099685669,0.13889290392398834,-1.2068843841552734,-0.15979164838790894,2.3270585536956787,2.7133612632751465
5250.923000,0.25293177366256714,1.1730964183807373,0.13906702399253845,-1.2068885564804077,-0.15918132662773132,2.3270750045776367,2.7123982906341553
5250.940000,0.25283652544021606,1.173125147819519,0.1393640786409378,-1.2068880796432495,-0.1590294986963272,2.3270909786224365,2.71183180809021
5250.960000,0.2527748942375183,1.1731550693511963,0.13976532220840454,-1.2068836688995361,-0.15935012698173523,2.3271048069000244,2.7117013931274414
5250.980000,0.25276580452919006,1.1731799840927124,0.14020109176635742,-1.2068766355514526,-0.16002188622951508,2.327117443084717,2.7119088172912598
5251.000000,0.2529260814189911,1.1731579303741455,0.14023852348327637,-1.2068740129470825,-0.16011984646320343,2.3271284103393555,2.7116951942443848
5251.021000,0.2531009614467621,1.1731220483779907,0.14009876549243927,-1.2068756818771362,-0.15982238948345184,2.3271355628967285,2.711158037185669
5251.038000,0.25325730443000793,1.1730839014053345,0.13986243307590485,-1.2068817615509033,-0.15920740365982056,2.3271403312683105,2.7103748321533203
5251.058000,0.2533864378929138,1.1730480194091797,0.1395750492811203,-1.2068915367126465,-0.15833835303783417,2.327144145965576,2.709407091140747
5251.078000,0.25335487723350525,1.1730703115463257,0.13984520733356476,-1.2068971395492554,-0.15853655338287354,2.3271405696868896,2.709444522857666
5251.100000,0.2533811330795288,1.1731020212173462,0.140317901968956,-1.2068992853164673,-0.15943510830402374,2.3271379470825195,2.7102577686309814
5251.121000,0.25361594557762146,1.1730761528015137,0.14030446112155914,-1.2069040536880493,-0.1596095860004425,2.3271429538726807,2.7105233669281006
5251.137000,0.25370174646377563,1.1731009483337402,0.1408284306526184,-1.206903338432312,-0.16093294322490692,2.3271327018737793,2.7118656635284424
5251.159000,0.2540103793144226,1.1730644702911377,0.1407919079065323,-1.2069072723388672,-0.1613733023405075,2.327134609222412,2.7125284671783447
5251.179000,0.25414493680000305,1.1730858087539673,0.14134082198143005,-1.2069061994552612,-0.16302642226219177,2.3271191120147705,2.71433162689209
5251.200000,0.25450456142425537,1.1730425357818604,0.14127923548221588,-1.2069103717803955,-0.16367317736148834,2.3271188735961914,2.7153332233428955
5251.222000,0.2546631097793579,1.1730602979660034,0.1418016254901886,-1.2069091796875,-0.16547194123268127,2.3271026611328125,2.717376708984375
5251.237000,0.25488826632499695,1.1730858087539673,0.14249078929424286,-1.2069061994552612,-0.16796010732650757,2.3270857334136963,2.720210075378418
5251.254000,0.25519225001335144,1.173107624053955,0.14324092864990234,-1.206900715827942,-0.17095819115638733,2.327068328857422,2.7236337661743164
5251.268000,0.2555539011955261,1.1731239557266235,0.1440083533525467,-1.206892728805542,-0.1743437498807907,2.3270504474639893,2.7274892330169678
5251.285000,0.25610142946243286,1.1730600595474243,0.14398004114627838,-1.2068891525268555,-0.17625580728054047,2.327047824859619,2.729983329772949
5251.306000,0.2565228044986725,1.1729854345321655,0.14366833865642548,-1.2068878412246704,-0.17721626162528992,2.327045202255249,2.7314090728759766
5251.314000,0.2568036913871765,1.1729174852371216,0.14321838319301605,-1.20689058303833,-0.17743180692195892,2.327043056488037,2.7320001125335693
5251.334000,0.256966233253479,1.172861099243164,0.14270243048667908,-1.2068977355957031,-0.1770567148923874,2.3270421028137207,2.7319424152374268
5251.355000,0.257036030292511,1.1728166341781616,0.1421630084514618,-1.2069084644317627,-0.17621983587741852,2.327042818069458,2.731384515762329
5251.375000,0.2570362389087677,1.1727827787399292,0.14162535965442657,-1.2069218158721924,-0.17502835392951965,2.327045202255249,2.7304439544677734
5251.395000,0.25698620080947876,1.172757625579834,0.14110393822193146,-1.2069369554519653,-0.17357027530670166,2.3270490169525146,2.729214906692505
5251.415000,0.256901353597641,1.1727391481399536,0.14060646295547485,-1.2069529294967651,-0.17191681265830994,2.327054023742676,2.727771520614624
5251.430000,0.2567935883998871,1.1727256774902344,0.14013656973838806,-1.2069692611694336,-0.17012500762939453,2.3270599842071533,2.726172685623169
5251.451000,0.25667184591293335,1.1727157831192017,0.1396954506635666,-1.206985592842102,-0.16824021935462952,2.327066659927368,2.7244648933410645
5251.470000,0.2565426528453827,1.172708511352539,0.13928288221359253,-1.2070015668869019,-0.16629812121391296,2.3270740509033203,2.722684860229492
5251.488000,0.2562246024608612,1.172781229019165,0.13973340392112732,-1.207006812095642,-0.1661553829908371,2.327064037322998,2.722524881362915
5251.506000,0.2560318112373352,1.1728631258010864,0.14050476253032684,-1.2070045471191406,-0.16722795367240906,2.3270554542541504,2.7236168384552
5251.526000,0.25598278641700745,1.172935962677002,0.14142531156539917,-1.2069942951202393,-0.16924400627613068,2.327047109603882,2.7256674766540527
5251.544000,0.25624123215675354,1.172914743423462,0.14157108962535858,-1.2069863080978394,-0.17016476392745972,2.327049493789673,2.726781129837036
5251.562000,0.2564693093299866,1.1728707551956177,0.14142945408821106,-1.2069799900054932,-0.17041955888271332,2.3270492553710938,2.727163314819336
5251.576000,0.25650280714035034,1.1728681325912476,0.14155100286006927,-1.2069714069366455,-0.17101062834262848,2.32704758644104,2.727677345275879
5251.590000,0.25661370158195496,1.1728363037109375,0.14135417342185974,-1.2069679498672485,-0.17093276977539062,2.3270483016967773,2.727590322494507
5251.610000,0.25668880343437195,1.1728006601333618,0.1410323828458786,-1.2069687843322754,-0.17039231956005096,2.3270480632781982,2.7270400524139404
5251.629000,0.2567175328731537,1.172768473625183,0.1406511515378952,-1.2069735527038574,-0.16949115693569183,2.327047348022461,2.7261359691619873
5251.649000,0.25662463903427124,1.1727664470672607,0.1404702067375183,-1.2069774866104126,-0.1687626987695694,2.3270490169525146,2.725299835205078
5251.669000,0.2564961016178131,1.172776460647583,0.1403891146183014,-1.2069798707962036,-0.1681564599275589,2.3270535469055176,2.7245218753814697
5251.686000,0.25636929273605347,1.1727873086929321,0.14033038914203644,-1.20698082447052,-0.16757650673389435,2.3270599842071533,2.723724126815796
5251.707000,0.2562423646450043,1.1727986335754395,0.1402946561574936,-1.2069804668426514,-0.16703568398952484,2.3270668983459473,2.722916603088379
5251.730000,0.2561892569065094,1.172789216041565,0.14008937776088715,-1.2069826126098633,-0.16616316139698029,2.3270716667175293,2.7218425273895264
5251.750000,0.2561488151550293,1.1727733612060547,0.13980725407600403,-1.2069876194000244,-0.16504913568496704,2.3270742893218994,2.7205703258514404
5251.772000,0.2560485899448395,1.1727733612060547,0.1396407186985016,-1.206992268562317,-0.1640535593032837,2.3270773887634277,2.7193751335144043
5251.789000,0.2559267580509186,1.172782301902771,0.13956724107265472,-1.206995964050293,-0.16322234272956848,2.3270812034606934,2.718318462371826
5251.810000,0.2558082342147827,1.1727954149246216,0.13956409692764282,-1.2069982290267944,-0.16257181763648987,2.327085018157959,2.7174293994903564
5251.830000,0.2557079792022705,1.1728081703186035,0.13959580659866333,-1.2069990634918213,-0.16206268966197968,2.3270890712738037,2.7166759967803955
5251.851000,0.25562700629234314,1.1728163957595825,0.13960681855678558,-1.2069988250732422,-0.16157136857509613,2.327094793319702,2.715921640396118
5251.873000,0.2556130290031433,1.1728047132492065,0.13945025205612183,-1.2070008516311646,-0.160781592130661,2.3270983695983887,2.714937448501587
5251.889000,0.25560852885246277,1.1727869510650635,0.139215350151062,-1.207005500793457,-0.15977329015731812,2.3271000385284424,2.713782548904419
5251.910000,0.25559860467910767,1.172768473625183,0.13894103467464447,-1.20701265335083,-0.15859408676624298,2.3271007537841797,2.7125041484832764
5251.931000,0.25550976395606995,1.1727676391601562,0.13878203928470612,-1.207018256187439,-0.15752215683460236,2.327105760574341,2.711254596710205
5251.951000,0.25538337230682373,1.1727756261825562,0.13869817554950714,-1.2070215940475464,-0.15655526518821716,2.327113389968872,2.710036277770996
5251.971000,0.25524047017097473,1.172787070274353,0.1386542171239853,-1.207022786140442,-0.15566132962703705,2.3271231651306152,2.7088162899017334
5251.989000,0.25508859753608704,1.1728003025054932,0.1386401504278183,-1.2070221900939941,-0.15483786165714264,2.327134132385254,2.707594156265259
5252.009000,0.25493523478507996,1.172814130783081,0.13864830136299133,-1.2070201635360718,-0.15408317744731903,2.3271453380584717,2.706378698348999
5252.030000,0.2547852396965027,1.1728286743164062,0.13866357505321503,-1.207018494606018,-0.15337182581424713,2.3271632194519043,2.7051522731781006
5252.051000,0.2546381950378418,1.1728426218032837,0.13868863880634308,-1.2070157527923584,-0.15270738303661346,2.3271806240081787,2.7039260864257812
5252.067000,0.25449708104133606,1.1728557348251343,0.13871930539608002,-1.207012414932251,-0.1520833522081375,2.327197551727295,2.702704668045044
5252.088000,0.2544359266757965,1.1728532314300537,0.13864347338676453,-1.2070125341415405,-0.15131595730781555,2.327207565307617,2.7014522552490234
5252.109000,0.25442343950271606,1.172842264175415,0.13849444687366486,-1.2070164680480957,-0.15041232109069824,2.327214002609253,2.7001845836639404
5252.130000,0.25436386466026306,1.1728428602218628,0.1384204924106598,-1.2070196866989136,-0.14959575235843658,2.327224016189575,2.6989808082580566
5252.151000,0.2542784810066223,1.1728497743606567,0.13840140402317047,-1.2070213556289673,-0.14887195825576782,2.327235698699951,2.6978347301483154
5252.167000,0.2542549967765808,1.1728441715240479,0.13830074667930603,-1.2070250511169434,-0.1480347216129303,2.327242612838745,2.696674346923828
5252.188000,0.25426745414733887,1.1728321313858032,0.13814659416675568,-1.20703125,-0.14709404110908508,2.327246904373169,2.6955111026763916
5252.208000,0.2542974054813385,1.172817349433899,0.13796238601207733,-1.207039475440979,-0.14606937766075134,2.327249765396118,2.6943535804748535
5252.229000,0.25433430075645447,1.1728018522262573,0.1377640962600708,-1.2070491313934326,-0.14498071372509003,2.32725191116333,2.693208694458008
5252.249000,0.25437256693840027,1.1727867126464844,0.1375621110200882,-1.207059621810913,-0.14384637773036957,2.327253580093384,2.6920816898345947
5252.269000,0.2544095814228058,1.1727722883224487,0.137363001704216,-1.2070704698562622,-0.14268244802951813,2.3272552490234375,2.690976142883301
5252.287000,0.2544443607330322,1.17275869846344,0.13717076182365417,-1.2070814371109009,-0.1415025144815445,2.3272571563720703,2.689894914627075
5252.307000,0.2544766962528229,1.172745943069458,0.13698773086071014,-1.20709228515625,-0.14031782746315002,2.327259063720703,2.68884015083313
5252.328000,0.2545068860054016,1.1727339029312134,0.1368151158094406,-1.2071027755737305,-0.13913749158382416,2.327261209487915,2.6878130435943604
5252.350000,0.2545352876186371,1.1727224588394165,0.13665342330932617,-1.2071129083633423,-0.13796870410442352,2.327263593673706,2.686814546585083
5252.368000,0.25456321239471436,1.1727116107940674,0.136503666639328,-1.2071226835250854,-0.13682051002979279,2.327265977859497,2.6858508586883545
5252.386000,0.25459155440330505,1.1727010011672974,0.13636422157287598,-1.2071319818496704,-0.1356949657201767,2.327268362045288,2.6849207878112793
5252.407000,0.25462016463279724,1.172690749168396,0.13623476028442383,-1.2071409225463867,-0.13459467887878418,2.327270984649658,2.684023141860962
5252.428000,0.2546488642692566,1.1726807355880737,0.1361149698495865,-1.2071493864059448,-0.1335216760635376,2.3272736072540283,2.683156967163086
5252.448000,0.25467756390571594,1.1726710796356201,0.1360044926404953,-1.2071573734283447,-0.13247737288475037,2.3272764682769775,2.6823208332061768
5252.469000,0.2547062039375305,1.1726616621017456,0.13590292632579803,-1.2071648836135864,-0.1314626932144165,2.3272793292999268,2.681514024734497
5252.485000,0.25473475456237793,1.1726524829864502,0.13580985367298126,-1.2071720361709595,-0.1304781436920166,2.327282190322876,2.6807353496551514
5252.506000,0.25465747714042664,1.1726922988891602,0.1363624930381775,-1.2071714401245117,-0.13096532225608826,2.327272415161133,2.6813888549804688
5252.527000,0.25471997261047363,1.1727298498153687,0.13711728155612946,-1.2071667909622192,-0.13240651786327362,2.327261209487915,2.683143377304077
5252.548000,0.2550220191478729,1.1727068424224854,0.13731186091899872,-1.2071655988693237,-0.13312675058841705,2.3272621631622314,2.6843252182006836
5252.567000,0.2552860379219055,1.1726738214492798,0.13733147084712982,-1.2071644067764282,-0.133473202586174,2.327263116836548,2.685056447982788
5252.584000,0.2554870843887329,1.1726422309875488,0.13726601004600525,-1.2071644067764282,-0.13353493809700012,2.3272640705108643,2.685434579849243
5252.603000,0.2556315064430237,1.1726151704788208,0.13715583086013794,-1.207166075706482,-0.13336919248104095,2.3272652626037598,2.685537576675415
5252.623000,0.25572991371154785,1.172593355178833,0.13702431321144104,-1.2071691751480103,-0.13302400708198547,2.3272669315338135,2.68542742729187
5252.643000,0.25579264760017395,1.1725761890411377,0.13688552379608154,-1.2071733474731445,-0.13254016637802124,2.3272690773010254,2.6851534843444824
5252.662000,0.2558286786079407,1.1725629568099976,0.13674770295619965,-1.2071782350540161,-0.13195160031318665,2.3272716999053955,2.6847550868988037
5252.680000,0.2557241916656494,1.1726104021072388,0.13736675679683685,-1.2071751356124878,-0.13298867642879486,2.327258825302124,2.6859309673309326
5252.700000,0.2557748854160309,1.1726571321487427,0.13822035491466522,-1.2071683406829834,-0.13505902886390686,2.327244520187378,2.688314199447632
5252.721000,0.25597521662712097,1.1726924180984497,0.13916809856891632,-1.2071576118469238,-0.13791385293006897,2.3272290229797363,2.691612958908081
5252.740000,0.25641438364982605,1.1726555824279785,0.13938628137111664,-1.207152009010315,-0.13965682685375214,2.32722806930542,2.693927764892578
5252.761000,0.2567683160305023,1.1726092100143433,0.13936081528663635,-1.2071473598480225,-0.14074689149856567,2.3272273540496826,2.6954667568206787
5252.780000,0.2568972408771515,1.172613263130188,0.13974331319332123,-1.207138180732727,-0.14248418807983398,2.3272202014923096,2.697445869445801
5252.798000,0.2571317255496979,1.1725828647613525,0.1397208422422409,-1.2071343660354614,-0.14343176782131195,2.327220916748047,2.6987011432647705
5252.817000,0.25721773505210876,1.1725844144821167,0.1399480104446411,-1.2071280479431152,-0.14471901953220367,2.327216863632202,2.700155735015869
5252.838000,0.2573779821395874,1.1725596189498901,0.1398611217737198,-1.2071260213851929,-0.14533455669879913,2.3272182941436768,2.7009871006011963
5252.855000,0.2574269771575928,1.172559142112732,0.13996027410030365,-1.207122802734375,-0.14615647494792938,2.3272154331207275,2.7019338607788086
5252.878000,0.25748881697654724,1.1725585460662842,0.14005371928215027,-1.207120656967163,-0.14694920182228088,2.327212333679199,2.7028753757476807
5252.897000,0.25759854912757874,1.1725376844406128,0.13990464806556702,-1.20712149143219,-0.14718079566955566,2.327213764190674,2.703291654586792
5252.917000,0.2576620280742645,1.1725164651870728,0.13967536389827728,-1.207123875617981,-0.14704059064388275,2.3272156715393066,2.7032995223999023
5252.934000,0.2576776444911957,1.172499179840088,0.13941194117069244,-1.2071279287338257,-0.14661380648612976,2.3272178173065186,2.7029919624328613
5252.944000,0.2576327323913574,1.172501564025879,0.13933312892913818,-1.2071318626403809,-0.14642202854156494,2.327214479446411,2.7029144763946533
5252.958000,0.25763604044914246,1.1724910736083984,0.1391114741563797,-1.2071378231048584,-0.14588657021522522,2.327216625213623,2.7025437355041504
5252.980000,0.2576121985912323,1.1724812984466553,0.13886260986328125,-1.207144021987915,-0.1451520174741745,2.3272197246551514,2.701949119567871
5253.001000,0.2575611174106598,1.1724742650985718,0.13861043751239777,-1.2071504592895508,-0.14427344501018524,2.327223300933838,2.701185703277588
5253.023000,0.25748977065086365,1.172469973564148,0.1383642703294754,-1.2071571350097656,-0.1432895064353943,2.3272273540496826,2.7002975940704346
5253.045000,0.2574046552181244,1.1724679470062256,0.13812880218029022,-1.20716392993927,-0.14223097264766693,2.3272316455841064,2.6993191242218018
5253.062000,0.25731098651885986,1.172467589378357,0.13790637254714966,-1.2071707248687744,-0.14112256467342377,2.3272364139556885,2.698277711868286
5253.083000,0.25721272826194763,1.1724684238433838,0.1376979500055313,-1.2071774005889893,-0.13998396694660187,2.3272414207458496,2.697195291519165
5253.105000,0.25711286067962646,1.1724700927734375,0.13750363886356354,-1.207183837890625,-0.13883066177368164,2.3272464275360107,2.6960885524749756
5253.126000,0.2570134997367859,1.172472357749939,0.13732309639453888,-1.207189917564392,-0.1376747190952301,2.327251672744751,2.6949706077575684
5253.147000,0.2569161653518677,1.1724748611450195,0.13715578615665436,-1.2071956396102905,-0.1365254819393158,2.327256917953491,2.693851947784424
5253.164000,0.2568218410015106,1.1724774837493896,0.13700102269649506,-1.2072011232376099,-0.13539008796215057,2.3272624015808105,2.6927406787872314
5253.182000,0.25673121213912964,1.1724799871444702,0.13685810565948486,-1.2072062492370605,-0.13427390158176422,2.32726788520813,2.6916427612304688
5253.205000,0.2566262483596802,1.1725114583969116,0.1371733844280243,-1.2072083950042725,-0.13426251709461212,2.327255964279175,2.69175386428833
5253.226000,0.2566888928413391,1.1725361347198486,0.1376449167728424,-1.2072103023529053,-0.13504274189472198,2.327237606048584,2.6929423809051514
5253.247000,0.25691142678260803,1.1725457906723022,0.1381530463695526,-1.2072117328643799,-0.13638651371002197,2.327216386795044,2.6949546337127686
5253.265000,0.2572668194770813,1.1725095510482788,0.1381591111421585,-1.2072149515151978,-0.13693992793560028,2.3272130489349365,2.6962528228759766
5253.285000,0.2575109899044037,1.172473669052124,0.13804125785827637,-1.2072162628173828,-0.13708990812301636,2.3272130489349365,2.696990728378296
5253.306000,0.2576473653316498,1.17244553565979,0.1378757506608963,-1.2072172164916992,-0.1369437277317047,2.3272149562835693,2.6972908973693848
5253.328000,0.2577013075351715,1.1724257469177246,0.1376921534538269,-1.2072186470031738,-0.1365690529346466,2.3272182941436768,2.6972508430480957
5253.349000,0.257671982049942,1.1724539995193481,0.13812915980815887,-1.2072173357009888,-0.13753017783164978,2.327198028564453,2.6986162662506104
5253.365000,0.25782695412635803,1.1724755764007568,0.13870741426944733,-1.2072174549102783,-0.13925857841968536,2.3271732330322266,2.701057195663452
5253.385000,0.2581396698951721,1.1724835634231567,0.13932353258132935,-1.2072175741195679,-0.14154453575611115,2.32714581489563,2.7043116092681885
5253.406000,0.25859108567237854,1.1724364757537842,0.13930651545524597,-1.2072203159332275,-0.1427217721939087,2.327141523361206,2.706503391265869
5253.426000,0.25888490676879883,1.172391653060913,0.13913175463676453,-1.2072207927703857,-0.14329655468463898,2.327141761779785,2.707859754562378
5253.447000,0.2589963674545288,1.1724025011062622,0.13953478634357452,-1.2072174549102783,-0.14495538175106049,2.327120065689087,2.7102291584014893
5253.467000,0.2592546343803406,1.1723686456680298,0.13941803574562073,-1.207219123840332,-0.14564451575279236,2.3271193504333496,2.7116966247558594
5253.484000,0.2593945562839508,1.1723378896713257,0.13918885588645935,-1.2072198390960693,-0.1458173394203186,2.327122926712036,2.7124574184417725
5253.504000,0.25942209362983704,1.172316551208496,0.13892409205436707,-1.207220435142517,-0.1456112116575241,2.3271286487579346,2.712667226791382
5253.525000,0.259365975856781,1.1723045110702515,0.13865140080451965,-1.2072216272354126,-0.14511479437351227,2.3271358013153076,2.7124500274658203
5253.544000,0.2592512369155884,1.172300100326538,0.138384610414505,-1.2072235345840454,-0.14439819753170013,2.3271443843841553,2.711905002593994
5253.563000,0.25909730792045593,1.1723015308380127,0.13813087344169617,-1.2072259187698364,-0.14351786673069,2.3271536827087402,2.7111103534698486
5253.577000,0.25887036323547363,1.1723536252975464,0.13853983581066132,-1.207224726676941,-0.14405512809753418,2.3271408081054688,2.7117698192596436
5253.600000,0.25888869166374207,1.1723520755767822,0.13847237825393677,-1.207227349281311,-0.1438993215560913,2.327146530151367,2.7119061946868896
5253.622000,0.2588680684566498,1.1723448038101196,0.1383080631494522,-1.207228422164917,-0.14344057440757751,2.3271543979644775,2.7116377353668213
5253.643000,0.2587934732437134,1.172339916229248,0.13811258971691132,-1.2072288990020752,-0.14277109503746033,2.327162981033325,2.7110586166381836
5253.664000,0.25856462121009827,1.1723977327346802,0.13864745199680328,-1.207222580909729,-0.14362794160842896,2.3271548748016357,2.711909532546997
5253.679000,0.2584801912307739,1.1724562644958496,0.13940313458442688,-1.207213282585144,-0.1454383283853531,2.3271448612213135,2.7138586044311523
5253.701000,0.2586524486541748,1.1724441051483154,0.13950537145137787,-1.2072075605392456,-0.1462824046611786,2.32715106010437,2.7149760723114014
5253.721000,0.2587635815143585,1.1724214553833008,0.13941146433353424,-1.207201600074768,-0.14660072326660156,2.327157974243164,2.7154438495635986
5253.742000,0.2586289346218109,1.1724683046340942,0.14001551270484924,-1.207186222076416,-0.1482606679201126,2.3271450996398926,2.7170207500457764
5253.762000,0.2585585415363312,1.1725244522094727,0.14084260165691376,-1.2071666717529297,-0.15075625479221344,2.3271265029907227,2.7194430828094482
5253.778000,0.2585531175136566,1.1725808382034302,0.14179673790931702,-1.207141399383545,-0.15393826365470886,2.3271028995513916,2.7225091457366943
5253.791000,0.2587991952896118,1.172559380531311,0.1419789344072342,-1.2071245908737183,-0.15585608780384064,2.327098846435547,2.724428653717041
5253.815000,0.2589810788631439,1.1725242137908936,0.14187312126159668,-1.2071123123168945,-0.1569664180278778,2.3270998001098633,2.725449562072754
5253.835000,0.25906869769096375,1.1724905967712402,0.14161989092826843,-1.207104206085205,-0.15743979811668396,2.3270998001098633,2.725769519805908
5253.854000,0.2588368058204651,1.1725471019744873,0.14218036830425262,-1.207085132598877,-0.15930332243442535,2.327077627182007,2.7271809577941895
5253.875000,0.2586268484592438,1.1726237535476685,0.14304788410663605,-1.2070589065551758,-0.16207264363765717,2.327047109603882,2.7294251918792725
5253.897000,0.25846123695373535,1.1727051734924316,0.14410212635993958,-1.2070231437683105,-0.16560763120651245,2.3270037174224854,2.732308864593506
5253.919000,0.25841784477233887,1.1727601289749146,0.1449744552373886,-1.2069861888885498,-0.16915996372699738,2.3269662857055664,2.7351415157318115
5253.937000,0.25839680433273315,1.1728062629699707,0.14577379822731018,-1.2069478034973145,-0.17277473211288452,2.3269293308258057,2.7379150390625
5253.955000,0.2584453225135803,1.1728259325027466,0.14630793035030365,-1.2069122791290283,-0.1759820580482483,2.326892852783203,2.7402639389038086
5253.974000,0.2586238980293274,1.1727917194366455,0.1462508738040924,-1.2068896293640137,-0.17793329060077667,2.3268697261810303,2.7415058612823486
5253.996000,0.25875797867774963,1.1727465391159058,0.1459163874387741,-1.2068777084350586,-0.17894446849822998,2.3268544673919678,2.741884469985962
5254.017000,0.2587526738643646,1.1727303266525269,0.14570236206054688,-1.2068700790405273,-0.17977847158908844,2.3268346786499023,2.7421014308929443
5254.038000,0.2587764859199524,1.172699213027954,0.1452437937259674,-1.2068711519241333,-0.17982231080532074,2.3268280029296875,2.741684675216675
5254.054000,0.25870463252067566,1.1726921796798706,0.14493238925933838,-1.2068746089935303,-0.17981824278831482,2.3268165588378906,2.7412705421447754
5254.075000,0.2586420774459839,1.1726891994476318,0.1446484476327896,-1.2068811655044556,-0.17969489097595215,2.32680344581604,2.740877628326416
5254.095000,0.25859534740448,1.1726868152618408,0.14437371492385864,-1.2068896293640137,-0.17946046590805054,2.3267900943756104,2.7404985427856445
5254.117000,0.2585877478122711,1.1726661920547485,0.14389276504516602,-1.2069014310836792,-0.17864356935024261,2.326791286468506,2.7396326065063477
5254.137000,0.2585318684577942,1.1726467609405518,0.14336055517196655,-1.2069145441055298,-0.17744921147823334,2.3267996311187744,2.7383968830108643
5254.158000,0.2584265470504761,1.1726473569869995,0.14302444458007812,-1.2069286108016968,-0.1764795482158661,2.3267979621887207,2.7374520301818848
5254.174000,0.25836750864982605,1.1726484298706055,0.14273701608181,-1.2069443464279175,-0.17559503018856049,2.3267946243286133,2.736738443374634
5254.194000,0.2583582103252411,1.1726460456848145,0.14247460663318634,-1.206960916519165,-0.1747838705778122,2.326789140701294,2.736241340637207
5254.215000,0.2583882510662079,1.1726397275924683,0.14222261309623718,-1.2069776058197021,-0.1740226149559021,2.326782703399658,2.735914945602417
5254.235000,0.2584507167339325,1.172629714012146,0.14198081195354462,-1.2069944143295288,-0.1733151376247406,2.3267745971679688,2.7357542514801025
5254.256000,0.2585431933403015,1.1726162433624268,0.1417447030544281,-1.207011342048645,-0.17265692353248596,2.3267648220062256,2.735752582550049
5254.270000,0.2586391568183899,1.1725854873657227,0.14129683375358582,-1.2070268392562866,-0.17148225009441376,2.3267693519592285,2.735211133956909
5254.290000,0.25863733887672424,1.172560453414917,0.1408265382051468,-1.207039713859558,-0.1700325608253479,2.326777935028076,2.7342567443847656
5254.311000,0.258556604385376,1.1725434064865112,0.1403673142194748,-1.2070512771606445,-0.1683935970067978,2.3267886638641357,2.732990264892578
5254.332000,0.2584482729434967,1.1725468635559082,0.1401478499174118,-1.207064151763916,-0.16719666123390198,2.326785087585449,2.7322049140930176
5254.349000,0.25842994451522827,1.1725467443466187,0.13997584581375122,-1.2070797681808472,-0.16622906923294067,2.326777458190918,2.7318167686462402
5254.369000,0.25848644971847534,1.172540307044983,0.1398169845342636,-1.2070964574813843,-0.16542300581932068,2.326768159866333,2.731738328933716
5254.390000,0.258595734834671,1.1725282669067383,0.1396663784980774,-1.2071131467819214,-0.16475115716457367,2.3267574310302734,2.731916904449463
5254.411000,0.25870728492736816,1.1724988222122192,0.13929355144500732,-1.207127571105957,-0.16358378529548645,2.326763391494751,2.731541395187378
5254.431000,0.25874242186546326,1.1724892854690552,0.13913296163082123,-1.2071402072906494,-0.16278527677059174,2.326756715774536,2.7315075397491455
5254.447000,0.25882482528686523,1.1724780797958374,0.13900302350521088,-1.2071540355682373,-0.16214732825756073,2.3267476558685303,2.7317378520965576
5254.467000,0.25894948840141296,1.1724634170532227,0.13888254761695862,-1.2071683406829834,-0.16162832081317902,2.326737403869629,2.7321839332580566
5254.488000,0.25910407304763794,1.17244553565979,0.13876588642597198,-1.207182765007019,-0.16120308637619019,2.3267264366149902,2.732804775238037
5254.506000,0.25927668809890747,1.1724252700805664,0.13864926993846893,-1.207196831703186,-0.16084623336791992,2.3267154693603516,2.7335562705993652
5254.527000,0.2594585716724396,1.1724036931991577,0.13853447139263153,-1.2072105407714844,-0.1605464220046997,2.326704502105713,2.7344131469726562
5254.544000,0.2596435248851776,1.1723812818527222,0.13841991126537323,-1.2072237730026245,-0.16028711199760437,2.3266940116882324,2.7353453636169434
5254.564000,0.2598271369934082,1.172358751296997,0.13830764591693878,-1.2072365283966064,-0.16006214916706085,2.326683759689331,2.736337184906006
5254.585000,0.26000750064849854,1.1723363399505615,0.13819782435894012,-1.2072488069534302,-0.15986472368240356,2.326673746109009,2.737375259399414
5254.606000,0.26018229126930237,1.1723142862319946,0.13808946311473846,-1.2072606086730957,-0.15968535840511322,2.326664447784424,2.7384417057037354
5254.627000,0.2603495419025421,1.1722939014434814,0.1379796713590622,-1.2072731256484985,-0.15951105952262878,2.326662063598633,2.739515542984009
5254.647000,0.2604632079601288,1.1722620725631714,0.13764111697673798,-1.207282304763794,-0.15871500968933105,2.326678991317749,2.7397782802581787
5254.663000,0.2604188919067383,1.172242522239685,0.1372976005077362,-1.2072868347167969,-0.15760153532028198,2.326702117919922,2.739412784576416
5254.684000,0.26025617122650146,1.1722354888916016,0.13697955012321472,-1.2072887420654297,-0.15627378225326538,2.326728582382202,2.738564968109131
5254.706000,0.26005977392196655,1.1722499132156372,0.13692502677440643,-1.207291603088379,-0.15543009340763092,2.326738119125366,2.7381696701049805
5254.725000,0.25996464490890503,1.1722594499588013,0.1369083821773529,-1.207297444343567,-0.15481026470661163,2.3267431259155273,2.738126754760742
5254.746000,0.25995200872421265,1.1722619533538818,0.1368982344865799,-1.2073047161102295,-0.15434890985488892,2.3267459869384766,2.738359212875366
5254.763000,0.25999608635902405,1.1722584962844849,0.13688719272613525,-1.2073124647140503,-0.15400809049606323,2.326747179031372,2.7388060092926025
5254.785000,0.2600766122341156,1.1722506284713745,0.13687238097190857,-1.2073200941085815,-0.1537574827671051,2.326747417449951,2.739415168762207
5254.806000,0.26017946004867554,1.1722400188446045,0.1368577629327774,-1.2073274850845337,-0.15358589589595795,2.326746940612793,2.7401604652404785
5254.826000,0.26029643416404724,1.172227382659912,0.1368401199579239,-1.2073345184326172,-0.15347148478031158,2.3267459869384766,2.7410078048706055
5254.847000,0.26037368178367615,1.1722018718719482,0.1365804374217987,-1.2073392868041992,-0.15274915099143982,2.3267641067504883,2.7410852909088135
5254.864000,0.26034408807754517,1.1721997261047363,0.13655051589012146,-1.2073416709899902,-0.15237633883953094,2.3267688751220703,2.741412401199341
5254.884000,0.2603536546230316,1.1721972227096558,0.1365494281053543,-1.2073456048965454,-0.15213266015052795,2.3267710208892822,2.741929769515991
5254.905000,0.2604006230831146,1.1721919775009155,0.13655200600624084,-1.2073503732681274,-0.15197312831878662,2.3267722129821777,2.7425920963287354
5254.926000,0.26047220826148987,1.1721843481063843,0.13655340671539307,-1.2073553800582886,-0.15187464654445648,2.326772689819336,2.743361711502075
5254.947000,0.2605580985546112,1.1721750497817993,0.13655295968055725,-1.2073603868484497,-0.15182210505008698,2.326772928237915,2.744210720062256
5254.964000,0.2606509327888489,1.1721646785736084,0.13655012845993042,-1.2073651552200317,-0.15180230140686035,2.326772928237915,2.745115041732788
5254.984000,0.2606986165046692,1.1721423864364624,0.1363055408000946,-1.2073676586151123,-0.15115344524383545,2.3267922401428223,2.7452077865600586
5255.005000,0.2606363296508789,1.1721439361572266,0.13629300892353058,-1.2073678970336914,-0.15084251761436462,2.3267982006073,2.74552321434021
5255.026000,0.2606121301651001,1.1721450090408325,0.1363060623407364,-1.2073696851730347,-0.15064089000225067,2.3268017768859863,2.7459959983825684
5255.047000,0.26062333583831787,1.172143578529358,0.13632230460643768,-1.2073723077774048,-0.15050941705703735,2.3268043994903564,2.746587038040161
5255.063000,0.2606581747531891,1.1721398830413818,0.13633771240711212,-1.207375168800354,-0.15042942762374878,2.3268065452575684,2.7472660541534424
5255.084000,0.26066043972969055,1.1721235513687134,0.13611464202404022,-1.2073761224746704,-0.1497432440519333,2.32682728767395,2.7471699714660645
5255.105000,0.26056358218193054,1.1721298694610596,0.13612377643585205,-1.207374930381775,-0.1494120955467224,2.326834201812744,2.7473273277282715
5255.126000,0.2605136036872864,1.1721349954605103,0.1361612230539322,-1.207375407218933,-0.1492127627134323,2.326838254928589,2.7476794719696045
5255.147000,0.2605067789554596,1.1721364259719849,0.1361970156431198,-1.2073768377304077,-0.14908842742443085,2.326841354370117,2.7481672763824463
5255.164000,0.2605273723602295,1.1721351146697998,0.13623027503490448,-1.207378625869751,-0.14902153611183167,2.326843738555908,2.7487573623657227
5255.184000,0.26056477427482605,1.1721317768096924,0.13626012206077576,-1.2073804140090942,-0.1489967256784439,2.326845645904541,2.749422550201416
5255.206000,0.2606114447116852,1.1721271276474,0.13628657162189484,-1.207382082939148,-0.1490022987127304,2.3268473148345947,2.750141143798828
5255.226000,0.26066216826438904,1.1721217632293701,0.13630996644496918,-1.207383632659912,-0.14902912080287933,2.3268489837646484,2.7508957386016846
5255.242000,0.26071348786354065,1.1721161603927612,0.13633087277412415,-1.2073850631713867,-0.14907048642635345,2.326850652694702,2.751673460006714
5255.262000,0.26075491309165955,1.1721137762069702,0.13638576865196228,-1.2073858976364136,-0.1491997390985489,2.3268518447875977,2.752535104751587
5255.282000,0.2607983648777008,1.1721118688583374,0.1364518254995346,-1.2073862552642822,-0.14938685297966003,2.3268532752990723,2.753455400466919
5255.303000,0.2608047425746918,1.172095775604248,0.1362491250038147,-1.207384705543518,-0.14889229834079742,2.326874256134033,2.753502368927002
5255.324000,0.2606518268585205,1.1720917224884033,0.13602875173091888,-1.2073791027069092,-0.1480490267276764,2.3269009590148926,2.7528743743896484
5255.344000,0.2603796720504761,1.1721000671386719,0.13582618534564972,-1.2073715925216675,-0.14696770906448364,2.326930522918701,2.751729965209961
5255.361000,0.26003074645996094,1.1721181869506836,0.13564816117286682,-1.2073633670806885,-0.14571906626224518,2.3269615173339844,2.750194787979126
5255.382000,0.25963670015335083,1.1721431016921997,0.1354953795671463,-1.20735502243042,-0.14435647428035736,2.326993227005005,2.748368501663208
5255.402000,0.25921979546546936,1.1721725463867188,0.13536646962165833,-1.207346796989441,-0.14292100071907043,2.3270249366760254,2.7463302612304688
5255.423000,0.2587953507900238,1.172204613685608,0.13525918126106262,-1.207338809967041,-0.14144404232501984,2.327056407928467,2.744142532348633
5255.440000,0.25837376713752747,1.1722378730773926,0.1351710855960846,-1.2073310613632202,-0.1399494856595993,2.327087163925171,2.741854667663574
5255.461000,0.25796186923980713,1.172271490097046,0.1350998431444168,-1.2073235511779785,-0.1384553462266922,2.3271169662475586,2.7395055294036865
5255.481000,0.2575640380382538,1.1723047494888306,0.13504333794116974,-1.207316279411316,-0.13697503507137299,2.32714581489563,2.7371253967285156
5255.502000,0.25718289613723755,1.1723371744155884,0.13499975204467773,-1.2073092460632324,-0.13551850616931915,2.3271734714508057,2.7347381114959717
5255.523000,0.2568199336528778,1.1723685264587402,0.13496753573417664,-1.207302451133728,-0.1340930461883545,2.327199935913086,2.7323617935180664
5255.544000,0.25647586584091187,1.1723986864089966,0.1349453330039978,-1.2072957754135132,-0.1327037811279297,2.32722544670105,2.730010509490967
5255.561000,0.2560977637767792,1.1724568605422974,0.13533389568328857,-1.2072854042053223,-0.13228000700473785,2.327239513397217,2.728631019592285
5255.581000,0.2558217942714691,1.1725139617919922,0.1358715295791626,-1.2072725296020508,-0.13252286612987518,2.3272528648376465,2.728015422821045
5255.602000,0.25564613938331604,1.172562837600708,0.13647453486919403,-1.2072566747665405,-0.13328559696674347,2.3272650241851807,2.727993965148926
5255.624000,0.2556268274784088,1.1725690364837646,0.13666844367980957,-1.2072434425354004,-0.1334826946258545,2.327284097671509,2.7274913787841797
5255.644000,0.2555798590183258,1.1725678443908691,0.13672518730163574,-1.2072311639785767,-0.13336457312107086,2.3273024559020996,2.72662091255188
5255.661000,0.25549113750457764,1.17256760597229,0.13671395182609558,-1.2072206735610962,-0.13300718367099762,2.327319860458374,2.7254722118377686
5255.681000,0.2552403211593628,1.1726157665252686,0.1371985822916031,-1.2072046995162964,-0.13361412286758423,2.32733154296875,2.72514271736145
5255.701000,0.2550339102745056,1.1726711988449097,0.13785946369171143,-1.2071853876113892,-0.13485586643218994,2.327343702316284,2.7254478931427
5255.723000,0.2550220191478729,1.172677755355835,0.13806681334972382,-1.2071704864501953,-0.13543686270713806,2.3273611068725586,2.725215196609497
5255.743000,0.2550030052661896,1.1726738214492798,0.13810838758945465,-1.2071579694747925,-0.13561943173408508,2.3273766040802,2.7245688438415527
5255.760000,0.2549523413181305,1.1726691722869873,0.1380639225244522,-1.2071484327316284,-0.13549160957336426,2.327390432357788,2.7236077785491943
5255.781000,0.25487086176872253,1.1726670265197754,0.13797307014465332,-1.2071417570114136,-0.13511718809604645,2.3274035453796387,2.7224104404449463
5255.801000,0.254764586687088,1.172668218612671,0.13785959780216217,-1.2071373462677002,-0.13455042243003845,2.327415943145752,2.721038818359375
5255.821000,0.25464051961898804,1.1726725101470947,0.1377379149198532,-1.20713472366333,-0.13383722305297852,2.327428102493286,2.7195425033569336
5255.842000,0.2545051872730255,1.1726791858673096,0.1376165747642517,-1.207133412361145,-0.1330156773328781,2.327440023422241,2.7179601192474365
5255.859000,0.25436410307884216,1.1726876497268677,0.13750040531158447,-1.2071329355239868,-0.1321168690919876,2.327451705932617,2.716322422027588
5255.880000,0.2542216181755066,1.1726973056793213,0.13739196956157684,-1.2071330547332764,-0.13116587698459625,2.327462911605835,2.714653491973877
5255.900000,0.2538967430591583,1.1727746725082397,0.1380947232246399,-1.2071222066879272,-0.1319311261177063,2.327465057373047,2.7145495414733887
5255.921000,0.25387516617774963,1.1727890968322754,0.13828939199447632,-1.2071152925491333,-0.1321045458316803,2.327476739883423,2.7140769958496094
5255.943000,0.2536899447441101,1.1728585958480835,0.13916721940040588,-1.2070975303649902,-0.13383226096630096,2.327476978302002,2.714991331100464
5255.960000,0.25380435585975647,1.1728583574295044,0.13942384719848633,-1.2070854902267456,-0.1347421258687973,2.327486753463745,2.715301990509033
5255.980000,0.25391635298728943,1.1728429794311523,0.13946804404258728,-1.2070757150650024,-0.13519695401191711,2.3274946212768555,2.715144634246826
5256.001000,0.2539880573749542,1.1728260517120361,0.13940346240997314,-1.207068920135498,-0.13529901206493378,2.327501058578491,2.7146267890930176
5256.021000,0.25401830673217773,1.1728119850158691,0.13927948474884033,-1.207065224647522,-0.1351180225610733,2.3275067806243896,2.713834285736084
5256.041000,0.25401341915130615,1.1728019714355469,0.13912545144557953,-1.2070640325546265,-0.13471338152885437,2.327512264251709,2.7128353118896484
5256.059000,0.2539812922477722,1.1727960109710693,0.13895928859710693,-1.2070647478103638,-0.13413576781749725,2.3275177478790283,2.711683750152588
5256.079000,0.25392958521842957,1.1727933883666992,0.1387917399406433,-1.2070668935775757,-0.13342761993408203,2.3275232315063477,2.7104225158691406
5256.099000,0.2538648843765259,1.1727932691574097,0.1386290043592453,-1.2070698738098145,-0.13262377679347992,2.327528715133667,2.70908522605896
5256.120000,0.25379255414009094,1.1727949380874634,0.13847443461418152,-1.2070733308792114,-0.13175246119499207,2.3275341987609863,2.7076988220214844
5256.139000,0.25371673703193665,1.1727977991104126,0.1383296549320221,-1.2070770263671875,-0.13083629310131073,2.3275396823883057,2.7062840461730957
5256.157000,0.2536405324935913,1.1728013753890991,0.1381952166557312,-1.2070808410644531,-0.12989316880702972,2.327545166015625,2.704857110977173
5256.178000,0.2535661458969116,1.1728051900863647,0.13807110488414764,-1.2070846557617188,-0.12893711030483246,2.3275504112243652,2.7034308910369873
5256.199000,0.25349512696266174,1.17280912399292,0.13795696198940277,-1.2070883512496948,-0.12797904014587402,2.3275554180145264,2.7020151615142822
5256.220000,0.25342848896980286,1.172812819480896,0.1378522664308548,-1.2070919275283813,-0.12702731788158417,2.3275604248046875,2.7006173133850098
5256.240000,0.2530762851238251,1.1728984117507935,0.13871760666370392,-1.2070746421813965,-0.12809158861637115,2.327543020248413,2.7008724212646484
5256.257000,0.2530747950077057,1.1729146242141724,0.13902470469474792,-1.2070642709732056,-0.12858663499355316,2.3275394439697266,2.700772523880005
5256.278000,0.25313279032707214,1.1729109287261963,0.1391296088695526,-1.2070571184158325,-0.12879079580307007,2.3275394439697266,2.700399398803711
5256.299000,0.2531960904598236,1.172899842262268,0.13912582397460938,-1.2070523500442505,-0.12876662611961365,2.3275370597839355,2.6998178958892822
5256.320000,0.2532494366168976,1.1728873252868652,0.13905882835388184,-1.207050085067749,-0.12855449318885803,2.327533483505249,2.6990795135498047
5256.341000,0.2532884478569031,1.1728758811950684,0.13895651698112488,-1.207050085067749,-0.12819086015224457,2.3275294303894043,2.698225259780884
5256.358000,0.25331342220306396,1.1728663444519043,0.13883650302886963,-1.2070517539978027,-0.12770842015743256,2.3275253772735596,2.6972875595092773
5256.377000,0.25332656502723694,1.172858715057373,0.13870975375175476,-1.2070547342300415,-0.12713542580604553,2.327521562576294,2.696291923522949
5256.398000,0.25333067774772644,1.172852873802185,0.13858292996883392,-1.2070584297180176,-0.12649574875831604,2.3275177478790283,2.695258378982544
5256.419000,0.2533285617828369,1.1728483438491821,0.1384599208831787,-1.2070626020431519,-0.12580902874469757,2.327514171600342,2.6942028999328613
5256.440000,0.2533226013183594,1.1728447675704956,0.13834284245967865,-1.2070670127868652,-0.12509123980998993,2.3275108337402344,2.6931378841400146
5256.457000,0.2533147633075714,1.1728417873382568,0.13823272287845612,-1.2070715427398682,-0.12435508519411087,2.327507734298706,2.692072868347168
5256.477000,0.2528432011604309,1.1729440689086914,0.1393236517906189,-1.207039475440979,-0.12596388161182404,2.327456474304199,2.6926558017730713
5256.498000,0.25278210639953613,1.1729694604873657,0.13979706168174744,-1.2070189714431763,-0.1269947588443756,2.327422618865967,2.692866563796997
5256.518000,0.2523511052131653,1.1730756759643555,0.14122241735458374,-1.2069661617279053,-0.13006901741027832,2.3273391723632812,2.694427251815796
5256.538000,0.2523767054080963,1.1730926036834717,0.14185731112957,-1.2069320678710938,-0.13227161765098572,2.327277898788452,2.695380449295044
5256.555000,0.2525322139263153,1.1730775833129883,0.14210756123065948,-1.2069114446640015,-0.13385672867298126,2.327230453491211,2.6958580017089844
5256.576000,0.25217941403388977,1.1731699705123901,0.14343003928661346,-1.2068556547164917,-0.13743223249912262,2.327125072479248,2.6976068019866943
5256.598000,0.252259761095047,1.1731771230697632,0.14396438002586365,-1.2068219184875488,-0.1399960219860077,2.3270463943481445,2.698683023452759
5256.618000,0.25189393758773804,1.1732783317565918,0.14544448256492615,-1.206754207611084,-0.14438346028327942,2.3269054889678955,2.7008814811706543
5256.634000,0.2514045834541321,1.1734142303466797,0.1474081575870514,-1.2066601514816284,-0.15019336342811584,2.3267102241516113,2.7039172649383545
5256.655000,0.2515133023262024,1.1734278202056885,0.14824609458446503,-1.2066019773483276,-0.15452712774276733,2.3265576362609863,2.7059433460235596
5256.676000,0.2518172264099121,1.1733931303024292,0.1484762281179428,-1.2065705060958862,-0.15769696235656738,2.326437473297119,2.7071754932403564
5256.698000,0.25217318534851074,1.1733410358428955,0.14833848178386688,-1.206559658050537,-0.15987694263458252,2.3263466358184814,2.7077860832214355
5256.719000,0.25251683592796326,1.1732865571975708,0.14798006415367126,-1.206563949584961,-0.16122671961784363,2.3262815475463867,2.7079126834869385
5256.734000,0.2528209090232849,1.173236608505249,0.1474957913160324,-1.2065789699554443,-0.16189423203468323,2.3262388706207275,2.7076644897460938
5256.755000,0.2530774474143982,1.1731934547424316,0.14694644510746002,-1.2066010236740112,-0.16201119124889374,2.3262147903442383,2.7071287631988525
5256.776000,0.2532881498336792,1.1731573343276978,0.14637038111686707,-1.2066274881362915,-0.16169112920761108,2.3262062072753906,2.7063748836517334
5256.797000,0.25345882773399353,1.17312753200531,0.14579126238822937,-1.2066564559936523,-0.16102971136569977,2.3262100219726562,2.7054576873779297
5256.818000,0.2531609535217285,1.1731985807418823,0.14604048430919647,-1.2066529989242554,-0.16155754029750824,2.3261873722076416,2.705087900161743
5256.838000,0.2527821958065033,1.1732943058013916,0.14655859768390656,-1.2066304683685303,-0.1627006083726883,2.32614803314209,2.70493745803833
5256.855000,0.2523897588253021,1.1734007596969604,0.14723525941371918,-1.2065951824188232,-0.164364755153656,2.3260929584503174,2.7049572467803955
5256.875000,0.2523338198661804,1.1734410524368286,0.1474130004644394,-1.2065796852111816,-0.16542421281337738,2.326049566268921,2.7046473026275635
5256.897000,0.25223520398139954,1.1734943389892578,0.1477014720439911,-1.2065634727478027,-0.16671308875083923,2.3259994983673096,2.704489231109619
5256.917000,0.25235044956207275,1.173504114151001,0.14761032164096832,-1.206563949584961,-0.16739219427108765,2.3259644508361816,2.704045295715332
5256.938000,0.2525554895401001,1.173494577407837,0.14729566872119904,-1.2065776586532593,-0.16755656898021698,2.3259434700012207,2.703383684158325
5256.955000,0.2527906000614166,1.1734778881072998,0.14684945344924927,-1.2066009044647217,-0.16728879511356354,2.3259356021881104,2.7025585174560547
5256.976000,0.25302553176879883,1.1734601259231567,0.1463310271501541,-1.206630825996399,-0.16666725277900696,2.325939178466797,2.701612949371338
5256.997000,0.2531806528568268,1.173459768295288,0.14603334665298462,-1.2066632509231567,-0.1663096845149994,2.3259389400482178,2.7010610103607178
5257.018000,0.25334298610687256,1.1734567880630493,0.14582103490829468,-1.2066959142684937,-0.16610418260097504,2.3259389400482178,2.7008166313171387
5257.034000,0.2535840570926666,1.1734285354614258,0.14540179073810577,-1.206729769706726,-0.16547207534313202,2.3259527683258057,2.700331687927246
5257.055000,0.253785103559494,1.1734070777893066,0.14514389634132385,-1.2067639827728271,-0.16509845852851868,2.3259570598602295,2.7002243995666504
5257.076000,0.25402554869651794,1.1733777523040771,0.1449175775051117,-1.2067985534667969,-0.16483928263187408,2.3259592056274414,2.7004096508026123
5257.097000,0.2543104887008667,1.1733429431915283,0.14469783008098602,-1.206832766532898,-0.1646638959646225,2.3259646892547607,2.7008554935455322
5257.117000,0.25463351607322693,1.173287272453308,0.14425227046012878,-1.2068670988082886,-0.16400039196014404,2.325986385345459,2.7009031772613525
5257.138000,0.2548917233943939,1.1732476949691772,0.1439778059720993,-1.2068990468978882,-0.1635998785495758,2.3259973526000977,2.7012717723846436
5257.155000,0.2551882266998291,1.1732063293457031,0.14373111724853516,-1.206931471824646,-0.16331170499324799,2.3260045051574707,2.7019131183624268
5257.175000,0.2555178105831146,1.1731616258621216,0.1434878408908844,-1.2069637775421143,-0.16308920085430145,2.326010227203369,2.702760696411133
5257.195000,0.2558708190917969,1.1731141805648804,0.1432468444108963,-1.2069958448410034,-0.16292263567447662,2.3260140419006348,2.7037882804870605
5257.216000,0.25621840357780457,1.1730507612228394,0.14278385043144226,-1.2070262432098389,-0.16222363710403442,2.32603120803833,2.7042646408081055
5257.237000,0.25645509362220764,1.1729944944381714,0.14229463040828705,-1.2070534229278564,-0.16123700141906738,2.326051950454712,2.7043120861053467
5257.254000,0.2565999925136566,1.172947645187378,0.14181406795978546,-1.2070786952972412,-0.1600477695465088,2.3260746002197266,2.7040281295776367
5257.275000,0.25667819380760193,1.1729090213775635,0.14135323464870453,-1.2071027755737305,-0.1587127149105072,2.326098680496216,2.7034900188446045
5257.295000,0.2567407488822937,1.1728910207748413,0.14114007353782654,-1.2071287631988525,-0.15786808729171753,2.3261139392852783,2.7035040855407715
5257.316000,0.2569030821323395,1.1728674173355103,0.14097116887569427,-1.2071564197540283,-0.1572759449481964,2.3261241912841797,2.7039589881896973
5257.333000,0.2571437954902649,1.1728363037109375,0.1408117115497589,-1.2071844339370728,-0.15685927867889404,2.32613205909729,2.7047512531280518
5257.353000,0.2574000954627991,1.172787070274353,0.14042839407920837,-1.2072101831436157,-0.1559734046459198,2.326155185699463,2.7050392627716064
5257.375000,0.2575501501560211,1.1727445125579834,0.14003033936023712,-1.2072317600250244,-0.1548718512058258,2.3261821269989014,2.7049357891082764
5257.395000,0.25765103101730347,1.172722339630127,0.1398765742778778,-1.2072523832321167,-0.15424089133739471,2.3261935710906982,2.705313205718994
5257.415000,0.25779253244400024,1.1726844310760498,0.1395285576581955,-1.2072731256484985,-0.15321755409240723,2.326218366622925,2.7052769660949707
5257.432000,0.2578956186771393,1.1726640462875366,0.13940808176994324,-1.2072925567626953,-0.15265735983848572,2.326228380203247,2.705726146697998
5257.451000,0.2580777108669281,1.1726388931274414,0.1393171101808548,-1.2073134183883667,-0.15231823921203613,2.3262345790863037,2.7065470218658447
5257.472000,0.2583189308643341,1.1726089715957642,0.13924090564250946,-1.2073346376419067,-0.1521597057580948,2.3262386322021484,2.707677125930786
5257.493000,0.2585923671722412,1.1725761890411377,0.13917727768421173,-1.20735502243042,-0.15214991569519043,2.326241970062256,2.70904278755188
5257.515000,0.258882999420166,1.1725412607192993,0.13911931216716766,-1.2073743343353271,-0.15225307643413544,2.326245069503784,2.710581064224243
5257.535000,0.259178102016449,1.1725044250488281,0.13905014097690582,-1.2073923349380493,-0.15240569412708282,2.32624888420105,2.712198495864868
5257.552000,0.2594597637653351,1.1724683046340942,0.13898319005966187,-1.2074089050292969,-0.15260350704193115,2.3262534141540527,2.7138590812683105
5257.572000,0.2597004771232605,1.1724193096160889,0.13867239654064178,-1.207423210144043,-0.15219388902187347,2.3262743949890137,2.7147538661956787
5257.593000,0.2597930133342743,1.1723814010620117,0.13833914697170258,-1.2074337005615234,-0.15146268904209137,2.3263003826141357,2.7150511741638184
5257.614000,0.2597881853580475,1.1723710298538208,0.1382768154144287,-1.2074425220489502,-0.1511676013469696,2.3263134956359863,2.7156779766082764
5257.636000,0.25983232259750366,1.1723612546920776,0.13826552033424377,-1.207452416419983,-0.1510666310787201,2.326324224472046,2.716546058654785
5257.652000,0.25992125272750854,1.1723486185073853,0.13827137649059296,-1.2074625492095947,-0.1511026918888092,2.326333522796631,2.7175943851470947
5257.672000,0.2600318193435669,1.172337293624878,0.13833315670490265,-1.2074717283248901,-0.15135343372821808,2.326340913772583,2.7188825607299805
5257.695000,0.26016196608543396,1.1723041534423828,0.13810616731643677,-1.2074799537658691,-0.15098723769187927,2.326364040374756,2.719454765319824
5257.714000,0.26017627120018005,1.172300934791565,0.13818810880184174,-1.2074847221374512,-0.15117232501506805,2.326373338699341,2.7204692363739014
5257.732000,0.26023629307746887,1.172302007675171,0.1383800506591797,-1.2074894905090332,-0.1517447680234909,2.326378583908081,2.7219345569610596
5257.752000,0.26036006212234497,1.1722989082336426,0.13860191404819489,-1.2074940204620361,-0.1525806039571762,2.3263821601867676,2.723737955093384
5257.773000,0.2605248987674713,1.1722952127456665,0.1388816386461258,-1.207497477531433,-0.15373192727565765,2.326383113861084,2.72591495513916
5257.793000,0.2607443630695343,1.172255277633667,0.13871558010578156,-1.2075010538101196,-0.15399029850959778,2.3264036178588867,2.7271244525909424
5257.813000,0.2608169913291931,1.1722207069396973,0.13845372200012207,-1.207501769065857,-0.1537570208311081,2.326428174972534,2.7275784015655518
5257.830000,0.2607444226741791,1.1722372770309448,0.1387273669242859,-1.2075002193450928,-0.15452955663204193,2.326430320739746,2.7289586067199707
5257.850000,0.2607918381690979,1.1722533702850342,0.13911467790603638,-1.207500696182251,-0.15583167970180511,2.326427936553955,2.731044292449951
5257.871000,0.2609470784664154,1.1722657680511475,0.1395913064479828,-1.2075014114379883,-0.157652348279953,2.326420545578003,2.733815908432007
5257.893000,0.2612018585205078,1.1722689867019653,0.14008024334907532,-1.2075018882751465,-0.1598329246044159,2.3264105319976807,2.73709774017334
5257.914000,0.26151835918426514,1.1722652912139893,0.14056406915187836,-1.2075015306472778,-0.16228269040584564,2.326399326324463,2.7407498359680176
5257.931000,0.26189881563186646,1.1722086668014526,0.14040140807628632,-1.2075016498565674,-0.16340506076812744,2.3264145851135254,2.742994546890259
5257.951000,0.26207005977630615,1.1721580028533936,0.1400792896747589,-1.2074984312057495,-0.16375632584095,2.3264355659484863,2.7441368103027344
5257.972000,0.26202332973480225,1.172171950340271,0.14034178853034973,-1.2074933052062988,-0.16506697237491608,2.326432943344116,2.7460877895355225
5258.000000,0.2621017396450043,1.1721413135528564,0.14009325206279755,-1.2074919939041138,-0.1653144657611847,2.326453447341919,2.7469818592071533
5258.011000,0.2620505392551422,1.172114610671997,0.13974112272262573,-1.2074893712997437,-0.16497671604156494,2.3264784812927246,2.747053623199463
5258.030000,0.26188236474990845,1.1720982789993286,0.1393623799085617,-1.2074867486953735,-0.16421133279800415,2.326505422592163,2.746490001678467
5258.052000,0.2616303563117981,1.172092080116272,0.1389845311641693,-1.2074849605560303,-0.1631230264902115,2.326533794403076,2.7454397678375244
5258.072000,0.26132261753082275,1.1720942258834839,0.13862110674381256,-1.207484245300293,-0.161794513463974,2.3265628814697266,2.74402117729187
5258.094000,0.2609368562698364,1.172153353691101,0.1389286071062088,-1.2074824571609497,-0.1618424952030182,2.326566457748413,2.7439956665039062
5258.109000,0.26074838638305664,1.172208309173584,0.13941264152526855,-1.2074817419052124,-0.16270311176776886,2.3265647888183594,2.7450459003448486
5258.131000,0.2607344686985016,1.1722490787506104,0.13995924592018127,-1.20747971534729,-0.16416722536087036,2.3265600204467773,2.7469193935394287
5258.151000,0.26083993911743164,1.1722774505615234,0.14053194224834442,-1.2074753046035767,-0.1661059707403183,2.3265533447265625,2.749415874481201
5258.172000,0.2610284090042114,1.172295093536377,0.14110183715820312,-1.207468867301941,-0.16840143501758575,2.326544761657715,2.752376079559326
5258.193000,0.26124754548072815,1.1723079681396484,0.1416665017604828,-1.207459807395935,-0.17096129059791565,2.326537847518921,2.7556252479553223
5258.213000,0.2614525556564331,1.1723228693008423,0.14225216209888458,-1.2074471712112427,-0.17376551032066345,2.326533794403076,2.759063482284546
5258.231000,0.26164475083351135,1.1723387241363525,0.14284354448318481,-1.2074317932128906,-0.17675742506980896,2.326530694961548,2.7626235485076904
5258.250000,0.2618275284767151,1.1723378896713257,0.1432090848684311,-1.2074140310287476,-0.1793452948331833,2.3265395164489746,2.7656428813934326
5258.272000,0.261913537979126,1.1723406314849854,0.14351563155651093,-1.2073932886123657,-0.18170790374279022,2.3265511989593506,2.768223524093628
5258.293000,0.26193732023239136,1.172336459159851,0.1436525583267212,-1.2073718309402466,-0.18356694281101227,2.326569080352783,2.7701127529144287
5258.309000,0.26187440752983093,1.1723294258117676,0.14363807439804077,-1.2073501348495483,-0.1848524659872055,2.326592445373535,2.771219253540039
5258.331000,0.26170989871025085,1.1723297834396362,0.14357295632362366,-1.2073290348052979,-0.18572567403316498,2.3266172409057617,2.7717137336730957
5258.352000,0.2614712715148926,1.172333002090454,0.1434272676706314,-1.2073090076446533,-0.18612973392009735,2.326646327972412,2.7715651988983154
5258.372000,0.2612384259700775,1.1723202466964722,0.14306700229644775,-1.2072941064834595,-0.1858111023902893,2.3266727924346924,2.770660400390625
5258.390000,0.26088660955429077,1.1723273992538452,0.14276620745658875,-1.2072803974151611,-0.1852245330810547,2.3267035484313965,2.769315481185913
5258.409000,0.26046517491340637,1.1723475456237793,0.14251454174518585,-1.207267165184021,-0.1844472885131836,2.3267364501953125,2.7676403522491455
5258.430000,0.260003000497818,1.1723742485046387,0.14227961003780365,-1.2072539329528809,-0.18347448110580444,2.326772451400757,2.7656400203704834
5258.450000,0.2595067024230957,1.172405481338501,0.14205746352672577,-1.2072402238845825,-0.18232786655426025,2.3268113136291504,2.7633309364318848
5258.473000,0.25898605585098267,1.1724412441253662,0.1418643295764923,-1.2072261571884155,-0.18107828497886658,2.326850414276123,2.7607994079589844
5258.489000,0.2584533989429474,1.1724791526794434,0.1416844129562378,-1.207211971282959,-0.17972631752490997,2.326890707015991,2.7580573558807373
5258.509000,0.25791484117507935,1.172519326210022,0.1415288746356964,-1.2071977853775024,-0.1783226579427719,2.326930522918701,2.755171775817871
5258.530000,0.25737765431404114,1.172560214996338,0.1413857340812683,-1.207183599472046,-0.17686571180820465,2.3269708156585693,2.7521512508392334
5258.549000,0.2568415701389313,1.1726018190383911,0.14125636219978333,-1.2071694135665894,-0.175370454788208,2.3270111083984375,2.749013900756836
5258.571000,0.2563112676143646,1.1726441383361816,0.14114749431610107,-1.207155466079712,-0.17386990785598755,2.3270504474639893,2.7458083629608154
5258.592000,0.2557920217514038,1.1726863384246826,0.1410520225763321,-1.2071417570114136,-0.1723659485578537,2.327089309692383,2.7425477504730225
5258.612000,0.25528693199157715,1.172728180885315,0.14097356796264648,-1.2071285247802734,-0.17088031768798828,2.3271267414093018,2.739267349243164
5258.628000,0.2547991871833801,1.1727691888809204,0.1409069150686264,-1.2071157693862915,-0.16941408812999725,2.3271632194519043,2.735978126525879
5258.649000,0.25432950258255005,1.1728092432022095,0.14085225760936737,-1.2071033716201782,-0.1679755002260208,2.3271985054016113,2.732696294784546
5258.670000,0.2538800537586212,1.172848105430603,0.14081010222434998,-1.2070915699005127,-0.16657492518424988,2.3272321224212646,2.729443311691284
5258.689000,0.2534532845020294,1.172885537147522,0.14077845215797424,-1.207080364227295,-0.1652168482542038,2.3272640705108643,2.726233720779419
5258.713000,0.25305044651031494,1.1729211807250977,0.1407560259103775,-1.207069754600525,-0.16390500962734222,2.32729434967041,2.7230803966522217
5258.729000,0.25267258286476135,1.172954797744751,0.14073850214481354,-1.2070598602294922,-0.16263456642627716,2.3273229598999023,2.719985246658325
5258.750000,0.25231853127479553,1.1729865074157715,0.14072690904140472,-1.2070506811141968,-0.16140906512737274,2.32735013961792,2.716956853866577
5258.771000,0.25198984146118164,1.1730163097381592,0.14072279632091522,-1.2070422172546387,-0.16023695468902588,2.3273751735687256,2.7140133380889893
5258.791000,0.2516896724700928,1.1730438470840454,0.140725240111351,-1.207034707069397,-0.15912365913391113,2.3273980617523193,2.711172580718994
5258.811000,0.251417875289917,1.173068881034851,0.14072969555854797,-1.2070280313491821,-0.15806148946285248,2.3274192810058594,2.7084310054779053
5258.827000,0.25117406249046326,1.1730917692184448,0.14074218273162842,-1.2070221900939941,-0.15706633031368256,2.3274381160736084,2.7058122158050537
5258.849000,0.2509586215019226,1.173112154006958,0.14075572788715363,-1.207017183303833,-0.15612579882144928,2.3274552822113037,2.7033066749572754
5258.870000,0.2507745027542114,1.1731300354003906,0.14077696204185486,-1.2070131301879883,-0.15526096522808075,2.32746958732605,2.7009506225585938
5258.891000,0.25062817335128784,1.1731445789337158,0.14080087840557098,-1.2070103883743286,-0.15447258949279785,2.3274810314178467,2.698763608932495
5258.910000,0.2505168616771698,1.173155426979065,0.14081862568855286,-1.207008719444275,-0.1537388265132904,2.3274905681610107,2.6967222690582275
5258.927000,0.2504388391971588,1.1731632947921753,0.140838161110878,-1.2070081233978271,-0.1530762016773224,2.3274974822998047,2.6948511600494385
5258.948000,0.25039181113243103,1.1731678247451782,0.14085052907466888,-1.2070084810256958,-0.15246234834194183,2.327502727508545,2.693124294281006
5258.969000,0.25037506222724915,1.1731696128845215,0.1408648043870926,-1.2070099115371704,-0.151916965842247,2.327505350112915,2.6915695667266846
5258.990000,0.25038692355155945,1.1731683015823364,0.14087094366550446,-1.2070122957229614,-0.15141580998897552,2.3275067806243896,2.6901586055755615
5259.011000,0.2504271864891052,1.1731644868850708,0.14087902009487152,-1.2070157527923584,-0.1509813666343689,2.327505588531494,2.68892240524292
5259.028000,0.2505034804344177,1.1731573343276978,0.14088723063468933,-1.2070205211639404,-0.15062174201011658,2.3275012969970703,2.687889337539673
5259.048000,0.25061243772506714,1.1731464862823486,0.1408827304840088,-1.207026481628418,-0.15030448138713837,2.327495574951172,2.6870200634002686
5259.068000,0.2507520318031311,1.1731327772140503,0.14087815582752228,-1.207033634185791,-0.15005531907081604,2.327486991882324,2.6863481998443604
5259.090000,0.25091949105262756,1.1731157302856445,0.14086082577705383,-1.2070417404174805,-0.14984218776226044,2.327477216720581,2.685833215713501
5259.110000,0.2511126697063446,1.1730976104736328,0.14084197580814362,-1.2070521116256714,-0.1496875286102295,2.3274712562561035,2.685502052307129
5259.127000,0.25132817029953003,1.1730763912200928,0.14081130921840668,-1.207062840461731,-0.14956235885620117,2.3274641036987305,2.685314893722534
5259.149000,0.2515668272972107,1.1730527877807617,0.14078298211097717,-1.2070742845535278,-0.14949928224086761,2.327454090118408,2.685314893722534
5259.170000,0.2518394887447357,1.1730259656906128,0.14075395464897156,-1.2070870399475098,-0.14950835704803467,2.3274407386779785,2.6855368614196777
5259.191000,0.25215214490890503,1.1729950904846191,0.1407182216644287,-1.2071013450622559,-0.1495867371559143,2.3274240493774414,2.68599534034729
5259.210000,0.2524960935115814,1.1729602813720703,0.14066287875175476,-1.207116961479187,-0.14969395101070404,2.327406167984009,2.686633348464966
5259.226000,0.2528631091117859,1.172922968864441,0.14060130715370178,-1.2071335315704346,-0.1498476266860962,2.3273861408233643,2.6874618530273438
5259.249000,0.253246545791626,1.17288339138031,0.14052453637123108,-1.2071508169174194,-0.15001699328422546,2.3273656368255615,2.688431739807129
5259.268000,0.2536431550979614,1.1728425025939941,0.14044615626335144,-1.2071688175201416,-0.15022632479667664,2.327343225479126,2.689565658569336
5259.290000,0.2540498673915863,1.172800064086914,0.14035506546497345,-1.207187294960022,-0.15044520795345306,2.3273208141326904,2.6908180713653564
5259.309000,0.25446194410324097,1.1727569103240967,0.14026077091693878,-1.207206130027771,-0.15068647265434265,2.3272974491119385,2.6921932697296143
5259.328000,0.25487542152404785,1.1727131605148315,0.1401570588350296,-1.2072252035140991,-0.15092891454696655,2.3272740840911865,2.6936535835266113
5259.345000,0.25528720021247864,1.172669529914856,0.14005210995674133,-1.2072443962097168,-0.15118464827537537,2.3272502422332764,2.6952033042907715
5259.367000,0.25567442178726196,1.1726138591766357,0.1397298127412796,-1.2072628736495972,-0.15088939666748047,2.327240467071533,2.6961426734924316
5259.389000,0.25593966245651245,1.1725672483444214,0.1393813043832779,-1.2072787284851074,-0.15028923749923706,2.327235221862793,2.6966042518615723
5259.407000,0.25610607862472534,1.1725307703018188,0.13903960585594177,-1.2072930335998535,-0.14947150647640228,2.327232837677002,2.6966936588287354
5259.424000,0.2562013566493988,1.172502875328064,0.13871458172798157,-1.2073065042495728,-0.14849460124969482,2.327232599258423,2.696495294570923
5259.444000,0.25624698400497437,1.1724815368652344,0.13840998709201813,-1.2073193788528442,-0.1474038064479828,2.3272340297698975,2.696075916290283
5259.465000,0.2562587559223175,1.172465205192566,0.13812686502933502,-1.207331657409668,-0.14623472094535828,2.3272366523742676,2.695488929748535
5259.486000,0.25624799728393555,1.172452449798584,0.1378648281097412,-1.207343339920044,-0.1450151652097702,2.327240228652954,2.6947765350341797
5259.506000,0.25622275471687317,1.1724423170089722,0.13762284815311432,-1.2073544263839722,-0.14376674592494965,2.327244520187378,2.69397234916687
5259.523000,0.25618869066238403,1.1724339723587036,0.1373995691537857,-1.2073649168014526,-0.14250603318214417,2.327249050140381,2.693103075027466
5259.542000,0.25614967942237854,1.1724268198013306,0.13719360530376434,-1.2073748111724854,-0.14124567806720734,2.327254056930542,2.6921894550323486
5259.563000,0.2561083734035492,1.1724205017089844,0.13700361549854279,-1.2073841094970703,-0.1399952471256256,2.3272593021392822,2.6912479400634766
5259.583000,0.25606653094291687,1.172414779663086,0.13682840764522552,-1.207392930984497,-0.1387619525194168,2.3272647857666016,2.690291404724121
5259.601000,0.2560253441333771,1.1724094152450562,0.13666687905788422,-1.207401156425476,-0.13755115866661072,2.327270269393921,2.6893301010131836
5259.621000,0.2559855580329895,1.172404408454895,0.13651804625988007,-1.2074089050292969,-0.13636672496795654,2.3272757530212402,2.6883716583251953
5259.642000,0.25594764947891235,1.1723995208740234,0.13638103008270264,-1.2074161767959595,-0.13521139323711395,2.3272812366485596,2.687422275543213
5259.663000,0.25586947798728943,1.1724125146865845,0.13647328317165375,-1.2074203491210938,-0.13457250595092773,2.3272833824157715,2.6869442462921143
5259.682000,0.2558177411556244,1.1724246740341187,0.1366039663553238,-1.207421898841858,-0.1341552883386612,2.327289581298828,2.6866509914398193
5259.702000,0.25583121180534363,1.1724201440811157,0.13660264015197754,-1.2074235677719116,-0.13359570503234863,2.327296257019043,2.6862270832061768
5259.719000,0.2557752728462219,1.1724271774291992,0.13668926060199738,-1.207421898841858,-0.13320378959178925,2.3273067474365234,2.6858179569244385
5259.740000,0.2557585537433624,1.1724238395690918,0.13669368624687195,-1.2074209451675415,-0.13271526992321014,2.3273143768310547,2.6853103637695312
5259.761000,0.2557584345340729,1.172416090965271,0.13664892315864563,-1.2074214220046997,-0.13214440643787384,2.3273203372955322,2.6847305297851562
5259.782000,0.25576356053352356,1.1724069118499756,0.13657590746879578,-1.2074233293533325,-0.1315063238143921,2.3273253440856934,2.684098720550537
5259.801000,0.25576841831207275,1.1723977327346802,0.13648824393749237,-1.2074263095855713,-0.13081608712673187,2.3273298740386963,2.683431386947632
5259.818000,0.2557707726955414,1.1723891496658325,0.136394664645195,-1.2074300050735474,-0.13008764386177063,2.32733416557312,2.682741165161133
5259.839000,0.2557700574398041,1.1723814010620117,0.13630062341690063,-1.2074341773986816,-0.12933318316936493,2.327338218688965,2.6820380687713623
5259.860000,0.25563251972198486,1.1723918914794922,0.13626377284526825,-1.2074329853057861,-0.12852656841278076,2.3273589611053467,2.6809868812561035
5259.881000,0.25548994541168213,1.1724036931991577,0.1362912654876709,-1.2074304819107056,-0.127853125333786,2.327369451522827,2.6800172328948975
5259.902000,0.2554040849208832,1.1724084615707397,0.1362912952899933,-1.2074298858642578,-0.12719279527664185,2.3273766040802,2.679117441177368
5259.918000,0.2553599178791046,1.1724082231521606,0.13626642525196075,-1.2074309587478638,-0.1265302300453186,2.3273818492889404,2.6782779693603516
5259.940000,0.2553419768810272,1.1724050045013428,0.13622571527957916,-1.2074332237243652,-0.12586423754692078,2.327385902404785,2.677490711212158
5259.960000,0.2551809251308441,1.1724183559417725,0.13619911670684814,-1.2074300050735474,-0.1250506192445755,2.3274106979370117,2.676225185394287
5259.981000,0.2550085186958313,1.1724350452423096,0.13627339899539948,-1.2074252367019653,-0.12444830685853958,2.3274216651916504,2.675123453140259
5259.998000,0.2549141049385071,1.1724425554275513,0.13631422817707062,-1.2074230909347534,-0.1238824650645256,2.327428102493286,2.6741559505462646
5260.018000,0.25487765669822693,1.172443151473999,0.13632182776927948,-1.207423210144043,-0.12332594394683838,2.327432155609131,2.6732988357543945
5260.038000,0.25487786531448364,1.172439455986023,0.1363067626953125,-1.2074247598648071,-0.12277216464281082,2.327434778213501,2.672532796859741
5260.058000,0.254900187253952,1.1724332571029663,0.13627761602401733,-1.2074273824691772,-0.1222195252776146,2.3274364471435547,2.671842575073242
5260.079000,0.2549353241920471,1.172425627708435,0.13624043762683868,-1.2074306011199951,-0.12166839838027954,2.32743763923645,2.671215534210205
5260.100000,0.25474828481674194,1.1724483966827393,0.136311873793602,-1.2074251174926758,-0.1211060881614685,2.327465295791626,2.670109748840332
5260.117000,0.25433868169784546,1.1725012063980103,0.1365804523229599,-1.2074084281921387,-0.12075361609458923,2.327502965927124,2.668642282485962
5260.137000,0.25378280878067017,1.1725752353668213,0.13702067732810974,-1.2073826789855957,-0.12068378925323486,2.3275468349456787,2.666926145553589
5260.158000,0.25314176082611084,1.1726633310317993,0.13760247826576233,-1.2073500156402588,-0.1209372729063034,2.327594041824341,2.6650614738464355
5260.178000,0.252742737531662,1.1727174520492554,0.1380840390920639,-1.207323431968689,-0.12136459350585938,2.327613353729248,2.6635749340057373
5260.198000,0.25259560346603394,1.1727372407913208,0.13836562633514404,-1.20730721950531,-0.12171785533428192,2.327620267868042,2.66239070892334
5260.216000,0.25260934233665466,1.172735571861267,0.13849839568138123,-1.2072993516921997,-0.12195717543363571,2.327620029449463,2.6614484786987305
5260.236000,0.2527164816856384,1.1727216243743896,0.1385311782360077,-1.207297444343567,-0.12207941710948944,2.32761549949646,2.6606993675231934
5260.258000,0.2528742551803589,1.172701358795166,0.1384991854429245,-1.207299828529358,-0.12209304422140121,2.327608585357666,2.660104751586914
5260.278000,0.25274330377578735,1.172729253768921,0.13872551918029785,-1.2072917222976685,-0.12235060334205627,2.3276307582855225,2.6593151092529297
5260.299000,0.252373069524765,1.1727938652038574,0.13922421634197235,-1.2072700262069702,-0.12301333993673325,2.327665328979492,2.6583802700042725
5260.316000,0.2521892488002777,1.1728262901306152,0.13960160315036774,-1.2072516679763794,-0.12371805310249329,2.3276751041412354,2.657658576965332
5260.336000,0.25186687707901,1.1728876829147339,0.14017485082149506,-1.2072269916534424,-0.12480244785547256,2.3277041912078857,2.6569619178771973
5260.357000,0.25142812728881836,1.172970175743103,0.1409376859664917,-1.2071930170059204,-0.12633126974105835,2.3277406692504883,2.656289577484131
5260.378000,0.2509312629699707,1.1730657815933228,0.141862154006958,-1.2071514129638672,-0.12835350632667542,2.327779531478882,2.6557397842407227
5260.394000,0.2507845461368561,1.1730995178222656,0.14241914451122284,-1.207120656967163,-0.130118727684021,2.327789068222046,2.6553335189819336
5260.414000,0.25089579820632935,1.1730906963348389,0.1426520049571991,-1.207104206085205,-0.13149605691432953,2.3277838230133057,2.655040979385376
5260.434000,0.2507919669151306,1.1731314659118652,0.14321023225784302,-1.2070822715759277,-0.13338936865329742,2.3277978897094727,2.6550445556640625
5260.456000,0.25091609358787537,1.17312753200531,0.14345863461494446,-1.2070685625076294,-0.13490334153175354,2.3277928829193115,2.6550705432891846
5260.476000,0.25118759274482727,1.1730964183807373,0.14346663653850555,-1.207065224647522,-0.13600566983222961,2.3277783393859863,2.655113458633423
5260.497000,0.25116661190986633,1.173133373260498,0.1439789980649948,-1.207052230834961,-0.1379069685935974,2.32778263092041,2.6556811332702637
5260.514000,0.2513767182826996,1.1731208562850952,0.144134983420372,-1.2070457935333252,-0.13932988047599792,2.327772855758667,2.6561381816864014
5260.535000,0.251337468624115,1.1731690168380737,0.14478567242622375,-1.2070293426513672,-0.14164385199546814,2.3277764320373535,2.6572000980377197
5260.555000,0.2515764832496643,1.173155426979065,0.14497993886470795,-1.2070207595825195,-0.14334794878959656,2.3277664184570312,2.6580281257629395
5260.575000,0.2515723407268524,1.1732041835784912,0.14569514989852905,-1.207002878189087,-0.14602884650230408,2.327765941619873,2.659562587738037
5260.596000,0.25186973810195923,1.1731836795806885,0.1458747833967209,-1.2069941759109497,-0.14795757830142975,2.327753782272339,2.660738945007324
5260.613000,0.25227054953575134,1.1731343269348145,0.14576146006584167,-1.2069950103759766,-0.14928247034549713,2.327732801437378,2.661630630493164
5260.634000,0.2523477077484131,1.1731750965118408,0.14640188217163086,-1.2069858312606812,-0.15194615721702576,2.3277177810668945,2.6636149883270264
5260.655000,0.252383828163147,1.173243761062622,0.1473781019449234,-1.2069669961929321,-0.15556927025318146,2.3277103900909424,2.666429042816162
5260.675000,0.2524537444114685,1.1733211278915405,0.14859463274478912,-1.2069379091262817,-0.1601330190896988,2.327692747116089,2.6700916290283203
5260.696000,0.25260865688323975,1.173392653465271,0.14988917112350464,-1.2069026231765747,-0.16537941992282867,2.327667713165283,2.6743838787078857
5260.712000,0.2528414726257324,1.1734580993652344,0.15123321115970612,-1.2068628072738647,-0.17123404145240784,2.3276302814483643,2.679253578186035
5260.733000,0.2534942924976349,1.1734017133712769,0.15150927007198334,-1.2068415880203247,-0.17536135017871857,2.3275952339172363,2.6828675270080566
5260.753000,0.2541790008544922,1.1733076572418213,0.15127849578857422,-1.206835389137268,-0.17821834981441498,2.3275563716888428,2.6854867935180664
