yuan18844-afk/dissertation/catkin_ws/src/franka_digital_twin/analysis/data/unity_slow3_20250728_065324.csv
time,panda_joint1,panda_joint2,panda_joint3,panda_joint4,panda_joint5,panda_joint6,panda_joint7
5512.950000,0.42141565680503845,1.129499077796936,-0.09067889302968979,-1.251531720161438,0.19295565783977509,2.5562429428100586,1.7645976543426514
5512.973000,0.42142921686172485,1.1295000314712524,-0.09063827246427536,-1.2515236139297485,0.19348576664924622,2.556241512298584,1.7632348537445068
5512.990000,0.4214402139186859,1.1295099258422852,-0.09070876240730286,-1.2515202760696411,0.19441650807857513,2.556231737136841,1.7614774703979492
5513.008000,0.4213739335536957,1.1295181512832642,-0.09076148271560669,-1.251519799232483,0.1955409049987793,2.5562188625335693,1.759427785873413
5513.029000,0.4212530255317688,1.1295238733291626,-0.09078938513994217,-1.2515207529067993,0.19678601622581482,2.556204319000244,1.7571667432785034
5513.049000,0.42116495966911316,1.1295186281204224,-0.0906951054930687,-1.2515143156051636,0.19750891625881195,2.556201219558716,1.7555080652236938
5513.066000,0.421193391084671,1.1295136213302612,-0.09060850739479065,-1.251502513885498,0.19786860048770905,2.556203603744507,1.7544142007827759
5513.082000,0.4213150441646576,1.129512071609497,-0.09055804461240768,-1.251488208770752,0.19799955189228058,2.556208610534668,1.7537388801574707
5513.102000,0.42149481177330017,1.1295133829116821,-0.09053442627191544,-1.2514728307724,0.19795936346054077,2.556215524673462,1.7533915042877197
5513.125000,0.42170968651771545,1.1295169591903687,-0.0905311182141304,-1.2514572143554688,0.19779320061206818,2.5562236309051514,1.7532997131347656
5513.143000,0.42188021540641785,1.1295325756072998,-0.0906609445810318,-1.2514501810073853,0.19819337129592896,2.5562198162078857,1.7525930404663086
5513.158000,0.42192304134368896,1.1295459270477295,-0.09076225757598877,-1.251448154449463,0.19888979196548462,2.556211233139038,1.7514166831970215
5513.176000,0.42187443375587463,1.1295554637908936,-0.09082721173763275,-1.251448631286621,0.19978339970111847,2.556199789047241,1.7498859167099
5513.195000,0.42176884412765503,1.1295617818832397,-0.09086284786462784,-1.2514503002166748,0.20081007480621338,2.5561866760253906,1.7480921745300293
5513.211000,0.4216306507587433,1.129565715789795,-0.09087642282247543,-1.2514524459838867,0.20192258059978485,2.5561723709106445,1.746108055114746
5513.232000,0.4214763045310974,1.1295679807662964,-0.09087392687797546,-1.2514545917510986,0.20308569073677063,2.5561575889587402,1.7439907789230347
5513.253000,0.42138126492500305,1.1295524835586548,-0.09067968279123306,-1.2514456510543823,0.20336727797985077,2.5561583042144775,1.742857813835144
5513.269000,0.4213908314704895,1.1295559406280518,-0.0906909704208374,-1.2514413595199585,0.20404134690761566,2.556149482727051,1.7414202690124512
5513.286000,0.4213973879814148,1.1295480728149414,-0.09056863933801651,-1.251432180404663,0.20418401062488556,2.556149482727051,1.7405503988265991
5513.308000,0.42144420742988586,1.129554271697998,-0.09059558808803558,-1.251428246498108,0.2047019898891449,2.5561416149139404,1.7393321990966797
5513.328000,0.42145007848739624,1.1295503377914429,-0.09050767123699188,-1.2514219284057617,0.20488299429416656,2.556138277053833,1.7384207248687744
5513.350000,0.4214690029621124,1.129546880722046,-0.09042545408010483,-1.2514160871505737,0.20498983561992645,2.5561327934265137,1.7375863790512085
5513.365000,0.42147016525268555,1.1295442581176758,-0.09034564346075058,-1.2514125108718872,0.20510688424110413,2.556124210357666,1.7366878986358643
5513.383000,0.4214460849761963,1.1295408010482788,-0.090248703956604,-1.2514104843139648,0.20519717037677765,2.556114435195923,1.7357462644577026
5513.403000,0.42142513394355774,1.1295450925827026,-0.09022754430770874,-1.2514115571975708,0.20554900169372559,2.556103467941284,1.7345062494277954
5513.425000,0.42137885093688965,1.129550814628601,-0.09022467583417892,-1.2514138221740723,0.2060699164867401,2.5560927391052246,1.7330445051193237
5513.444000,0.4213138818740845,1.1295562982559204,-0.09022857993841171,-1.2514160871505737,0.20671427249908447,2.556082248687744,1.7314218282699585
5513.461000,0.4212113916873932,1.1295535564422607,-0.09015759825706482,-1.251416802406311,0.2072218358516693,2.5560710430145264,1.7298684120178223
5513.482000,0.4211120307445526,1.1295477151870728,-0.09005475789308548,-1.251416563987732,0.20760464668273926,2.5560598373413086,1.7284096479415894
5513.506000,0.42104846239089966,1.1295489072799683,-0.09001918137073517,-1.251417636871338,0.2081327587366104,2.556049108505249,1.7268216609954834
5513.528000,0.42098987102508545,1.1295522451400757,-0.09000691771507263,-1.2514188289642334,0.20875070989131927,2.556039571762085,1.7251449823379517
5513.551000,0.4209335446357727,1.1295561790466309,-0.09000701457262039,-1.2514196634292603,0.20943300426006317,2.556030750274658,1.7234116792678833
5513.568000,0.4208800196647644,1.1295602321624756,-0.09001430124044418,-1.2514199018478394,0.21016022562980652,2.5560226440429688,1.7216466665267944
5513.589000,0.42084333300590515,1.1295558214187622,-0.08993979543447495,-1.2514153718948364,0.2105376124382019,2.5560202598571777,1.7202903032302856
5513.610000,0.4208686649799347,1.1295512914657593,-0.08986864984035492,-1.2514082193374634,0.21070195734500885,2.5560202598571777,1.7192587852478027
5513.631000,0.42095282673835754,1.1295477151870728,-0.08980448544025421,-1.2513989210128784,0.21065372228622437,2.556023597717285,1.7185649871826172
5513.652000,0.4210934340953827,1.1295462846755981,-0.08976052701473236,-1.2513879537582397,0.21043598651885986,2.556030035018921,1.7181774377822876
5513.669000,0.42124342918395996,1.1295561790466309,-0.08983220905065536,-1.2513818740844727,0.2105620801448822,2.556030035018921,1.7174880504608154
5513.690000,0.42137378454208374,1.129557490348816,-0.08981271088123322,-1.2513723373413086,0.21038159728050232,2.556037425994873,1.7171587944030762
5513.711000,0.42155295610427856,1.1295592784881592,-0.08980613946914673,-1.251360535621643,0.21005161106586456,2.5560474395751953,1.71711003780365
5513.732000,0.4217742085456848,1.1295623779296875,-0.08981610834598541,-1.251347303390503,0.20959608256816864,2.5560598373413086,1.7173181772232056
5513.751000,0.4220251441001892,1.1295671463012695,-0.08984579890966415,-1.251333475112915,0.2090611606836319,2.5560736656188965,1.7177232503890991
5513.768000,0.4222971498966217,1.129573106765747,-0.089888796210289,-1.251319169998169,0.2084520310163498,2.556088924407959,1.7183116674423218
5513.789000,0.42258721590042114,1.1295802593231201,-0.08994515985250473,-1.2513043880462646,0.2077820599079132,2.556105613708496,1.7190669775009155
5513.810000,0.42283254861831665,1.1295979022979736,-0.09011496603488922,-1.251297116279602,0.20763935148715973,2.5561110973358154,1.719253659248352
5513.831000,0.4230220913887024,1.1296039819717407,-0.09015971422195435,-1.2512866258621216,0.20721374452114105,2.556124448776245,1.7197173833847046
5513.852000,0.42325037717819214,1.1296097040176392,-0.09021037817001343,-1.2512738704681396,0.20667795836925507,2.5561399459838867,1.7203917503356934
5513.869000,0.423511266708374,1.129616379737854,-0.09027466922998428,-1.2512600421905518,0.20606401562690735,2.556156873703003,1.72124445438385
5513.891000,0.4237958490848541,1.1296240091323853,-0.09035006910562515,-1.2512454986572266,0.2053823173046112,2.5561752319335938,1.722259759902954
5513.911000,0.4240947961807251,1.1296327114105225,-0.09043821692466736,-1.2512309551239014,0.20466475188732147,2.5561940670013428,1.7233935594558716
5513.932000,0.42439937591552734,1.129642367362976,-0.09053639322519302,-1.2512166500091553,0.20393019914627075,2.556212902069092,1.7246134281158447
5513.953000,0.42463478446006775,1.129662036895752,-0.09074471145868301,-1.251211166381836,0.20380379259586334,2.556218385696411,1.725119948387146
5513.969000,0.42479777336120605,1.1296682357788086,-0.09080275148153305,-1.2512023448944092,0.20337271690368652,2.556231737136841,1.7258758544921875
5513.991000,0.4250001907348633,1.1296710968017578,-0.09083408862352371,-1.2511903047561646,0.20271703600883484,2.556248426437378,1.7269351482391357
5514.011000,0.4251771569252014,1.1296873092651367,-0.09101167321205139,-1.251186490058899,0.20267437398433685,2.556251287460327,1.7273014783859253
5514.032000,0.42522796988487244,1.1297011375427246,-0.09115812927484512,-1.251187801361084,0.20295457541942596,2.556248903274536,1.7271302938461304
5514.049000,0.4251864552497864,1.1297111511230469,-0.09126504510641098,-1.2511917352676392,0.20345458388328552,2.556243419647217,1.7265453338623047
5514.069000,0.4250863790512085,1.1297177076339722,-0.0913400799036026,-1.2511968612670898,0.20410838723182678,2.5562360286712646,1.7256449460983276
5514.090000,0.42505884170532227,1.1297014951705933,-0.0911705270409584,-1.2511872053146362,0.20367556810379028,2.55625057220459,1.725962519645691
5514.111000,0.42525309324264526,1.1296889781951904,-0.09104669094085693,-1.251168966293335,0.20264890789985657,2.5562734603881836,1.7272181510925293
5514.132000,0.4256220757961273,1.1296805143356323,-0.09095428884029388,-1.2511448860168457,0.2010459303855896,2.556304693222046,1.7293990850448608
5514.152000,0.4261234402656555,1.1296792030334473,-0.09092264622449875,-1.2511186599731445,0.19906644523143768,2.556339740753174,1.7322793006896973
5514.170000,0.4267219603061676,1.1296812295913696,-0.09090859442949295,-1.2510900497436523,0.19664795696735382,2.5563805103302,1.7359100580215454
5514.191000,0.42725545167922974,1.1297141313552856,-0.09122689813375473,-1.251080870628357,0.19551090896129608,2.556394100189209,1.73819899559021
5514.211000,0.4275127649307251,1.1297430992126465,-0.09149935096502304,-1.2510827779769897,0.1950664222240448,2.5563971996307373,1.7394359111785889
5514.231000,0.4277474284172058,1.129733681678772,-0.09135263413190842,-1.2510656118392944,0.1931791752576828,2.5564305782318115,1.742227554321289
5514.253000,0.4280602037906647,1.1297578811645508,-0.09160833805799484,-1.2510623931884766,0.19251121580600739,2.5564377307891846,1.7438243627548218
5514.269000,0.42816269397735596,1.1297792196273804,-0.09183337539434433,-1.2510676383972168,0.19244709610939026,2.5564358234405518,1.7444876432418823
5514.291000,0.42810121178627014,1.1297937631607056,-0.09199722111225128,-1.2510771751403809,0.19279628992080688,2.556428909301758,1.7444255352020264
5514.311000,0.42815980315208435,1.1297669410705566,-0.0916924923658371,-1.2510591745376587,0.19111566245555878,2.5564627647399902,1.7466785907745361
5514.332000,0.428637832403183,1.1297491788864136,-0.09148801118135452,-1.2510261535644531,0.18836717307567596,2.556511402130127,1.7507033348083496
5514.349000,0.4294334650039673,1.129742980003357,-0.09137511253356934,-1.2509846687316895,0.18470138311386108,2.5565712451934814,1.7563258409500122
5514.369000,0.43047353625297546,1.1297483444213867,-0.0913417860865593,-1.2509387731552124,0.18023307621479034,2.5566396713256836,1.7634077072143555
5514.390000,0.4317064583301544,1.1297646760940552,-0.09137731045484543,-1.2508909702301025,0.17505338788032532,2.5567142963409424,1.7718356847763062
5514.411000,0.4330715835094452,1.1297940015792847,-0.09150899201631546,-1.2508454322814941,0.16945074498653412,2.5567891597747803,1.781244158744812
5514.432000,0.434198796749115,1.1298710107803345,-0.09223873168230057,-1.2508394718170166,0.16655905544757843,2.556814193725586,1.7876765727996826
5514.449000,0.4350294768810272,1.1298925876617432,-0.09227503836154938,-1.2508156299591064,0.1619967222213745,2.5568695068359375,1.795706033706665
5514.468000,0.43609896302223206,1.1299151182174683,-0.09230771660804749,-1.250781774520874,0.15655511617660522,2.5569334030151367,1.8051698207855225
5514.490000,0.4373728930950165,1.1299493312835693,-0.09243649989366531,-1.250746488571167,0.15061628818511963,2.5569980144500732,1.815674901008606
5514.508000,0.43878254294395447,1.1299922466278076,-0.09260620176792145,-1.2507115602493286,0.14415107667446136,2.557063341140747,1.8272066116333008
5514.529000,0.43991464376449585,1.1300814151763916,-0.0934877023100853,-1.2507201433181763,0.14102740585803986,2.5570790767669678,1.8349570035934448
5514.548000,0.4403080940246582,1.130144476890564,-0.09419659525156021,-1.2507468461990356,0.13975735008716583,2.5570762157440186,1.8397338390350342
5514.562000,0.4405795931816101,1.1301405429840088,-0.0939783975481987,-1.2507364749908447,0.13572435081005096,2.557111978530884,1.8472473621368408
5514.583000,0.4413655698299408,1.130150318145752,-0.09385070204734802,-1.2507109642028809,0.13041970133781433,2.557157278060913,1.8568211793899536
5514.603000,0.44255003333091736,1.1301788091659546,-0.09383819252252579,-1.2506797313690186,0.12408490478992462,2.5572071075439453,1.868210792541504
5514.625000,0.44355833530426025,1.1302601099014282,-0.09472095966339111,-1.2506946325302124,0.12141809612512589,2.5572125911712646,1.8755648136138916
5514.646000,0.44425883889198303,1.1302796602249146,-0.0946425274014473,-1.2506812810897827,0.11619950085878372,2.557245969772339,1.8853836059570312
5514.663000,0.4453504681587219,1.1303133964538574,-0.09463238716125488,-1.2506598234176636,0.10988712310791016,2.5572829246520996,1.8970365524291992
5514.685000,0.4467558264732361,1.1303648948669434,-0.09471450001001358,-1.2506368160247803,0.10266799479722977,2.5573196411132812,1.9103403091430664
5514.706000,0.4483957290649414,1.1304340362548828,-0.09488437324762344,-1.2506165504455566,0.09469777345657349,2.5573525428771973,1.9251043796539307
5514.727000,0.45018282532691956,1.130520224571228,-0.09516552090644836,-1.2506035566329956,0.08631269633769989,2.557377815246582,1.9408925771713257
5514.749000,0.4520512521266937,1.1306180953979492,-0.0954853966832161,-1.2505968809127808,0.07746654003858566,2.5573947429656982,1.9576826095581055
5514.765000,0.45341676473617554,1.130741000175476,-0.09679634124040604,-1.2506433725357056,0.0736774280667305,2.5573835372924805,1.9685803651809692
5514.786000,0.4536454975605011,1.130802869796753,-0.09781674295663834,-1.2506992816925049,0.07271401584148407,2.5573647022247314,1.9748526811599731
5514.804000,0.45349881052970886,1.1308103799819946,-0.0979991927742958,-1.2507258653640747,0.0704665556550026,2.5573527812957764,1.981786847114563
5514.826000,0.45362165570259094,1.1308242082595825,-0.09821255505084991,-1.2507433891296387,0.06795705854892731,2.5573418140411377,1.9891835451126099
5514.847000,0.4539013206958771,1.1308494806289673,-0.09864219278097153,-1.250762939453125,0.06606510281562805,2.5573291778564453,1.9960615634918213
5514.864000,0.45417144894599915,1.1308741569519043,-0.09910286962985992,-1.2507821321487427,0.06457233428955078,2.5573155879974365,2.002490997314453
5514.884000,0.45435401797294617,1.1308971643447876,-0.09965827316045761,-1.2508050203323364,0.06394436955451965,2.5573008060455322,2.007858991622925
5514.906000,0.4543856978416443,1.130911111831665,-0.10016803443431854,-1.2508279085159302,0.06388553231954575,2.557285785675049,2.0123701095581055
5514.927000,0.45424318313598633,1.1309164762496948,-0.10067357122898102,-1.2508528232574463,0.06462520360946655,2.5572702884674072,2.0156874656677246
5514.945000,0.45386552810668945,1.1309093236923218,-0.10112649947404861,-1.2508795261383057,0.06618936359882355,2.5572545528411865,2.0176267623901367
5514.964000,0.4530634880065918,1.1308846473693848,-0.10164079070091248,-1.2509171962738037,0.06963322311639786,2.5572359561920166,2.0166399478912354
5514.983000,0.4517710208892822,1.13083016872406,-0.10189731419086456,-1.2509568929672241,0.07410712540149689,2.557215452194214,2.0134012699127197
5515.003000,0.450166791677475,1.1307563781738281,-0.10193343460559845,-1.2509974241256714,0.07923737168312073,2.55719256401062,2.008446455001831
5515.023000,0.44839245080947876,1.130672574043274,-0.1018075942993164,-1.2510385513305664,0.08477628976106644,2.5571672916412354,2.002201557159424
5515.038000,0.4466297924518585,1.130584478378296,-0.10145212709903717,-1.2510737180709839,0.0898190587759018,2.557142734527588,1.9959344863891602
5515.058000,0.4450167119503021,1.1305052042007446,-0.10107848048210144,-1.2511061429977417,0.09457793831825256,2.5571184158325195,1.9896942377090454
5515.079000,0.443509578704834,1.1304336786270142,-0.10072747617959976,-1.2511382102966309,0.09924229234457016,2.5570926666259766,1.9833060503005981
5515.101000,0.44207146763801575,1.1303668022155762,-0.10036562383174896,-1.2511694431304932,0.10375483334064484,2.5570662021636963,1.9768484830856323
5515.123000,0.44067561626434326,1.1303036212921143,-0.10000298917293549,-1.251200795173645,0.10820314288139343,2.557037830352783,1.9702303409576416
5515.144000,0.4393123984336853,1.1302425861358643,-0.09961894899606705,-1.2512316703796387,0.11252719163894653,2.5570082664489746,1.9635345935821533
5515.161000,0.437976598739624,1.1301840543746948,-0.09922899305820465,-1.2512626647949219,0.11678851395845413,2.556976795196533,1.9567091464996338
5515.182000,0.4366562068462372,1.130127191543579,-0.09882626682519913,-1.2512938976287842,0.1209949478507042,2.556943416595459,1.9497445821762085
5515.204000,0.4353582561016083,1.1300716400146484,-0.0984029471874237,-1.2513247728347778,0.1250947266817093,2.55690860748291,1.9427212476730347
5515.224000,0.4340926706790924,1.1300179958343506,-0.09796682000160217,-1.2513551712036133,0.12907955050468445,2.556872606277466,1.9356769323349
5515.244000,0.4328697919845581,1.1299717426300049,-0.09760574996471405,-1.2513874769210815,0.13325555622577667,2.5568342208862305,1.9283275604248047
5515.262000,0.43165862560272217,1.1299225091934204,-0.09716984629631042,-1.2514172792434692,0.1371675729751587,2.5567965507507324,1.9211353063583374
5515.281000,0.43051818013191223,1.1298755407333374,-0.09672395884990692,-1.2514448165893555,0.1408497840166092,2.5567591190338135,1.91415536403656
5515.301000,0.42945432662963867,1.1298319101333618,-0.09628717601299286,-1.2514705657958984,0.14433187246322632,2.5567221641540527,1.9073880910873413
5515.321000,0.4284723401069641,1.1297916173934937,-0.09585953503847122,-1.2514939308166504,0.14758281409740448,2.5566866397857666,1.900902271270752
5515.337000,0.4275709390640259,1.1297550201416016,-0.09545423090457916,-1.25151526927948,0.15064169466495514,2.556652069091797,1.8946791887283325
5515.354000,0.42674946784973145,1.129721760749817,-0.0950668603181839,-1.2515342235565186,0.1534869223833084,2.55661940574646,1.888765811920166
5515.377000,0.42600324749946594,1.1296919584274292,-0.09470614790916443,-1.2515511512756348,0.15615783631801605,2.5565879344940186,1.883132815361023
5515.398000,0.42532894015312195,1.1296650171279907,-0.09436600655317307,-1.2515658140182495,0.15863965451717377,2.556558609008789,1.8778094053268433
5515.419000,0.424720823764801,1.129641056060791,-0.09405213594436646,-1.2515785694122314,0.1609678864479065,2.556530714035034,1.8727622032165527
5515.436000,0.4241749048233032,1.1296194791793823,-0.09375825524330139,-1.251589298248291,0.16313159465789795,2.556504726409912,1.8680087327957153
5515.457000,0.4236927330493927,1.1296004056930542,-0.09348780661821365,-1.2515978813171387,0.16513828933238983,2.556480884552002,1.863553762435913
5515.478000,0.4232667088508606,1.1295838356018066,-0.09324323385953903,-1.2516047954559326,0.16701935231685638,2.5564587116241455,1.8593603372573853
5515.499000,0.4228910803794861,1.129569172859192,-0.09301804006099701,-1.2516099214553833,0.16877003014087677,2.5564382076263428,1.8554307222366333
5515.520000,0.4225598871707916,1.12955641746521,-0.09281361103057861,-1.251613736152649,0.17041456699371338,2.5564191341400146,1.8517323732376099
5515.540000,0.42226919531822205,1.1295452117919922,-0.09262469410896301,-1.25161612033844,0.17194783687591553,2.556401491165161,1.8482661247253418
5515.558000,0.4220183491706848,1.129535436630249,-0.0924515575170517,-1.2516170740127563,0.1733739674091339,2.5563855171203613,1.8450273275375366
5515.578000,0.4218023419380188,1.1295270919799805,-0.09229526668787003,-1.2516169548034668,0.1747128814458847,2.556370735168457,1.8419866561889648
5515.599000,0.4216153025627136,1.1295199394226074,-0.09215230494737625,-1.2516158819198608,0.1759713590145111,2.556356906890869,1.8391265869140625
5515.620000,0.4214526116847992,1.1295137405395508,-0.09202101081609726,-1.2516140937805176,0.1771596074104309,2.5563440322875977,1.8364259004592896
5515.641000,0.42131346464157104,1.129508137702942,-0.09189596772193909,-1.2516114711761475,0.17826178669929504,2.5563323497772217,1.833897352218628
5515.658000,0.4212006628513336,1.1295034885406494,-0.09178180992603302,-1.251607894897461,0.17928698658943176,2.556321859359741,1.8315335512161255
5515.678000,0.42111071944236755,1.1294997930526733,-0.09167929738759995,-1.2516037225723267,0.18024908006191254,2.556312084197998,1.8293133974075317
5515.699000,0.42104074358940125,1.1294968128204346,-0.09158565104007721,-1.2515989542007446,0.18114782869815826,2.5563032627105713,1.8272316455841064
5515.720000,0.420987993478775,1.129494547843933,-0.09150105714797974,-1.2515937089920044,0.181993305683136,2.556295156478882,1.8252713680267334
5515.741000,0.42095068097114563,1.1294928789138794,-0.09142334014177322,-1.251587986946106,0.18278449773788452,2.556288003921509,1.8234288692474365
5515.758000,0.42092835903167725,1.1294916868209839,-0.0913524404168129,-1.2515819072723389,0.18352361023426056,2.556281566619873,1.8216991424560547
5515.779000,0.42084378004074097,1.1294993162155151,-0.09139440953731537,-1.2515836954116821,0.18486115336418152,2.556262969970703,1.8192497491836548
5515.800000,0.4206992983818054,1.1294944286346436,-0.09128426760435104,-1.2515817880630493,0.18585166335105896,2.5562524795532227,1.8170881271362305
5515.821000,0.4206109941005707,1.129489541053772,-0.09117765724658966,-1.2515771389007568,0.1866837739944458,2.5562446117401123,1.8151637315750122
5515.841000,0.4205726981163025,1.129486083984375,-0.09108702838420868,-1.2515709400177002,0.18739840388298035,2.5562384128570557,1.8134417533874512
5515.858000,0.42057159543037415,1.1294840574264526,-0.09101133048534393,-1.2515637874603271,0.18801824748516083,2.5562336444854736,1.811893343925476
5515.879000,0.4205969274044037,1.1294833421707153,-0.09094854444265366,-1.2515560388565063,0.18856331706047058,2.556229829788208,1.8104897737503052
5515.900000,0.4206411838531494,1.1294835805892944,-0.09089574962854385,-1.251547932624817,0.1890449821949005,2.5562267303466797,1.8092120885849
5515.920000,0.42069903016090393,1.1294845342636108,-0.09085149317979813,-1.251539707183838,0.1894756257534027,2.5562243461608887,1.8080406188964844
5515.937000,0.42076683044433594,1.129486083984375,-0.09081380069255829,-1.2515312433242798,0.18986152112483978,2.556222438812256,1.8069630861282349
5515.957000,0.4208424389362335,1.1294879913330078,-0.09078168123960495,-1.2515227794647217,0.1902083307504654,2.5562210083007812,1.80596923828125
5515.978000,0.4209238588809967,1.1294902563095093,-0.09075461328029633,-1.2515143156051636,0.19052302837371826,2.556220054626465,1.8050469160079956
5515.998000,0.4210108816623688,1.129492998123169,-0.09073308110237122,-1.251505732536316,0.19081105291843414,2.5562195777893066,1.804188847541809
5516.022000,0.4211019277572632,1.1294959783554077,-0.0907163918018341,-1.2514971494674683,0.19107721745967865,2.5562193393707275,1.8033864498138428
5516.040000,0.42119380831718445,1.1294991970062256,-0.09070397168397903,-1.2514888048171997,0.19133147597312927,2.5562191009521484,1.8026219606399536
5516.057000,0.4212847650051117,1.1295024156570435,-0.09069312363862991,-1.2514805793762207,0.1915718913078308,2.5562191009521484,1.8018921613693237
5516.078000,0.42137524485588074,1.1295056343078613,-0.09068337827920914,-1.2514724731445312,0.1917973905801773,2.5562193393707275,1.8011959791183472
5516.099000,0.42146560549736023,1.1295088529586792,-0.0906749740242958,-1.2514644861221313,0.1920091062784195,2.5562195777893066,1.8005307912826538
5516.121000,0.4215550124645233,1.129512071609497,-0.09066809713840485,-1.2514567375183105,0.19221121072769165,2.5562198162078857,1.7998888492584229
5516.137000,0.42164433002471924,1.1295151710510254,-0.09066135436296463,-1.2514491081237793,0.19239695370197296,2.556220293045044,1.799277424812317
5516.157000,0.421734482049942,1.1295183897018433,-0.09065618366003036,-1.251441478729248,0.19256927073001862,2.5562210083007812,1.7986937761306763
5516.178000,0.4218253195285797,1.1295216083526611,-0.0906524658203125,-1.2514339685440063,0.19272847473621368,2.5562219619750977,1.7981370687484741
5516.199000,0.42191576957702637,1.1295249462127686,-0.0906505137681961,-1.2514266967773438,0.19287937879562378,2.556222915649414,1.7975997924804688
5516.220000,0.4219263792037964,1.1295372247695923,-0.09075610339641571,-1.2514283657073975,0.19367848336696625,2.5562098026275635,1.7962394952774048
5516.237000,0.42186620831489563,1.1295318603515625,-0.09065685421228409,-1.2514246702194214,0.19397403299808502,2.556206703186035,1.7952914237976074
5516.257000,0.42187798023223877,1.1295257806777954,-0.09055417031049728,-1.251417636871338,0.19402377307415009,2.5562069416046143,1.7946680784225464
5516.278000,0.42195814847946167,1.1295188665390015,-0.09043804556131363,-1.2514073848724365,0.19376082718372345,2.556210994720459,1.7944622039794922
5516.299000,0.42210322618484497,1.1295143365859985,-0.09034121781587601,-1.2513957023620605,0.19328813254833221,2.5562169551849365,1.794580101966858
5516.320000,0.42230460047721863,1.129509449005127,-0.09023256599903107,-1.251381754875183,0.19249974191188812,2.556227207183838,1.7951442003250122
5516.341000,0.4225636422634125,1.129507303237915,-0.09014800935983658,-1.2513668537139893,0.19151003658771515,2.556239366531372,1.796048879623413
5516.357000,0.4228765666484833,1.129504919052124,-0.09005311876535416,-1.251349687576294,0.1901959627866745,2.556256055831909,1.7974387407302856
5516.377000,0.4232659339904785,1.129502773284912,-0.08995352685451508,-1.2513293027877808,0.18849308788776398,2.5562784671783447,1.7994321584701538
5516.399000,0.4237293004989624,1.129504680633545,-0.0898929014801979,-1.2513079643249512,0.1865561604499817,2.556303024291992,1.801877737045288
5516.419000,0.4242557883262634,1.129507303237915,-0.08983184397220612,-1.2512843608856201,0.18426905572414398,2.5563323497772217,1.8049038648605347
5516.441000,0.4248431324958801,1.1295140981674194,-0.08981037139892578,-1.25126051902771,0.18178196251392365,2.556363344192505,1.8083571195602417
5516.457000,0.42541733384132385,1.1295300722122192,-0.08989450335502625,-1.251242756843567,0.17959022521972656,2.556387186050415,1.811596155166626
5516.478000,0.42586562037467957,1.1295502185821533,-0.09003502130508423,-1.2512335777282715,0.1779266744852066,2.556401014328003,1.8141781091690063
5516.498000,0.4261617362499237,1.129565715789795,-0.09013417363166809,-1.2512292861938477,0.17658595740795135,2.5564098358154297,1.8162347078323364
5516.519000,0.42630794644355774,1.1295791864395142,-0.09023416042327881,-1.2512314319610596,0.17576609551906586,2.5564095973968506,1.8174943923950195
5516.539000,0.42627429962158203,1.129588007926941,-0.09030395746231079,-1.2512401342391968,0.1754930317401886,2.5563998222351074,1.8178269863128662
5516.554000,0.42608630657196045,1.1295890808105469,-0.09029841423034668,-1.2512524127960205,0.17555902898311615,2.5563852787017822,1.8174415826797485
5516.574000,0.4257734715938568,1.1295855045318604,-0.0902550145983696,-1.251268744468689,0.17602328956127167,2.556364059448242,1.8162752389907837
5516.593000,0.42536094784736633,1.1295762062072754,-0.09014984220266342,-1.2512871026992798,0.17672638595104218,2.5563395023345947,1.81451416015625
5516.611000,0.42487043142318726,1.1295639276504517,-0.09001392126083374,-1.2513082027435303,0.17770817875862122,2.5563101768493652,1.8121315240859985
5516.629000,0.42432060837745667,1.1295479536056519,-0.08983125537633896,-1.2513306140899658,0.17884476482868195,2.556278705596924,1.8092856407165527
5516.644000,0.42380067706108093,1.1295369863510132,-0.08969566226005554,-1.2513530254364014,0.18021710216999054,2.55625057220459,1.8060612678527832
5516.665000,0.4233108162879944,1.1295287609100342,-0.08959563821554184,-1.2513741254806519,0.1817755401134491,2.5562245845794678,1.8025672435760498
5516.685000,0.4228478670120239,1.1295220851898193,-0.08951880782842636,-1.2513935565948486,0.18347063660621643,2.5562000274658203,1.7988895177841187
5516.708000,0.4224100410938263,1.1295161247253418,-0.08945667743682861,-1.2514113187789917,0.18525992333889008,2.5561766624450684,1.795095682144165
5516.730000,0.4219966232776642,1.129510760307312,-0.08940382301807404,-1.2514275312423706,0.187108114361763,2.556154251098633,1.7912386655807495
5516.746000,0.42160728573799133,1.1295057535171509,-0.08935686200857162,-1.2514421939849854,0.1889864206314087,2.5561327934265137,1.7873598337173462
5516.767000,0.4212418794631958,1.129501223564148,-0.08931376039981842,-1.2514554262161255,0.19087174534797668,2.556112051010132,1.7834913730621338
5516.788000,0.4209001362323761,1.1294970512390137,-0.08927332609891891,-1.2514674663543701,0.19274583458900452,2.556091785430908,1.7796579599380493
5516.810000,0.42058175802230835,1.129493236541748,-0.08923488855361938,-1.2514783143997192,0.1945943981409073,2.556072235107422,1.7758784294128418
5516.829000,0.42019620537757874,1.129480004310608,-0.08909549564123154,-1.2514897584915161,0.19627074897289276,2.556044578552246,1.772128701210022
5516.846000,0.4197717010974884,1.1294587850570679,-0.08884802460670471,-1.2515015602111816,0.1976340413093567,2.5560142993927,1.76854407787323
5516.867000,0.4193515181541443,1.1294350624084473,-0.08854790776968002,-1.251513957977295,0.1987311989068985,2.5559825897216797,1.7651118040084839
5516.888000,0.4190378189086914,1.1294232606887817,-0.08834753185510635,-1.2515259981155396,0.1998356133699417,2.5559580326080322,1.7617436647415161
5516.909000,0.4188005030155182,1.1294184923171997,-0.08822272717952728,-1.251536250114441,0.20096637308597565,2.555938243865967,1.7584484815597534
5516.929000,0.41861492395401,1.1294175386428833,-0.08814971894025803,-1.2515443563461304,0.20212307572364807,2.555921792984009,1.7552326917648315
5516.946000,0.41846516728401184,1.1294186115264893,-0.08811143040657043,-1.251550555229187,0.20329928398132324,2.555907726287842,1.7521007061004639
5516.967000,0.41828012466430664,1.129401445388794,-0.08789411932229996,-1.2515512704849243,0.20387139916419983,2.555893898010254,1.749574065208435
5516.988000,0.41814520955085754,1.1293771266937256,-0.08759250491857529,-1.251548409461975,0.2038654088973999,2.555881977081299,1.7476977109909058
5517.008000,0.4180794954299927,1.1293529272079468,-0.0872739851474762,-1.2515443563461304,0.20342867076396942,2.5558712482452393,1.7463364601135254
5517.026000,0.4180838167667389,1.1293283700942993,-0.08692996948957443,-1.2515382766723633,0.20250488817691803,2.5558650493621826,1.745567798614502
5517.046000,0.4181616008281708,1.1293072700500488,-0.08660539239645004,-1.2515314817428589,0.2012375295162201,2.555861473083496,1.7452620267868042
5517.066000,0.41830727458000183,1.1292871236801147,-0.08627767860889435,-1.2515226602554321,0.19955945014953613,2.55586314201355,1.7455085515975952
5517.088000,0.41854211688041687,1.1292973756790161,-0.08626846224069595,-1.251522421836853,0.1986687332391739,2.555860757827759,1.7451175451278687
5517.108000,0.4187089800834656,1.129285454750061,-0.08602989464998245,-1.2515140771865845,0.1970560997724533,2.5558695793151855,1.7455012798309326
5517.129000,0.41896286606788635,1.1293004751205444,-0.08610066026449203,-1.251513123512268,0.1962723582983017,2.5558714866638184,1.7452162504196167
5517.146000,0.4191400408744812,1.1293195486068726,-0.08623295277357101,-1.25151526927948,0.19599555432796478,2.555872678756714,1.7444169521331787
5517.166000,0.4192476272583008,1.1293377876281738,-0.08638395369052887,-1.2515180110931396,0.19610202312469482,2.5558736324310303,1.743226170539856
5517.187000,0.41930508613586426,1.1293537616729736,-0.08653947710990906,-1.2515202760696411,0.19650372862815857,2.5558743476867676,1.741741418838501
5517.208000,0.41932857036590576,1.129367470741272,-0.08669278770685196,-1.2515218257904053,0.19712978601455688,2.555874824523926,1.7400401830673218
5517.225000,0.41933026909828186,1.129379153251648,-0.08684060722589493,-1.2515225410461426,0.1979227513074875,2.555874824523926,1.7381837368011475
5517.245000,0.4193190634250641,1.1293892860412598,-0.08698157966136932,-1.2515225410461426,0.1988365352153778,2.5558745861053467,1.736220359802246
5517.266000,0.4193013310432434,1.129398226737976,-0.08711539953947067,-1.2515218257904053,0.19983439147472382,2.5558743476867676,1.734188199043274
5517.286000,0.41928157210350037,1.1294063329696655,-0.08724230527877808,-1.2515206336975098,0.2008872777223587,2.5558738708496094,1.7321170568466187
5517.308000,0.41937658190727234,1.1293669939041138,-0.0868566706776619,-1.2514925003051758,0.19963401556015015,2.5559072494506836,1.7326936721801758
5517.330000,0.41974568367004395,1.1293771266937256,-0.08700814098119736,-1.2514770030975342,0.19934988021850586,2.5559189319610596,1.732647180557251
5517.344000,0.4200109839439392,1.12939453125,-0.08720485121011734,-1.251469612121582,0.19947507977485657,2.5559258460998535,1.7321199178695679
5517.365000,0.42017489671707153,1.1294115781784058,-0.08739149570465088,-1.251466155052185,0.19987578690052032,2.5559301376342773,1.7312251329421997
5517.386000,0.4202675223350525,1.1294264793395996,-0.08756158500909805,-1.2514643669128418,0.20047758519649506,2.5559325218200684,1.7300529479980469
5517.407000,0.4203130900859833,1.129439115524292,-0.08771541714668274,-1.2514631748199463,0.20122486352920532,2.555933713912964,1.7286747694015503
5517.424000,0.42032891511917114,1.129449725151062,-0.08785471320152283,-1.2514619827270508,0.20207428932189941,2.555933952331543,1.727147102355957
5517.443000,0.42053112387657166,1.1293989419937134,-0.08733613044023514,-1.2514231204986572,0.1998329758644104,2.555985450744629,1.7292134761810303
5517.464000,0.4212888479232788,1.1293556690216064,-0.08690257370471954,-1.251364827156067,0.19580809772014618,2.5560553073883057,1.7340401411056519
5517.484000,0.4224645793437958,1.129327416419983,-0.08657220751047134,-1.251297950744629,0.1903245747089386,2.556138515472412,1.741231918334961
5517.504000,0.42369964718818665,1.1293786764144897,-0.08705965429544449,-1.2512708902359009,0.18722058832645416,2.5561745166778564,1.7462328672409058
5517.524000,0.4244847297668457,1.129433274269104,-0.08755026757717133,-1.2512648105621338,0.18538370728492737,2.556195020675659,1.7495074272155762
5517.541000,0.4251861274242401,1.1294149160385132,-0.08721107989549637,-1.251224160194397,0.1806630939245224,2.556264638900757,1.755922794342041
5517.562000,0.4263458251953125,1.1294025182724,-0.0869373083114624,-1.2511677742004395,0.17445579171180725,2.556347370147705,1.7647181749343872
5517.583000,0.42786136269569397,1.1294046640396118,-0.0867549479007721,-1.2511060237884521,0.16702602803707123,2.5564379692077637,1.7755873203277588
5517.605000,0.4296428859233856,1.1294240951538086,-0.08666368573904037,-1.2510448694229126,0.1585846245288849,2.556532382965088,1.7882633209228516
5517.625000,0.43127375841140747,1.1295212507247925,-0.08752740919589996,-1.2510366439819336,0.15377794206142426,2.556570053100586,1.7971693277359009
5517.640000,0.4321750998497009,1.1296056509017944,-0.08831705152988434,-1.2510511875152588,0.15102525055408478,2.5565876960754395,1.8031026124954224
5517.663000,0.4325210750102997,1.1296656131744385,-0.08894955366849899,-1.2510737180709839,0.14975638687610626,2.556593894958496,1.806699275970459
5517.683000,0.43249306082725525,1.129703402519226,-0.08944239467382431,-1.2510981559753418,0.1495959460735321,2.5565924644470215,1.808466911315918
5517.703000,0.4322226643562317,1.1297242641448975,-0.08982192724943161,-1.251122236251831,0.15026016533374786,2.5565857887268066,1.8088101148605347
5517.721000,0.43180084228515625,1.1297330856323242,-0.09011221677064896,-1.251145362854004,0.15153098106384277,2.5565757751464844,1.8080511093139648
5517.741000,0.43128952383995056,1.129733920097351,-0.09033339470624924,-1.2511675357818604,0.15324096381664276,2.556563138961792,1.8064465522766113
5517.762000,0.4307304322719574,1.1297297477722168,-0.09050167351961136,-1.2511887550354004,0.15526191890239716,2.556548833847046,1.8042004108428955
5517.782000,0.43015143275260925,1.1297227144241333,-0.09062979370355606,-1.251209020614624,0.15749605000019073,2.5565335750579834,1.801474690437317
5517.802000,0.4295707643032074,1.1297142505645752,-0.0907275453209877,-1.2512284517288208,0.15986888110637665,2.5565173625946045,1.7983977794647217
5517.821000,0.4294791519641876,1.1296318769454956,-0.08972334116697311,-1.251184105873108,0.15663741528987885,2.55657696723938,1.8019442558288574
5517.838000,0.4304753839969635,1.1295992136001587,-0.08921202272176743,-1.2511199712753296,0.15133552253246307,2.556652784347534,1.8093557357788086
5517.859000,0.43166384100914,1.12965726852417,-0.08985152840614319,-1.251102328300476,0.14911530911922455,2.5566768646240234,1.8140499591827393
5517.880000,0.43226730823516846,1.1297099590301514,-0.09045741707086563,-1.2511072158813477,0.14839613437652588,2.5566842555999756,1.8166135549545288
5517.901000,0.432407408952713,1.1297457218170166,-0.09092925488948822,-1.251122236251831,0.14871147274971008,2.5566823482513428,1.8175143003463745
5517.922000,0.43258294463157654,1.129745364189148,-0.09084171056747437,-1.2511074542999268,0.14703457057476044,2.556715250015259,1.8206677436828613
5517.937000,0.43315500020980835,1.1297658681869507,-0.09100687503814697,-1.2510859966278076,0.14506450295448303,2.556752920150757,1.8248107433319092
5517.959000,0.43392205238342285,1.1297982931137085,-0.09130090475082397,-1.251062035560608,0.14288467168807983,2.556793451309204,1.8296887874603271
5517.980000,0.43473854660987854,1.129841923713684,-0.09174338728189468,-1.2510426044464111,0.14100562036037445,2.5568292140960693,1.8345739841461182
5518.002000,0.4352547228336334,1.1298978328704834,-0.09245569258928299,-1.2510465383529663,0.1410362869501114,2.5568363666534424,1.837141513824463
5518.023000,0.4354749321937561,1.1299244165420532,-0.09278485924005508,-1.2510449886322021,0.14070774614810944,2.556852102279663,1.8397495746612549
5518.040000,0.43549883365631104,1.1299563646316528,-0.09328322857618332,-1.2510572671890259,0.14176319539546967,2.5568480491638184,1.8405228853225708
5518.061000,0.43534401059150696,1.129960536956787,-0.09347040951251984,-1.2510651350021362,0.14242446422576904,2.556852102279663,1.8413649797439575
5518.081000,0.43523457646369934,1.1299623250961304,-0.09363214671611786,-1.2510685920715332,0.1429872214794159,2.5568578243255615,1.8422541618347168
5518.102000,0.4351331889629364,1.129961609840393,-0.09382358193397522,-1.2510744333267212,0.14370781183242798,2.5568604469299316,1.8428819179534912
5518.119000,0.4348842203617096,1.1299655437469482,-0.09413661062717438,-1.251090407371521,0.1454218029975891,2.5568485260009766,1.842104434967041
5518.139000,0.43439584970474243,1.1299587488174438,-0.09434500336647034,-1.251111388206482,0.14765916764736176,2.5568299293518066,1.840247392654419
5518.160000,0.4338104724884033,1.1299365758895874,-0.09434130787849426,-1.25112783908844,0.14959992468357086,2.5568151473999023,1.838350534439087
5518.182000,0.43326666951179504,1.129913091659546,-0.09430091083049774,-1.2511417865753174,0.15140581130981445,2.5568013191223145,1.836436152458191
5518.202000,0.4327494204044342,1.129891037940979,-0.09426051378250122,-1.2511554956436157,0.15320998430252075,2.5567855834960938,1.8343688249588013
5518.219000,0.4322284758090973,1.1298692226409912,-0.09420575946569443,-1.2511699199676514,0.15503008663654327,2.5567679405212402,1.832106351852417
5518.239000,0.4316735863685608,1.1298532485961914,-0.09422057121992111,-1.2511892318725586,0.15728072822093964,2.556744337081909,1.8291728496551514
5518.260000,0.4310431480407715,1.1298352479934692,-0.09420406818389893,-1.2512106895446777,0.15975192189216614,2.556718349456787,1.8257418870925903
5518.281000,0.43036895990371704,1.1298152208328247,-0.09415468573570251,-1.2512328624725342,0.1623534858226776,2.5566909313201904,1.8219507932662964
5518.301000,0.42969954013824463,1.1297874450683594,-0.09398961812257767,-1.2512506246566772,0.1646060049533844,2.5566670894622803,1.818385362625122
5518.323000,0.4291069805622101,1.1297606229782104,-0.09381221979856491,-1.2512654066085815,0.166617289185524,2.556645154953003,1.8150482177734375
5518.338000,0.4285598695278168,1.1297428607940674,-0.09373310953378677,-1.251282811164856,0.16887547075748444,2.556619167327881,1.8114043474197388
5518.359000,0.42802953720092773,1.1297190189361572,-0.09355702251195908,-1.251295804977417,0.1707465499639511,2.556598663330078,1.8081215620040894
5518.380000,0.42754608392715454,1.1297043561935425,-0.0934850424528122,-1.251311182975769,0.1728665977716446,2.5565738677978516,1.8045681715011597
5518.401000,0.42704081535339355,1.1296902894973755,-0.09341169148683548,-1.2513275146484375,0.17508019506931305,2.5565478801727295,1.800830602645874
5518.422000,0.4265245795249939,1.1296758651733398,-0.09332827478647232,-1.251343846321106,0.1773349791765213,2.5565216541290283,1.7969770431518555
5518.438000,0.42605897784233093,1.1296535730361938,-0.09313719719648361,-1.2513532638549805,0.17906218767166138,2.5565037727355957,1.7937147617340088
5518.460000,0.4257182776927948,1.129634141921997,-0.09296721965074539,-1.251357913017273,0.1804543435573578,2.556490421295166,1.7909642457962036
5518.479000,0.4254235625267029,1.1296265125274658,-0.09293167293071747,-1.251366376876831,0.1821592152118683,2.5564701557159424,1.787941575050354
5518.500000,0.42514124512672424,1.1296110153198242,-0.09278946369886398,-1.251369833946228,0.18340717256069183,2.5564582347869873,1.7854440212249756
5518.521000,0.42494967579841614,1.1295979022979736,-0.09266815334558487,-1.251369833946228,0.18439942598342896,2.5564496517181396,1.7833693027496338
5518.537000,0.42477065324783325,1.1295957565307617,-0.09267586469650269,-1.2513749599456787,0.18577972054481506,2.5564329624176025,1.7809215784072876
5518.557000,0.4245823919773102,1.129584550857544,-0.0925670936703682,-1.251375436782837,0.18673746287822723,2.556424617767334,1.7789474725723267
5518.575000,0.4244728684425354,1.1295750141143799,-0.09247609972953796,-1.2513726949691772,0.18747279047966003,2.556419610977173,1.7773526906967163
5518.595000,0.424427330493927,1.1295678615570068,-0.09240902960300446,-1.2513679265975952,0.18803775310516357,2.5564167499542236,1.776078701019287
5518.611000,0.42442697286605835,1.1295629739761353,-0.0923638567328453,-1.2513619661331177,0.1884773075580597,2.556415557861328,1.7750612497329712
5518.632000,0.4244583249092102,1.1295597553253174,-0.0923345535993576,-1.2513552904129028,0.188812717795372,2.556415557861328,1.7742629051208496
5518.651000,0.42451149225234985,1.1295579671859741,-0.092319056391716,-1.2513481378555298,0.1890718936920166,2.5564165115356445,1.7736393213272095
5518.670000,0.4245799779891968,1.1295571327209473,-0.09231303632259369,-1.251340627670288,0.18926574289798737,2.5564181804656982,1.7731670141220093
5518.689000,0.42465880513191223,1.1295571327209473,-0.09231556951999664,-1.2513329982757568,0.18941263854503632,2.55642032623291,1.7728147506713867
5518.705000,0.4247448444366455,1.1295576095581055,-0.09232361614704132,-1.251325249671936,0.1895175725221634,2.5564229488372803,1.7725681066513062
5518.723000,0.42476382851600647,1.1295671463012695,-0.09244178980588913,-1.2513257265090942,0.19022175669670105,2.556413173675537,1.7716071605682373
5518.742000,0.4246441721916199,1.1295726299285889,-0.0925162136554718,-1.2513309717178345,0.19124078750610352,2.5563981533050537,1.770101547241211
5518.762000,0.4244292080402374,1.1295735836029053,-0.09254410862922668,-1.2513386011123657,0.19246532022953033,2.556380033493042,1.7681858539581299
5518.781000,0.42415785789489746,1.1295710802078247,-0.09253610670566559,-1.251347303390503,0.19382421672344208,2.5563602447509766,1.7659670114517212
5518.801000,0.4238571524620056,1.1295661926269531,-0.09250197559595108,-1.2513562440872192,0.19526554644107819,2.5563392639160156,1.763529658317566
5518.817000,0.4236195385456085,1.1295493841171265,-0.0923273116350174,-1.2513560056686401,0.19604571163654327,2.5563318729400635,1.761823296546936
5518.838000,0.4234600365161896,1.1295464038848877,-0.09231005609035492,-1.251359224319458,0.19716443121433258,2.5563161373138428,1.7598105669021606
5518.860000,0.42326003313064575,1.1295439004898071,-0.09228810667991638,-1.2513647079467773,0.1984066516160965,2.55629825592041,1.7575753927230835
5518.882000,0.42302924394607544,1.1295403242111206,-0.0922498106956482,-1.251371145248413,0.19971388578414917,2.556279182434082,1.7551840543746948
5518.905000,0.42278358340263367,1.1295357942581177,-0.09219836443662643,-1.2513779401779175,0.20105303823947906,2.5562596321105957,1.7526888847351074
5518.922000,0.42263737320899963,1.1295112371444702,-0.09192302078008652,-1.2513699531555176,0.20124483108520508,2.5562620162963867,1.7515398263931274
5518.944000,0.4227461814880371,1.129488468170166,-0.09166790544986725,-1.2513506412506104,0.20059192180633545,2.556277275085449,1.7516758441925049
5518.966000,0.4229426980018616,1.1294965744018555,-0.09174177795648575,-1.2513428926467896,0.20072466135025024,2.5562736988067627,1.7511564493179321
5518.986000,0.42300111055374146,1.1295058727264404,-0.09181228280067444,-1.2513424158096313,0.20120947062969208,2.5562644004821777,1.7501347064971924
5519.002000,0.42295005917549133,1.1295121908187866,-0.09185135364532471,-1.2513456344604492,0.20192459225654602,2.5562517642974854,1.7487322092056274
5519.019000,0.4228285253047943,1.129515290260315,-0.09186261892318726,-1.2513504028320312,0.202798530459404,2.55623722076416,1.747045636177063
5519.039000,0.42266520857810974,1.1295158863067627,-0.09185235947370529,-1.251355767250061,0.20377908647060394,2.5562214851379395,1.7451515197753906
5519.060000,0.42248108983039856,1.129503607749939,-0.09171193093061447,-1.2513569593429565,0.20437726378440857,2.556209087371826,1.7435790300369263
5519.075000,0.4223138988018036,1.1294909715652466,-0.09156685322523117,-1.2513587474822998,0.20489418506622314,2.5561928749084473,1.7420343160629272
5519.096000,0.42217203974723816,1.129486322402954,-0.09148934483528137,-1.2513630390167236,0.20558129251003265,2.55617618560791,1.7402846813201904
5519.112000,0.4220254421234131,1.129483938217163,-0.09143027663230896,-1.2513681650161743,0.20636798441410065,2.5561599731445312,1.7383891344070435
5519.132000,0.42187604308128357,1.1294822692871094,-0.09137994050979614,-1.251373291015625,0.20722268521785736,2.5561444759368896,1.7363941669464111
5519.151000,0.42165902256965637,1.1294736862182617,-0.09126581996679306,-1.2513798475265503,0.2080562561750412,2.556122064590454,1.7342679500579834
5519.172000,0.42139217257499695,1.129460096359253,-0.09109000861644745,-1.2513879537582397,0.2088143229484558,2.556096315383911,1.7320551872253418
5519.193000,0.42109358310699463,1.1294444799423218,-0.09087901562452316,-1.2513980865478516,0.20953217148780823,2.55606746673584,1.7297223806381226
5519.211000,0.420771062374115,1.1294279098510742,-0.09064362943172455,-1.2514101266860962,0.21022388339042664,2.5560364723205566,1.727258563041687
5519.232000,0.42043668031692505,1.1294105052947998,-0.09038683027029037,-1.2514231204986572,0.21086379885673523,2.556004762649536,1.7247107028961182
5519.251000,0.4201056659221649,1.1293929815292358,-0.09012023359537125,-1.251436471939087,0.21144674718379974,2.555973529815674,1.7221159934997559
5519.272000,0.4198705852031708,1.1293816566467285,-0.08990868180990219,-1.25144624710083,0.21194732189178467,2.55595326423645,1.7196950912475586
5519.288000,0.41965532302856445,1.1293705701828003,-0.08971577882766724,-1.2514550685882568,0.2124381810426712,2.5559303760528564,1.7172842025756836
5519.307000,0.4194498658180237,1.129357933998108,-0.08950815349817276,-1.2514628171920776,0.21282409131526947,2.5559089183807373,1.7149745225906372
5519.326000,0.41926583647727966,1.1293455362319946,-0.08930358290672302,-1.2514697313308716,0.21312971413135529,2.5558886528015137,1.7127591371536255
5519.345000,0.41910308599472046,1.129333734512329,-0.0891060084104538,-1.2514759302139282,0.21336698532104492,2.5558695793151855,1.7106319665908813
5519.362000,0.418977826833725,1.1293224096298218,-0.08891350030899048,-1.251480221748352,0.21347865462303162,2.555854558944702,1.7086925506591797
5519.386000,0.41891467571258545,1.1293123960494995,-0.08873861283063889,-1.2514814138412476,0.21342985332012177,2.5558454990386963,1.7070372104644775
5519.404000,0.41891151666641235,1.129305124282837,-0.0886005237698555,-1.2514803409576416,0.21328842639923096,2.555839776992798,1.7056127786636353
5519.426000,0.4189763367176056,1.1293073892593384,-0.0885656327009201,-1.251478910446167,0.21329380571842194,2.555837631225586,1.704210638999939
5519.448000,0.41906729340553284,1.129313588142395,-0.08858400583267212,-1.2514764070510864,0.21341156959533691,2.555838108062744,1.7028355598449707
5519.470000,0.4191746413707733,1.1293128728866577,-0.08854951709508896,-1.2514690160751343,0.21327252686023712,2.555844306945801,1.7018654346466064
5519.491000,0.41934019327163696,1.1293106079101562,-0.08851262927055359,-1.2514578104019165,0.21290652453899384,2.555854558944702,1.701317310333252
5519.508000,0.4195472300052643,1.1293197870254517,-0.08859826624393463,-1.251449465751648,0.21283017098903656,2.555861234664917,1.7006218433380127
5519.530000,0.41972512006759644,1.1293307542800903,-0.08870483189821243,-1.2514426708221436,0.21291783452033997,2.5558674335479736,1.699817419052124
5519.550000,0.4198754131793976,1.12934148311615,-0.0888160765171051,-1.2514363527297974,0.21312616765499115,2.555873394012451,1.6989344358444214
5519.572000,0.42002344131469727,1.1293425559997559,-0.08883606642484665,-1.2514253854751587,0.21301087737083435,2.5558853149414062,1.6984657049179077
5519.593000,0.42023399472236633,1.129342794418335,-0.08885557949542999,-1.2514110803604126,0.21267253160476685,2.555900812149048,1.698386549949646
5519.609000,0.42046818137168884,1.1293540000915527,-0.08898837119340897,-1.2514008283615112,0.21264737844467163,2.555910348892212,1.6980736255645752
5519.630000,0.4206894636154175,1.129356861114502,-0.08903108537197113,-1.2513870000839233,0.21230784058570862,2.55592679977417,1.6981538534164429
5519.651000,0.4209604561328888,1.1293601989746094,-0.08908481895923615,-1.251371145248413,0.21181170642375946,2.555945634841919,1.6985368728637695
5519.672000,0.42127397656440735,1.1293648481369019,-0.08915163576602936,-1.2513538599014282,0.21117503941059113,2.555966854095459,1.6992058753967285
5519.693000,0.4216233789920807,1.1293712854385376,-0.08923603594303131,-1.251335620880127,0.21042881906032562,2.555990219116211,1.7001266479492188
5519.709000,0.42199528217315674,1.1293795108795166,-0.08933941274881363,-1.2513172626495361,0.20961858332157135,2.5560142993927,1.7012354135513306
5519.730000,0.4223804771900177,1.1293890476226807,-0.08945480734109879,-1.2512989044189453,0.20875179767608643,2.556039333343506,1.7025117874145508
5519.751000,0.42277130484580994,1.1293997764587402,-0.0895826518535614,-1.2512807846069336,0.2078593224287033,2.5560646057128906,1.7039086818695068
5519.772000,0.42316320538520813,1.1294111013412476,-0.0897173210978508,-1.2512630224227905,0.20694176852703094,2.5560903549194336,1.7054150104522705
5519.789000,0.4235520660877228,1.1294230222702026,-0.08985970914363861,-1.2512457370758057,0.20602132380008698,2.5561158657073975,1.7069952487945557
5519.809000,0.4239356219768524,1.1294353008270264,-0.09000545740127563,-1.2512288093566895,0.20509539544582367,2.5561413764953613,1.7086435556411743
5519.830000,0.4243115782737732,1.1294478178024292,-0.09015566110610962,-1.2512125968933105,0.2041802853345871,2.556166410446167,1.7103328704833984
5519.851000,0.4246138036251068,1.129469871520996,-0.0904105007648468,-1.2512049674987793,0.20387595891952515,2.556178092956543,1.7113016843795776
5519.872000,0.42477455735206604,1.129488468170166,-0.09062553197145462,-1.2512025833129883,0.20391719043254852,2.5561840534210205,1.711707592010498
5519.892000,0.4248329699039459,1.129502534866333,-0.09079641848802567,-1.2512028217315674,0.2041998654603958,2.5561864376068115,1.711676001548767
5519.909000,0.4248944818973541,1.1295031309127808,-0.09082641452550888,-1.2511959075927734,0.20403017103672028,2.5562000274658203,1.7120966911315918
5519.930000,0.425052672624588,1.129504680633545,-0.09087476134300232,-1.2511847019195557,0.20364616811275482,2.556217670440674,1.7128636837005615
5519.951000,0.42528098821640015,1.1295088529586792,-0.09095115959644318,-1.2511714696884155,0.2031259387731552,2.5562374591827393,1.713891863822937
5519.971000,0.42555245757102966,1.1295154094696045,-0.09104858338832855,-1.2511574029922485,0.20250855386257172,2.5562584400177,1.715124487876892
5519.992000,0.4258475601673126,1.1295238733291626,-0.09116221964359283,-1.2511433362960815,0.2018306404352188,2.5562801361083984,1.7165063619613647
5520.009000,0.4261542856693268,1.1295335292816162,-0.09128419309854507,-1.2511292695999146,0.20110133290290833,2.556302309036255,1.7180153131484985
5520.030000,0.4264649748802185,1.1295442581176758,-0.09141575545072556,-1.2511156797409058,0.2003529965877533,2.5563242435455322,1.7196056842803955
5520.051000,0.42677146196365356,1.1295554637908936,-0.0915522351861,-1.2511026859283447,0.19959987699985504,2.5563457012176514,1.7212477922439575
5520.071000,0.4270707964897156,1.1295667886734009,-0.0916883647441864,-1.2510902881622314,0.1988379955291748,2.5563669204711914,1.7229372262954712
5520.093000,0.42736169695854187,1.1295781135559082,-0.09182557463645935,-1.251078486442566,0.19808171689510345,2.556387424468994,1.7246513366699219
5520.109000,0.42764219641685486,1.1295894384384155,-0.0919620618224144,-1.2510672807693481,0.19733554124832153,2.5564072132110596,1.7263774871826172
5520.123000,0.42791083455085754,1.1296006441116333,-0.09209734946489334,-1.2510566711425781,0.1966065615415573,2.5564262866973877,1.7281008958816528
5520.134000,0.4281669557094574,1.129611611366272,-0.09223015606403351,-1.2510467767715454,0.1958962082862854,2.5564446449279785,1.7298142910003662
5520.157000,0.428410142660141,1.1296223402023315,-0.09236039966344833,-1.2510374784469604,0.19520877301692963,2.556462287902832,1.7315080165863037
5520.167000,0.4285622239112854,1.1296418905258179,-0.09259571880102158,-1.2510377168655396,0.19520686566829681,2.556464910507202,1.7323322296142578
5520.186000,0.4285511374473572,1.1296563148498535,-0.09277547895908356,-1.2510435581207275,0.1955828070640564,2.5564610958099365,1.732479453086853
5520.195000,0.4285048246383667,1.1296519041061401,-0.09274657815694809,-1.2510416507720947,0.19537818431854248,2.556469202041626,1.7331335544586182
5520.219000,0.42855948209762573,1.1296476125717163,-0.0927218645811081,-1.251035213470459,0.19488951563835144,2.556480884552002,1.7341744899749756
5520.242000,0.4286118447780609,1.1296590566635132,-0.09287131577730179,-1.251037359237671,0.19504831731319427,2.55647873878479,1.7344759702682495
5520.261000,0.42854005098342896,1.1296683549880981,-0.09299207478761673,-1.251044750213623,0.19553734362125397,2.556471586227417,1.7342045307159424
5520.281000,0.42847970128059387,1.129655122756958,-0.09285689890384674,-1.2510402202606201,0.19508695602416992,2.5564825534820557,1.734906792640686
5520.302000,0.42859509587287903,1.129644513130188,-0.0927497148513794,-1.2510287761688232,0.19414283335208893,2.55649995803833,1.7363559007644653
5520.321000,0.42884561419487,1.1296374797821045,-0.09266887605190277,-1.2510132789611816,0.19276121258735657,2.5565226078033447,1.738491177558899
5520.343000,0.4291936755180359,1.1296359300613403,-0.09263060986995697,-1.250996470451355,0.1910877674818039,2.5565476417541504,1.741141438484192
5520.364000,0.4295792281627655,1.1296430826187134,-0.09267550706863403,-1.2509828805923462,0.18946504592895508,2.5565695762634277,1.7438733577728271
5520.381000,0.4299280643463135,1.1296550035476685,-0.09276846796274185,-1.2509738206863403,0.18803352117538452,2.556586980819702,1.7464298009872437
5520.402000,0.43020233511924744,1.1296682357788086,-0.09287863224744797,-1.2509691715240479,0.18684764206409454,2.5565998554229736,1.7486759424209595
5520.423000,0.4304002821445465,1.1296792030334473,-0.09297122806310654,-1.2509671449661255,0.1858278065919876,2.556610107421875,1.7506667375564575
5520.444000,0.4305329918861389,1.1296889781951904,-0.09306243062019348,-1.2509676218032837,0.18502801656723022,2.55661678314209,1.7523335218429565
5520.457000,0.4306066632270813,1.1296961307525635,-0.09313370287418365,-1.2509695291519165,0.1843811273574829,2.556621551513672,1.7537386417388916
5520.474000,0.43063628673553467,1.1297016143798828,-0.09319553524255753,-1.2509727478027344,0.18389013409614563,2.556624412536621,1.7548859119415283
5520.494000,0.43063080310821533,1.1297051906585693,-0.09324265271425247,-1.2509765625,0.18351249396800995,2.556626081466675,1.7558262348175049
5520.514000,0.4305535554885864,1.129716157913208,-0.0933886393904686,-1.2509876489639282,0.1838034987449646,2.556617498397827,1.7558987140655518
5520.536000,0.4303475320339203,1.1297229528427124,-0.09349831193685532,-1.251002311706543,0.18448899686336517,2.5566046237945557,1.755300760269165
5520.552000,0.43005308508872986,1.1297250986099243,-0.09356717020273209,-1.2510185241699219,0.18544982373714447,2.556589365005493,1.754189372062683
5520.571000,0.42970606684684753,1.1297235488891602,-0.09360313415527344,-1.2510350942611694,0.18660414218902588,2.556572437286377,1.7526893615722656
5520.592000,0.42933157086372375,1.1297194957733154,-0.09361398965120316,-1.2510515451431274,0.1878904551267624,2.5565545558929443,1.7508997917175293
5520.613000,0.42894649505615234,1.129713773727417,-0.09360615909099579,-1.2510675191879272,0.18926219642162323,2.5565361976623535,1.748899221420288
5520.631000,0.4285620152950287,1.1297070980072021,-0.09358467161655426,-1.2510828971862793,0.19068415462970734,2.5565176010131836,1.746749758720398
5520.652000,0.4281853139400482,1.1297000646591187,-0.09355339407920837,-1.2510974407196045,0.19212983548641205,2.5564990043640137,1.7445002794265747
5520.667000,0.42782092094421387,1.1296929121017456,-0.09351526200771332,-1.2511112689971924,0.19357937574386597,2.556480646133423,1.7421894073486328
5520.688000,0.4274715781211853,1.1296857595443726,-0.09347248822450638,-1.2511242628097534,0.19501806795597076,2.556462526321411,1.7398473024368286
5520.710000,0.4271387755870819,1.1296788454055786,-0.09342668950557709,-1.2511364221572876,0.1964350938796997,2.5564448833465576,1.7374974489212036
5520.732000,0.42693448066711426,1.1296513080596924,-0.09313878417015076,-1.2511318922042847,0.19654007256031036,2.5564510822296143,1.7367151975631714
5520.753000,0.42700231075286865,1.129630208015442,-0.09291472285985947,-1.2511175870895386,0.19589310884475708,2.556467056274414,1.737148642539978
5520.771000,0.42726343870162964,1.1296179294586182,-0.09276822209358215,-1.2510987520217896,0.1947202980518341,2.556488513946533,1.7385176420211792
5520.792000,0.4275341033935547,1.129634141921997,-0.09292493015527725,-1.2510942220687866,0.19445624947547913,2.556490421295166,1.7390421628952026
5520.812000,0.4276197552680969,1.1296494007110596,-0.09306508302688599,-1.2510980367660522,0.19464920461177826,2.556485414505005,1.7389110326766968
5520.833000,0.4275643825531006,1.12965989112854,-0.0931631475687027,-1.251105785369873,0.19515523314476013,2.556476354598999,1.7382746934890747
5520.853000,0.42741701006889343,1.129665732383728,-0.09322439134120941,-1.251115322113037,0.19588468968868256,2.556464672088623,1.7372527122497559
5520.867000,0.42721325159072876,1.12966787815094,-0.09325654059648514,-1.251125454902649,0.1967710554599762,2.5564513206481934,1.7359400987625122
5520.889000,0.4269775450229645,1.1296674013137817,-0.09326650202274323,-1.2511355876922607,0.19776397943496704,2.556436777114868,1.734412431716919
5520.910000,0.4267263114452362,1.1296651363372803,-0.09325995296239853,-1.2511454820632935,0.19882537424564362,2.5564217567443848,1.7327293157577515
5520.930000,0.4264705181121826,1.1296617984771729,-0.09324140846729279,-1.251154899597168,0.19992661476135254,2.5564064979553223,1.7309379577636719
5520.951000,0.42621728777885437,1.1296578645706177,-0.09321434795856476,-1.2511638402938843,0.20104622840881348,2.5563912391662598,1.72907555103302
5520.967000,0.4262174069881439,1.1296131610870361,-0.09272866696119308,-1.251139521598816,0.19964176416397095,2.556426763534546,1.7302931547164917
5520.988000,0.42675358057022095,1.1295825242996216,-0.09239119291305542,-1.2510963678359985,0.19683925807476044,2.5564820766448975,1.7338802814483643
5521.009000,0.4276827871799469,1.1295682191848755,-0.09218955785036087,-1.2510432004928589,0.19289924204349518,2.556551694869995,1.7395082712173462
5521.028000,0.42889848351478577,1.129569411277771,-0.09210025519132614,-1.2509853839874268,0.18800924718379974,2.556631565093994,1.7469203472137451
5521.049000,0.43030446767807007,1.1295872926712036,-0.09213695675134659,-1.2509287595748901,0.1825139969587326,2.5567142963409424,1.7556580305099487
5521.066000,0.4318271279335022,1.129616141319275,-0.09223602712154388,-1.2508740425109863,0.17643824219703674,2.5567996501922607,1.765608549118042
5521.086000,0.4334215223789215,1.1296567916870117,-0.09241758286952972,-1.250824213027954,0.17003679275512695,2.556882381439209,1.776425838470459
5521.107000,0.43505239486694336,1.129704236984253,-0.09262681007385254,-1.2507781982421875,0.16326570510864258,2.5569639205932617,1.7880910634994507
5521.130000,0.43670129776000977,1.1297600269317627,-0.09289250522851944,-1.2507379055023193,0.15633134543895721,2.557040214538574,1.8003294467926025
5521.149000,0.4383506774902344,1.1298199892044067,-0.09316573292016983,-1.2507017850875854,0.14915047585964203,2.5571129322052,1.8131810426712036
5521.167000,0.4400177299976349,1.1298840045928955,-0.09344465285539627,-1.250669002532959,0.14168965816497803,2.5571820735931396,1.8266836404800415
5521.186000,0.44131410121917725,1.1299902200698853,-0.09442689269781113,-1.2506822347640991,0.137874573469162,2.5571982860565186,1.8359593152999878
5521.206000,0.44179192185401917,1.1300638914108276,-0.09520752727985382,-1.2507133483886719,0.13612312078475952,2.557194709777832,1.8419067859649658
5521.228000,0.44167470932006836,1.1301026344299316,-0.09575073421001434,-1.250750184059143,0.135833740234375,2.5571796894073486,1.8452430963516235
5521.246000,0.44117048382759094,1.130114197731018,-0.09610266983509064,-1.2507880926132202,0.13661067187786102,2.557157278060913,1.8465402126312256
5521.260000,0.4408778250217438,1.1300687789916992,-0.09554114192724228,-1.2507789134979248,0.13378027081489563,2.5571813583374023,1.851709008216858
5521.279000,0.4413776993751526,1.1300506591796875,-0.09515602141618729,-1.250749111175537,0.12911169230937958,2.557220935821533,1.8598307371139526
5521.300000,0.4424636662006378,1.130062222480774,-0.09496336430311203,-1.25071120262146,0.12301228940486908,2.5572686195373535,1.870452880859375
5521.323000,0.4434617757797241,1.1301361322402954,-0.09577541798353195,-1.2507215738296509,0.12058555334806442,2.5572714805603027,1.8771986961364746
5521.343000,0.44419509172439575,1.1301493644714355,-0.09559684246778488,-1.2507022619247437,0.11525364220142365,2.557304859161377,1.8869149684906006
5521.360000,0.44538620114326477,1.130181908607483,-0.09551707655191422,-1.2506749629974365,0.10861953347921371,2.557342767715454,1.8988566398620605
5521.380000,0.44693291187286377,1.1302367448806763,-0.09556104242801666,-1.2506473064422607,0.10095560550689697,2.557379961013794,1.912723422050476
5521.401000,0.44871029257774353,1.1303133964538574,-0.09574989229440689,-1.2506258487701416,0.09267378598451614,2.5574111938476562,1.9279793500900269
5521.423000,0.45062026381492615,1.1304057836532593,-0.09600958228111267,-1.2506111860275269,0.083812415599823,2.5574347972869873,1.9444847106933594
5521.443000,0.4526273310184479,1.130511999130249,-0.09632139652967453,-1.2506040334701538,0.07443565875291824,2.5574488639831543,1.9621299505233765
5521.460000,0.45410996675491333,1.1306434869766235,-0.09767841547727585,-1.25065279006958,0.07034231722354889,2.5574350357055664,1.9736567735671997
5521.481000,0.4544003903865814,1.1307095289230347,-0.09873370081186295,-1.2507107257843018,0.06919725239276886,2.5574142932891846,1.980379343032837
5521.501000,0.4538305699825287,1.1307170391082764,-0.09943457692861557,-1.2507661581039429,0.07012073695659637,2.5573909282684326,1.9833459854125977
5521.523000,0.45333707332611084,1.1306742429733276,-0.0988026112318039,-1.2507680654525757,0.06653371453285217,2.557379722595215,1.9908853769302368
5521.543000,0.4538201689720154,1.1306772232055664,-0.09830966591835022,-1.2507545948028564,0.06049870699644089,2.5573699474334717,2.0022096633911133
5521.560000,0.45504140853881836,1.1307272911071777,-0.09810330718755722,-1.2507416009902954,0.05289890617132187,2.5573554039001465,2.0163767337799072
5521.581000,0.4567403495311737,1.1308138370513916,-0.0980895385146141,-1.2507346868515015,0.04401393607258797,2.5573318004608154,2.0329504013061523
5521.602000,0.45876410603523254,1.130930781364441,-0.09822403639554977,-1.2507376670837402,0.03409020975232124,2.557295322418213,2.051579236984253
5521.622000,0.4609832167625427,1.131072998046875,-0.09851700812578201,-1.250754475593567,0.023571215569972992,2.5572433471679688,2.071664571762085
5521.640000,0.4632894694805145,1.1312330961227417,-0.09889407455921173,-1.2507842779159546,0.012570744380354881,2.5571744441986084,2.092945098876953
5521.659000,0.46561673283576965,1.131406545639038,-0.09935799986124039,-1.2508277893066406,0.001372436061501503,2.5570883750915527,2.114999532699585
5521.680000,0.4678637385368347,1.131585955619812,-0.10009979456663132,-1.250889778137207,-0.008864099159836769,2.556990623474121,2.1364049911499023
5521.700000,0.4698752462863922,1.1317548751831055,-0.10086887329816818,-1.2509596347808838,-0.0183979831635952,2.55688214302063,2.1571600437164307
5521.721000,0.47171837091445923,1.1319148540496826,-0.10158409923315048,-1.2510318756103516,-0.027615156024694443,2.55676007270813,2.17769455909729
5521.740000,0.473451167345047,1.1320692300796509,-0.10230991244316101,-1.2511078119277954,-0.0364106222987175,2.5566275119781494,2.1979153156280518
5521.757000,0.47433042526245117,1.1321511268615723,-0.10406947135925293,-1.2512115240097046,-0.03852780535817146,2.5565743446350098,2.2097818851470947
5521.777000,0.47438904643058777,1.1321724653244019,-0.10470804572105408,-1.2512681484222412,-0.041430097073316574,2.5564849376678467,2.2212579250335693
5521.799000,0.47385117411613464,1.1321367025375366,-0.10595880448818207,-1.251335620880127,-0.0394628643989563,2.556466817855835,2.226210355758667
5521.820000,0.47288069128990173,1.1320688724517822,-0.10629010945558548,-1.2513693571090698,-0.038535431027412415,2.5564136505126953,2.231234073638916
5521.840000,0.47209474444389343,1.1320130825042725,-0.10677005350589752,-1.251404881477356,-0.03685032203793526,2.5563642978668213,2.235262870788574
5521.858000,0.4713590145111084,1.1319606304168701,-0.10726381838321686,-1.2514386177062988,-0.03464861586689949,2.5563178062438965,2.2384955883026123
5521.878000,0.4705680310726166,1.131903886795044,-0.10782698541879654,-1.251471996307373,-0.03151026368141174,2.5562829971313477,2.2403736114501953
5521.899000,0.4696556031703949,1.1318392753601074,-0.10831733793020248,-1.2515016794204712,-0.027790088206529617,2.556255340576172,2.241192579269409
5521.920000,0.468574583530426,1.1317640542984009,-0.10877812653779984,-1.2515292167663574,-0.023236215114593506,2.5562407970428467,2.2405734062194824
5521.940000,0.4673168361186981,1.1316783428192139,-0.10911064594984055,-1.2515524625778198,-0.018204374238848686,2.556234121322632,2.2388484477996826
5521.957000,0.46587738394737244,1.1315784454345703,-0.10937164723873138,-1.2515754699707031,-0.012513579800724983,2.5562386512756348,2.2357561588287354
5521.978000,0.4642031490802765,1.131463885307312,-0.10952582210302353,-1.2515954971313477,-0.006148891523480415,2.5562539100646973,2.231137275695801
5521.998000,0.46233540773391724,1.1313385963439941,-0.10951270908117294,-1.2516121864318848,0.0005427203141152859,2.556274175643921,2.225371837615967
5522.019000,0.4603108763694763,1.1312057971954346,-0.10939216613769531,-1.2516285181045532,0.007648003287613392,2.5562996864318848,2.218374013900757
5522.040000,0.4580128490924835,1.1310590505599976,-0.10927411168813705,-1.2516493797302246,0.01593320071697235,2.556335210800171,2.2090840339660645
5522.056000,0.45540860295295715,1.1308963298797607,-0.1089375913143158,-1.2516709566116333,0.024751581251621246,2.556370735168457,2.198089361190796
5522.078000,0.4526413679122925,1.1307289600372314,-0.10842383652925491,-1.2516945600509644,0.03382178395986557,2.5564024448394775,2.1858553886413574
5522.098000,0.4498768150806427,1.1305662393569946,-0.10768472403287888,-1.2517173290252686,0.04240069165825844,2.556426525115967,2.1734442710876465
5522.118000,0.44721269607543945,1.130415678024292,-0.10690878331661224,-1.2517426013946533,0.05076918005943298,2.5564448833465576,2.1607484817504883
5522.139000,0.4446113407611847,1.1302739381790161,-0.10610204190015793,-1.251770257949829,0.05899035930633545,2.556457042694092,2.1477153301239014
5522.154000,0.4420726001262665,1.1301398277282715,-0.10524841398000717,-1.251799464225769,0.06696376204490662,2.5564627647399902,2.1345131397247314
5522.170000,0.4396205246448517,1.1300143003463745,-0.10436804592609406,-1.251829743385315,0.07465457916259766,2.556462287902832,2.121272563934326
5522.192000,0.4372442066669464,1.1298969984054565,-0.10348906368017197,-1.2518619298934937,0.08216947317123413,2.556455373764038,2.1079142093658447
5522.214000,0.4349801242351532,1.1297911405563354,-0.10266010463237762,-1.2518956661224365,0.08958175778388977,2.556442975997925,2.0944857597351074
5522.234000,0.4328235983848572,1.129695177078247,-0.10186588019132614,-1.2519302368164062,0.0968497097492218,2.5564255714416504,2.081097364425659
5522.252000,0.4307045042514801,1.1296021938323975,-0.10104122757911682,-1.251965880393982,0.10392699390649796,2.556401252746582,2.06770920753479
5522.272000,0.428629994392395,1.1295123100280762,-0.10017499327659607,-1.2520018815994263,0.1107342541217804,2.556370973587036,2.054414987564087
5522.294000,0.4266180992126465,1.12942636013031,-0.0992782935500145,-1.2520380020141602,0.11723707616329193,2.556335210800171,2.041283369064331
5522.315000,0.42468807101249695,1.129345417022705,-0.09836971014738083,-1.252073884010315,0.12342691421508789,2.5562949180603027,2.0283689498901367
5522.335000,0.4228515923023224,1.1292705535888672,-0.09747133404016495,-1.2521095275878906,0.12933586537837982,2.556250810623169,2.0156819820404053
5522.352000,0.42111697793006897,1.1292016506195068,-0.09658782184123993,-1.25214421749115,0.13494719564914703,2.556204080581665,2.003286600112915
5522.372000,0.41956183314323425,1.129144549369812,-0.09578955918550491,-1.2521761655807495,0.1402946263551712,2.556159734725952,1.9913333654403687
5522.393000,0.4181116223335266,1.1290922164916992,-0.09502430260181427,-1.2522060871124268,0.14538919925689697,2.55611252784729,1.9797425270080566
5522.413000,0.41674715280532837,1.129043459892273,-0.09427467733621597,-1.2522342205047607,0.15021662414073944,2.556063413619995,1.9685124158859253
5522.431000,0.4155294895172119,1.1290040016174316,-0.09360581636428833,-1.252259612083435,0.15484552085399628,2.5560173988342285,1.9577019214630127
5522.450000,0.4144441783428192,1.1289724111557007,-0.09301692247390747,-1.2522821426391602,0.15932056307792664,2.5559730529785156,1.9472910165786743
5522.471000,0.4134661555290222,1.128946304321289,-0.09248942136764526,-1.252301812171936,0.1636519730091095,2.5559298992156982,1.9372613430023193
5522.487000,0.41257715225219727,1.1289243698120117,-0.09200845658779144,-1.2523188591003418,0.16784226894378662,2.555887460708618,1.927596092224121
5522.508000,0.41176465153694153,1.1289055347442627,-0.09156352281570435,-1.252333641052246,0.17189116775989532,2.5558454990386963,1.9182798862457275
5522.528000,0.4110200107097626,1.1288893222808838,-0.09114738553762436,-1.2523462772369385,0.1757975071668625,2.5558040142059326,1.9092981815338135
5522.546000,0.410336971282959,1.1288751363754272,-0.09075503796339035,-1.252357006072998,0.1795600950717926,2.555763006210327,1.9006376266479492
5522.565000,0.40970999002456665,1.1288628578186035,-0.09038332849740982,-1.2523659467697144,0.18318195641040802,2.555722236633301,1.892279863357544
5522.585000,0.40913498401641846,1.128852128982544,-0.09002888947725296,-1.2523733377456665,0.18666093051433563,2.5556819438934326,1.884214162826538
5522.606000,0.4086093008518219,1.128842830657959,-0.0896901935338974,-1.2523791790008545,0.18999697268009186,2.5556421279907227,1.8764305114746094
5522.626000,0.40813058614730835,1.128834843635559,-0.08936624974012375,-1.2523835897445679,0.19319114089012146,2.55560302734375,1.8689188957214355
5522.643000,0.40771791338920593,1.1288082599639893,-0.08883456885814667,-1.2523771524429321,0.19530679285526276,2.555574893951416,1.8626900911331177
5522.664000,0.40746009349823,1.1288021802902222,-0.08853072673082352,-1.2523738145828247,0.19764326512813568,2.5555412769317627,1.8564807176589966
5522.684000,0.40721017122268677,1.1288005113601685,-0.0882682204246521,-1.2523720264434814,0.20000457763671875,2.5555074214935303,1.8503296375274658
5522.702000,0.40701615810394287,1.1287740468978882,-0.08774018287658691,-1.2523566484451294,0.2010767161846161,2.5554914474487305,1.8456975221633911
5522.720000,0.4070337116718292,1.1287485361099243,-0.08723603188991547,-1.252333164215088,0.20135033130645752,2.555482864379883,1.8422704935073853
5522.740000,0.4072321653366089,1.1287251710891724,-0.08675143867731094,-1.2523033618927002,0.20084621012210846,2.555483102798462,1.8400285243988037
5522.760000,0.4075089991092682,1.1287373304367065,-0.08664475381374359,-1.2522871494293213,0.20125040411949158,2.5554678440093994,1.8370555639266968
5522.782000,0.4076445996761322,1.128753423690796,-0.08657271414995193,-1.252278447151184,0.20211222767829895,2.555448532104492,1.8335388898849487
5522.803000,0.4076688289642334,1.128767728805542,-0.0864952802658081,-1.2522730827331543,0.2032863199710846,2.555427312850952,1.8296271562576294
5522.824000,0.40762215852737427,1.1287791728973389,-0.08640792965888977,-1.25226891040802,0.20467941462993622,2.5554049015045166,1.8254377841949463
5522.838000,0.40766993165016174,1.1287482976913452,-0.08589031547307968,-1.2522401809692383,0.20415383577346802,2.5554168224334717,1.8234870433807373
5522.860000,0.4079347550868988,1.1287593841552734,-0.08585204184055328,-1.2522222995758057,0.20459584891796112,2.5554075241088867,1.8208545446395874
5522.880000,0.4080848693847656,1.128774881362915,-0.08584421873092651,-1.2522116899490356,0.20545412600040436,2.5553932189941406,1.8177140951156616
5522.902000,0.40813517570495605,1.1287888288497925,-0.08582144230604172,-1.2522046566009521,0.20658165216445923,2.5553765296936035,1.8142033815383911
5522.922000,0.4081217348575592,1.128800392150879,-0.08578208833932877,-1.2521990537643433,0.20789307355880737,2.555358648300171,1.8104314804077148
5522.939000,0.408275842666626,1.1287585496902466,-0.08519914746284485,-1.2521603107452393,0.20662298798561096,2.555389642715454,1.8097076416015625
5522.959000,0.40892329812049866,1.128722071647644,-0.08471579104661942,-1.2521026134490967,0.20389027893543243,2.5554397106170654,1.8113421201705933
5522.980000,0.4099474251270294,1.1286962032318115,-0.08433370292186737,-1.2520345449447632,0.19991546869277954,2.5555052757263184,1.8150676488876343
5523.002000,0.41123756766319275,1.1286859512329102,-0.08408524841070175,-1.2519640922546387,0.19510044157505035,2.5555787086486816,1.82038152217865
5523.023000,0.4127063751220703,1.1286864280700684,-0.08390792459249496,-1.2518928050994873,0.1894845962524414,2.5556602478027344,1.827169418334961
5523.040000,0.41404634714126587,1.1287528276443481,-0.08443932235240936,-1.2518624067306519,0.1865237057209015,2.5556912422180176,1.831257700920105
5523.061000,0.41483211517333984,1.1288150548934937,-0.08491262793540955,-1.2518532276153564,0.18503576517105103,2.555704116821289,1.833233118057251
5523.081000,0.4151996076107025,1.128862738609314,-0.08526889234781265,-1.2518534660339355,0.18459758162498474,2.555706262588501,1.8335635662078857
5523.101000,0.41528812050819397,1.1288962364196777,-0.08552350103855133,-1.2518576383590698,0.18493258953094482,2.5557010173797607,1.832621693611145
5523.118000,0.4155273139476776,1.128857970237732,-0.08497170358896255,-1.251816987991333,0.1819877028465271,2.555755376815796,1.835365891456604
5523.139000,0.4164187014102936,1.128828763961792,-0.08454819768667221,-1.251753330230713,0.1772969663143158,2.555830478668213,1.8409366607666016
5523.159000,0.417721152305603,1.1288377046585083,-0.08453061431646347,-1.251693606376648,0.17247290909290314,2.5559017658233643,1.847449779510498
5523.179000,0.41885754466056824,1.1289011240005493,-0.08514875173568726,-1.2516725063323975,0.1702578067779541,2.5559277534484863,1.8511841297149658
5523.200000,0.4194357097148895,1.1289563179016113,-0.08567525446414948,-1.2516708374023438,0.16948425769805908,2.5559370517730713,1.8527470827102661
5523.222000,0.4197486639022827,1.128976583480835,-0.08581016212701797,-1.251660704612732,0.16829168796539307,2.5559592247009277,1.8544108867645264
5523.238000,0.4200988709926605,1.1289911270141602,-0.08592114597558975,-1.2516456842422485,0.16705510020256042,2.555983781814575,1.8561408519744873
5523.258000,0.42043542861938477,1.1290091276168823,-0.08610580861568451,-1.251633644104004,0.16623978316783905,2.5560014247894287,1.8573708534240723
5523.278000,0.4206957221031189,1.1290240287780762,-0.08626310527324677,-1.251623511314392,0.16566240787506104,2.556016206741333,1.8582062721252441
5523.298000,0.42085254192352295,1.129038691520691,-0.08643533289432526,-1.2516186237335205,0.16556425392627716,2.556023120880127,1.8583177328109741
5523.319000,0.42085376381874084,1.1290502548217773,-0.08658133447170258,-1.2516196966171265,0.16596947610378265,2.5560216903686523,1.8575658798217773
5523.336000,0.42071712017059326,1.1290555000305176,-0.08665487915277481,-1.2516239881515503,0.1666766256093979,2.556015968322754,1.856152892112732
5523.356000,0.4204622209072113,1.1290571689605713,-0.08669181913137436,-1.2516323328018188,0.1677550971508026,2.5560035705566406,1.853997826576233
5523.377000,0.4201309382915497,1.1290615797042847,-0.08676168322563171,-1.2516452074050903,0.1693628430366516,2.5559873580932617,1.8509942293167114
5523.398000,0.4197258949279785,1.1290640830993652,-0.08681168407201767,-1.251659870147705,0.17131705582141876,2.55596923828125,1.8473565578460693
5523.419000,0.41921693086624146,1.1290582418441772,-0.08677054196596146,-1.2516759634017944,0.17342141270637512,2.5559449195861816,1.8432226181030273
5523.434000,0.41870757937431335,1.129052996635437,-0.08672136813402176,-1.2516920566558838,0.17566078901290894,2.555922269821167,1.8387666940689087
5523.456000,0.4182204008102417,1.1290489435195923,-0.08667950332164764,-1.2517073154449463,0.1780017614364624,2.5559003353118896,1.8340932130813599
5523.476000,0.4177592396736145,1.1290457248687744,-0.08664324134588242,-1.2517215013504028,0.18040256202220917,2.5558788776397705,1.8292845487594604
5523.497000,0.4172452390193939,1.129037618637085,-0.08655229210853577,-1.2517369985580444,0.18283863365650177,2.55584979057312,1.8242340087890625
5523.517000,0.41668570041656494,1.1290249824523926,-0.08639062941074371,-1.251753807067871,0.18520842492580414,2.555817127227783,1.8190321922302246
5523.534000,0.41611337661743164,1.1290099620819092,-0.08618041127920151,-1.251771330833435,0.1874742954969406,2.5557825565338135,1.8137552738189697
5523.555000,0.4155566394329071,1.1289942264556885,-0.08594121783971786,-1.25178861618042,0.18960359692573547,2.5557477474212646,1.808488130569458
5523.572000,0.4150307774543762,1.1289790868759155,-0.08569211512804031,-1.2518054246902466,0.19160273671150208,2.555713176727295,1.8032653331756592
5523.595000,0.4145525395870209,1.1289646625518799,-0.08543837815523148,-1.251820683479309,0.19342713057994843,2.555680990219116,1.7981873750686646
5523.616000,0.4141910672187805,1.1289578676223755,-0.08526107668876648,-1.2518328428268433,0.19517157971858978,2.555656671524048,1.793317437171936
5523.632000,0.41392698884010315,1.1289567947387695,-0.08515769243240356,-1.2518417835235596,0.1968839019536972,2.5556373596191406,1.7886420488357544
5523.653000,0.4137316346168518,1.1289591789245605,-0.08510705083608627,-1.2518478631973267,0.1985735148191452,2.555621385574341,1.7841496467590332
5523.674000,0.41355833411216736,1.128956913948059,-0.08501970767974854,-1.2518504858016968,0.20003321766853333,2.5556066036224365,1.7799930572509766
5523.695000,0.41343969106674194,1.1289528608322144,-0.08491914719343185,-1.2518497705459595,0.20123013854026794,2.5555951595306396,1.7762463092803955
5523.715000,0.41338908672332764,1.1289573907852173,-0.08491384238004684,-1.2518492937088013,0.20252643525600433,2.555584192276001,1.7725574970245361
5523.732000,0.413362056016922,1.12895667552948,-0.08485639095306396,-1.251844882965088,0.20351248979568481,2.5555784702301025,1.7693129777908325
5523.751000,0.41340479254722595,1.1289559602737427,-0.08480720221996307,-1.2518370151519775,0.20425021648406982,2.555576801300049,1.7665098905563354
5523.773000,0.41350919008255005,1.1289571523666382,-0.08478333055973053,-1.2518271207809448,0.20481307804584503,2.555577516555786,1.7640671730041504
5523.790000,0.4136661887168884,1.1289597749710083,-0.08477767556905746,-1.2518151998519897,0.20519889891147614,2.555581569671631,1.7619842290878296
5523.812000,0.4138656556606293,1.1289643049240112,-0.08479655534029007,-1.2518020868301392,0.20546136796474457,2.5555877685546875,1.7601934671401978
5523.831000,0.41410091519355774,1.1289700269699097,-0.08483180403709412,-1.2517876625061035,0.20559513568878174,2.5555965900421143,1.758695125579834
5523.851000,0.41436460614204407,1.1289771795272827,-0.08488772809505463,-1.251772403717041,0.20564256608486176,2.5556068420410156,1.7574330568313599
5523.872000,0.41465216875076294,1.1289852857589722,-0.08495689928531647,-1.251756191253662,0.20559677481651306,2.555619239807129,1.756407618522644
5523.893000,0.41495823860168457,1.1289944648742676,-0.08504261076450348,-1.251739501953125,0.20549127459526062,2.5556328296661377,1.7555720806121826
5523.919000,0.41527852416038513,1.1290044784545898,-0.08514038473367691,-1.2517223358154297,0.20532932877540588,2.555647611618042,1.7549139261245728
5523.929000,0.4156129062175751,1.1290150880813599,-0.08524863421916962,-1.2517045736312866,0.2051108181476593,2.555663824081421,1.7544302940368652
5523.951000,0.4159570038318634,1.1290265321731567,-0.08536925911903381,-1.251686692237854,0.20486004650592804,2.555680751800537,1.7540847063064575
5523.970000,0.416309118270874,1.1290380954742432,-0.0854949876666069,-1.2516683340072632,0.20455975830554962,2.555698871612549,1.753889799118042
5523.992000,0.4166710674762726,1.129050374031067,-0.0856318399310112,-1.2516498565673828,0.2042296677827835,2.555717945098877,1.75382399559021
5524.010000,0.41703689098358154,1.129063367843628,-0.08577832579612732,-1.2516313791275024,0.20388570427894592,2.5557374954223633,1.7538583278656006
5524.028000,0.41740381717681885,1.129076600074768,-0.08592972159385681,-1.251612901687622,0.20352283120155334,2.555757522583008,1.7539901733398438
5524.047000,0.41776925325393677,1.1290900707244873,-0.08608663082122803,-1.2515946626663208,0.20315417647361755,2.5557775497436523,1.754196286201477
5524.065000,0.41806450486183167,1.1291130781173706,-0.086347296833992,-1.251584768295288,0.2033771425485611,2.5557847023010254,1.7537133693695068
5524.086000,0.4182218015193939,1.1291329860687256,-0.0865667462348938,-1.251579999923706,0.20392291247844696,2.555786371231079,1.7527018785476685
5524.105000,0.4182811379432678,1.1291487216949463,-0.0867413803935051,-1.2515778541564941,0.20468616485595703,2.5557847023010254,1.7512894868850708
5524.123000,0.41827863454818726,1.12916100025177,-0.08688042312860489,-1.2515769004821777,0.20559757947921753,2.5557808876037598,1.749577283859253
5524.139000,0.41823968291282654,1.1291706562042236,-0.0869925394654274,-1.251576542854309,0.20660611987113953,2.5557756423950195,1.7476457357406616
5524.156000,0.41826409101486206,1.1291615962982178,-0.08690667897462845,-1.2515641450881958,0.20672325789928436,2.555788040161133,1.7467138767242432
5524.180000,0.41846978664398193,1.1291546821594238,-0.08685462921857834,-1.251544713973999,0.2063407301902771,2.555807590484619,1.7465604543685913
5524.191000,0.4187227487564087,1.1291694641113281,-0.08702798932790756,-1.2515342235565186,0.20655876398086548,2.5558125972747803,1.745853304862976
5524.214000,0.41886743903160095,1.1291853189468384,-0.08719213306903839,-1.2515294551849365,0.2070566862821579,2.5558128356933594,1.7447236776351929
5524.234000,0.41892746090888977,1.1291989088058472,-0.08732827007770538,-1.2515275478363037,0.20773814618587494,2.5558104515075684,1.743275761604309
5524.255000,0.4189327359199524,1.129210114479065,-0.0874398872256279,-1.251526951789856,0.20854492485523224,2.5558063983917236,1.741592288017273
5524.271000,0.418905109167099,1.1292191743850708,-0.0875321626663208,-1.2515268325805664,0.20943425595760345,2.5558011531829834,1.7397387027740479
5524.293000,0.4188595414161682,1.1292266845703125,-0.08760964870452881,-1.2515267133712769,0.21037401258945465,2.555795431137085,1.7377667427062988
5524.309000,0.4188060462474823,1.1292331218719482,-0.087676040828228,-1.2515264749526978,0.2113400548696518,2.5557892322540283,1.7357170581817627
5524.330000,0.41875123977661133,1.1292388439178467,-0.08773425221443176,-1.2515259981155396,0.21231435239315033,2.5557830333709717,1.7336218357086182
5524.352000,0.41869932413101196,1.129244089126587,-0.08778651803731918,-1.2515251636505127,0.21328362822532654,2.555776834487915,1.731506109237671
5524.372000,0.4186529517173767,1.129249095916748,-0.08783454447984695,-1.2515239715576172,0.21423815190792084,2.5557708740234375,1.7293891906738281
5524.392000,0.41875046491622925,1.1292273998260498,-0.0876118615269661,-1.2515028715133667,0.2137039601802826,2.5557963848114014,1.7290877103805542
5524.410000,0.4191145896911621,1.129217505455017,-0.08753346651792526,-1.251475214958191,0.21270740032196045,2.555825710296631,1.7297155857086182
5524.431000,0.4195157587528229,1.129235029220581,-0.0877256840467453,-1.2514597177505493,0.21242724359035492,2.5558366775512695,1.729729413986206
5524.446000,0.419773131608963,1.1292541027069092,-0.0879085585474968,-1.2514519691467285,0.2124871164560318,2.5558414459228516,1.729269027709961
5524.467000,0.41991761326789856,1.1292705535888672,-0.08805897831916809,-1.251448154449463,0.2127758115530014,2.555842638015747,1.7284457683563232
5524.489000,0.42000824213027954,1.129271388053894,-0.08805477619171143,-1.2514399290084839,0.21266494691371918,2.555849552154541,1.7279759645462036
5524.506000,0.4201100766658783,1.1292718648910522,-0.08805321156978607,-1.251432180404663,0.2125007063150406,2.5558526515960693,1.7275477647781372
5524.527000,0.42020726203918457,1.1292812824249268,-0.08813441544771194,-1.2514289617538452,0.21264636516571045,2.555851459503174,1.7267614603042603
5524.548000,0.4202274680137634,1.129282832145691,-0.08813019096851349,-1.2514265775680542,0.21271131932735443,2.5558478832244873,1.7259190082550049
5524.569000,0.42021745443344116,1.129280924797058,-0.08808553963899612,-1.25142502784729,0.21271298825740814,2.555842638015747,1.7250391244888306
5524.589000,0.42017820477485657,1.129278540611267,-0.08802857995033264,-1.2514257431030273,0.21274717152118683,2.555833578109741,1.7240073680877686
5524.605000,0.4201096296310425,1.1292747259140015,-0.08794645965099335,-1.2514281272888184,0.21277055144309998,2.5558230876922607,1.7228655815124512
5524.626000,0.4200155735015869,1.1292706727981567,-0.08785475045442581,-1.2514322996139526,0.21283136308193207,2.5558102130889893,1.7215635776519775
5524.647000,0.41990038752555847,1.1292656660079956,-0.08774618804454803,-1.2514376640319824,0.21289442479610443,2.5557963848114014,1.7201470136642456
5524.667000,0.41977185010910034,1.1292604207992554,-0.08763132989406586,-1.2514439821243286,0.2129770964384079,2.555781602859497,1.7186115980148315
5524.685000,0.4196367859840393,1.129254937171936,-0.08750977367162704,-1.2514506578445435,0.21305926144123077,2.555767059326172,1.716996431350708
5524.706000,0.419562965631485,1.129255771636963,-0.08745133131742477,-1.2514557838439941,0.21321214735507965,2.5557594299316406,1.7153675556182861
5524.728000,0.419540137052536,1.129260778427124,-0.08745091408491135,-1.251458764076233,0.21345394849777222,2.555755853652954,1.7137395143508911
5524.749000,0.4195498824119568,1.1292680501937866,-0.0874902606010437,-1.2514597177505493,0.21377594769001007,2.555755138397217,1.7121233940124512
5524.769000,0.41953951120376587,1.1292693614959717,-0.08748556673526764,-1.251459002494812,0.21400922536849976,2.555752754211426,1.7106101512908936
5524.791000,0.41954305768013,1.1292672157287598,-0.08744864165782928,-1.2514562606811523,0.21407684683799744,2.5557525157928467,1.7093136310577393
5524.808000,0.4195971190929413,1.129272699356079,-0.08748947083950043,-1.2514539957046509,0.21427567303180695,2.555753707885742,1.707984447479248
5524.828000,0.4196644127368927,1.129280924797058,-0.08756185322999954,-1.2514514923095703,0.21456146240234375,2.5557563304901123,1.706639289855957
5524.849000,0.4197368323802948,1.1292901039123535,-0.08765169233083725,-1.251448392868042,0.214914932847023,2.555759906768799,1.7052911520004272
5524.861000,0.41981905698776245,1.12929105758667,-0.08766745775938034,-1.2514408826828003,0.21496574580669403,2.5557684898376465,1.704335331916809
5524.880000,0.4199637770652771,1.12929105758667,-0.087679922580719,-1.2514299154281616,0.21478037536144257,2.5557808876037598,1.7037714719772339
5524.895000,0.42016351222991943,1.1292927265167236,-0.08771101385354996,-1.2514172792434692,0.2144387811422348,2.555795431137085,1.7035142183303833
5524.916000,0.4203788936138153,1.1293050050735474,-0.08784802258014679,-1.2514088153839111,0.2143966257572174,2.55580472946167,1.7030278444290161
5524.938000,0.42057567834854126,1.1293094158172607,-0.08790155500173569,-1.2513972520828247,0.21407663822174072,2.5558202266693115,1.7028857469558716
5524.958000,0.42078450322151184,1.12932288646698,-0.08805334568023682,-1.2513892650604248,0.21406038105487823,2.5558297634124756,1.7024927139282227
5524.980000,0.42094331979751587,1.1293365955352783,-0.08820537477731705,-1.2513834238052368,0.21420791745185852,2.555837392807007,1.7019087076187134
5524.999000,0.4211067259311676,1.1293365955352783,-0.08822079002857208,-1.2513706684112549,0.2138364464044571,2.5558555126190186,1.7019309997558594
5525.019000,0.4213738739490509,1.1293340921401978,-0.08822131901979446,-1.251352071762085,0.21303412318229675,2.555880546569824,1.7026067972183228
5525.031000,0.4217361509799957,1.129334568977356,-0.08825358748435974,-1.2513307332992554,0.21195651590824127,2.555908679962158,1.7037824392318726
5525.045000,0.42209863662719727,1.1293535232543945,-0.08846897631883621,-1.2513186931610107,0.21147321164608002,2.5559237003326416,1.7044005393981934
5525.060000,0.42234498262405396,1.1293729543685913,-0.08867567032575607,-1.2513121366500854,0.21130727231502533,2.555934190750122,1.704583764076233
5525.081000,0.4225007891654968,1.129389762878418,-0.0888570100069046,-1.2513084411621094,0.2113654464483261,2.555941581726074,1.704430103302002
5525.102000,0.4225950539112091,1.1294037103652954,-0.08901510387659073,-1.2513060569763184,0.2115878462791443,2.5559470653533936,1.7040174007415771
5525.116000,0.4226490557193756,1.1294152736663818,-0.08915390074253082,-1.2513041496276855,0.21192947030067444,2.5559511184692383,1.7034075260162354
5525.127000,0.4227698743343353,1.129404902458191,-0.08907182514667511,-1.2512884140014648,0.21126815676689148,2.555975914001465,1.7039673328399658
5525.140000,0.4230896532535553,1.1293972730636597,-0.089030422270298,-1.2512648105621338,0.21005581319332123,2.5560083389282227,1.7054262161254883
5525.159000,0.42355120182037354,1.129395604133606,-0.08904500305652618,-1.2512379884719849,0.20846551656723022,2.5560452938079834,1.7075746059417725
5525.178000,0.42400404810905457,1.129419207572937,-0.08931010961532593,-1.2512245178222656,0.20770472288131714,2.556063175201416,1.7089171409606934
5525.196000,0.4242856800556183,1.129442572593689,-0.0895552858710289,-1.2512191534042358,0.20737986266613007,2.5560739040374756,1.7096282243728638
5525.216000,0.4244353771209717,1.1294618844985962,-0.0897596925497055,-1.2512179613113403,0.20736098289489746,2.5560803413391113,1.7098467350006104
5525.235000,0.4245750308036804,1.129459023475647,-0.08973883092403412,-1.2512062788009644,0.20658086240291595,2.5561022758483887,1.7108668088912964
5525.250000,0.4247681200504303,1.1294742822647095,-0.08992250263690948,-1.2512011528015137,0.2063920646905899,2.5561108589172363,1.7113151550292969
5525.272000,0.42495667934417725,1.129468560218811,-0.08987598866224289,-1.2511861324310303,0.20535975694656372,2.556136131286621,1.7126795053482056
5525.288000,0.4252876043319702,1.1294643878936768,-0.08985091000795364,-1.251165747642517,0.20388439297676086,2.556166648864746,1.7147414684295654
5525.306000,0.4256313145160675,1.1294852495193481,-0.0900847539305687,-1.251157522201538,0.20324702560901642,2.5561790466308594,1.7159671783447266
5525.324000,0.42593544721603394,1.129480004310608,-0.09002363681793213,-1.25113844871521,0.2015935778617859,2.5562119483947754,1.7182912826538086
5525.343000,0.4262813627719879,1.129502534866333,-0.09026975184679031,-1.251131534576416,0.2008846551179886,2.5562245845794678,1.7196946144104004
5525.364000,0.4265936017036438,1.1294963359832764,-0.09019191563129425,-1.2511119842529297,0.19904515147209167,2.556259870529175,1.722327709197998
5525.385000,0.4269561469554901,1.1295204162597656,-0.09045547991991043,-1.251105546951294,0.19825264811515808,2.5562727451324463,1.7239413261413574
5525.405000,0.4272872507572174,1.1295130252838135,-0.09036046266555786,-1.251084804534912,0.19619733095169067,2.5563106536865234,1.7269350290298462
5525.421000,0.42782825231552124,1.1295090913772583,-0.0903056412935257,-1.251056432723999,0.19350744783878326,2.556356191635132,1.7309733629226685
5525.441000,0.4285396635532379,1.129509687423706,-0.09028061479330063,-1.2510231733322144,0.1902003139257431,2.5564091205596924,1.736043930053711
5525.462000,0.4293997883796692,1.1295157670974731,-0.09028816223144531,-1.2509868144989014,0.18631353974342346,2.5564682483673096,1.742121934890747
5525.479000,0.4303703010082245,1.129530668258667,-0.09036321192979813,-1.2509509325027466,0.18207857012748718,2.5565288066864014,1.7489352226257324
5525.501000,0.4314160943031311,1.1295502185821533,-0.09045721590518951,-1.2509150505065918,0.17743059992790222,2.5565922260284424,1.7565240859985352
5525.520000,0.4325185716152191,1.1295768022537231,-0.09060413390398026,-1.2508814334869385,0.17256341874599457,2.556654930114746,1.7646585702896118
5525.537000,0.43361127376556396,1.1296160221099854,-0.09088326245546341,-1.2508560419082642,0.1680215746164322,2.5567095279693604,1.7726565599441528
5525.559000,0.43461471796035767,1.1296570301055908,-0.09118099510669708,-1.2508361339569092,0.1637047827243805,2.5567591190338135,1.7804932594299316
5525.580000,0.43553462624549866,1.129697561264038,-0.09148406982421875,-1.2508200407028198,0.1596049666404724,2.556804656982422,1.7881473302841187
5525.600000,0.4363321363925934,1.129740834236145,-0.09185507148504257,-1.2508118152618408,0.1561259925365448,2.55683970451355,1.7950835227966309
5525.622000,0.43682149052619934,1.1297963857650757,-0.09247075766324997,-1.25082528591156,0.15461529791355133,2.55684757232666,1.7995105981826782
5525.638000,0.4370250403881073,1.1298149824142456,-0.09265660494565964,-1.250829815864563,0.15263299643993378,2.55686616897583,1.804012656211853
5525.661000,0.43725836277008057,1.1298282146453857,-0.09280332177877426,-1.2508299350738525,0.1505836546421051,2.5568859577178955,1.8085410594940186
5525.682000,0.4375467896461487,1.1298389434814453,-0.09291786700487137,-1.250826120376587,0.14834439754486084,2.556907892227173,1.8132950067520142
5525.702000,0.43791553378105164,1.1298494338989258,-0.09301147609949112,-1.2508187294006348,0.14581412076950073,2.5569329261779785,1.8184564113616943
5525.719000,0.43836072087287903,1.1298637390136719,-0.0931350514292717,-1.2508106231689453,0.1431412249803543,2.5569581985473633,1.8238961696624756
5525.735000,0.43880265951156616,1.1298861503601074,-0.09337127208709717,-1.2508081197738647,0.140870600938797,2.5569772720336914,1.828935146331787
5525.759000,0.43900495767593384,1.1299223899841309,-0.0938846617937088,-1.2508257627487183,0.1404351443052292,2.556974411010742,1.8316607475280762
5525.780000,0.43880337476730347,1.1299426555633545,-0.0942826196551323,-1.250852108001709,0.1410692036151886,2.556962251663208,1.8325814008712769
5525.801000,0.4383184611797333,1.1299474239349365,-0.09455456584692001,-1.2508819103240967,0.14245420694351196,2.5569443702697754,1.8321020603179932
5525.818000,0.4377199709415436,1.1299313306808472,-0.09456381946802139,-1.2509044408798218,0.14354829490184784,2.556931495666504,1.8315309286117554
5525.839000,0.4371757209300995,1.1299126148223877,-0.09453000873327255,-1.2509230375289917,0.14454764127731323,2.556919813156128,1.8308930397033691
5525.860000,0.43662533164024353,1.12990403175354,-0.09464555978775024,-1.2509479522705078,0.14630497992038727,2.5568997859954834,1.8292222023010254
5525.880000,0.4360145330429077,1.1298822164535522,-0.09456638991832733,-1.2509678602218628,0.14770816266536713,2.556884527206421,1.8276597261428833
5525.901000,0.4354187548160553,1.1298701763153076,-0.09462026506662369,-1.2509926557540894,0.14970357716083527,2.5568625926971436,1.8252978324890137
5525.922000,0.43474751710891724,1.1298562288284302,-0.09464973211288452,-1.2510194778442383,0.1520099639892578,2.556838274002075,1.8223352432250977
5525.938000,0.434028685092926,1.1298398971557617,-0.09464609622955322,-1.2510467767715454,0.1545150876045227,2.5568125247955322,1.8189295530319214
5525.960000,0.4332904517650604,1.1298221349716187,-0.09461532533168793,-1.2510737180709839,0.15714377164840698,2.556786060333252,1.8152055740356445
5525.981000,0.4325525760650635,1.1298036575317383,-0.09456385672092438,-1.251099944114685,0.15983988344669342,2.5567591190338135,1.8112618923187256
5525.999000,0.43185552954673767,1.129775881767273,-0.09436716884374619,-1.2511192560195923,0.16196681559085846,2.5567378997802734,1.8078491687774658
5526.021000,0.43128690123558044,1.1297489404678345,-0.09414847195148468,-1.2511333227157593,0.16362778842449188,2.556720733642578,1.8050013780593872
5526.038000,0.43079873919487,1.1297369003295898,-0.09409879893064499,-1.251151442527771,0.16565117239952087,2.5566980838775635,1.8018054962158203
5526.059000,0.4302796721458435,1.1297262907028198,-0.0940571129322052,-1.2511712312698364,0.1678227335214615,2.5566742420196533,1.7983633279800415
5526.080000,0.42973950505256653,1.1297153234481812,-0.09400674700737,-1.251191258430481,0.17007574439048767,2.556649684906006,1.794754981994629
5526.101000,0.42919397354125977,1.1297038793563843,-0.0939471423625946,-1.2512108087539673,0.17236867547035217,2.5566248893737793,1.7910436391830444
