yuan18844-afk/dissertation/catkin_ws/src/franka_digital_twin/analysis/data/unity_static3_20250728_064205.csv
time,panda_joint1,panda_joint2,panda_joint3,panda_joint4,panda_joint5,panda_joint6,panda_joint7
4842.098000,0.2997387647628784,1.0532050132751465,0.06063919886946678,-1.4539798498153687,0.06921493262052536,2.6689038276672363,2.525704860687256
4842.118000,0.2999895513057709,1.0531880855560303,0.06054551899433136,-1.453978419303894,0.06841358542442322,2.6689059734344482,2.5274078845977783
4842.133000,0.3002384603023529,1.0531713962554932,0.06044993922114372,-1.4539772272109985,0.06760859489440918,2.668907880783081,2.5291683673858643
4842.154000,0.3004826307296753,1.0531551837921143,0.060352589935064316,-1.4539763927459717,0.06681494414806366,2.6689095497131348,2.53096079826355
4842.175000,0.3007203936576843,1.053139567375183,0.060253795236349106,-1.4539759159088135,0.06604307889938354,2.6689112186431885,2.532766819000244
4842.202000,0.30095160007476807,1.0531244277954102,0.06015729531645775,-1.4539755582809448,0.06527774035930634,2.668912649154663,2.534597873687744
4842.216000,0.3010880649089813,1.0531193017959595,0.059999920427799225,-1.4539803266525269,0.06523995101451874,2.6689133644104004,2.535531759262085
4842.236000,0.30107381939888,1.0531245470046997,0.05989847332239151,-1.4539856910705566,0.06563742458820343,2.6689136028289795,2.5357666015625
4842.253000,0.3010472059249878,1.053126335144043,0.05990751087665558,-1.4539856910705566,0.06562311947345734,2.668914318084717,2.5363705158233643
4842.272000,0.30110156536102295,1.053121566772461,0.05989734083414078,-1.4539844989776611,0.0654047355055809,2.668915271759033,2.537254810333252
4842.293000,0.30121299624443054,1.0531129837036133,0.059864193201065063,-1.453983187675476,0.06505391001701355,2.6689162254333496,2.5383496284484863
4842.314000,0.3012678921222687,1.0531120300292969,0.05975407734513283,-1.4539870023727417,0.06532791256904602,2.6689164638519287,2.538688898086548
4842.328000,0.3011965751647949,1.0531200170516968,0.05968894064426422,-1.4539916515350342,0.065958671271801,2.6689164638519287,2.538442611694336
4842.349000,0.30103927850723267,1.0531333684921265,0.05966591089963913,-1.4539958238601685,0.06683016568422318,2.6689162254333496,2.537745952606201
4842.370000,0.3008304834365845,1.0531495809555054,0.05967359244823456,-1.453999400138855,0.06786396354436874,2.6689157485961914,2.5367064476013184
4842.391000,0.3005935549736023,1.0531671047210693,0.05970250815153122,-1.4540023803710938,0.06900300085544586,2.668915033340454,2.535409688949585
4842.410000,0.30043935775756836,1.053173542022705,0.059845440089702606,-1.45399808883667,0.06924173980951309,2.668915271759033,2.5351059436798096
4842.423000,0.300358384847641,1.0531792640686035,0.059840764850378036,-1.4539989233016968,0.06989865750074387,2.668914794921875,2.534388303756714
4842.440000,0.30032169818878174,1.0531773567199707,0.05996157228946686,-1.453993558883667,0.06966853886842728,2.6689155101776123,2.534670829772949
4842.455000,0.300436794757843,1.053164005279541,0.06005878746509552,-1.4539862871170044,0.06877672672271729,2.668916940689087,2.5358715057373047
4842.472000,0.3005620241165161,1.0531569719314575,0.05997453257441521,-1.4539875984191895,0.06864287704229355,2.668917179107666,2.5363099575042725
4842.494000,0.30066949129104614,1.0531456470489502,0.06006773188710213,-1.4539817571640015,0.06757665425539017,2.6689186096191406,2.537782907485962
4842.513000,0.30090585350990295,1.053125023841858,0.06012893095612526,-1.453974962234497,0.0659756064414978,2.6689202785491943,2.5400443077087402
4842.529000,0.3012428283691406,1.0530977249145508,0.06016875430941582,-1.453967809677124,0.06385718286037445,2.668921947479248,2.543076992034912
4842.554000,0.3015262484550476,1.0530825853347778,0.060001179575920105,-1.4539721012115479,0.06289972364902496,2.6689224243164062,2.54487943649292
4842.571000,0.30159902572631836,1.0530833005905151,0.05987849831581116,-1.4539787769317627,0.06263653934001923,2.6689224243164062,2.5457193851470947
4842.591000,0.30152127146720886,1.0530935525894165,0.05981006845831871,-1.453985333442688,0.06287087500095367,2.668922185897827,2.5458104610443115
4842.609000,0.30150505900382996,1.0530897378921509,0.059992704540491104,-1.4539786577224731,0.061627570539712906,2.6689229011535645,2.5475292205810547
4842.632000,0.30173808336257935,1.0530675649642944,0.060116808861494064,-1.4539695978164673,0.059516243636608124,2.6689236164093018,2.550492763519287
4842.654000,0.3021593689918518,1.0530331134796143,0.06019114330410957,-1.4539602994918823,0.056628067046403885,2.668923854827881,2.554612636566162
4842.675000,0.30273255705833435,1.0529896020889282,0.06022273004055023,-1.4539517164230347,0.05302342772483826,2.6689231395721436,2.5598392486572266
4842.694000,0.3034142255783081,1.0529413223266602,0.060194987803697586,-1.4539457559585571,0.04895598813891411,2.6689207553863525,2.5658838748931885
4842.713000,0.304172545671463,1.0528897047042847,0.06014266237616539,-1.4539414644241333,0.04439583793282509,2.6689159870147705,2.5727627277374268
4842.736000,0.3049929738044739,1.0528360605239868,0.06005889177322388,-1.4539395570755005,0.039455920457839966,2.6689085960388184,2.5803439617156982
4842.758000,0.30584657192230225,1.052782654762268,0.05994101241230965,-1.453940749168396,0.03429997339844704,2.668898344039917,2.588414430618286
4842.777000,0.30648016929626465,1.0527533292770386,0.05952257290482521,-1.4539616107940674,0.031539201736450195,2.6688930988311768,2.5937886238098145
4842.797000,0.30667224526405334,1.0527533292770386,0.05921805649995804,-1.4539835453033447,0.030279548838734627,2.668891429901123,2.597043991088867
4842.812000,0.30668625235557556,1.0527592897415161,0.059172261506319046,-1.453993797302246,0.028786076232790947,2.6688873767852783,2.6002604961395264
4842.835000,0.3066954016685486,1.0527639389038086,0.05910928547382355,-1.4540035724639893,0.02766459435224533,2.66888427734375,2.6029555797576904
4842.855000,0.3066680133342743,1.0527698993682861,0.05906785652041435,-1.454012155532837,0.02679372765123844,2.668881893157959,2.605229377746582
4842.876000,0.3066135346889496,1.0527769327163696,0.05904468148946762,-1.4540197849273682,0.02611277624964714,2.668879747390747,2.6071619987487793
4842.897000,0.30649930238723755,1.0527881383895874,0.05901380255818367,-1.454028606414795,0.02586698904633522,2.668879508972168,2.6084392070770264
4842.912000,0.30626970529556274,1.0528072118759155,0.05900335684418678,-1.454038143157959,0.026150671765208244,2.668882131576538,2.6088614463806152
4842.931000,0.30593088269233704,1.0528336763381958,0.058978524059057236,-1.4540492296218872,0.02717956341803074,2.66888689994812,2.6081881523132324
4842.953000,0.30548691749572754,1.0528665781021118,0.05899146571755409,-1.454059362411499,0.028713269159197807,2.6688926219940186,2.6066739559173584
4842.974000,0.3049798905849457,1.0529030561447144,0.059037115424871445,-1.4540681838989258,0.03060484118759632,2.668898582458496,2.6045210361480713
4842.994000,0.3043791651725769,1.0529451370239258,0.059161681681871414,-1.4540750980377197,0.03266631066799164,2.6689059734344482,2.6018552780151367
4843.009000,0.3037041425704956,1.0529918670654297,0.059342361986637115,-1.454080581665039,0.03488793224096298,2.668914556503296,2.5986733436584473
4843.030000,0.30306121706962585,1.0530356168746948,0.059521764516830444,-1.4540845155715942,0.037138745188713074,2.6689212322235107,2.5952889919281006
4843.051000,0.302472323179245,1.0530756711959839,0.059675317257642746,-1.4540880918502808,0.039434172213077545,2.66892671585083,2.5917718410491943
4843.070000,0.30192890763282776,1.0531127452850342,0.05980861559510231,-1.4540915489196777,0.041757117956876755,2.668931007385254,2.588176965713501
4843.092000,0.30131733417510986,1.0531553030014038,0.05997506156563759,-1.454095482826233,0.044239290058612823,2.668936252593994,2.584188222885132
4843.107000,0.3006340265274048,1.0532026290893555,0.06020532175898552,-1.4540982246398926,0.046726126223802567,2.6689412593841553,2.579923152923584
4843.128000,0.2999093234539032,1.0532525777816772,0.06047680228948593,-1.4541001319885254,0.04919808357954025,2.668945789337158,2.5754148960113525
4843.159000,0.2991689443588257,1.0533033609390259,0.060777656733989716,-1.4541010856628418,0.05160185322165489,2.6689493656158447,2.5707504749298096
4843.168000,0.29842954874038696,1.053354024887085,0.06109292432665825,-1.4541015625,0.0539361909031868,2.6689517498016357,2.5659618377685547
4843.189000,0.297700434923172,1.0534040927886963,0.061415139585733414,-1.4541015625,0.05619526654481888,2.6689531803131104,2.561084270477295
4843.206000,0.2969937026500702,1.053452491760254,0.061741046607494354,-1.4541010856628418,0.05834158509969711,2.6689534187316895,2.5561957359313965
4843.230000,0.29631873965263367,1.0534988641738892,0.06206199899315834,-1.454100251197815,0.06037477031350136,2.668952703475952,2.551332950592041
4843.250000,0.295682430267334,1.0535426139831543,0.062373530119657516,-1.4540990591049194,0.06228530406951904,2.6689510345458984,2.546541452407837
4843.272000,0.29508647322654724,1.0535836219787598,0.06267178058624268,-1.4540976285934448,0.0640820786356926,2.6689484119415283,2.5418384075164795
4843.292000,0.29453811049461365,1.0536212921142578,0.06295787543058395,-1.454095721244812,0.06572652608156204,2.6689453125,2.537299871444702
4843.307000,0.2940385043621063,1.0536556243896484,0.0632244423031807,-1.4540936946868896,0.06724609434604645,2.6689414978027344,2.5329201221466064
4843.326000,0.2935929000377655,1.0536861419677734,0.0634717121720314,-1.4540913105010986,0.06861753761768341,2.6689374446868896,2.528754949569702
4843.346000,0.2931980788707733,1.053713321685791,0.06369515508413315,-1.454088807106018,0.06987370550632477,2.668933153152466,2.5247843265533447
4843.366000,0.29285919666290283,1.0537364482879639,0.06389942020177841,-1.4540858268737793,0.07096961885690689,2.668928861618042,2.5210838317871094
4843.384000,0.2925901412963867,1.0537543296813965,0.0640786811709404,-1.4540821313858032,0.07187396287918091,2.6689248085021973,2.517728567123413
4843.401000,0.2923838794231415,1.0537679195404053,0.06422515958547592,-1.4540784358978271,0.07264770567417145,2.6689207553863525,2.5146632194519043
4843.422000,0.2922438681125641,1.053776502609253,0.06434963643550873,-1.4540741443634033,0.07321925461292267,2.668917179107666,2.5119893550872803
4843.441000,0.2922098934650421,1.0537785291671753,0.06438987702131271,-1.4540704488754272,0.07377514988183975,2.668914556503296,2.509603500366211
4843.461000,0.2922223210334778,1.0537766218185425,0.06442371010780334,-1.4540659189224243,0.07414256781339645,2.668912410736084,2.5076310634613037
4843.479000,0.2922772765159607,1.053771734237671,0.06443914026021957,-1.4540613889694214,0.07438153028488159,2.668910503387451,2.5059916973114014
4843.498000,0.29238441586494446,1.0537645816802979,0.06438679993152618,-1.454058289527893,0.07473744451999664,2.6689090728759766,2.504446506500244
4843.519000,0.29250991344451904,1.053756594657898,0.0643039271235466,-1.4540557861328125,0.07518777251243591,2.668907880783081,2.5029850006103516
4843.537000,0.29264336824417114,1.0537482500076294,0.06420455127954483,-1.454053521156311,0.07571853697299957,2.6689069271087646,2.501598358154297
4843.559000,0.2927795946598053,1.0537396669387817,0.06409664452075958,-1.4540513753890991,0.07631483674049377,2.6689059734344482,2.500279188156128
4843.579000,0.2929157614707947,1.0537309646606445,0.06398509442806244,-1.4540492296218872,0.07696185261011124,2.668905019760132,2.499021291732788
4843.597000,0.2930503487586975,1.0537222623825073,0.06387290358543396,-1.4540470838546753,0.0776459276676178,2.6689043045043945,2.497819423675537
4843.617000,0.2931825816631317,1.0537135601043701,0.0637618899345398,-1.4540448188781738,0.0783550813794136,2.6689035892486572,2.496669292449951
4843.636000,0.29331210255622864,1.053704857826233,0.06365310400724411,-1.4540424346923828,0.07907912135124207,2.66890287399292,2.4955670833587646
4843.659000,0.2934388220310211,1.0536961555480957,0.06354713439941406,-1.4540399312973022,0.07980961352586746,2.6689019203186035,2.494509696960449
4843.680000,0.293640673160553,1.053675651550293,0.06357359886169434,-1.454030156135559,0.07947595417499542,2.6689035892486572,2.4947474002838135
4843.698000,0.29402822256088257,1.0536400079727173,0.06357933580875397,-1.4540175199508667,0.07827583700418472,2.6689069271087646,2.4962313175201416
4843.719000,0.29456186294555664,1.0535950660705566,0.06352826207876205,-1.454005241394043,0.07648403197526932,2.6689109802246094,2.498667001724243
4843.741000,0.29508134722709656,1.0535601377487183,0.06328398734331131,-1.454003095626831,0.07554008811712265,2.668912649154663,2.500319004058838
4843.762000,0.2954398989677429,1.0535386800765991,0.06306452304124832,-1.454003930091858,0.07509271800518036,2.6689133644104004,2.501354694366455
4843.782000,0.29567742347717285,1.0535255670547485,0.06288319081068039,-1.4540053606033325,0.07500509917736053,2.6689136028289795,2.5019071102142334
4843.796000,0.2958337068557739,1.053517460823059,0.0627339705824852,-1.454006552696228,0.07518313080072403,2.6689133644104004,2.5020828247070312
4843.815000,0.29593661427497864,1.0535123348236084,0.06260985881090164,-1.4540073871612549,0.07555536925792694,2.668912887573242,2.5019662380218506
4843.836000,0.29600489139556885,1.053508996963501,0.06250493973493576,-1.4540077447891235,0.07606733590364456,2.668912172317505,2.5016250610351562
4843.856000,0.2960509955883026,1.0535067319869995,0.06241454556584358,-1.4540077447891235,0.07667768746614456,2.6689114570617676,2.501112699508667
4843.878000,0.2960831820964813,1.0535050630569458,0.06233512982726097,-1.4540075063705444,0.07735513150691986,2.668910503387451,2.500471830368042
4843.894000,0.29610690474510193,1.0535036325454712,0.06226404383778572,-1.4540070295333862,0.0780760794878006,2.6689095497131348,2.4997360706329346
4843.912000,0.29612573981285095,1.0535023212432861,0.06219934672117233,-1.454006314277649,0.07882282137870789,2.6689085960388184,2.498932361602783
4843.933000,0.29614201188087463,1.053501009941101,0.06213963031768799,-1.4540053606033325,0.0795821025967598,2.668907403945923,2.498081922531128
4843.955000,0.2963935136795044,1.0534687042236328,0.062346041202545166,-1.4539872407913208,0.07787199318408966,2.6689131259918213,2.500218629837036
4843.975000,0.29707878828048706,1.0534051656723022,0.06241612508893013,-1.4539661407470703,0.07466567307710648,2.6689212322235107,2.5046463012695312
4843.992000,0.2978135049343109,1.0533554553985596,0.06209300830960274,-1.453964352607727,0.07289977371692657,2.668924331665039,2.5077946186065674
4844.011000,0.2985076308250427,1.0532993078231812,0.062081389129161835,-1.4539510011672974,0.0694381445646286,2.6689302921295166,2.5129504203796387
4844.031000,0.2991941571235657,1.053256869316101,0.06173538789153099,-1.4539542198181152,0.06751466542482376,2.6689321994781494,2.5166025161743164
4844.053000,0.2995968163013458,1.053236484527588,0.06144944205880165,-1.4539613723754883,0.0664718970656395,2.6689326763153076,2.5190682411193848
4844.074000,0.29978835582733154,1.0532299280166626,0.06124041974544525,-1.4539686441421509,0.0660594180226326,2.6689326763153076,2.5206007957458496
4844.090000,0.2998412549495697,1.0532313585281372,0.061092495918273926,-1.453974962234497,0.06610871106386185,2.6689321994781494,2.521402359008789
4844.112000,0.29980602860450745,1.0532373189926147,0.06099001318216324,-1.4539802074432373,0.06649403274059296,2.668931722640991,2.5216338634490967
4844.130000,0.29971635341644287,1.0532459020614624,0.060920510441064835,-1.4539844989776611,0.06712076812982559,2.668931007385254,2.521423578262329
4844.151000,0.2996748089790344,1.0532457828521729,0.060973893851041794,-1.453981876373291,0.06701873242855072,2.668931007385254,2.5219602584838867
4844.172000,0.2997271716594696,1.0532397031784058,0.060976192355155945,-1.453979730606079,0.06677516549825668,2.668931007385254,2.522691488265991
4844.188000,0.2998099625110626,1.053231954574585,0.060970183461904526,-1.4539779424667358,0.06639423966407776,2.668931007385254,2.5235676765441895
4844.207000,0.29986894130706787,1.0532293319702148,0.06088171526789665,-1.453980565071106,0.06651952117681503,2.6689305305480957,2.523841619491577
4844.226000,0.2998448312282562,1.0532331466674805,0.06081042066216469,-1.4539841413497925,0.06695467233657837,2.6689298152923584,2.523648738861084
4844.246000,0.2997237741947174,1.0532423257827759,0.060816504061222076,-1.4539865255355835,0.06744284927845001,2.668928861618042,2.5231971740722656
4844.267000,0.29958823323249817,1.0532526969909668,0.06081417575478554,-1.4539891481399536,0.06810852885246277,2.6689279079437256,2.522448778152466
4844.284000,0.2993790805339813,1.053267240524292,0.06086374446749687,-1.453991413116455,0.06884516030550003,2.668926239013672,2.5214197635650635
4844.305000,0.29911795258522034,1.0532846450805664,0.06095845252275467,-1.4539929628372192,0.06958487629890442,2.668924331665039,2.52018141746521
4844.328000,0.29880809783935547,1.0533055067062378,0.06107759475708008,-1.4539947509765625,0.07041186839342117,2.668921709060669,2.5186283588409424
4844.348000,0.2985422909259796,1.0533230304718018,0.06117987260222435,-1.4539955854415894,0.07119825482368469,2.668919801712036,2.517061471939087
4844.366000,0.29823562502861023,1.0533438920974731,0.06128939986228943,-1.4539973735809326,0.07213111966848373,2.668916940689087,2.515169620513916
4844.373000,0.29786020517349243,1.0533696413040161,0.061439014971256256,-1.4539992809295654,0.07315562665462494,2.6689131259918213,2.5129494667053223
4844.400000,0.29755210876464844,1.0533896684646606,0.06158024072647095,-1.4539992809295654,0.07400535047054291,2.668910503387451,2.5109074115753174
4844.417000,0.2973392605781555,1.0534031391143799,0.061664823442697525,-1.4539989233016968,0.07480079680681229,2.6689083576202393,2.509016990661621
4844.439000,0.29706740379333496,1.0534220933914185,0.06175028905272484,-1.4540005922317505,0.07582913339138031,2.6689045429229736,2.506753921508789
4844.460000,0.29683423042297363,1.0534372329711914,0.06185073405504227,-1.4540002346038818,0.07666514813899994,2.6689019203186035,2.5047218799591064
4844.476000,0.2966824769973755,1.053446650505066,0.06190543249249458,-1.4539995193481445,0.07743357867002487,2.6689000129699707,2.502882480621338
4844.492000,0.2965885400772095,1.0534523725509644,0.061924275010824203,-1.4539986848831177,0.07816880196332932,2.668898582458496,2.5012047290802
4844.517000,0.29653242230415344,1.0534557104110718,0.0619189627468586,-1.4539978504180908,0.07888656854629517,2.6688973903656006,2.4996635913848877
4844.538000,0.2965008616447449,1.053457498550415,0.061897993087768555,-1.4539968967437744,0.07959440350532532,2.668896436691284,2.4982385635375977
4844.559000,0.2964853346347809,1.0534582138061523,0.06186717376112938,-1.453995943069458,0.08029527962207794,2.6688954830169678,2.496913194656372
4844.576000,0.2963320314884186,1.0534687042236328,0.06190912052989006,-1.4539964199066162,0.08113088458776474,2.668891668319702,2.4952430725097656
4844.596000,0.29619452357292175,1.0534770488739014,0.061974212527275085,-1.4539952278137207,0.08178755640983582,2.668889284133911,2.4937493801116943
4844.616000,0.29612013697624207,1.053481101989746,0.06200223043560982,-1.4539936780929565,0.08238136023283005,2.6688876152038574,2.4924025535583496
4844.635000,0.2960907220840454,1.053482174873352,0.06200077384710312,-1.4539920091629028,0.08294373750686646,2.668886423110962,2.491178274154663
4844.659000,0.29609015583992004,1.0534814596176147,0.06197965517640114,-1.4539903402328491,0.08348925411701202,2.6688854694366455,2.4900572299957275
4844.674000,0.2961077094078064,1.0534796714782715,0.06194600835442543,-1.4539886713027954,0.08402522653341293,2.668884754180908,2.4890236854553223
4844.691000,0.2961364984512329,1.0534770488739014,0.061904702335596085,-1.4539870023727417,0.08455478399991989,2.66888427734375,2.488065004348755
4844.709000,0.296172171831131,1.0534740686416626,0.061858996748924255,-1.4539852142333984,0.08507871627807617,2.668883800506592,2.487170934677124
4844.728000,0.29621195793151855,1.0534707307815552,0.06181105226278305,-1.4539834260940552,0.08559654653072357,2.6688833236694336,2.486332893371582
4844.748000,0.29625412821769714,1.0534672737121582,0.06176228076219559,-1.453981637954712,0.08610711991786957,2.6688828468322754,2.485543966293335
4844.764000,0.2961789071559906,1.0534671545028687,0.06189698725938797,-1.4539765119552612,0.0860237181186676,2.6688802242279053,2.4851787090301514
4844.784000,0.29617705941200256,1.0534650087356567,0.06194169446825981,-1.453973650932312,0.08601386100053787,2.6688785552978516,2.4847629070281982
4844.803000,0.29620468616485596,1.0534621477127075,0.06194321811199188,-1.4539716243743896,0.0860702246427536,2.668877601623535,2.484311103820801
4844.824000,0.2961445152759552,1.0534602403640747,0.062122244387865067,-1.4539655447006226,0.08543073385953903,2.668875217437744,2.484426975250244
4844.843000,0.29609477519989014,1.0534549951553345,0.062389615923166275,-1.4539570808410645,0.08405257761478424,2.668872833251953,2.485212564468384
4844.860000,0.2960854470729828,1.0534471273422241,0.06267696619033813,-1.4539483785629272,0.0821133702993393,2.668870449066162,2.4865095615386963
4844.880000,0.2961292266845703,1.0534355640411377,0.06298475712537766,-1.4539390802383423,0.07954449206590652,2.6688692569732666,2.488434076309204
4844.899000,0.2962328791618347,1.0534213781356812,0.06327234208583832,-1.4539304971694946,0.0765305757522583,2.6688687801361084,2.4908294677734375
4844.919000,0.2963999807834625,1.053403377532959,0.06355699151754379,-1.4539215564727783,0.07298454642295837,2.6688694953918457,2.493835926055908
4844.939000,0.29665541648864746,1.053379774093628,0.06382613629102707,-1.4539122581481934,0.06887459754943848,2.6688711643218994,2.4975626468658447
4844.956000,0.29700830578804016,1.053359866142273,0.06376437097787857,-1.453914761543274,0.06598132848739624,2.668872594833374,2.5002193450927734
4844.976000,0.29728665947914124,1.0533416271209717,0.06384129822254181,-1.453912377357483,0.06269517540931702,2.668874740600586,2.5033562183380127
4844.997000,0.29761454463005066,1.0533194541931152,0.06390473991632462,-1.4539095163345337,0.059249237179756165,2.6688766479492188,2.5068416595458984
4845.016000,0.2980092465877533,1.0532947778701782,0.06388504058122635,-1.4539088010787964,0.055961329489946365,2.6688783168792725,2.5103845596313477
4845.037000,0.29842644929885864,1.053269863128662,0.06382367014884949,-1.4539095163345337,0.052835118025541306,2.668879508972168,2.5139472484588623
4845.053000,0.2988629639148712,1.0532448291778564,0.06370330601930618,-1.453912377357483,0.0500081367790699,2.6688802242279053,2.5173916816711426
4845.074000,0.29923778772354126,1.0532280206680298,0.06343966722488403,-1.4539226293563843,0.04833992198109627,2.6688811779022217,2.5196917057037354
4845.094000,0.299466609954834,1.0532214641571045,0.06319061666727066,-1.4539340734481812,0.04747629910707474,2.668882131576538,2.521091938018799
4845.117000,0.2995876967906952,1.0532214641571045,0.06297028064727783,-1.4539450407028198,0.04722694680094719,2.6688833236694336,2.521787643432617
4845.138000,0.29963624477386475,1.0532252788543701,0.06277693808078766,-1.453955054283142,0.047447558492422104,2.668884754180908,2.521934747695923
4845.155000,0.29971417784690857,1.0532225370407104,0.06269361823797226,-1.4539586305618286,0.047198329120874405,2.6688849925994873,2.5226643085479736
4845.175000,0.29990580677986145,1.0532100200653076,0.06259260326623917,-1.4539605379104614,0.04664187878370285,2.668884515762329,2.5239219665527344
4845.196000,0.30017897486686707,1.0531915426254272,0.06246023252606392,-1.4539625644683838,0.04589138180017471,2.6688835620880127,2.525578498840332
4845.214000,0.30046984553337097,1.0531731843948364,0.06227745860815048,-1.4539668560028076,0.04529223218560219,2.6688828468322754,2.527190923690796
4845.235000,0.300699919462204,1.0531600713729858,0.06208765134215355,-1.4539730548858643,0.044972337782382965,2.6688826084136963,2.5284996032714844
4845.253000,0.3008577823638916,1.0531519651412964,0.06192740052938461,-1.453979253768921,0.04482734948396683,2.6688826084136963,2.529564619064331
4845.274000,0.30096435546875,1.0531470775604248,0.061792999505996704,-1.4539850950241089,0.044807061553001404,2.6688828468322754,2.5304338932037354
4845.296000,0.3010140359401703,1.0531471967697144,0.061619047075510025,-1.453993320465088,0.04531021788716316,2.668883800506592,2.5306546688079834
4845.317000,0.30098071694374084,1.0531529188156128,0.06147066503763199,-1.4540014266967773,0.04615647718310356,2.6688852310180664,2.5303730964660645
4845.338000,0.3008907437324524,1.0531619787216187,0.06134842336177826,-1.4540088176727295,0.0472487211227417,2.66888689994812,2.52970552444458
4845.354000,0.30073046684265137,1.0531744956970215,0.06131429597735405,-1.454013705253601,0.04827070236206055,2.668888807296753,2.528930902481079
4845.375000,0.3005429208278656,1.0531879663467407,0.061325374990701675,-1.4540170431137085,0.04921462759375572,2.668890953063965,2.528079032897949
4845.395000,0.30034202337265015,1.0532017946243286,0.06137021258473396,-1.4540191888809204,0.050044503062963486,2.6688930988311768,2.527198076248169
4845.414000,0.3001783788204193,1.0532137155532837,0.06135907769203186,-1.4540225267410278,0.05104179307818413,2.6688950061798096,2.526090145111084
4845.433000,0.29999035596847534,1.0532267093658447,0.06139085814356804,-1.4540245532989502,0.05193371698260307,2.6688969135284424,2.5249829292297363
4845.449000,0.29980379343032837,1.053239345550537,0.06143621355295181,-1.4540259838104248,0.052746016532182693,2.668898582458496,2.5238773822784424
4845.469000,0.2996232807636261,1.0532513856887817,0.0614883117377758,-1.4540270566940308,0.05348451808094978,2.66890025138855,2.522780656814575
4845.488000,0.29948312044143677,1.0532615184783936,0.061483610421419144,-1.4540293216705322,0.0543714314699173,2.6689016819000244,2.5215370655059814
4845.510000,0.29935911297798157,1.0532708168029785,0.06145353615283966,-1.4540319442749023,0.055373404175043106,2.66890287399292,2.520188808441162
4845.532000,0.29922324419021606,1.053279161453247,0.06149783730506897,-1.4540317058563232,0.05604573339223862,2.6689038276672363,2.5191636085510254
4845.550000,0.299137145280838,1.0532853603363037,0.06146862730383873,-1.454033374786377,0.05690060555934906,2.6689047813415527,2.518000602722168
4845.571000,0.29904165863990784,1.0532902479171753,0.06152438372373581,-1.4540318250656128,0.057326678186655045,2.66890549659729,2.517280340194702
4845.592000,0.2989863157272339,1.053291916847229,0.061589471995830536,-1.4540294408798218,0.057455092668533325,2.6689062118530273,2.51690673828125
4845.614000,0.2989744544029236,1.0532900094985962,0.06166849285364151,-1.4540259838104248,0.057215366512537,2.6689069271087646,2.5169684886932373
4845.634000,0.2990083694458008,1.053288221359253,0.06161780282855034,-1.4540271759033203,0.05739565193653107,2.668907642364502,2.51665997505188
4845.652000,0.299008846282959,1.0532896518707275,0.06154583767056465,-1.4540296792984009,0.05785023421049118,2.6689083576202393,2.5160677433013916
4845.672000,0.29901188611984253,1.0532865524291992,0.06162344664335251,-1.4540255069732666,0.05750216543674469,2.6689088344573975,2.5163700580596924
4845.693000,0.29911720752716064,1.053275465965271,0.061693210154771805,-1.4540200233459473,0.056646790355443954,2.6689093112945557,2.5173609256744385
4845.714000,0.2992643117904663,1.0532664060592651,0.061589084565639496,-1.454021692276001,0.05643528327345848,2.668909788131714,2.5177667140960693
4845.735000,0.29940372705459595,1.053253173828125,0.0616643913090229,-1.454015851020813,0.055252257734537125,2.668910026550293,2.5192739963531494
4845.752000,0.29967015981674194,1.0532307624816895,0.06171666830778122,-1.4540090560913086,0.053487855941057205,2.668910026550293,2.521620988845825
4845.772000,0.30004602670669556,1.0532008409500122,0.061753157526254654,-1.454001784324646,0.05112529546022415,2.6689093112945557,2.5248401165008545
4845.793000,0.3004162907600403,1.0531789064407349,0.061542950570583344,-1.454006552696228,0.04993113875389099,2.6689090728759766,2.526914119720459
4845.814000,0.30072343349456787,1.0531560182571411,0.0615716315805912,-1.454002022743225,0.04770583659410477,2.668907642364502,2.530135154724121
4845.834000,0.3010455369949341,1.0531381368637085,0.06135106831789017,-1.4540085792541504,0.04667491838335991,2.6689071655273438,2.5321733951568604
4845.851000,0.30119386315345764,1.0531331300735474,0.061152249574661255,-1.4540170431137085,0.04637609049677849,2.6689071655273438,2.5332841873168945
4845.872000,0.30121180415153503,1.0531364679336548,0.06099395453929901,-1.4540252685546875,0.04661531001329422,2.668907642364502,2.5336713790893555
4845.893000,0.301144540309906,1.0531446933746338,0.060870617628097534,-1.4540326595306396,0.04725513234734535,2.6689083576202393,2.5334970951080322
4845.914000,0.3010239005088806,1.0531556606292725,0.06077492982149124,-1.4540389776229858,0.0481896810233593,2.6689093112945557,2.532890558242798
4845.935000,0.3008712828159332,1.0531680583953857,0.06070048734545708,-1.4540443420410156,0.04933714494109154,2.668910264968872,2.531954765319824
4845.951000,0.30070093274116516,1.0531811714172363,0.06064214929938316,-1.454048991203308,0.05063454434275627,2.6689112186431885,2.530771017074585
4845.972000,0.3007241487503052,1.0531706809997559,0.06089409813284874,-1.454035758972168,0.04949568584561348,2.668909788131714,2.532421827316284
4845.993000,0.3011550009250641,1.053131341934204,0.06104244664311409,-1.454020380973816,0.04685371369123459,2.6689066886901855,2.5362491607666016
4846.013000,0.3018571436405182,1.0530760288238525,0.06108306348323822,-1.4540072679519653,0.04314921796321869,2.6689016819000244,2.5417301654815674
4846.033000,0.3027175962924957,1.053013563156128,0.06104174628853798,-1.45399808883667,0.038699354976415634,2.6688942909240723,2.5484492778778076
4846.049000,0.30365750193595886,1.0529494285583496,0.060944512486457825,-1.4539930820465088,0.03374025598168373,2.668884038925171,2.556077480316162
4846.070000,0.3046272397041321,1.052886724472046,0.06080959364771843,-1.4539921283721924,0.028453148901462555,2.668870687484741,2.5643539428710938
4846.091000,0.30539730191230774,1.0528463125228882,0.06034724786877632,-1.4540119171142578,0.025522397831082344,2.66886305809021,2.5700557231903076
4846.112000,0.3057382106781006,1.0528349876403809,0.05997944623231888,-1.4540332555770874,0.024082748219370842,2.6688594818115234,2.5737297534942627
4846.133000,0.30577319860458374,1.0528416633605957,0.05972001701593399,-1.4540520906448364,0.023736020550131798,2.668858766555786,2.575812816619873
4846.146000,0.3058044910430908,1.0528407096862793,0.05985424667596817,-1.4540506601333618,0.021644210442900658,2.6688501834869385,2.5796704292297363
4846.161000,0.306115984916687,1.0528192520141602,0.0599483959376812,-1.454046607017517,0.018557194620370865,2.668837785720825,2.5848708152770996
4846.182000,0.3066231310367584,1.052785873413086,0.059976980090141296,-1.4540441036224365,0.014785978011786938,2.6688220500946045,2.591071605682373
4846.204000,0.3070506155490875,1.0527634620666504,0.05964462831616402,-1.4540613889694214,0.013103107921779156,2.668816089630127,2.5949840545654297
4846.225000,0.3071317970752716,1.0527645349502563,0.05937886983156204,-1.4540802240371704,0.012706403620541096,2.6688151359558105,2.597102403640747
4846.242000,0.30715644359588623,1.0527647733688354,0.059509068727493286,-1.4540799856185913,0.010687346570193768,2.668804407119751,2.6008381843566895
4846.264000,0.30723291635513306,1.0527633428573608,0.05929610878229141,-1.4540947675704956,0.010321669280529022,2.6688032150268555,2.6027791500091553
4846.285000,0.30707961320877075,1.0527771711349487,0.0591275617480278,-1.454110026359558,0.010930156335234642,2.6688060760498047,2.603320837020874
4846.306000,0.3067581355571747,1.0528011322021484,0.05902344733476639,-1.4541233777999878,0.012235029600560665,2.668811559677124,2.602778673171997
4846.326000,0.3065246343612671,1.0528151988983154,0.05928097292780876,-1.454117774963379,0.011485123075544834,2.6688053607940674,2.6044209003448486
4846.343000,0.3065851926803589,1.0528103113174438,0.05936950445175171,-1.4541157484054565,0.010313516482710838,2.6687979698181152,2.606797218322754
4846.365000,0.3067688047885895,1.0527987480163574,0.05940120294690132,-1.4541155099868774,0.008785460144281387,2.6687889099121094,2.6097238063812256
4846.386000,0.3069879412651062,1.0527867078781128,0.059336528182029724,-1.45412015914917,0.007496565580368042,2.668781280517578,2.612488031387329
4846.406000,0.30706164240837097,1.0527862310409546,0.05912163108587265,-1.4541343450546265,0.007612144574522972,2.6687817573547363,2.6135973930358887
4846.428000,0.30689120292663574,1.0528019666671753,0.058971043676137924,-1.454148292541504,0.008621101267635822,2.6687865257263184,2.613421678543091
4846.443000,0.30658960342407227,1.0528250932693481,0.0589677132666111,-1.4541562795639038,0.009666819125413895,2.6687910556793213,2.6129467487335205
4846.464000,0.3062381148338318,1.0528509616851807,0.0589192770421505,-1.454166054725647,0.011389223858714104,2.6687989234924316,2.6115522384643555
4846.485000,0.30580228567123413,1.0528820753097534,0.05890442430973053,-1.4541747570037842,0.013541228137910366,2.6688079833984375,2.609457492828369
4846.504000,0.30531495809555054,1.052916169166565,0.05892087519168854,-1.4541820287704468,0.015988396480679512,2.6688177585601807,2.606837034225464
4846.525000,0.30476969480514526,1.0529534816741943,0.05901851877570152,-1.4541864395141602,0.018416307866573334,2.668828248977661,2.6039938926696777
4846.542000,0.3042078912258148,1.0529910326004028,0.05915633216500282,-1.4541890621185303,0.020792918279767036,2.6688389778137207,2.600998878479004
4846.563000,0.30362072587013245,1.053030014038086,0.05930710583925247,-1.4541910886764526,0.023236772045493126,2.6688506603240967,2.5977067947387695
4846.583000,0.30298203229904175,1.053072214126587,0.05948248133063316,-1.4541927576065063,0.025782758370041847,2.668863296508789,2.5940403938293457
4846.604000,0.30230578780174255,1.0531166791915894,0.059691306203603745,-1.4541932344436646,0.02834004908800125,2.6688756942749023,2.5901105403900146
4846.623000,0.3015986382961273,1.0531634092330933,0.059918928891420364,-1.4541932344436646,0.03095824457705021,2.6688880920410156,2.585869312286377
4846.640000,0.30087289214134216,1.0532113313674927,0.06017070263624191,-1.4541923999786377,0.03356342017650604,2.6688997745513916,2.5814173221588135
4846.659000,0.3001311123371124,1.0532605648040771,0.06043510138988495,-1.4541913270950317,0.036199960857629776,2.6689109802246094,2.576714277267456
4846.677000,0.2993825674057007,1.0533103942871094,0.06071717292070389,-1.454189658164978,0.03880413994193077,2.6689209938049316,2.571850538253784
4846.696000,0.29863277077674866,1.0533604621887207,0.06100726127624512,-1.4541878700256348,0.0413975864648819,2.6689300537109375,2.566818952560425
4846.717000,0.29788199067115784,1.0534108877182007,0.061306290328502655,-1.4541858434677124,0.04397141560912132,2.668937921524048,2.5616395473480225
4846.737000,0.2971406877040863,1.053460717201233,0.061613406985998154,-1.4541833400726318,0.046484801918268204,2.6689445972442627,2.556382179260254
4846.753000,0.29641640186309814,1.0535095930099487,0.06192152574658394,-1.4541807174682617,0.04893752932548523,2.668949842453003,2.5510711669921875
4846.773000,0.2957155704498291,1.05355703830719,0.062228888273239136,-1.4541778564453125,0.05130714923143387,2.6689538955688477,2.5457561016082764
4846.793000,0.29504355788230896,1.0536025762557983,0.06253119558095932,-1.4541747570037842,0.05358787998557091,2.6689565181732178,2.5404672622680664
4846.814000,0.29440388083457947,1.0536460876464844,0.06282622367143631,-1.4541715383529663,0.05577151104807854,2.6689579486846924,2.53523588180542
4846.834000,0.2938011884689331,1.0536870956420898,0.06311195343732834,-1.4541680812835693,0.05784457176923752,2.6689581871032715,2.530100107192993
4846.851000,0.29324260354042053,1.053725004196167,0.06338570266962051,-1.4541642665863037,0.05978678911924362,2.668957471847534,2.5251104831695557
4846.870000,0.2927284836769104,1.0537599325180054,0.06364292651414871,-1.454160451889038,0.06161382049322128,2.6689558029174805,2.520268678665161
4846.891000,0.2922634780406952,1.0537914037704468,0.0638851597905159,-1.4541562795639038,0.06329537183046341,2.6689534187316895,2.515631914138794
4846.911000,0.29197457432746887,1.053809404373169,0.06406358629465103,-1.4541501998901367,0.06459416449069977,2.6689510345458984,2.5117053985595703
4846.929000,0.29186034202575684,1.053815484046936,0.06413516402244568,-1.4541443586349487,0.06571687757968903,2.6689488887786865,2.508354663848877
4846.949000,0.2918613851070404,1.0538139343261719,0.06412970274686813,-1.4541391134262085,0.06674423068761826,2.6689469814300537,2.505471706390381
4846.969000,0.2919341027736664,1.0538078546524048,0.06407343596220016,-1.4541343450546265,0.06772034615278244,2.6689453125,2.5029702186584473
4846.991000,0.29205015301704407,1.053799033164978,0.06398488581180573,-1.454129934310913,0.06866981834173203,2.6689438819885254,2.5007808208465576
4847.011000,0.29219144582748413,1.053788661956787,0.0638766884803772,-1.4541257619857788,0.06960529834032059,2.668942451477051,2.498847484588623
4847.027000,0.2923465371131897,1.0537773370742798,0.06375732272863388,-1.454121708869934,0.07053220272064209,2.668941020965576,2.4971253871917725
4847.048000,0.2925083041191101,1.0537655353546143,0.06363241374492645,-1.454117774963379,0.07145174592733383,2.6689398288726807,2.4955785274505615
4847.068000,0.2926723062992096,1.0537534952163696,0.06350565701723099,-1.4541138410568237,0.07236286252737045,2.668938636779785,2.49417781829834
4847.089000,0.2928358316421509,1.053741455078125,0.0633794292807579,-1.4541099071502686,0.07326342165470123,2.6689374446868896,2.4928996562957764
4847.109000,0.29299724102020264,1.0537294149398804,0.06325522065162659,-1.4541058540344238,0.07415097206830978,2.668936252593994,2.491724967956543
4847.126000,0.29315558075904846,1.0537174940109253,0.06313395500183105,-1.454101800918579,0.07502305507659912,2.6689350605010986,2.490638494491577
4847.147000,0.2932017743587494,1.0537112951278687,0.06314332783222198,-1.4540959596633911,0.07557743042707443,2.6689324378967285,2.4897310733795166
4847.168000,0.2932884395122528,1.0537033081054688,0.06311122328042984,-1.45409095287323,0.07611434906721115,2.6689305305480957,2.4888648986816406
4847.188000,0.2934037148952484,1.0536937713623047,0.06304791569709778,-1.454086422920227,0.0766606479883194,2.668928861618042,2.4880363941192627
4847.205000,0.2935340404510498,1.0536835193634033,0.06296537071466446,-1.4540822505950928,0.07722826302051544,2.6689274311065674,2.487236976623535
4847.221000,0.2936709523200989,1.0536729097366333,0.06287258863449097,-1.4540783166885376,0.07781585305929184,2.668926239013672,2.4864654541015625
4847.242000,0.2938098609447479,1.0536621809005737,0.06277484446763992,-1.4540743827819824,0.07841987907886505,2.6689250469207764,2.4857208728790283
4847.264000,0.29394811391830444,1.0536515712738037,0.06267543137073517,-1.4540705680847168,0.07903560250997543,2.66892409324646,2.4850025177001953
4847.286000,0.2940252423286438,1.0536391735076904,0.06277518719434738,-1.4540609121322632,0.07874295860528946,2.6689226627349854,2.4851458072662354
4847.307000,0.2941352128982544,1.053623080253601,0.06293043494224548,-1.4540497064590454,0.07777541875839233,2.6689209938049316,2.4859533309936523
4847.322000,0.29433655738830566,1.0536067485809326,0.0629071518778801,-1.4540444612503052,0.07718525826931,2.668919801712036,2.4864375591278076
4847.344000,0.29452595114707947,1.053593397140503,0.06283397972583771,-1.4540414810180664,0.07685421407222748,2.6689188480377197,2.486668586730957
4847.365000,0.29469621181488037,1.053581953048706,0.0627390667796135,-1.4540393352508545,0.07673732936382294,2.6689181327819824,2.4867026805877686
4847.386000,0.2948494851589203,1.0535718202590942,0.06263449788093567,-1.4540375471115112,0.07679656147956848,2.668917655944824,2.4865846633911133
4847.406000,0.29498863220214844,1.0535625219345093,0.06252681463956833,-1.454035758972168,0.07699742168188095,2.668917179107666,2.4863498210906982
4847.423000,0.29511624574661255,1.053553819656372,0.06241965293884277,-1.4540339708328247,0.07730963081121445,2.668916702270508,2.4860262870788574
4847.443000,0.29523447155952454,1.053545594215393,0.0623149611055851,-1.454032063484192,0.07770749181509018,2.6689162254333496,2.4856367111206055
4847.465000,0.2953449785709381,1.0535377264022827,0.0622137114405632,-1.454030156135559,0.07816964387893677,2.6689157485961914,2.485198974609375
4847.486000,0.2954491078853607,1.0535300970077515,0.06211632862687111,-1.4540281295776367,0.07867863029241562,2.668915271759033,2.484726905822754
4847.507000,0.2955479025840759,1.0535227060317993,0.06202292814850807,-1.4540259838104248,0.07922034710645676,2.668914794921875,2.48423171043396
4847.528000,0.29574355483055115,1.0534942150115967,0.062269680202007294,-1.454007863998413,0.07742546498775482,2.6689183712005615,2.486363172531128
4847.544000,0.296142041683197,1.0534639358520508,0.062140267342329025,-1.4540026187896729,0.07647275924682617,2.668919563293457,2.4878664016723633
4847.566000,0.29644110798835754,1.053444266319275,0.06198759004473686,-1.454001545906067,0.07594984024763107,2.6689200401306152,2.4888744354248047
4847.586000,0.29665035009384155,1.0534316301345825,0.0618477463722229,-1.4540016651153564,0.07574137300252914,2.6689202785491943,2.489492893218994
4847.606000,0.29679661989212036,1.0534231662750244,0.06172390282154083,-1.454002022743225,0.07577293366193771,2.6689202785491943,2.4898061752319336
4847.624000,0.29702991247177124,1.053392767906189,0.06198496371507645,-1.453984260559082,0.0733172595500946,2.66892409324646,2.492899179458618
4847.644000,0.2974661886692047,1.0533616542816162,0.061828095465898514,-1.4539813995361328,0.07194885611534119,2.6689252853393555,2.4950993061065674
4847.665000,0.29776912927627563,1.053343415260315,0.061654914170503616,-1.4539828300476074,0.07116323709487915,2.6689257621765137,2.4965944290161133
4847.686000,0.29795733094215393,1.0533336400985718,0.061503663659095764,-1.4539854526519775,0.07080518454313278,2.6689260005950928,2.497534990310669
4847.706000,0.29806655645370483,1.0533288717269897,0.061375588178634644,-1.4539880752563477,0.07077229768037796,2.6689260005950928,2.4980409145355225
4847.722000,0.2981233298778534,1.0533270835876465,0.0612674318253994,-1.4539903402328491,0.07098500430583954,2.6689257621765137,2.4982075691223145
4847.743000,0.2981458306312561,1.0533270835876465,0.06117548421025276,-1.453992247581482,0.0713808611035347,2.6689252853393555,2.4981112480163574
4847.763000,0.2981462776660919,1.053328037261963,0.06109641492366791,-1.4539936780929565,0.07191124558448792,2.6689248085021973,2.497812509536743
4847.784000,0.29813292622566223,1.053329586982727,0.06102747097611427,-1.4539947509765625,0.07253851741552353,2.668924331665039,2.4973597526550293
4847.805000,0.2981112599372864,1.0533313751220703,0.06096648797392845,-1.4539955854415894,0.07323363423347473,2.6689236164093018,2.496791124343872
4847.821000,0.29811155796051025,1.053328514099121,0.06098506227135658,-1.453992486000061,0.07344232499599457,2.6689236164093018,2.496739625930786
4847.842000,0.29815563559532166,1.0533250570297241,0.06092287227511406,-1.4539921283721924,0.07386966794729233,2.6689231395721436,2.4964852333068848
4847.862000,0.29817602038383484,1.0533238649368286,0.06085967645049095,-1.453992486000061,0.07440875470638275,2.6689226627349854,2.4960758686065674
4847.883000,0.29817625880241394,1.0533241033554077,0.060802727937698364,-1.4539928436279297,0.07502415031194687,2.668922185897827,2.4955496788024902
4847.902000,0.29816335439682007,1.0533250570297241,0.060752008110284805,-1.4539930820465088,0.07569216191768646,2.66892147064209,2.4949371814727783
4847.917000,0.29811978340148926,1.0533263683319092,0.060759954154491425,-1.4539918899536133,0.07616811990737915,2.6689205169677734,2.4944562911987305
4847.937000,0.29809486865997314,1.053327202796936,0.060736626386642456,-1.453991413116455,0.076717309653759,2.668919563293457,2.4938862323760986
4847.957000,0.2980407476425171,1.0533289909362793,0.0607585683465004,-1.4539899826049805,0.07712272554636002,2.6689183712005615,2.493391752243042
4847.977000,0.2979785203933716,1.0533310174942017,0.060801245272159576,-1.4539881944656372,0.0774063840508461,2.668916940689087,2.4929590225219727
4847.997000,0.29790833592414856,1.0533336400985718,0.06085370481014252,-1.453986406326294,0.07761740684509277,2.668915271759033,2.492530584335327
4848.005000,0.2978277802467346,1.0533370971679688,0.060915302485227585,-1.4539847373962402,0.077772356569767,2.6689136028289795,2.4920847415924072
4848.023000,0.297740638256073,1.053341031074524,0.060984354466199875,-1.453983187675476,0.07787137478590012,2.6689116954803467,2.491628885269165
4848.046000,0.29765182733535767,1.0533452033996582,0.06105709820985794,-1.453981637954712,0.07792016863822937,2.668909788131714,2.491168260574341
4848.066000,0.29756417870521545,1.0533493757247925,0.06113088130950928,-1.4539800882339478,0.07792656868696213,2.668907880783081,2.4907052516937256
4848.085000,0.2974794805049896,1.0533534288406372,0.06120414286851883,-1.4539785385131836,0.07789632678031921,2.6689059734344482,2.490243434906006
4848.100000,0.29740065336227417,1.0533571243286133,0.06127491220831871,-1.453977108001709,0.07783294469118118,2.6689043045043945,2.4897913932800293
4848.121000,0.29733482003211975,1.053359866142273,0.06134379655122757,-1.4539754390716553,0.0777072012424469,2.66890287399292,2.489400625228882
4848.138000,0.2972840666770935,1.0533616542816162,0.06140472739934921,-1.4539737701416016,0.07754144072532654,2.6689016819000244,2.4890596866607666
4848.160000,0.297252357006073,1.0533621311187744,0.06145839765667915,-1.4539719820022583,0.07731812447309494,2.668900728225708,2.488804817199707
4848.180000,0.29726114869117737,1.053361415863037,0.06144986301660538,-1.4539716243743896,0.07726676762104034,2.66890025138855,2.4884488582611084
4848.200000,0.2972820997238159,1.0533603429794312,0.061413757503032684,-1.4539717435836792,0.0773548036813736,2.6689000129699707,2.4880173206329346
4848.219000,0.2973077595233917,1.0533591508865356,0.061362843960523605,-1.4539719820022583,0.07755998522043228,2.6689000129699707,2.487530469894409
4848.241000,0.29733771085739136,1.0533555746078491,0.06136038899421692,-1.453969955444336,0.0775240808725357,2.668900489807129,2.4873595237731934
4848.258000,0.29739877581596375,1.0533514022827148,0.061300501227378845,-1.4539695978164673,0.07767309248447418,2.668900728225708,2.4870784282684326
4848.281000,0.2974495589733124,1.053348422050476,0.06123289093375206,-1.4539697170257568,0.07793937623500824,2.668900966644287,2.4867143630981445
4848.298000,0.2975177466869354,1.0533405542373657,0.061253320425748825,-1.4539657831192017,0.0776699036359787,2.6689021587371826,2.486990213394165
4848.308000,0.29763269424438477,1.0533325672149658,0.06117485836148262,-1.453965187072754,0.0776885375380516,2.668902635574341,2.4870567321777344
4848.325000,0.2977161705493927,1.0533275604248047,0.06109220162034035,-1.4539655447006226,0.07786956429481506,2.668903112411499,2.4869611263275146
4848.345000,0.2977724075317383,1.053324580192566,0.06101519614458084,-1.4539661407470703,0.07816927880048752,2.668903350830078,2.486741065979004
4848.358000,0.29784390330314636,1.0533169507980347,0.06102101504802704,-1.4539626836776733,0.07797719538211823,2.6689045429229736,2.487093687057495
4848.374000,0.2979864180088043,1.053303837776184,0.06101545691490173,-1.4539583921432495,0.07748148590326309,2.6689062118530273,2.4878861904144287
4848.388000,0.29818063974380493,1.0532869100570679,0.061007436364889145,-1.4539536237716675,0.07667554914951324,2.6689083576202393,2.489116668701172
4848.410000,0.2984141409397125,1.0532677173614502,0.060985252261161804,-1.453949213027954,0.07565458118915558,2.668910503387451,2.4906766414642334
4848.425000,0.2986702620983124,1.0532476902008057,0.0609496645629406,-1.453945517539978,0.07448852062225342,2.668912649154663,2.4924769401550293
4848.446000,0.29893559217453003,1.0532276630401611,0.060904838144779205,-1.4539424180984497,0.07322583347558975,2.668914794921875,2.494450092315674
4848.458000,0.2991625964641571,1.0532145500183105,0.06076561287045479,-1.4539445638656616,0.07257235795259476,2.6689157485961914,2.495774745941162
4848.481000,0.2992885410785675,1.0532091856002808,0.06064248085021973,-1.4539480209350586,0.07231219112873077,2.6689162254333496,2.496589183807373
4848.494000,0.2993408739566803,1.0532084703445435,0.0605422742664814,-1.4539515972137451,0.07234402000904083,2.6689164638519287,2.497004270553589
4848.521000,0.29934462904930115,1.0532104969024658,0.06046164035797119,-1.453954815864563,0.0725942850112915,2.6689164638519287,2.497108221054077
4848.545000,0.2993563413619995,1.0532078742980957,0.06047983467578888,-1.4539532661437988,0.07236625254154205,2.668917179107666,2.4977095127105713
4848.567000,0.2994421422481537,1.053199291229248,0.0604899600148201,-1.4539505243301392,0.07185076922178268,2.6689181327819824,2.498690605163574
4848.587000,0.2995816767215729,1.0531867742538452,0.060499921441078186,-1.4539471864700317,0.07103598117828369,2.668919324874878,2.50006103515625
4848.609000,0.29976239800453186,1.0531718730926514,0.06049705296754837,-1.4539440870285034,0.0700131431221962,2.6689207553863525,2.5017223358154297
4848.632000,0.2999664545059204,1.0531560182571411,0.060483064502477646,-1.4539415836334229,0.06884456425905228,2.668921947479248,2.503596544265747
4848.654000,0.30019378662109375,1.0531378984451294,0.06049376353621483,-1.4539381265640259,0.06733591109514236,2.6689233779907227,2.505897283554077
4848.670000,0.30040299892425537,1.0531264543533325,0.060361433774232864,-1.4539417028427124,0.0665878877043724,2.668923854827881,2.507394552230835
4848.692000,0.30049407482147217,1.053124189376831,0.0602436363697052,-1.4539469480514526,0.06631884723901749,2.66892409324646,2.508261203765869
4848.713000,0.30052393674850464,1.053122878074646,0.06024114787578583,-1.453947901725769,0.06579054147005081,2.668924331665039,2.5093178749084473
4848.734000,0.30057573318481445,1.0531190633773804,0.060252342373132706,-1.4539477825164795,0.06512537598609924,2.668924570083618,2.5105140209198
4848.755000,0.30062663555145264,1.053115963935852,0.060248587280511856,-1.4539486169815063,0.06453577429056168,2.6689248085021973,2.5115931034088135
4848.772000,0.30063921213150024,1.0531162023544312,0.06024729460477829,-1.4539505243301392,0.06409236788749695,2.6689248085021973,2.512425422668457
4848.793000,0.3005998432636261,1.0531202554702759,0.060259513556957245,-1.4539530277252197,0.06381276249885559,2.668924570083618,2.5129590034484863
4848.813000,0.3005172610282898,1.0531271696090698,0.06029320880770683,-1.4539554119110107,0.06363536417484283,2.668924331665039,2.513258218765259
4848.834000,0.3004083037376404,1.0531355142593384,0.0603422075510025,-1.4539575576782227,0.06352687627077103,2.66892409324646,2.5133745670318604
4848.854000,0.3002737760543823,1.0531455278396606,0.060404181480407715,-1.4539597034454346,0.06349094212055206,2.6689236164093018,2.5133001804351807
4848.871000,0.3001086413860321,1.0531572103500366,0.0604950487613678,-1.4539612531661987,0.0634525865316391,2.6689231395721436,2.513099193572998
4848.892000,0.29997575283050537,1.0531678199768066,0.0605241134762764,-1.4539642333984375,0.06366487592458725,2.6689226627349854,2.5126149654388428
4848.914000,0.299797922372818,1.0531800985336304,0.06062055751681328,-1.453965425491333,0.06374499946832657,2.668922185897827,2.5121548175811768
4848.935000,0.29960522055625916,1.053192377090454,0.060762692242860794,-1.4539653062820435,0.06363224983215332,2.668921709060669,2.5117905139923096
4848.946000,0.2994163930416107,1.0532041788101196,0.060923147946596146,-1.4539645910263062,0.06335968524217606,2.6689212322235107,2.511502742767334
4848.970000,0.29924261569976807,1.0532156229019165,0.061062704771757126,-1.4539645910263062,0.0630895271897316,2.6689207553863525,2.5111477375030518
4848.991000,0.2990718483924866,1.053227186203003,0.06119655817747116,-1.4539648294448853,0.06280937790870667,2.6689202785491943,2.5107431411743164
4849.010000,0.29891258478164673,1.0532383918762207,0.061312392354011536,-1.4539655447006226,0.06256873905658722,2.668919801712036,2.510265827178955
4849.031000,0.29880717396736145,1.0532472133636475,0.0613461434841156,-1.453967809677124,0.06258758902549744,2.668919563293457,2.5095880031585693
4849.050000,0.29872700572013855,1.0532548427581787,0.06133583188056946,-1.4539707899093628,0.06282816082239151,2.668919324874878,2.5087599754333496
4849.067000,0.2986606955528259,1.053261637687683,0.06130019947886467,-1.4539740085601807,0.06325540691614151,2.668919324874878,2.507821798324585
4849.083000,0.2986023426055908,1.0532678365707397,0.061250485479831696,-1.4539772272109985,0.06383480876684189,2.668919324874878,2.506805419921875
4849.108000,0.2985488176345825,1.0532735586166382,0.061193596571683884,-1.4539803266525269,0.06453447788953781,2.668919324874878,2.5057356357574463
4849.130000,0.2984985113143921,1.0532788038253784,0.061133746057748795,-1.453983187675476,0.0653262659907341,2.668919324874878,2.504631996154785
4849.145000,0.29845064878463745,1.05328369140625,0.06107345595955849,-1.4539856910705566,0.06618611514568329,2.668919324874878,2.503509998321533
4849.169000,0.29840490221977234,1.0532883405685425,0.06101420521736145,-1.453987956047058,0.06709390133619308,2.668919086456299,2.5023818016052246
4849.189000,0.298361212015152,1.0532926321029663,0.06095682084560394,-1.4539899826049805,0.06803307682275772,2.6689188480377197,2.5012564659118652
4849.208000,0.29831957817077637,1.0532965660095215,0.06090173125267029,-1.4539916515350342,0.06899018585681915,2.6689186096191406,2.5001413822174072
4849.229000,0.29828009009361267,1.0533002614974976,0.06084912270307541,-1.4539930820465088,0.06995450705289841,2.6689183712005615,2.49904203414917
4849.251000,0.2982427775859833,1.053303599357605,0.06079903990030289,-1.4539941549301147,0.07091754674911499,2.6689181327819824,2.497962474822998
4849.269000,0.29820770025253296,1.0533066987991333,0.060751449316740036,-1.4539949893951416,0.07187265902757645,2.6689178943634033,2.49690580368042
4849.287000,0.29817482829093933,1.0533095598220825,0.06070627644658089,-1.4539955854415894,0.07281472533941269,2.668917417526245,2.4958741664886475
4849.309000,0.2981441915035248,1.053312063217163,0.06066342070698738,-1.453995943069458,0.07373985648155212,2.668916940689087,2.4948689937591553
4849.326000,0.298187792301178,1.053302526473999,0.060782287269830704,-1.4539878368377686,0.0734303817152977,2.6689183712005615,2.4952893257141113
4849.346000,0.29833707213401794,1.05329167842865,0.060707010328769684,-1.4539862871170044,0.07354302704334259,2.6689188480377197,2.4954092502593994
4849.367000,0.29843172430992126,1.0532861948013306,0.06062500178813934,-1.453986644744873,0.07385463267564774,2.6689188480377197,2.4952962398529053
4849.386000,0.29847875237464905,1.0532842874526978,0.06055362895131111,-1.4539874792099,0.07430390268564224,2.6689186096191406,2.495004415512085
4849.409000,0.2984936535358429,1.0532844066619873,0.060493212193250656,-1.4539883136749268,0.07485244423151016,2.6689183712005615,2.4945766925811768
4849.430000,0.29848793148994446,1.0532857179641724,0.06044212728738785,-1.4539889097213745,0.07547089457511902,2.6689178943634033,2.494046926498413
4849.446000,0.2984693646430969,1.0532876253128052,0.06039861589670181,-1.4539892673492432,0.0761364996433258,2.668917417526245,2.4934420585632324
4849.467000,0.2985999286174774,1.0532679557800293,0.060586780309677124,-1.4539761543273926,0.07489249855279922,2.6689209938049316,2.4950952529907227
4849.488000,0.2988854944705963,1.0532475709915161,0.06046536937355995,-1.4539738893508911,0.07440952956676483,2.668922185897827,2.496168375015259
4849.508000,0.29924339056015015,1.053213119506836,0.06058693677186966,-1.4539601802825928,0.07216673344373703,2.66892671585083,2.4993398189544678
4849.530000,0.29986467957496643,1.053160548210144,0.060630735009908676,-1.4539453983306885,0.06887684017419815,2.6689319610595703,2.5041091442108154
4849.546000,0.3004796504974365,1.0531224012374878,0.060350798070430756,-1.4539474248886108,0.06699999421834946,2.668933629989624,2.5075247287750244
4849.567000,0.3010607063770294,1.0530768632888794,0.06038857251405716,-1.4539366960525513,0.06344521790742874,2.6689367294311523,2.5128939151763916
4849.588000,0.30187493562698364,1.0530154705047607,0.06035883352160454,-1.453925371170044,0.05896458402276039,2.6689388751983643,2.5197339057922363
4849.608000,0.3028404116630554,1.0529468059539795,0.06025433540344238,-1.4539170265197754,0.05387583374977112,2.668938398361206,2.527656078338623
4849.625000,0.3038789927959442,1.0528767108917236,0.060098979622125626,-1.453912615776062,0.04838869720697403,2.6689348220825195,2.536358594894409
4849.646000,0.3047211468219757,1.052832841873169,0.05963020399212837,-1.45392906665802,0.045167870819568634,2.668931007385254,2.5425851345062256
4849.667000,0.3051326870918274,1.0528188943862915,0.05926688760519028,-1.4539482593536377,0.0433587022125721,2.6689281463623047,2.546856641769409
4849.688000,0.3052366077899933,1.0528229475021362,0.05901818349957466,-1.453965663909912,0.042578522115945816,2.668926477432251,2.549588918685913
4849.705000,0.3053577244281769,1.0528144836425781,0.05914246663451195,-1.4539635181427002,0.04004727303981781,2.6689207553863525,2.554131031036377
4849.728000,0.3057725429534912,1.0527843236923218,0.05921068415045738,-1.4539586305618286,0.03653411194682121,2.668912410736084,2.5600388050079346
4849.744000,0.30617329478263855,1.0527641773223877,0.05891874060034752,-1.4539722204208374,0.03487173095345497,2.6689083576202393,2.5639419555664062
4849.766000,0.3062698245048523,1.0527654886245728,0.058690667152404785,-1.4539881944656372,0.03430728241801262,2.6689066886901855,2.566270351409912
4849.786000,0.3061442971229553,1.0527803897857666,0.058544788509607315,-1.454002857208252,0.03453327715396881,2.6689066886901855,2.567366600036621
4849.806000,0.3058772087097168,1.0528030395507812,0.05846409499645233,-1.4540154933929443,0.03533773496747017,2.668907880783081,2.5675039291381836
4849.824000,0.30552446842193604,1.0528299808502197,0.05843162536621094,-1.454026222229004,0.03656088560819626,2.668909788131714,2.5669000148773193
4849.844000,0.3053368330001831,1.0528373718261719,0.058720678091049194,-1.454018473625183,0.03556408733129501,2.668905258178711,2.5687456130981445
4849.866000,0.3053290843963623,1.0528390407562256,0.05862635374069214,-1.4540255069732666,0.03574589639902115,2.6689047813415527,2.5694518089294434
4849.886000,0.3051721453666687,1.0528522729873657,0.058546967804431915,-1.4540348052978516,0.03653775528073311,2.668905735015869,2.5692734718322754
4849.906000,0.30489829182624817,1.0528732538223267,0.058509230613708496,-1.4540437459945679,0.037751417607069016,2.668907403945923,2.568413496017456
4849.926000,0.3045523464679718,1.052898645401001,0.058505989611148834,-1.4540517330169678,0.03926422446966171,2.6689095497131348,2.567033529281616
4849.944000,0.3041662275791168,1.0529261827468872,0.05852838605642319,-1.4540586471557617,0.040984295308589935,2.668911933898926,2.5652616024017334
4849.964000,0.30376118421554565,1.0529544353485107,0.05856907367706299,-1.4540646076202393,0.04284197837114334,2.668914318084717,2.563199520111084
4849.986000,0.3033510148525238,1.0529828071594238,0.058622363954782486,-1.45406973361969,0.04478473588824272,2.6689164638519287,2.5609278678894043
4850.005000,0.30312949419021606,1.0529893636703491,0.05899636447429657,-1.4540568590164185,0.04422249644994736,2.668914556503296,2.5615074634552
4850.026000,0.3031288683414459,1.052988886833191,0.05896320939064026,-1.4540587663650513,0.04463538900017738,2.668914794921875,2.5612869262695312
4850.045000,0.30317744612693787,1.0529786348342896,0.05924464017152786,-1.454046607017517,0.04298127442598343,2.668911933898926,2.5633981227874756
4850.063000,0.3033407926559448,1.0529690980911255,0.059142857789993286,-1.4540504217147827,0.0425853431224823,2.6689114570617676,2.5643467903137207
4850.083000,0.30331867933273315,1.0529741048812866,0.05905092880129814,-1.4540573358535767,0.042881373316049576,2.668911933898926,2.5643913745880127
4850.104000,0.3031546175479889,1.0529885292053223,0.05899875611066818,-1.4540643692016602,0.04367000609636307,2.6689131259918213,2.563737630844116
4850.121000,0.30290067195892334,1.0530083179473877,0.05898117646574974,-1.4540706872940063,0.04481683671474457,2.668914794921875,2.562549352645874
4850.142000,0.30259373784065247,1.0530309677124023,0.05899018794298172,-1.4540760517120361,0.046219415962696075,2.6689164638519287,2.5609569549560547
4850.163000,0.3022584915161133,1.053054928779602,0.05901867151260376,-1.454080581665039,0.04779919609427452,2.6689181327819824,2.55906343460083
4850.183000,0.30191120505332947,1.05307936668396,0.059060897678136826,-1.4540842771530151,0.049496278166770935,2.668919801712036,2.556950807571411
4850.202000,0.30156245827674866,1.0531035661697388,0.05911247059702873,-1.454087257385254,0.05126522108912468,2.6689212322235107,2.5546836853027344
4850.224000,0.3013322651386261,1.0531089305877686,0.05955479294061661,-1.4540715217590332,0.05038959160447121,2.6689207553863525,2.5553104877471924
4850.241000,0.3013463020324707,1.0531067848205566,0.05956897512078285,-1.4540704488754272,0.05046576261520386,2.6689212322235107,2.5551698207855225
4850.262000,0.3012641966342926,1.0531138181686401,0.0595535933971405,-1.4540729522705078,0.05101652815937996,2.668921947479248,2.5544376373291016
4850.282000,0.3011775612831116,1.053110957145691,0.05996423587203026,-1.4540578126907349,0.04917836934328079,2.6689212322235107,2.556231737136841
4850.302000,0.3012811243534088,1.0531044006347656,0.05995079502463341,-1.454058051109314,0.04851164296269417,2.66892147064209,2.556985855102539
4850.323000,0.3013255298137665,1.0530940294265747,0.06034064665436745,-1.4540431499481201,0.04572565108537674,2.6689202785491943,2.5599429607391357
4850.340000,0.3015834093093872,1.053068995475769,0.060729339718818665,-1.454026222229004,0.041578102856874466,2.6689181327819824,2.564580202102661
4850.361000,0.30192917585372925,1.0530495643615723,0.06064301356673241,-1.4540300369262695,0.03921668976545334,2.6689178943634033,2.5674707889556885
4850.381000,0.3020510673522949,1.0530478954315186,0.06052640080451965,-1.4540387392044067,0.037985000759363174,2.6689183712005615,2.568992853164673
4850.401000,0.30199944972991943,1.0530574321746826,0.06042986363172531,-1.4540481567382812,0.03761063143610954,2.668919563293457,2.5694475173950195
4850.422000,0.30183354020118713,1.0530736446380615,0.06035899370908737,-1.4540568590164185,0.037893980741500854,2.6689212322235107,2.569075107574463
4850.438000,0.30159619450569153,1.0530935525894165,0.06031167507171631,-1.4540644884109497,0.03867592662572861,2.6689233779907227,2.5680668354034424
4850.459000,0.30131879448890686,1.053113341331482,0.06043801084160805,-1.454064965248108,0.03896322473883629,2.6689248085021973,2.567474603652954
4850.479000,0.3010798692703247,1.0531305074691772,0.060551464557647705,-1.4540655612945557,0.03926076367497444,2.668926954269409,2.566818952560425
4850.498000,0.30086591839790344,1.053147315979004,0.06057223305106163,-1.4540693759918213,0.040050625801086426,2.6689293384552,2.565607786178589
4850.520000,0.30058276653289795,1.0531684160232544,0.060664452612400055,-1.4540715217590332,0.04085759073495865,2.6689319610595703,2.5642247200012207
4850.537000,0.30027496814727783,1.0531907081604004,0.06079026311635971,-1.4540725946426392,0.04165942221879959,2.6689348220825195,2.562718629837036
4850.558000,0.299936443567276,1.0532151460647583,0.06091753765940666,-1.4540742635726929,0.04261887073516846,2.668938159942627,2.5608949661254883
4850.578000,0.29954731464385986,1.0532429218292236,0.06105407327413559,-1.4540762901306152,0.043763622641563416,2.6689417362213135,2.558687210083008
4850.597000,0.2991144359111786,1.05327308177948,0.06121423840522766,-1.4540778398513794,0.045000310987234116,2.6689453125,2.5561983585357666
4850.616000,0.29865050315856934,1.0533053874969482,0.061380159109830856,-1.454079270362854,0.04637160897254944,2.6689488887786865,2.5533907413482666
4850.636000,0.29815277457237244,1.0533400774002075,0.061558421701192856,-1.454080581665039,0.0478677898645401,2.668952226638794,2.550269603729248
4850.657000,0.29763469099998474,1.0533759593963623,0.06175334379076958,-1.454081416130066,0.049419235438108444,2.668955087661743,2.5469281673431396
4850.676000,0.2971142828464508,1.053411841392517,0.061957746744155884,-1.4540817737579346,0.05098574608564377,2.668957471847534,2.543440103530884
4850.698000,0.2965962290763855,1.0534476041793823,0.062163401395082474,-1.4540820121765137,0.05258285999298096,2.668959379196167,2.539804458618164
4850.717000,0.29608097672462463,1.053483247756958,0.06237179413437843,-1.4540820121765137,0.05419592559337616,2.6689605712890625,2.5360476970672607
4850.734000,0.29569244384765625,1.05350923538208,0.06253626942634583,-1.4540804624557495,0.05559050291776657,2.6689605712890625,2.5326576232910156
4850.755000,0.295321524143219,1.0535351037979126,0.06266388297080994,-1.454080581665039,0.05711980164051056,2.6689603328704834,2.5291318893432617
4850.776000,0.2949228584766388,1.053563117980957,0.0628138929605484,-1.454080581665039,0.058662883937358856,2.668959617614746,2.5255260467529297
4850.796000,0.29451510310173035,1.0535916090011597,0.06298065930604935,-1.4540801048278809,0.06017129495739937,2.6689584255218506,2.521898031234741
4850.813000,0.2941131293773651,1.053619623184204,0.06315436214208603,-1.454079270362854,0.06162911653518677,2.668956756591797,2.5182783603668213
4850.834000,0.29373058676719666,1.0536459684371948,0.06332971900701523,-1.454077959060669,0.06300149857997894,2.668954610824585,2.5147268772125244
4850.854000,0.29338231682777405,1.0536696910858154,0.06349960714578629,-1.4540761709213257,0.0642564669251442,2.668952226638794,2.511310338973999
4850.875000,0.2930704951286316,1.0536909103393555,0.06365609169006348,-1.4540741443634033,0.06541693955659866,2.6689493656158447,2.508021831512451
4850.895000,0.2928028404712677,1.053708791732788,0.0637999176979065,-1.4540716409683228,0.06644342839717865,2.6689465045928955,2.5049331188201904
4850.916000,0.29257792234420776,1.0537238121032715,0.06392402201890945,-1.4540691375732422,0.06737154722213745,2.668943405151367,2.5020201206207275
4850.933000,0.29240137338638306,1.0537351369857788,0.0640329048037529,-1.4540661573410034,0.06815318018198013,2.668940544128418,2.4993600845336914
4850.952000,0.29228639602661133,1.0537419319152832,0.0641200840473175,-1.454062581062317,0.0687619224190712,2.668937921524048,2.4970202445983887
4850.974000,0.2922826111316681,1.0537413358688354,0.0641292855143547,-1.454059362411499,0.0693119689822197,2.668936014175415,2.494997024536133
4850.993000,0.29232317209243774,1.0537372827529907,0.06412677466869354,-1.454055666923523,0.06971214711666107,2.6689341068267822,2.4933221340179443
4851.014000,0.2924327552318573,1.0537292957305908,0.06405919790267944,-1.4540530443191528,0.07015631347894669,2.6689326763153076,2.491838216781616
4851.031000,0.29256436228752136,1.0537189245224,0.06400692462921143,-1.4540492296218872,0.07040652632713318,2.668931484222412,2.490738868713379
4851.050000,0.29274362325668335,1.0537046194076538,0.06394798308610916,-1.4540448188781738,0.07044880092144012,2.668930768966675,2.4900598526000977
4851.071000,0.29296427965164185,1.053687572479248,0.06386979669332504,-1.4540404081344604,0.07035714387893677,2.6689302921295166,2.4897103309631348
4851.091000,0.29322412610054016,1.053667664527893,0.06377862393856049,-1.4540358781814575,0.07010582834482193,2.6689300537109375,2.4897162914276123
4851.108000,0.2935147285461426,1.0536458492279053,0.06366848200559616,-1.4540317058563232,0.06975821405649185,2.6689300537109375,2.4899966716766357
4851.128000,0.29383334517478943,1.0536221265792847,0.0635465607047081,-1.454027533531189,0.06929382681846619,2.6689302921295166,2.4905693531036377
4851.148000,0.29417258501052856,1.053597331047058,0.06340903043746948,-1.454023838043213,0.06876557320356369,2.668930768966675,2.491363763809204
4851.169000,0.29453015327453613,1.053571343421936,0.06326262652873993,-1.4540202617645264,0.06815502792596817,2.668931484222412,2.492393732070923
4851.191000,0.29489997029304504,1.0535447597503662,0.06310445070266724,-1.454017162322998,0.06750582903623581,2.6689321994781494,2.493598222732544
4851.211000,0.2952803075313568,1.053517460823059,0.06294044852256775,-1.4540141820907593,0.06680090725421906,2.6689329147338867,2.4949886798858643
4851.228000,0.2956739068031311,1.053489327430725,0.06276875734329224,-1.4540114402770996,0.0660422071814537,2.668933629989624,2.4965627193450928
4851.248000,0.29607391357421875,1.0534610748291016,0.06258818507194519,-1.4540091753005981,0.06526591628789902,2.6689343452453613,2.498267650604248
4851.269000,0.29647713899612427,1.0534327030181885,0.062404025346040726,-1.4540071487426758,0.06446287035942078,2.6689350605010986,2.50010347366333
4851.287000,0.2968798279762268,1.0534045696258545,0.06221441924571991,-1.4540055990219116,0.0636618435382843,2.668935537338257,2.502027750015259
4851.308000,0.29728013277053833,1.0533767938613892,0.06202371418476105,-1.4540042877197266,0.06285297125577927,2.668936014175415,2.504042387008667
4851.325000,0.29767927527427673,1.0533491373062134,0.06183142215013504,-1.4540032148361206,0.06203670799732208,2.668936252593994,2.506143093109131
4851.344000,0.2980729937553406,1.0533220767974854,0.06163718178868294,-1.4540026187896729,0.06123396381735802,2.6689364910125732,2.5082955360412598
4851.367000,0.29845938086509705,1.053295612335205,0.061444398015737534,-1.4540022611618042,0.06043821945786476,2.6689364910125732,2.510497808456421
4851.386000,0.29875701665878296,1.0532784461975098,0.06119323521852493,-1.4540066719055176,0.06032560393214226,2.668936252593994,2.5118870735168457
4851.406000,0.2989116609096527,1.0532711744308472,0.060993630439043045,-1.4540116786956787,0.06062830239534378,2.668936014175415,2.512638807296753
4851.425000,0.2990501821041107,1.053261160850525,0.06090260669589043,-1.4540114402770996,0.06053170934319496,2.668935775756836,2.5137693881988525
4851.445000,0.29917681217193604,1.053254246711731,0.060735348612070084,-1.454014778137207,0.060928165912628174,2.668935537338257,2.514308214187622
4851.465000,0.29921555519104004,1.053253412246704,0.06060092896223068,-1.454018473625183,0.06160006299614906,2.6689350605010986,2.5143864154815674
4851.483000,0.29919135570526123,1.0532565116882324,0.0604994036257267,-1.4540218114852905,0.06245797872543335,2.6689345836639404,2.514108657836914
4851.507000,0.29921603202819824,1.0532524585723877,0.060484111309051514,-1.4540196657180786,0.06273152679204941,2.6689345836639404,2.5144639015197754
4851.526000,0.2993592321872711,1.0532395839691162,0.06043250858783722,-1.4540165662765503,0.06267571449279785,2.6689348220825195,2.515305280685425
4851.543000,0.29958173632621765,1.0532217025756836,0.06034548953175545,-1.454013705253601,0.06240140274167061,2.6689350605010986,2.516512393951416
4851.564000,0.29985055327415466,1.0532013177871704,0.060234420001506805,-1.45401132106781,0.06197291985154152,2.6689352989196777,2.51800274848938
4851.583000,0.30014318227767944,1.0531798601150513,0.06010740250349045,-1.4540095329284668,0.06144452095031738,2.668935537338257,2.5197012424468994
4851.604000,0.30044522881507874,1.0531582832336426,0.059971489012241364,-1.4540082216262817,0.06084952503442764,2.668935775756836,2.5215561389923096
4851.625000,0.3007470965385437,1.0531370639801025,0.0598309151828289,-1.4540075063705444,0.06021805852651596,2.668935775756836,2.5235185623168945
4851.642000,0.30104297399520874,1.0531165599822998,0.05968954414129257,-1.4540071487426758,0.05956626683473587,2.668935775756836,2.525557041168213
4851.662000,0.30132901668548584,1.053096890449524,0.0595492348074913,-1.4540071487426758,0.05891111120581627,2.668935537338257,2.5276401042938232
4851.684000,0.30150994658470154,1.0530877113342285,0.05935141071677208,-1.454012393951416,0.05898597836494446,2.6689350605010986,2.5288171768188477
4851.705000,0.30153006315231323,1.0530894994735718,0.05921516939997673,-1.454017996788025,0.0594928041100502,2.6689348220825195,2.5292868614196777
4851.721000,0.3014405369758606,1.0530979633331299,0.059133656322956085,-1.454023003578186,0.06029501184821129,2.6689343452453613,2.5292069911956787
4851.743000,0.30128324031829834,1.053110122680664,0.059092309325933456,-1.4540270566940308,0.0612993985414505,2.668933868408203,2.528703451156616
4851.763000,0.3010863959789276,1.053124189376831,0.059079304337501526,-1.4540302753448486,0.06243816018104553,2.668933391571045,2.527876377105713
4851.782000,0.3009629249572754,1.0531290769577026,0.059155113995075226,-1.4540274143218994,0.06288055330514908,2.668933153152466,2.5277960300445557
4851.803000,0.30098405480384827,1.0531237125396729,0.05918605625629425,-1.4540234804153442,0.06291693449020386,2.668933153152466,2.5282928943634033
4851.824000,0.3010966181755066,1.0531128644943237,0.0591721311211586,-1.4540200233459473,0.06271430850028992,2.668933391571045,2.529176950454712
4851.840000,0.3012520968914032,1.0530999898910522,0.05912863463163376,-1.4540175199508667,0.06238514557480812,2.668933629989624,2.530294895172119
4851.862000,0.30134260654449463,1.0530954599380493,0.059008847922086716,-1.454020380973816,0.06265969574451447,2.668933391571045,2.5307083129882812
4851.883000,0.3013037443161011,1.0531001091003418,0.05893190577626228,-1.454024076461792,0.06328117847442627,2.6689329147338867,2.5305750370025635
4851.902000,0.3011762499809265,1.0531103610992432,0.05889592319726944,-1.4540274143218994,0.06413809955120087,2.6689324378967285,2.5300207138061523
4851.921000,0.30099478363990784,1.0531235933303833,0.05889033526182175,-1.454030156135559,0.06515469402074814,2.668931722640991,2.5291452407836914
4851.941000,0.30078279972076416,1.0531383752822876,0.05890616774559021,-1.454032301902771,0.06627556681632996,2.668931007385254,2.5280277729034424
4851.962000,0.30055564641952515,1.0531537532806396,0.05893663689494133,-1.4540338516235352,0.06746011227369308,2.6689300537109375,2.526731491088867
4851.981000,0.3003232777118683,1.0531691312789917,0.05897677689790726,-1.4540349245071411,0.06867872923612595,2.668928861618042,2.525306224822998
4852.002000,0.30009204149246216,1.0531842708587646,0.059023041278123856,-1.4540355205535889,0.06990988552570343,2.6689276695251465,2.5237913131713867
4852.023000,0.2999185621738434,1.0531917810440063,0.05915286764502525,-1.454031229019165,0.07046249508857727,2.6689271926879883,2.523019313812256
4852.039000,0.2998609244823456,1.0531909465789795,0.05925507843494415,-1.4540258646011353,0.07058306783437729,2.6689271926879883,2.5228264331817627
4852.060000,0.2998316287994385,1.0531922578811646,0.059246957302093506,-1.454025149345398,0.07106544077396393,2.668926477432251,2.522280216217041
4852.080000,0.2997449040412903,1.0531984567642212,0.05924450606107712,-1.4540256261825562,0.071736641228199,2.6689255237579346,2.5214650630950928
4852.102000,0.299616277217865,1.053207516670227,0.05925552919507027,-1.454026222229004,0.07253487408161163,2.668924331665039,2.5204479694366455
4852.122000,0.2994629144668579,1.053218126296997,0.05927763506770134,-1.4540265798568726,0.07341886311769485,2.6689231395721436,2.519282341003418
4852.139000,0.2992967963218689,1.0532293319702148,0.059307828545570374,-1.454026699066162,0.07435764372348785,2.668921709060669,2.518009901046753
4852.159000,0.2991258203983307,1.0532406568527222,0.059343572705984116,-1.454026460647583,0.0753277838230133,2.6689200401306152,2.5166640281677246
4852.181000,0.29895514249801636,1.0532517433166504,0.05938287451863289,-1.4540259838104248,0.07631175220012665,2.6689183712005615,2.515270948410034
4852.200000,0.29878804087638855,1.05326247215271,0.05942423269152641,-1.4540252685546875,0.07729653269052505,2.668916702270508,2.5138509273529053
4852.221000,0.29862651228904724,1.0532727241516113,0.05946654826402664,-1.454024314880371,0.07827253639698029,2.668914794921875,2.512420415878296
4852.237000,0.2984717786312103,1.053282380104065,0.0595090314745903,-1.4540231227874756,0.0792328342795372,2.668912887573242,2.5109915733337402
4852.256000,0.29832449555397034,1.0532915592193604,0.05955112725496292,-1.4540218114852905,0.08017242699861526,2.6689109802246094,2.5095739364624023
4852.277000,0.29818496108055115,1.053300142288208,0.059592459350824356,-1.4540202617645264,0.08108779042959213,2.6689090728759766,2.5081748962402344
4852.297000,0.29805323481559753,1.053308129310608,0.059632766991853714,-1.4540185928344727,0.08197654038667679,2.6689071655273438,2.5068001747131348
4852.318000,0.2979292571544647,1.05331552028656,0.05967188626527786,-1.4540168046951294,0.08283716440200806,2.668905258178711,2.5054538249969482
4852.335000,0.2978128492832184,1.053322434425354,0.059709712862968445,-1.4540148973464966,0.08366873115301132,2.668903350830078,2.504138708114624
4852.356000,0.2977027893066406,1.0533288717269897,0.05974723771214485,-1.4540128707885742,0.08446888625621796,2.6689014434814453,2.502856731414795
4852.376000,0.29759910702705383,1.0533348321914673,0.05978414788842201,-1.4540107250213623,0.08523726463317871,2.6688995361328125,2.5016095638275146
4852.397000,0.29750189185142517,1.0533403158187866,0.05982011929154396,-1.4540084600448608,0.08597417920827866,2.6688976287841797,2.5003979206085205
4852.414000,0.29741108417510986,1.0533453226089478,0.05985494330525398,-1.4540060758590698,0.08668026328086853,2.668895721435547,2.4992222785949707
4852.428000,0.2973704934120178,1.0533359050750732,0.06013809144496918,-1.4539928436279297,0.08573135733604431,2.6688969135284424,2.4998531341552734
4852.450000,0.2975265085697174,1.0533115863800049,0.06040818616747856,-1.4539772272109985,0.0836784616112709,2.6688992977142334,2.5018742084503174
4852.471000,0.2977793216705322,1.0532928705215454,0.06038937345147133,-1.4539731740951538,0.08243684470653534,2.6688995361328125,2.5031838417053223
4852.490000,0.2979900538921356,1.0532695055007935,0.060600873082876205,-1.4539613723754883,0.07994036376476288,2.6689023971557617,2.505851984024048
4852.509000,0.2982700765132904,1.05325186252594,0.060538094490766525,-1.4539601802825928,0.07840568572282791,2.668903112411499,2.5076332092285156
4852.529000,0.2984270453453064,1.0532450675964355,0.06046152487397194,-1.4539622068405151,0.07746092975139618,2.668903350830078,2.5087172985076904
4852.548000,0.29848653078079224,1.053244948387146,0.06039857119321823,-1.4539649486541748,0.07696182280778885,2.668903112411499,2.5092556476593018
4852.565000,0.2984807789325714,1.053248643875122,0.06035119667649269,-1.453967571258545,0.07680512964725494,2.668902635574341,2.509369134902954
4852.588000,0.29843318462371826,1.05325448513031,0.060317493975162506,-1.4539697170257568,0.0769091546535492,2.6689021587371826,2.5091536045074463
4852.605000,0.2983597218990326,1.0532615184783936,0.06029484421014786,-1.4539715051651,0.07720932364463806,2.6689014434814453,2.50868558883667
4852.621000,0.29827117919921875,1.0532690286636353,0.060280732810497284,-1.4539729356765747,0.07765483856201172,2.668900728225708,2.508025884628296
4852.640000,0.29817482829093933,1.053276777267456,0.06027301028370857,-1.4539740085601807,0.07820601016283035,2.6688997745513916,2.507222890853882
4852.659000,0.29811593890190125,1.05327570438385,0.060426078736782074,-1.453967571258545,0.07778076082468033,2.66890025138855,2.5074784755706787
4852.680000,0.29819256067276,1.0532647371292114,0.06056968867778778,-1.453959345817566,0.07671863585710526,2.6689014434814453,2.508549690246582
4852.700000,0.29833897948265076,1.0532522201538086,0.06064743176102638,-1.453953742980957,0.07554181665182114,2.6689021587371826,2.509822368621826
4852.718000,0.29848822951316833,1.0532410144805908,0.06071869283914566,-1.4539495706558228,0.074238620698452,2.66890287399292,2.511241912841797
4852.738000,0.298606812953949,1.0532341003417969,0.06076155602931976,-1.4539480209350586,0.07310003787279129,2.66890287399292,2.5124447345733643
4852.759000,0.2986471951007843,1.0532342195510864,0.06080036237835884,-1.4539488554000854,0.0722576230764389,2.6689021587371826,2.5132081508636475
4852.783000,0.29860982298851013,1.0532398223876953,0.06086716055870056,-1.4539501667022705,0.07159911841154099,2.668901205062866,2.513627052307129
4852.801000,0.29850077629089355,1.053250789642334,0.06094488501548767,-1.453952431678772,0.07121879607439041,2.6688997745513916,2.5135796070098877
4852.817000,0.2983972430229187,1.053261637687683,0.06098854914307594,-1.453955054283142,0.07110045850276947,2.6688990592956543,2.5132102966308594
4852.839000,0.2983066737651825,1.0532715320587158,0.061002135276794434,-1.4539577960968018,0.07121700048446655,2.668898582458496,2.5125951766967773
4852.861000,0.2981202006340027,1.0532879829406738,0.061048474162817,-1.4539614915847778,0.07164140045642853,2.6688969135284424,2.511478900909424
4852.882000,0.29784074425697327,1.0533100366592407,0.061155710369348526,-1.4539647102355957,0.07221296429634094,2.6688945293426514,2.5099833011627197
4852.916000,0.2974967360496521,1.0533360242843628,0.061303265392780304,-1.4539676904678345,0.0729123130440712,2.668891668319702,2.5081279277801514
4852.921000,0.2972263693809509,1.0533558130264282,0.061434295028448105,-1.4539687633514404,0.0734969899058342,2.6688897609710693,2.5064010620117188
4852.940000,0.29692915081977844,1.0533784627914429,0.0615512877702713,-1.453971266746521,0.07430693507194519,2.668886661529541,2.504310369491577
4852.961000,0.2965714633464813,1.0534050464630127,0.06170984357595444,-1.453973650932312,0.07519041746854782,2.6688828468322754,2.501953363418579
4852.982000,0.29617658257484436,1.053433895111084,0.061897993087768555,-1.453975796699524,0.07610926777124405,2.6688785552978516,2.499380588531494
4853.002000,0.2957620620727539,1.0534639358520508,0.06210397928953171,-1.4539777040481567,0.07704629004001617,2.6688737869262695,2.4966278076171875
4853.019000,0.295342355966568,1.0534942150115967,0.06232161074876785,-1.453979253768921,0.07796826958656311,2.6688685417175293,2.493755578994751
4853.040000,0.29493069648742676,1.0535237789154053,0.06254329532384872,-1.4539804458618164,0.07885340601205826,2.66886305809021,2.490817070007324
4853.061000,0.2945348620414734,1.0535521507263184,0.06276308000087738,-1.4539813995361328,0.07969344407320023,2.6688575744628906,2.4878480434417725
4853.082000,0.29416021704673767,1.0535788536071777,0.06298266351222992,-1.453981876373291,0.08044866472482681,2.668851852416992,2.484915256500244
4853.103000,0.29380252957344055,1.0536038875579834,0.06320986151695251,-1.4539817571640015,0.08107698708772659,2.6688461303710938,2.482067584991455
4853.118000,0.2934674918651581,1.053627371788025,0.06343487650156021,-1.4539813995361328,0.08159304410219193,2.6688404083251953,2.4793055057525635
4853.140000,0.29315057396888733,1.0536490678787231,0.06367029249668121,-1.4539803266525269,0.08193463087081909,2.668834686279297,2.476696014404297
4853.161000,0.29300299286842346,1.0536588430404663,0.06382044404745102,-1.4539778232574463,0.08202730119228363,2.668832302093506,2.474606990814209
4853.181000,0.29286447167396545,1.0536683797836304,0.06395819783210754,-1.453976035118103,0.08208037167787552,2.6688287258148193,2.4726181030273438
4853.202000,0.29269707202911377,1.0536798238754272,0.06412537395954132,-1.4539743661880493,0.08202344924211502,2.6688246726989746,2.4707205295562744
4853.219000,0.2925150692462921,1.0536916255950928,0.06432841718196869,-1.4539719820022583,0.08175620436668396,2.668820381164551,2.469007730484009
4853.239000,0.2923429012298584,1.0537019968032837,0.0645587369799614,-1.4539687633514404,0.08120469003915787,2.668816566467285,2.4675731658935547
4853.260000,0.29219621419906616,1.053710699081421,0.06478853523731232,-1.4539653062820435,0.08043643832206726,2.6688129901885986,2.4663631916046143
4853.281000,0.29207903146743774,1.0537168979644775,0.0650290995836258,-1.4539611339569092,0.07936820387840271,2.6688101291656494,2.4654810428619385
4853.297000,0.29213958978652954,1.0537132024765015,0.06510580331087112,-1.453958511352539,0.078394815325737,2.6688103675842285,2.46480393409729
4853.318000,0.29231971502304077,1.0537025928497314,0.06506211310625076,-1.4539570808410645,0.07759297639131546,2.6688122749328613,2.464289903640747
4853.338000,0.2925684154033661,1.0536879301071167,0.06494174152612686,-1.4539564847946167,0.07698018848896027,2.6688151359558105,2.4639053344726562
4853.360000,0.29274216294288635,1.053676724433899,0.06490664184093475,-1.4539545774459839,0.07623268663883209,2.6688170433044434,2.4637417793273926
4853.380000,0.29288896918296814,1.0536671876907349,0.06489825248718262,-1.453952670097351,0.07542773336172104,2.668818473815918,2.463700294494629
4853.399000,0.29304268956184387,1.0536571741104126,0.06488950550556183,-1.4539507627487183,0.0745697170495987,2.668820381164551,2.463798999786377
4853.417000,0.29320651292800903,1.0536465644836426,0.06487247347831726,-1.4539490938186646,0.07368750870227814,2.6688222885131836,2.4640049934387207
4853.433000,0.2933756411075592,1.053635835647583,0.06484866142272949,-1.45394766330719,0.07279552519321442,2.6688244342803955,2.464292526245117
4853.455000,0.29357093572616577,1.0536231994628906,0.06480934470891953,-1.4539462327957153,0.07186560332775116,2.6688270568847656,2.4647274017333984
4853.475000,0.2938156723976135,1.0536068677902222,0.06474325060844421,-1.4539445638656616,0.07086828351020813,2.668830156326294,2.4653942584991455
4853.496000,0.29410097002983093,1.0535880327224731,0.0646451786160469,-1.4539432525634766,0.06986358016729355,2.6688334941864014,2.466235399246216
4853.512000,0.29442769289016724,1.053566336631775,0.06452111154794693,-1.453942060470581,0.06882233172655106,2.668837070465088,2.4673008918762207
4853.533000,0.29478439688682556,1.0535427331924438,0.06437040865421295,-1.4539413452148438,0.06779289245605469,2.6688406467437744,2.468532085418701
4853.554000,0.295169860124588,1.05351722240448,0.06420112401247025,-1.453940749168396,0.06674240529537201,2.66884446144104,2.4699690341949463
4853.574000,0.2955749034881592,1.0534905195236206,0.06401214003562927,-1.4539406299591064,0.06571207195520401,2.6688480377197266,2.471554756164551
4853.597000,0.2959620952606201,1.0534676313400269,0.06375107914209366,-1.4539439678192139,0.0651627779006958,2.668851375579834,2.472740411758423
4853.612000,0.2962833046913147,1.0534497499465942,0.06349607557058334,-1.4539482593536377,0.06494417041540146,2.6688544750213623,2.47360897064209
4853.633000,0.2965518534183502,1.053435206413269,0.06325574964284897,-1.4539525508880615,0.06497958302497864,2.6688573360443115,2.474226474761963
4853.653000,0.29683634638786316,1.0534158945083618,0.06310281902551651,-1.4539521932601929,0.06457149982452393,2.66886043548584,2.4754140377044678
4853.675000,0.297198623418808,1.053390383720398,0.06293264776468277,-1.4539510011672974,0.06392139196395874,2.668863534927368,2.4770331382751465
4853.692000,0.29761621356010437,1.053360939025879,0.06275226175785065,-1.4539494514465332,0.06303668767213821,2.6688666343688965,2.4790656566619873
4853.712000,0.2980697453022003,1.053329348564148,0.06255602091550827,-1.4539483785629272,0.06200309842824936,2.6688694953918457,2.48140287399292
4853.733000,0.29853004217147827,1.0532983541488647,0.06233975291252136,-1.4539486169815063,0.060965489596128464,2.668872117996216,2.483851671218872
4853.754000,0.29896968603134155,1.0532695055007935,0.062117740511894226,-1.4539499282836914,0.059984467923641205,2.6688742637634277,2.4863016605377197
4853.774000,0.29938000440597534,1.0532430410385132,0.06190307438373566,-1.4539518356323242,0.05905068665742874,2.6688761711120605,2.4887356758117676
4853.795000,0.2997598946094513,1.0532188415527344,0.061694029718637466,-1.4539542198181152,0.05819464102387428,2.6688778400421143,2.4911019802093506
4853.812000,0.3001091480255127,1.0531967878341675,0.06149592623114586,-1.4539568424224854,0.05740302801132202,2.668879270553589,2.4933993816375732
4853.833000,0.30043157935142517,1.0531765222549438,0.061306703835725784,-1.4539597034454346,0.05667944997549057,2.6688807010650635,2.4956161975860596
4853.854000,0.3007303476333618,1.0531578063964844,0.06112634763121605,-1.4539626836776733,0.05601686239242554,2.668881893157959,2.497755527496338
4853.875000,0.30100780725479126,1.05314040184021,0.06095469370484352,-1.453965663909912,0.055409133434295654,2.6688828468322754,2.4998199939727783
4853.895000,0.30127111077308655,1.0531238317489624,0.060792528092861176,-1.4539685249328613,0.05482339859008789,2.668883800506592,2.5018510818481445
4853.911000,0.30152350664138794,1.0531078577041626,0.06063500791788101,-1.4539713859558105,0.05426827073097229,2.668884515762329,2.5038421154022217
4853.933000,0.3017117381095886,1.0530985593795776,0.06042292341589928,-1.4539780616760254,0.054299481213092804,2.6688854694366455,2.505114793777466
4853.953000,0.3017905354499817,1.0530967712402344,0.06024676561355591,-1.4539849758148193,0.05469895154237747,2.668886661529541,2.505824089050293
4853.974000,0.30179232358932495,1.0530996322631836,0.06010599806904793,-1.4539912939071655,0.05536122992634773,2.6688878536224365,2.5060932636260986
4853.995000,0.3017444908618927,1.0531052350997925,0.05999308079481125,-1.4539968967437744,0.05621146038174629,2.668889045715332,2.506021022796631
4854.011000,0.3016658127307892,1.0531123876571655,0.05990138649940491,-1.454001784324646,0.05719330906867981,2.6688902378082275,2.505685567855835
4854.033000,0.30156874656677246,1.0531202554702759,0.05982574447989464,-1.4540059566497803,0.058264363557100296,2.668891429901123,2.5051491260528564
4854.053000,0.30146148800849915,1.0531284809112549,0.05976227670907974,-1.4540095329284668,0.059392739087343216,2.6688926219940186,2.5044615268707275
4854.074000,0.301349401473999,1.0531367063522339,0.059708122164011,-1.4540126323699951,0.060554567724466324,2.668893814086914,2.503661870956421
4854.094000,0.30123594403266907,1.0531448125839233,0.05966119095683098,-1.4540152549743652,0.06173199042677879,2.6688947677612305,2.502781391143799
4854.111000,0.3011559247970581,1.0531466007232666,0.05974004790186882,-1.4540117979049683,0.062085237354040146,2.668895959854126,2.5027639865875244
4854.131000,0.30115094780921936,1.053146481513977,0.0596904493868351,-1.4540126323699951,0.06271883100271225,2.6688969135284424,2.5024936199188232
4854.152000,0.30111661553382874,1.0531492233276367,0.059634387493133545,-1.4540144205093384,0.06348568946123123,2.668897867202759,2.5020298957824707
4854.173000,0.3010563552379608,1.0531538724899292,0.05958416312932968,-1.4540163278579712,0.06434266269207001,2.668898820877075,2.501420021057129
4854.192000,0.30097946524620056,1.0531595945358276,0.05954071134328842,-1.4540181159973145,0.06526166945695877,2.6688995361328125,2.500701665878296
4854.209000,0.3008929193019867,1.0531657934188843,0.05950343608856201,-1.454019546508789,0.06622087955474854,2.66890025138855,2.4999046325683594
4854.230000,0.30080142617225647,1.0531721115112305,0.05947147682309151,-1.454020619392395,0.06720320135354996,2.668900966644287,2.4990525245666504
4854.251000,0.30070817470550537,1.0531784296035767,0.059443969279527664,-1.4540214538574219,0.06819545477628708,2.6689014434814453,2.4981637001037598
4854.272000,0.30061522126197815,1.0531845092773438,0.05942017585039139,-1.45402193069458,0.06918755918741226,2.6689019203186035,2.497252941131592
4854.293000,0.30052393674850464,1.0531903505325317,0.05939948558807373,-1.4540221691131592,0.07017190009355545,2.6689023971557617,2.4963314533233643
4854.310000,0.3004351556301117,1.0531959533691406,0.059381406754255295,-1.4540221691131592,0.0711427703499794,2.66890287399292,2.495408058166504
4854.331000,0.3003493845462799,1.0532013177871704,0.05936555936932564,-1.45402193069458,0.07209594547748566,2.668903112411499,2.494489908218384
4854.351000,0.30026692152023315,1.0532063245773315,0.05935161933302879,-1.4540214538574219,0.07302846759557724,2.668903350830078,2.493582010269165
4854.372000,0.3001879155635834,1.0532110929489136,0.05933935567736626,-1.4540208578109741,0.07393819093704224,2.6689035892486572,2.4926884174346924
4854.393000,0.30011242628097534,1.053215503692627,0.059328582137823105,-1.4540200233459473,0.07482362538576126,2.6689038276672363,2.491812229156494
4854.408000,0.30004045367240906,1.0532196760177612,0.059319134801626205,-1.4540190696716309,0.07568387687206268,2.6689038276672363,2.4909555912017822
4854.429000,0.29997095465660095,1.0532236099243164,0.05931185930967331,-1.4540178775787354,0.07651665061712265,2.6689038276672363,2.4901199340820312
4854.450000,0.2999041676521301,1.0532273054122925,0.05930638685822487,-1.4540165662765503,0.07732151448726654,2.6689038276672363,2.4893064498901367
4854.471000,0.29984116554260254,1.0532306432724,0.059302400797605515,-1.4540150165557861,0.07809475809335709,2.6689038276672363,2.4885213375091553
4854.492000,0.29978227615356445,1.0532336235046387,0.05929897725582123,-1.4540133476257324,0.07883879542350769,2.6689038276672363,2.4877638816833496
4854.509000,0.29972708225250244,1.0532363653182983,0.059296056628227234,-1.4540115594863892,0.07955508679151535,2.6689038276672363,2.487032890319824
4854.529000,0.29967522621154785,1.053238868713379,0.05929364636540413,-1.454009771347046,0.08024488389492035,2.6689035892486572,2.4863274097442627
4854.550000,0.2998065650463104,1.053213357925415,0.05960987135767937,-1.4539903402328491,0.078339122235775,2.6689095497131348,2.4886581897735596
4854.571000,0.30033382773399353,1.0531598329544067,0.05983106046915054,-1.453967809677124,0.07479824125766754,2.668917417526245,2.493316888809204
4854.593000,0.301127552986145,1.0530918836593628,0.0599454790353775,-1.4539474248886108,0.0700986310839653,2.6689250469207764,2.4997398853302
4854.608000,0.30189788341522217,1.053044319152832,0.059655267745256424,-1.4539488554000854,0.06716467440128326,2.6689276695251465,2.504462957382202
4854.629000,0.30235210061073303,1.0530222654342651,0.05940043181180954,-1.453956127166748,0.06529390066862106,2.668928861618042,2.507840394973755
4854.650000,0.30274498462677,1.0529909133911133,0.05953560397028923,-1.4539467096328735,0.061622846871614456,2.668931007385254,2.5131728649139404
4854.670000,0.3033730089664459,1.052942156791687,0.05963309481739998,-1.4539350271224976,0.05692161247134209,2.6689319610595703,2.51997709274292
4854.692000,0.30416226387023926,1.0528850555419922,0.059668637812137604,-1.4539254903793335,0.05151766538619995,2.668930768966675,2.5278701782226562
4854.707000,0.30486416816711426,1.0528478622436523,0.0593288280069828,-1.4539371728897095,0.048229292035102844,2.668928623199463,2.5335311889648438
4854.729000,0.3052108585834503,1.052836298942566,0.05904519930481911,-1.453952670097351,0.04626918584108353,2.668926954269409,2.5374293327331543
4854.749000,0.30529752373695374,1.0528403520584106,0.058842115104198456,-1.4539674520492554,0.04529337212443352,2.6689257621765137,2.5399394035339355
4854.770000,0.3052138686180115,1.0528533458709717,0.0587056539952755,-1.4539803266525269,0.045057300478219986,2.6689252853393555,2.5413601398468018
4854.789000,0.3050225079059601,1.0528713464736938,0.05862018093466759,-1.453991174697876,0.045373473316431046,2.6689252853393555,2.5419299602508545
4854.803000,0.3047654330730438,1.0528922080993652,0.05857253074645996,-1.4540003538131714,0.046097662299871445,2.6689257621765137,2.5418388843536377
4854.822000,0.3044705092906952,1.0529145002365112,0.05855235084891319,-1.4540082216262817,0.04711941257119179,2.668926477432251,2.541238307952881
4854.841000,0.3041561543941498,1.052937388420105,0.05855180323123932,-1.4540148973464966,0.04835432395339012,2.6689271926879883,2.5402486324310303
4854.860000,0.3038344085216522,1.0529602766036987,0.05856508016586304,-1.4540207386016846,0.04973806068301201,2.6689279079437256,2.5389654636383057
4854.881000,0.3035130500793457,1.0529828071594238,0.058587949723005295,-1.4540258646011353,0.05122164264321327,2.668928623199463,2.5374646186828613
4854.898000,0.30319708585739136,1.0530047416687012,0.058617379516363144,-1.4540302753448486,0.0527677983045578,2.668929100036621,2.535806179046631
4854.919000,0.3029549717903137,1.0530184507369995,0.05875386670231819,-1.4540282487869263,0.05350117385387421,2.668928861618042,2.5350382328033447
4854.938000,0.3027946949005127,1.0530296564102173,0.058756232261657715,-1.4540307521820068,0.05456837639212608,2.668928861618042,2.5339624881744385
4854.961000,0.30263230204582214,1.053039312362671,0.05883753299713135,-1.454030156135559,0.05520712584257126,2.668928623199463,2.533318519592285
4854.981000,0.3025246560573578,1.0530450344085693,0.05891432613134384,-1.454028844833374,0.05556964501738548,2.668928384780884,2.5330123901367188
4854.999000,0.302423357963562,1.053051471710205,0.05896337330341339,-1.4540290832519531,0.0559627003967762,2.668928384780884,2.532655954360962
4855.018000,0.30229735374450684,1.0530599355697632,0.05902472138404846,-1.4540294408798218,0.056332074105739594,2.668928384780884,2.5322630405426025
4855.039000,0.3021606206893921,1.0530706644058228,0.05903340503573418,-1.454032063484192,0.05701480060815811,2.668928384780884,2.531496524810791
4855.060000,0.30192193388938904,1.053087830543518,0.05909024551510811,-1.4540350437164307,0.05787020921707153,2.668928384780884,2.530359983444214
4855.081000,0.3016050457954407,1.0531094074249268,0.05919697880744934,-1.4540374279022217,0.058797743171453476,2.668928384780884,2.5289456844329834
4855.097000,0.3012203276157379,1.0531351566314697,0.059333447366952896,-1.4540398120880127,0.05985892191529274,2.6689281463623047,2.5271670818328857
4855.119000,0.30078592896461487,1.053163766860962,0.059504274278879166,-1.4540414810180664,0.06097063422203064,2.6689276695251465,2.5251197814941406
4855.139000,0.3004143536090851,1.0531874895095825,0.05965116620063782,-1.454041838645935,0.06201180815696716,2.6689271926879883,2.5231258869171143
4855.160000,0.29999855160713196,1.0532152652740479,0.059791892766952515,-1.4540438652038574,0.06329045444726944,2.668926239013672,2.5207130908966064
4855.181000,0.2996322214603424,1.0532386302947998,0.059937890619039536,-1.4540438652038574,0.06440865993499756,2.6689252853393555,2.518467903137207
4855.197000,0.29935282468795776,1.0532561540603638,0.06003441661596298,-1.4540436267852783,0.06548067182302475,2.668924570083618,2.5163676738739014
4855.217000,0.29899683594703674,1.0532804727554321,0.060134585946798325,-1.4540456533432007,0.0668526440858841,2.6689229011535645,2.513798236846924
4855.237000,0.2985348403453827,1.053311824798584,0.06030513718724251,-1.454047441482544,0.06831665337085724,2.6689202785491943,2.5108845233917236
4855.258000,0.29800835251808167,1.0533472299575806,0.06052589789032936,-1.454048752784729,0.06981150060892105,2.668916940689087,2.507699489593506
4855.279000,0.2975946366786957,1.053373098373413,0.060737743973731995,-1.4540469646453857,0.07094920426607132,2.668914556503296,2.5049490928649902
4855.295000,0.297185480594635,1.0534001588821411,0.06091126427054405,-1.4540470838546753,0.07225413620471954,2.6689109802246094,2.501941680908203
4855.315000,0.29686859250068665,1.053419589996338,0.061078350991010666,-1.4540448188781738,0.07324478030204773,2.6689085960388184,2.499368906021118
