yuan18844-afk/dissertation/catkin_ws/src/franka_digital_twin/analysis/data/unity_smooth1_20250728_072246.csv
time,panda_joint1,panda_joint2,panda_joint3,panda_joint4,panda_joint5,panda_joint6,panda_joint7
898.469000,0.4489687979221344,1.203966498374939,-0.1562316119670868,-1.1925404071807861,0.041559986770153046,2.414144992828369,2.3362538814544678
898.487000,0.44912445545196533,1.203984022140503,-0.1560957133769989,-1.1925363540649414,0.041211288422346115,2.414144515991211,2.3366620540618896
898.507000,0.4493974447250366,1.204019546508789,-0.15620353817939758,-1.1925371885299683,0.041241880506277084,2.4141440391540527,2.3368215560913086
898.528000,0.4496462643146515,1.2040536403656006,-0.15636590123176575,-1.192539095878601,0.041453972458839417,2.4141438007354736,2.3367879390716553
898.548000,0.44986164569854736,1.2040845155715942,-0.15654689073562622,-1.192541480064392,0.041796885430812836,2.4141435623168945,2.3366053104400635
898.569000,0.45004862546920776,1.2041125297546387,-0.15673337876796722,-1.1925441026687622,0.04223985970020294,2.4141433238983154,2.3363091945648193
898.586000,0.45018598437309265,1.204127550125122,-0.15658050775527954,-1.1925394535064697,0.0418313592672348,2.4141428470611572,2.3368752002716064
898.606000,0.45041733980178833,1.204150676727295,-0.1563483327627182,-1.1925327777862549,0.04090612009167671,2.414142370223999,2.3381030559539795
898.628000,0.45072755217552185,1.204183578491211,-0.15617735683918,-1.1925272941589355,0.03984054923057556,2.414141893386841,2.339569091796875
898.649000,0.45108312368392944,1.204227089881897,-0.15627382695674896,-1.192527413368225,0.03931639343500137,2.4141414165496826,2.3405251502990723
898.669000,0.45136797428131104,1.2042644023895264,-0.15644291043281555,-1.1925292015075684,0.03911560773849487,2.4141409397125244,2.3410804271698
898.685000,0.4515549838542938,1.2042876482009888,-0.15646636486053467,-1.192528247833252,0.038716476410627365,2.414140462875366,2.341737747192383
898.706000,0.45175740122795105,1.204315185546875,-0.15661978721618652,-1.1925299167633057,0.03866264596581459,2.414139986038208,2.3420541286468506
898.726000,0.4519197642803192,1.2043390274047852,-0.15680553019046783,-1.1925323009490967,0.03882783278822899,2.414139747619629,2.3421051502227783
898.741000,0.4520454406738281,1.2043590545654297,-0.15700054168701172,-1.1925350427627563,0.03915862366557121,2.41413950920105,2.3419508934020996
898.753000,0.45214277505874634,1.2043761014938354,-0.1571951061487198,-1.1925379037857056,0.039616022258996964,2.4141392707824707,2.3416390419006348
898.772000,0.4521947205066681,1.2043851613998413,-0.15724578499794006,-1.1925380229949951,0.03981267660856247,2.4141390323638916,2.341541290283203
898.786000,0.45226097106933594,1.2043946981430054,-0.15724705159664154,-1.1925373077392578,0.03984614834189415,2.4141387939453125,2.341609477996826
898.809000,0.45235201716423035,1.2044063806533813,-0.1572234332561493,-1.1925359964370728,0.039737023413181305,2.4141385555267334,2.3418383598327637
898.831000,0.45246630907058716,1.2044204473495483,-0.15719394385814667,-1.1925344467163086,0.0395253449678421,2.4141383171081543,2.3421897888183594
898.853000,0.45261329412460327,1.2044410705566406,-0.1573037952184677,-1.192535638809204,0.03960821032524109,2.414138078689575,2.342266798019409
898.871000,0.4527307152748108,1.204459309577942,-0.15745170414447784,-1.1925376653671265,0.03986915573477745,2.414137840270996,2.3421313762664795
898.892000,0.4528215825557709,1.2044715881347656,-0.1574581116437912,-1.192536473274231,0.03981083631515503,2.414137363433838,2.342331886291504
898.913000,0.4529590904712677,1.2044885158538818,-0.15744628012180328,-1.1925345659255981,0.039590366184711456,2.4141368865966797,2.342790365219116
898.935000,0.4531351625919342,1.2045087814331055,-0.15739834308624268,-1.1925314664840698,0.03914833813905716,2.4141364097595215,2.343566656112671
898.957000,0.4533597528934479,1.2045344114303589,-0.1573595255613327,-1.1925281286239624,0.0385725311934948,2.414135694503784,2.3445892333984375
898.973000,0.4536159932613373,1.2045637369155884,-0.15733593702316284,-1.1925249099731445,0.03790825232863426,2.414134979248047,2.345794677734375
898.995000,0.45389479398727417,1.2045958042144775,-0.15733346343040466,-1.1925218105316162,0.03719498589634895,2.4141340255737305,2.3471364974975586
899.017000,0.4541836380958557,1.2046293020248413,-0.15734899044036865,-1.192518949508667,0.036457329988479614,2.414133071899414,2.34857439994812
899.037000,0.454479455947876,1.204663634300232,-0.15737563371658325,-1.1925160884857178,0.03569260984659195,2.4141318798065186,2.3501107692718506
899.060000,0.45478329062461853,1.2046990394592285,-0.15741662681102753,-1.192513346672058,0.034915801137685776,2.414130449295044,2.351734161376953
899.076000,0.4550892114639282,1.2047348022460938,-0.15747272968292236,-1.1925108432769775,0.03414704278111458,2.4141290187835693,2.3534131050109863
899.096000,0.4553925693035126,1.2047704458236694,-0.15754052996635437,-1.1925084590911865,0.03339320793747902,2.4141273498535156,2.3551316261291504
899.118000,0.45569318532943726,1.204805850982666,-0.15761740505695343,-1.192506194114685,0.03265407308936119,2.414125680923462,2.3568880558013916
899.138000,0.45598697662353516,1.2048405408859253,-0.15770244598388672,-1.1925041675567627,0.03193899616599083,2.414123773574829,2.358661413192749
899.158000,0.4562743008136749,1.2048743963241577,-0.1577889323234558,-1.1925021409988403,0.03123290091753006,2.4141218662261963,2.3604655265808105
899.175000,0.45651471614837646,1.2049063444137573,-0.1580655574798584,-1.1925047636032104,0.031153343617916107,2.41412091255188,2.3615365028381348
899.196000,0.45665982365608215,1.2049243450164795,-0.1581592708826065,-1.192503571510315,0.030817747116088867,2.414119243621826,2.3627800941467285
899.222000,0.45683005452156067,1.2049448490142822,-0.1582345813512802,-1.1925019025802612,0.03041127696633339,2.4141173362731934,2.3641481399536133
899.239000,0.4570259153842926,1.2049682140350342,-0.1583063006401062,-1.1924999952316284,0.02995174005627632,2.4141154289245605,2.365628957748413
899.259000,0.45724010467529297,1.2049938440322876,-0.15838472545146942,-1.1924980878829956,0.029468990862369537,2.4141132831573486,2.3671858310699463
899.275000,0.45746171474456787,1.2050204277038574,-0.15846915543079376,-1.1924962997436523,0.02897731587290764,2.4141111373901367,2.3687903881073
899.295000,0.45768436789512634,1.2050471305847168,-0.15855656564235687,-1.192494511604309,0.028480099514126778,2.414108991622925,2.3704307079315186
899.317000,0.45790377259254456,1.2050734758377075,-0.15864761173725128,-1.1924928426742554,0.027988236397504807,2.414106845855713,2.372087240219116
899.338000,0.4581170678138733,1.2050992250442505,-0.15873989462852478,-1.1924911737442017,0.027502868324518204,2.414104700088501,2.3737525939941406
899.358000,0.45832327008247375,1.2051241397857666,-0.1588328629732132,-1.1924896240234375,0.02702648565173149,2.41410231590271,2.375420331954956
899.375000,0.45852231979370117,1.2051483392715454,-0.15892891585826874,-1.192488193511963,0.02656831219792366,2.414099931716919,2.3770782947540283
899.397000,0.45871269702911377,1.2051715850830078,-0.15902581810951233,-1.1924868822097778,0.026127660647034645,2.414097547531128,2.37872314453125
899.417000,0.4588932693004608,1.2051936388015747,-0.15912342071533203,-1.1924856901168823,0.025708209723234177,2.414095163345337,2.3803465366363525
899.438000,0.45906347036361694,1.205214500427246,-0.1592199206352234,-1.1924844980239868,0.02530790865421295,2.414092779159546,2.3819470405578613
899.459000,0.4592237174510956,1.2052342891693115,-0.15931496024131775,-1.1924833059310913,0.024926234036684036,2.414090633392334,2.3835232257843018
899.475000,0.45937380194664,1.2052528858184814,-0.15940886735916138,-1.1924822330474854,0.024565424770116806,2.414088487625122,2.3850696086883545
899.495000,0.4595121741294861,1.2052700519561768,-0.15949852764606476,-1.1924811601638794,0.024220293387770653,2.41408634185791,2.3865864276885986
899.517000,0.4596406817436218,1.2052861452102661,-0.1595863550901413,-1.192480206489563,0.02389455959200859,2.4140841960906982,2.3880698680877686
899.537000,0.45975950360298157,1.20530104637146,-0.1596718430519104,-1.1924792528152466,0.023587072268128395,2.4140820503234863,2.389519691467285
899.558000,0.45986872911453247,1.2053148746490479,-0.15975520014762878,-1.1924782991409302,0.023298727348446846,2.4140801429748535,2.3909335136413574
899.574000,0.4599686563014984,1.2053275108337402,-0.1598357856273651,-1.1924774646759033,0.02302766591310501,2.4140782356262207,2.392312526702881
899.594000,0.4600595533847809,1.2053391933441162,-0.15991394221782684,-1.1924766302108765,0.02277456223964691,2.414076328277588,2.3936550617218018
899.615000,0.46014171838760376,1.2053498029708862,-0.15998920798301697,-1.1924757957458496,0.02253779210150242,2.414074420928955,2.3949620723724365
899.636000,0.4602157473564148,1.2053594589233398,-0.16006165742874146,-1.1924749612808228,0.022316597402095795,2.4140727519989014,2.3962345123291016
899.657000,0.4602260887622833,1.2053643465042114,-0.16032183170318604,-1.1924787759780884,0.022759852930903435,2.4140732288360596,2.3966450691223145
899.673000,0.46007946133613586,1.2053507566452026,-0.16056257486343384,-1.1924830675125122,0.023548971861600876,2.414074659347534,2.3963875770568848
899.693000,0.45981985330581665,1.2053238153457642,-0.1607626974582672,-1.1924874782562256,0.024571465328335762,2.414076566696167,2.395615816116333
899.714000,0.4595455229282379,1.2052923440933228,-0.16072875261306763,-1.192487120628357,0.025091998279094696,2.414076805114746,2.395294666290283
899.735000,0.459382027387619,1.2052738666534424,-0.16068047285079956,-1.1924861669540405,0.025390954688191414,2.414076566696167,2.3953123092651367
899.755000,0.4592493176460266,1.2052621841430664,-0.16083475947380066,-1.192489743232727,0.02619169093668461,2.4140779972076416,2.3947606086730957
899.772000,0.4590809941291809,1.205243468284607,-0.16079042851924896,-1.1924890279769897,0.026550952345132828,2.4140779972076416,2.3946173191070557
899.793000,0.4589953124523163,1.2052342891693115,-0.16073672473430634,-1.1924877166748047,0.026711484417319298,2.4140777587890625,2.3947904109954834
899.813000,0.4589194357395172,1.205229640007019,-0.16089096665382385,-1.1924912929534912,0.02740355022251606,2.414079189300537,2.394362449645996
899.833000,0.45878496766090393,1.205214500427246,-0.16081832349300385,-1.1924901008605957,0.02760346233844757,2.414079189300537,2.3943817615509033
899.855000,0.4587259590625763,1.2052079439163208,-0.16072605550289154,-1.192488193511963,0.02757265605032444,2.414078950881958,2.3947465419769287
899.875000,0.458724707365036,1.205207347869873,-0.1605968475341797,-1.1924852132797241,0.02726513147354126,2.4140784740448,2.3954944610595703
899.892000,0.45877805352211,1.2052128314971924,-0.16046838462352753,-1.1924819946289062,0.02676883339881897,2.4140777587890625,2.396533250808716
899.913000,0.45882290601730347,1.2052215337753296,-0.16061729192733765,-1.192484974861145,0.026991181075572968,2.414078950881958,2.396761417388916
899.935000,0.45872020721435547,1.2052133083343506,-0.16078118979930878,-1.1924890279769897,0.027578188106417656,2.4140806198120117,2.396362066268921
899.954000,0.4585053324699402,1.2051920890808105,-0.16092462837696075,-1.1924934387207031,0.02841513603925705,2.4140827655792236,2.3954808712005615
899.970000,0.4582182765007019,1.205162525177002,-0.16104251146316528,-1.192497968673706,0.02942957915365696,2.4140849113464355,2.3942341804504395
899.991000,0.4578886926174164,1.2051281929016113,-0.16113580763339996,-1.192502737045288,0.030567001551389694,2.4140872955322266,2.392713785171509
900.013000,0.45753729343414307,1.2050914764404297,-0.16120721399784088,-1.1925076246261597,0.03178545832633972,2.4140896797180176,2.3909926414489746
900.033000,0.4571782052516937,1.2050541639328003,-0.16125991940498352,-1.1925125122070312,0.03305292874574661,2.4140918254852295,2.3891286849975586
900.053000,0.45682084560394287,1.205017328262329,-0.161297008395195,-1.1925173997879028,0.03434508666396141,2.4140939712524414,2.387167453765869
900.070000,0.45647135376930237,1.2049816846847534,-0.16132119297981262,-1.1925222873687744,0.03564358502626419,2.4140961170196533,2.3851449489593506
900.090000,0.4561336040496826,1.204947590827942,-0.16133476793766022,-1.192527174949646,0.03693472966551781,2.414098024368286,2.383089065551758
900.111000,0.45580989122390747,1.2049152851104736,-0.1613396257162094,-1.1925320625305176,0.038208410143852234,2.414099931716919,2.381021738052368
900.133000,0.45547613501548767,1.2048763036727905,-0.1610666960477829,-1.1925313472747803,0.038721904158592224,2.4141013622283936,2.3797037601470947
900.152000,0.4552682936191559,1.2048557996749878,-0.16099591553211212,-1.192534327507019,0.039483290165662766,2.4141030311584473,2.378229856491089
900.169000,0.4550635516643524,1.2048366069793701,-0.16096831858158112,-1.1925381422042847,0.04033065214753151,2.414104461669922,2.376645803451538
900.191000,0.4548046588897705,1.2048043012619019,-0.1606290191411972,-1.1925357580184937,0.0403718575835228,2.4141056537628174,2.3758137226104736
900.211000,0.4546240270137787,1.2047786712646484,-0.16020567715168,-1.1925313472747803,0.03989461064338684,2.414106845855713,2.37556791305542
900.232000,0.4545665979385376,1.204773187637329,-0.1600821316242218,-1.1925325393676758,0.039879702031612396,2.4141080379486084,2.374950647354126
900.253000,0.45448675751686096,1.204766869544983,-0.1600465327501297,-1.1925352811813354,0.04011201858520508,2.414109230041504,2.374051094055176
900.269000,0.4543765187263489,1.204757809638977,-0.16005103290081024,-1.1925387382507324,0.04052794724702835,2.4141104221343994,2.3729398250579834
900.290000,0.4542430341243744,1.2047466039657593,-0.16007523238658905,-1.192542552947998,0.04108510911464691,2.414111614227295,2.3716726303100586
900.312000,0.45409420132637024,1.2047338485717773,-0.1601078361272812,-1.1925466060638428,0.04174872860312462,2.4141128063201904,2.3702940940856934
900.332000,0.45388197898864746,1.2047030925750732,-0.15966056287288666,-1.1925407648086548,0.04119786247611046,2.4141135215759277,2.3701231479644775
900.353000,0.4538602828979492,1.2047014236450195,-0.15957409143447876,-1.1925418376922607,0.04117962718009949,2.414114475250244,2.3696017265319824
900.369000,0.4538208246231079,1.2046995162963867,-0.15957152843475342,-1.1925444602966309,0.041405729949474335,2.4141154289245605,2.3688135147094727
900.391000,0.4537501037120819,1.2046947479248047,-0.15960167348384857,-1.1925477981567383,0.041805513203144073,2.414116382598877,2.3678247928619385
900.411000,0.45365527272224426,1.2046877145767212,-0.15964628756046295,-1.1925513744354248,0.04233728349208832,2.4141173362731934,2.3666880130767822
900.432000,0.45350855588912964,1.2046606540679932,-0.15907113254070282,-1.192541480064392,0.041229262948036194,2.4141178131103516,2.367255449295044
900.452000,0.4536115825176239,1.2046722173690796,-0.1589948982000351,-1.1925413608551025,0.04087254777550697,2.414118528366089,2.367324113845825
900.470000,0.4536428451538086,1.204662799835205,-0.15834715962409973,-1.192528486251831,0.038949139416217804,2.414118528366089,2.369013547897339
900.491000,0.4538983404636383,1.20469069480896,-0.1582849770784378,-1.1925276517868042,0.038016851991415024,2.414119005203247,2.369936227798462
900.511000,0.4540599584579468,1.204710602760315,-0.1583506315946579,-1.192529559135437,0.037577953189611435,2.4141194820404053,2.37026047706604
900.532000,0.45412370562553406,1.204720139503479,-0.1584606021642685,-1.1925325393676758,0.037498872727155685,2.4141201972961426,2.3701205253601074
900.553000,0.45411416888237,1.2047216892242432,-0.15858633816242218,-1.1925359964370728,0.037697866559028625,2.41412091255188,2.3696229457855225
900.569000,0.4540535807609558,1.2047176361083984,-0.15871384739875793,-1.1925396919250488,0.03811013326048851,2.414121627807617,2.3688528537750244
900.591000,0.4539591670036316,1.204709768295288,-0.1588359773159027,-1.1925435066223145,0.03868301585316658,2.4141223430633545,2.367877721786499
900.611000,0.45384377241134644,1.2046996355056763,-0.1589493453502655,-1.19254732131958,0.03937409073114395,2.414123058319092,2.366751194000244
900.632000,0.4537166953086853,1.204688310623169,-0.1590527445077896,-1.1925510168075562,0.0401495061814785,2.414123773574829,2.3655154705047607
900.653000,0.45358458161354065,1.2046765089035034,-0.15914611518383026,-1.1925547122955322,0.040982503443956375,2.4141244888305664,2.364204168319702
900.669000,0.4534520208835602,1.2046648263931274,-0.15923000872135162,-1.1925582885742188,0.041852131485939026,2.4141252040863037,2.3628437519073486
900.690000,0.4533221423625946,1.2046535015106201,-0.15930519998073578,-1.1925618648529053,0.04274207353591919,2.414125680923462,2.361454725265503
900.711000,0.45319700241088867,1.20464289188385,-0.15937253832817078,-1.1925653219223022,0.04363974183797836,2.41412615776062,2.360053539276123
900.732000,0.45307791233062744,1.204633116722107,-0.15943284332752228,-1.1925687789916992,0.044535499066114426,2.4141266345977783,2.3586525917053223
900.753000,0.4529656171798706,1.2046241760253906,-0.15948684513568878,-1.1925721168518066,0.04542198032140732,2.4141271114349365,2.357261896133423
900.770000,0.45294371247291565,1.204596757888794,-0.15834465622901917,-1.192545771598816,0.04270979017019272,2.4141275882720947,2.359961748123169
900.791000,0.45345568656921387,1.2046526670455933,-0.15827332437038422,-1.1925419569015503,0.04152694344520569,2.414127826690674,2.361727714538574
900.810000,0.45390474796295166,1.2046786546707153,-0.15717920660972595,-1.1925137042999268,0.03733154758810997,2.414126396179199,2.3668320178985596
900.831000,0.45479530096054077,1.2047531604766846,-0.1559992879629135,-1.1924824714660645,0.03146921098232269,2.4141223430633545,2.3744781017303467
900.852000,0.4560222327709198,1.2048699855804443,-0.15488071739673615,-1.1924540996551514,0.024446556344628334,2.414114475250244,2.384033203125
900.869000,0.4573851227760315,1.2050272226333618,-0.15506111085414886,-1.1924571990966797,0.02020798996090889,2.414109706878662,2.3909237384796143
900.891000,0.45825791358947754,1.2051314115524292,-0.15547004342079163,-1.19246506690979,0.017472222447395325,2.4141063690185547,2.3957090377807617
900.911000,0.4587831199169159,1.2051794528961182,-0.15471093356609344,-1.1924477815628052,0.01222943514585495,2.4140937328338623,2.402906894683838
900.932000,0.4595446288585663,1.2052671909332275,-0.155021071434021,-1.1924527883529663,0.00938528124243021,2.414088726043701,2.4078457355499268
900.952000,0.4600239098072052,1.2053108215332031,-0.1542680263519287,-1.192435622215271,0.004183703102171421,2.4140727519989014,2.4150774478912354
900.968000,0.4607994854450226,1.2053899765014648,-0.15338757634162903,-1.1924173831939697,-0.002179497852921486,2.4140517711639404,2.4240291118621826
900.990000,0.4617566764354706,1.2054989337921143,-0.15374653041362762,-1.1924235820770264,-0.005696617998182774,2.414043426513672,2.4301743507385254
901.006000,0.4623299539089203,1.205556869506836,-0.15308360755443573,-1.1924091577529907,-0.011285554617643356,2.414020299911499,2.4381816387176514
901.030000,0.4631215035915375,1.2056431770324707,-0.1523064821958542,-1.192394733428955,-0.017816266044974327,2.4139914512634277,2.447570562362671
901.051000,0.4640995264053345,1.2057549953460693,-0.15155160427093506,-1.1923829317092896,-0.024952244013547897,2.4139578342437744,2.457960605621338
901.067000,0.4651895761489868,1.2058833837509155,-0.15085183084011078,-1.1923742294311523,-0.032484136521816254,2.413919448852539,2.469050884246826
901.087000,0.46633180975914,1.2060208320617676,-0.15021614730358124,-1.192368507385254,-0.040253616869449615,2.4138762950897217,2.480604410171509
901.106000,0.46748360991477966,1.2061617374420166,-0.14964503049850464,-1.1923651695251465,-0.04813742637634277,2.4138288497924805,2.4924349784851074
901.126000,0.46861621737480164,1.2063021659851074,-0.1491357386112213,-1.1923637390136719,-0.05603935196995735,2.4137773513793945,2.504396677017212
901.146000,0.46969932317733765,1.2064378261566162,-0.14867709577083588,-1.1923632621765137,-0.0638846680521965,2.4137229919433594,2.516350507736206
901.163000,0.47067850828170776,1.2065351009368896,-0.1494886726140976,-1.1923742294311523,-0.06800637394189835,2.4137046337127686,2.5241689682006836
901.183000,0.4710383117198944,1.2065659761428833,-0.14962291717529297,-1.1923648118972778,-0.0724303126335144,2.4136719703674316,2.531546115875244
901.205000,0.47128230333328247,1.2065849304199219,-0.1498979926109314,-1.1923528909683228,-0.07590591162443161,2.413647413253784,2.5376815795898438
901.226000,0.4713546633720398,1.2065656185150146,-0.15077462792396545,-1.192343831062317,-0.07695788890123367,2.4136464595794678,2.540858745574951
901.247000,0.4710350036621094,1.2065017223358154,-0.15129229426383972,-1.1923267841339111,-0.07767592370510101,2.4136409759521484,2.543048143386841
901.264000,0.47060054540634155,1.2064155340194702,-0.1521264910697937,-1.1923118829727173,-0.07675538957118988,2.4136505126953125,2.5431411266326904
901.284000,0.4699346423149109,1.2062993049621582,-0.15296342968940735,-1.192295789718628,-0.0747789815068245,2.413665533065796,2.5416152477264404
901.305000,0.46910330653190613,1.2061654329299927,-0.1537500023841858,-1.1922802925109863,-0.0720314234495163,2.4136836528778076,2.5388498306274414
901.322000,0.468170702457428,1.206023931503296,-0.15447382628917694,-1.1922667026519775,-0.06872021406888962,2.4137039184570312,2.535146951675415
901.341000,0.4671218991279602,1.2058768272399902,-0.15497735142707825,-1.1922526359558105,-0.06535111367702484,2.413726568222046,2.530988931655884
901.357000,0.46610549092292786,1.2057369947433472,-0.15550269186496735,-1.1922416687011719,-0.06162301450967789,2.4137492179870605,2.5262656211853027
901.378000,0.46502572298049927,1.205591082572937,-0.15589016675949097,-1.1922327280044556,-0.05786970257759094,2.4137752056121826,2.5211901664733887
901.397000,0.4639238715171814,1.2054457664489746,-0.15616780519485474,-1.1922231912612915,-0.05416256561875343,2.413802146911621,2.515878200531006
901.418000,0.46281716227531433,1.2053022384643555,-0.15639258921146393,-1.1922138929367065,-0.05043226480484009,2.4138309955596924,2.5102710723876953
901.438000,0.46180224418640137,1.2051719427108765,-0.1566394418478012,-1.1922070980072021,-0.04666632413864136,2.4138541221618652,2.5045738220214844
901.454000,0.46088162064552307,1.205056071281433,-0.15692250430583954,-1.1922036409378052,-0.042848967015743256,2.4138741493225098,2.4988465309143066
901.474000,0.4600346088409424,1.2049522399902344,-0.15722443163394928,-1.192203164100647,-0.03900604695081711,2.4138917922973633,2.493136167526245
901.496000,0.4591318666934967,1.2048442363739014,-0.1574760377407074,-1.1922032833099365,-0.03511938080191612,2.4139151573181152,2.4871809482574463
901.516000,0.4581626355648041,1.2047300338745117,-0.15761995315551758,-1.1922025680541992,-0.03133857995271683,2.413939952850342,2.4810783863067627
901.537000,0.45728370547294617,1.2046290636062622,-0.15773339569568634,-1.192203164100647,-0.027746951207518578,2.4139578342437744,2.4752023220062256
901.554000,0.45640355348587036,1.204529881477356,-0.15784767270088196,-1.1922053098678589,-0.024126550182700157,2.4139797687530518,2.4691555500030518
901.575000,0.4554823935031891,1.204426884651184,-0.1578884720802307,-1.1922070980072021,-0.020608384162187576,2.4140024185180664,2.462998390197754
901.597000,0.45454850792884827,1.2043235301971436,-0.15786440670490265,-1.192209005355835,-0.01722986064851284,2.4140243530273438,2.456799030303955
901.619000,0.453630268573761,1.2042232751846313,-0.1577916145324707,-1.1922112703323364,-0.01401063147932291,2.4140450954437256,2.450624942779541
901.638000,0.45274537801742554,1.2041281461715698,-0.1576874554157257,-1.192214012145996,-0.010947663336992264,2.4140641689300537,2.4445133209228516
901.648000,0.45190855860710144,1.2040398120880127,-0.1575545221567154,-1.1922173500061035,-0.008071018382906914,2.414081335067749,2.438542604446411
901.671000,0.4511284828186035,1.2039591073989868,-0.15741164982318878,-1.1922212839126587,-0.0053559234365820885,2.4140970706939697,2.432722568511963
901.685000,0.45051997900009155,1.2039000988006592,-0.15730825066566467,-1.1922262907028198,-0.00287175877019763,2.4141063690185547,2.4274024963378906
901.709000,0.44998565316200256,1.2038508653640747,-0.15724310278892517,-1.1922327280044556,-0.0004671046044677496,2.414116382598877,2.4222888946533203
901.725000,0.44947636127471924,1.2038047313690186,-0.15716060996055603,-1.1922391653060913,0.0017969163600355387,2.414125680923462,2.417370319366455
901.743000,0.44909319281578064,1.203774094581604,-0.157124862074852,-1.1922460794448853,0.003923298791050911,2.4141311645507812,2.412853479385376
901.759000,0.4488341212272644,1.2037591934204102,-0.15717080235481262,-1.1922544240951538,0.006013914942741394,2.4141347408294678,2.4086782932281494
901.785000,0.44865912199020386,1.2037550210952759,-0.15727496147155762,-1.1922638416290283,0.008085926994681358,2.414137125015259,2.4047961235046387
901.807000,0.44853857159614563,1.203757882118225,-0.15741540491580963,-1.1922738552093506,0.010140936821699142,2.4141387939453125,2.401167154312134
901.830000,0.44845345616340637,1.2037653923034668,-0.15757623314857483,-1.192284107208252,0.012175456620752811,2.414139986038208,2.397759199142456
901.848000,0.44839197397232056,1.2037760019302368,-0.15774649381637573,-1.1922945976257324,0.014184052124619484,2.4141407012939453,2.394545555114746
901.870000,0.44834691286087036,1.2037887573242188,-0.15791885554790497,-1.192305088043213,0.016160771250724792,2.4141414165496826,2.3915045261383057
901.893000,0.4483138620853424,1.2038030624389648,-0.15808850526809692,-1.1923155784606934,0.018099872395396233,2.414141893386841,2.388617753982544
901.914000,0.4481787085533142,1.2038029432296753,-0.15805156528949738,-1.192323088645935,0.019616642966866493,2.4141435623168945,2.386040687561035
901.935000,0.4481135904788971,1.2038116455078125,-0.15808476507663727,-1.192331314086914,0.02113630622625351,2.414144515991211,2.3835537433624268
901.951000,0.4480903148651123,1.2038257122039795,-0.15816164016723633,-1.1923400163650513,0.022659098729491234,2.4141452312469482,2.3811535835266113
901.973000,0.44798266887664795,1.2038259506225586,-0.15797723829746246,-1.1923444271087646,0.02354884147644043,2.4141461849212646,2.379286766052246
901.994000,0.4479886293411255,1.2038413286209106,-0.15795989334583282,-1.192351222038269,0.02459130436182022,2.414146900177002,2.377392053604126
902.017000,0.4479244649410248,1.2038440704345703,-0.15767763555049896,-1.1923531293869019,0.02493463084101677,2.41414737701416,2.3761138916015625
902.037000,0.4478905498981476,1.2038480043411255,-0.15729697048664093,-1.1923530101776123,0.024781610816717148,2.4141478538513184,2.3753204345703125
902.054000,0.44792574644088745,1.203859567642212,-0.156865656375885,-1.1923524141311646,0.024164946749806404,2.414154291152954,2.3750486373901367
902.075000,0.44803574681282043,1.203878402709961,-0.15644247829914093,-1.1923507452011108,0.023224344477057457,2.4141600131988525,2.3751814365386963
902.094000,0.4482300877571106,1.2039071321487427,-0.156110480427742,-1.1923495531082153,0.022191502153873444,2.4141652584075928,2.3755311965942383
902.115000,0.44851136207580566,1.2039495706558228,-0.15611155331134796,-1.1923537254333496,0.02180459350347519,2.414170503616333,2.3753740787506104
902.135000,0.4487302005290985,1.2039825916290283,-0.15600323677062988,-1.1923551559448242,0.021210821345448494,2.4141745567321777,2.3754682540893555
902.152000,0.4489726722240448,1.2040178775787354,-0.15590238571166992,-1.1923562288284302,0.020557193085551262,2.4141781330108643,2.375755786895752
902.174000,0.44925305247306824,1.2040574550628662,-0.15584075450897217,-1.1923574209213257,0.019906193017959595,2.4141809940338135,2.3761982917785645
902.195000,0.44956573843955994,1.204100489616394,-0.1558058261871338,-1.1923584938049316,0.019239623099565506,2.4141831398010254,2.3768200874328613
902.215000,0.4499019384384155,1.2041462659835815,-0.15580226480960846,-1.1923598051071167,0.018588976934552193,2.414184808731079,2.3775758743286133
902.235000,0.45024022459983826,1.2041949033737183,-0.15603983402252197,-1.1923656463623047,0.018604617565870285,2.4141879081726074,2.377717971801758
902.252000,0.4504760205745697,1.2042322158813477,-0.156321182847023,-1.192372441291809,0.019020888954401016,2.414191246032715,2.377385139465332
902.273000,0.45063284039497375,1.204257845878601,-0.15639881789684296,-1.1923753023147583,0.019120236858725548,2.4141931533813477,2.3773672580718994
902.294000,0.45081865787506104,1.2042890787124634,-0.15664899349212646,-1.1923816204071045,0.01969790831208229,2.414196491241455,2.376913547515869
902.314000,0.45094001293182373,1.2043132781982422,-0.15691667795181274,-1.1923885345458984,0.020539958029985428,2.4142000675201416,2.376126527786255
902.335000,0.45100703835487366,1.2043315172195435,-0.15717653930187225,-1.192395567893982,0.02156832441687584,2.414203643798828,2.3750874996185303
902.351000,0.45103609561920166,1.2043455839157104,-0.15742190182209015,-1.1924026012420654,0.02273036167025566,2.4142072200775146,2.373861312866211
902.371000,0.451040118932724,1.2043570280075073,-0.1576506644487381,-1.192409634590149,0.023985188454389572,2.414210796356201,2.3724989891052246
902.392000,0.4510285556316376,1.2043668031692505,-0.1578626036643982,-1.1924166679382324,0.025300605222582817,2.4142143726348877,2.3710412979125977
902.412000,0.45100805163383484,1.2043757438659668,-0.15805840492248535,-1.1924235820770264,0.02665141224861145,2.414217948913574,2.3695199489593506
902.433000,0.4509832561016083,1.2043843269348145,-0.15823912620544434,-1.1924303770065308,0.028018079698085785,2.4142215251922607,2.367960214614868
902.450000,0.45095735788345337,1.204392910003662,-0.15840595960617065,-1.1924370527267456,0.029385581612586975,2.414224863052368,2.3663816452026367
902.469000,0.45093247294425964,1.2044017314910889,-0.15856009721755981,-1.192443609237671,0.030742470175027847,2.4142282009124756,2.364799737930298
902.491000,0.45090997219085693,1.2044109106063843,-0.15870261192321777,-1.1924500465393066,0.03208014369010925,2.414231300354004,2.3632261753082275
902.511000,0.4508906900882721,1.204420566558838,-0.15883448719978333,-1.1924563646316528,0.03339221328496933,2.4142343997955322,2.3616700172424316
902.532000,0.45087510347366333,1.2044305801391602,-0.15895657241344452,-1.1924625635147095,0.03467397391796112,2.4142374992370605,2.360138177871704
902.548000,0.45086345076560974,1.2044410705566406,-0.15906962752342224,-1.1924686431884766,0.035922132432460785,2.4142403602600098,2.358635902404785
902.569000,0.4508558511734009,1.2044520378112793,-0.1591743677854538,-1.192474603652954,0.037134502083063126,2.414243221282959,2.3571670055389404
902.591000,0.45085597038269043,1.204456090927124,-0.15889613330364227,-1.1924718618392944,0.037220194935798645,2.414245128631592,2.3569254875183105
902.610000,0.45102110505104065,1.2044845819473267,-0.15893137454986572,-1.1924751996994019,0.03771831467747688,2.414247512817383,2.3564417362213135
902.632000,0.451136976480484,1.2045024633407593,-0.1587386280298233,-1.1924736499786377,0.03757741302251816,2.4142494201660156,2.3565866947174072
902.649000,0.45132875442504883,1.204533338546753,-0.15878263115882874,-1.192476749420166,0.03782968968153,2.4142518043518066,2.3564038276672363
902.669000,0.4514717757701874,1.204559564590454,-0.1588761955499649,-1.1924810409545898,0.03827138617634773,2.4142541885375977,2.355968952178955
902.690000,0.45156732201576233,1.2045806646347046,-0.15898431837558746,-1.1924856901168823,0.03884616494178772,2.4142563343048096,2.3553426265716553
902.710000,0.4516275227069855,1.2045978307724,-0.159094899892807,-1.192490577697754,0.0395190455019474,2.4142584800720215,2.3545730113983154
902.732000,0.45158496499061584,1.2046006917953491,-0.15908147394657135,-1.19249427318573,0.0400538295507431,2.4142608642578125,2.353754997253418
902.749000,0.4514824151992798,1.2045948505401611,-0.15897899866104126,-1.1924970149993896,0.04044093191623688,2.4142632484436035,2.3529052734375
902.769000,0.451429545879364,1.2045960426330566,-0.15894001722335815,-1.1925004720687866,0.04089944064617157,2.4142653942108154,2.351980209350586
902.790000,0.4513073265552521,1.2045886516571045,-0.1588774174451828,-1.1925047636032104,0.04140986502170563,2.4142677783966064,2.350802183151245
902.811000,0.45121318101882935,1.2045847177505493,-0.15882138907909393,-1.192508339881897,0.041895847767591476,2.4142699241638184,2.3496382236480713
902.832000,0.45117202401161194,1.204587697982788,-0.15881356596946716,-1.1925121545791626,0.042427290230989456,2.414271831512451,2.3484933376312256
902.848000,0.45116645097732544,1.2045952081680298,-0.1588418036699295,-1.1925162076950073,0.043006058782339096,2.414273500442505,2.3473711013793945
902.870000,0.45118218660354614,1.2046054601669312,-0.15889307856559753,-1.192520260810852,0.04362461715936661,2.4142751693725586,2.3462741374969482
902.890000,0.4512101709842682,1.2046172618865967,-0.15895792841911316,-1.1925243139266968,0.04427386075258255,2.4142768383026123,2.3452043533325195
902.911000,0.4512450098991394,1.204629898071289,-0.15902988612651825,-1.192528247833252,0.04494478926062584,2.414278507232666,2.344163179397583
902.933000,0.45113933086395264,1.2046229839324951,-0.1589501053094864,-1.1925314664840698,0.04544150084257126,2.4142801761627197,2.34304141998291
902.948000,0.4509214162826538,1.2045994997024536,-0.15869152545928955,-1.1925327777862549,0.04560338333249092,2.4142816066741943,2.34195876121521
902.970000,0.4506585896015167,1.20456862449646,-0.15832911431789398,-1.1925331354141235,0.04547860845923424,2.414283037185669,2.340914011001587
902.991000,0.450533926486969,1.2045563459396362,-0.15809820592403412,-1.192534327507019,0.04539303481578827,2.4142844676971436,2.3399219512939453
903.011000,0.45051661133766174,1.2045584917068481,-0.15798982977867126,-1.1925363540649414,0.045410796999931335,2.414285898208618,2.338977575302124
903.032000,0.45041370391845703,1.2045459747314453,-0.15769675374031067,-1.192535638809204,0.04502388834953308,2.4142870903015137,2.3383066654205322
903.048000,0.450282484292984,1.2045263051986694,-0.1572500467300415,-1.1925323009490967,0.044157885015010834,2.414288282394409,2.338005781173706
903.070000,0.45031681656837463,1.2045305967330933,-0.1570536345243454,-1.1925321817398071,0.0435764379799366,2.4142894744873047,2.3376083374023438
903.090000,0.45042240619659424,1.204545497894287,-0.1570005863904953,-1.1925334930419922,0.043228860944509506,2.4142906665802,2.337139368057251
903.110000,0.450559139251709,1.2045652866363525,-0.15703710913658142,-1.1925355195999146,0.0430850051343441,2.4142918586730957,2.336618185043335
903.131000,0.4505718946456909,1.2045626640319824,-0.15671850740909576,-1.1925309896469116,0.04217032343149185,2.414292812347412,2.336794137954712
903.148000,0.45059603452682495,1.2045575380325317,-0.156258687376976,-1.1925240755081177,0.04071683809161186,2.4142937660217285,2.3375070095062256
903.168000,0.4506519138813019,1.2045542001724243,-0.15573236346244812,-1.1925159692764282,0.03884240239858627,2.414294719696045,2.3386294841766357
903.189000,0.4508744776248932,1.2045773267745972,-0.15559062361717224,-1.192514181137085,0.03758587688207626,2.4142956733703613,2.339326858520508
903.210000,0.4509958028793335,1.204581618309021,-0.15510615706443787,-1.1925052404403687,0.03548823669552803,2.4142961502075195,2.340824604034424
903.231000,0.45118868350982666,1.2045907974243164,-0.1544918268918991,-1.1924930810928345,0.032719869166612625,2.4142961502075195,2.3431317806243896
903.247000,0.4514875113964081,1.2046102285385132,-0.15380510687828064,-1.1924787759780884,0.029315778985619545,2.4142954349517822,2.346268653869629
903.268000,0.4518924951553345,1.2046418190002441,-0.15313491225242615,-1.1924643516540527,0.0254895631223917,2.4142940044403076,2.3500242233276367
903.290000,0.4524648189544678,1.204702615737915,-0.15312539041042328,-1.1924622058868408,0.022997258231043816,2.4142932891845703,2.352674722671509
903.309000,0.45284417271614075,1.204734444618225,-0.15265575051307678,-1.1924502849578857,0.0195523202419281,2.414289951324463,2.3562357425689697
903.331000,0.4533049762248993,1.2047736644744873,-0.1520562320947647,-1.1924355030059814,0.015442309901118279,2.4142849445343018,2.3607115745544434
903.347000,0.4538727402687073,1.2048254013061523,-0.15145713090896606,-1.1924206018447876,0.01091666892170906,2.414278507232666,2.3658623695373535
903.368000,0.45458436012268066,1.2049014568328857,-0.15162749588489532,-1.1924201250076294,0.008115370757877827,2.4142749309539795,2.3694794178009033
903.390000,0.4551070034503937,1.2049568891525269,-0.15201173722743988,-1.1924223899841309,0.006387477274984121,2.414271831512451,2.37188720703125
903.410000,0.45540329813957214,1.2049798965454102,-0.15162302553653717,-1.192409634590149,0.003095576073974371,2.414261817932129,2.375844717025757
903.431000,0.45591750741004944,1.205033302307129,-0.1519530564546585,-1.1924103498458862,0.001395989442244172,2.414257287979126,2.3784706592559814
903.447000,0.4562723636627197,1.2050684690475464,-0.15243110060691833,-1.1924128532409668,0.0006003077141940594,2.4142539501190186,2.3800504207611084
903.468000,0.4564730226993561,1.2050859928131104,-0.1529494822025299,-1.1924158334732056,0.0004805150383617729,2.4142510890960693,2.3808114528656006
903.489000,0.4565575122833252,1.2050906419754028,-0.15347065031528473,-1.1924189329147339,0.0008842150564305484,2.4142489433288574,2.380934953689575
903.510000,0.45655566453933716,1.2050803899765015,-0.15292584896087646,-1.1924031972885132,-0.0013362830504775047,2.4142355918884277,2.383850336074829
903.531000,0.45694515109062195,1.2051209211349487,-0.15324458479881287,-1.1924036741256714,-0.0020129368640482426,2.414231061935425,2.3856160640716553
903.548000,0.4572128653526306,1.2051421403884888,-0.1525898575782776,-1.1923859119415283,-0.0052046445198357105,2.4142141342163086,2.3900346755981445
903.568000,0.45784395933151245,1.2052068710327148,-0.15173442661762238,-1.1923656463623047,-0.010001365095376968,2.414191246032715,2.3967442512512207
903.588000,0.45877131819725037,1.2053097486495972,-0.1520763337612152,-1.1923673152923584,-0.01242139469832182,2.41418194770813,2.4013493061065674
903.609000,0.45941147208213806,1.2053767442703247,-0.15139435231685638,-1.192349910736084,-0.0172652006149292,2.4141552448272705,2.4083824157714844
903.629000,0.4602958559989929,1.2054736614227295,-0.1518532931804657,-1.1923532485961914,-0.019649934023618698,2.41414475440979,2.413156032562256
903.646000,0.46086135506629944,1.205533742904663,-0.15125060081481934,-1.1923377513885498,-0.024394914507865906,2.4141156673431396,2.4202229976654053
903.668000,0.46168777346611023,1.2056293487548828,-0.15050643682479858,-1.1923232078552246,-0.03032367303967476,2.4140803813934326,2.429011344909668
903.688000,0.4627317190170288,1.2057546377182007,-0.14977070689201355,-1.1923116445541382,-0.03705107420682907,2.4140400886535645,2.4390673637390137
903.709000,0.46388283371925354,1.205885410308838,-0.15034233033657074,-1.192314624786377,-0.04064866900444031,2.4140236377716064,2.445966958999634
903.730000,0.4645344316959381,1.2059447765350342,-0.15114744007587433,-1.1923052072525024,-0.042461540549993515,2.4140141010284424,2.450385093688965
903.747000,0.4647669196128845,1.2059444189071655,-0.1519908308982849,-1.1922820806503296,-0.04295121878385544,2.4140093326568604,2.4528565406799316
903.767000,0.46470245718955994,1.205895185470581,-0.15281136333942413,-1.1922434568405151,-0.04242534190416336,2.414008378982544,2.453808546066284
903.788000,0.4644371569156647,1.2058000564575195,-0.1535835862159729,-1.1921855211257935,-0.04112642630934715,2.4140102863311768,2.4535813331604004
903.808000,0.4640537202358246,1.2056984901428223,-0.1530250608921051,-1.1921110153198242,-0.042945802211761475,2.413985013961792,2.456505060195923
903.829000,0.4641343653202057,1.2056224346160889,-0.15349715948104858,-1.192035436630249,-0.04280786216259003,2.413982391357422,2.4577817916870117
903.845000,0.4640437066555023,1.2054898738861084,-0.15411658585071564,-1.1919351816177368,-0.04175051674246788,2.4139842987060547,2.457777738571167
903.866000,0.46377986669540405,1.2052958011627197,-0.1547488421201706,-1.191807746887207,-0.040053702890872955,2.4139883518218994,2.456787347793579
903.887000,0.463401734828949,1.2051000595092773,-0.1544252634048462,-1.1916637420654297,-0.04058406502008438,2.413973569869995,2.4580001831054688
903.907000,0.4633518159389496,1.204968810081482,-0.15392601490020752,-1.1915311813354492,-0.04235587269067764,2.413954496383667,2.4609057903289795
903.927000,0.46358323097229004,1.2048908472061157,-0.15367883443832397,-1.191413164138794,-0.04422156885266304,2.413938283920288,2.464244842529297
903.945000,0.4638809263706207,1.2048240900039673,-0.15369947254657745,-1.1913034915924072,-0.04567325860261917,2.413926601409912,2.467226505279541
903.966000,0.4640970230102539,1.2046841382980347,-0.154231995344162,-1.1912024021148682,-0.045614443719387054,2.413926124572754,2.4684765338897705
903.986000,0.4640392065048218,1.2044421434402466,-0.15485599637031555,-1.1910847425460815,-0.0446295365691185,2.413928985595703,2.4683806896209717
904.008000,0.4637603759765625,1.2041059732437134,-0.15548767149448395,-1.1909475326538086,-0.042965155094861984,2.4139339923858643,2.4672465324401855
904.029000,0.46331915259361267,1.2036902904510498,-0.15610119700431824,-1.190791130065918,-0.04079960659146309,2.413940668106079,2.465318441390991
904.045000,0.46272751688957214,1.203226923942566,-0.1565159112215042,-1.1906092166900635,-0.03865739330649376,2.4139490127563477,2.4631187915802
904.065000,0.46212005615234375,1.2027233839035034,-0.1570006012916565,-1.1904188394546509,-0.036146048456430435,2.4139583110809326,2.460397243499756
904.087000,0.46146634221076965,1.2021839618682861,-0.15749584138393402,-1.1902196407318115,-0.033406149595975876,2.4139676094055176,2.457291603088379
904.106000,0.4607694149017334,1.201617956161499,-0.15799523890018463,-1.1900125741958618,-0.030521700158715248,2.4139764308929443,2.453911066055298
904.127000,0.4600391983985901,1.2010340690612793,-0.15849870443344116,-1.1898001432418823,-0.02754930593073368,2.413985013961792,2.4503419399261475
904.144000,0.45927828550338745,1.200440764427185,-0.1590116322040558,-1.1895833015441895,-0.02454042062163353,2.4139933586120605,2.446652412414551
904.165000,0.4584924876689911,1.1998438835144043,-0.15953727066516876,-1.1893647909164429,-0.021528398618102074,2.414001226425171,2.4428956508636475
904.185000,0.45759961009025574,1.199228286743164,-0.15999731421470642,-1.1891446113586426,-0.01852557063102722,2.4140143394470215,2.4388937950134277
904.206000,0.4566875398159027,1.1986202001571655,-0.16044141352176666,-1.188918948173523,-0.0156754981726408,2.4140238761901855,2.434950351715088
904.227000,0.45570674538612366,1.1980047225952148,-0.1608683466911316,-1.1886957883834839,-0.012845778837800026,2.4140374660491943,2.4308037757873535
904.243000,0.4547252953052521,1.1974081993103027,-0.16130194067955017,-1.188468337059021,-0.010218214243650436,2.4140396118164062,2.426802158355713
904.264000,0.45376959443092346,1.1968419551849365,-0.1618247926235199,-1.1882431507110596,-0.007698470260947943,2.4140398502349854,2.422940254211426
904.285000,0.45272985100746155,1.1962755918502808,-0.1623685508966446,-1.188032865524292,-0.005184116307646036,2.414044141769409,2.4189064502716064
904.305000,0.45165446400642395,1.1957311630249023,-0.16292916238307953,-1.1878231763839722,-0.002910017501562834,2.4140326976776123,2.4150779247283936
904.327000,0.450507789850235,1.1951940059661865,-0.16352567076683044,-1.187628984451294,-0.0006714866030961275,2.414024591445923,2.411144256591797
904.343000,0.44928234815597534,1.1946600675582886,-0.16408105194568634,-1.1874454021453857,0.0014431423041969538,2.414017915725708,2.4071569442749023
904.364000,0.44800928235054016,1.1941394805908203,-0.16459541022777557,-1.1872656345367432,0.0033844662830233574,2.4140117168426514,2.403198480606079
904.384000,0.4467121660709381,1.1936376094818115,-0.16509173810482025,-1.1870864629745483,0.005112787708640099,2.4139983654022217,2.399355888366699
904.404000,0.44542306661605835,1.1931753158569336,-0.16569146513938904,-1.1869043111801147,0.006605572532862425,2.413970947265625,2.3958113193511963
904.425000,0.4440964460372925,1.1927361488342285,-0.16637609899044037,-1.1867338418960571,0.007951420731842518,2.413944721221924,2.392428398132324
904.442000,0.4427187144756317,1.1923316717147827,-0.16719689965248108,-1.1865630149841309,0.009139060974121094,2.413907766342163,2.389286994934082
904.463000,0.44126608967781067,1.1919443607330322,-0.16808287799358368,-1.1864055395126343,0.01015316043049097,2.413872241973877,2.3863720893859863
904.484000,0.43975818157196045,1.1915711164474487,-0.16900835931301117,-1.1862584352493286,0.011028074659407139,2.4138381481170654,2.383652448654175
904.504000,0.43820834159851074,1.1912158727645874,-0.1699438840150833,-1.1861153841018677,0.011689714156091213,2.413804531097412,2.3812267780303955
904.526000,0.4366273880004883,1.1908823251724243,-0.17090564966201782,-1.1859718561172485,0.012113894335925579,2.413764238357544,2.37915301322937
904.542000,0.4350212812423706,1.1905707120895386,-0.17192696034908295,-1.1858326196670532,0.012380113825201988,2.413724660873413,2.3773655891418457
904.563000,0.43336743116378784,1.1902799606323242,-0.1729956865310669,-1.1856982707977295,0.012456221505999565,2.4136853218078613,2.375891923904419
904.584000,0.43166476488113403,1.1900097131729126,-0.1741318255662918,-1.18556809425354,0.012407994829118252,2.413646697998047,2.37467098236084
904.604000,0.42988961935043335,1.1897568702697754,-0.17531637847423553,-1.1854416131973267,0.012198399752378464,2.413601875305176,2.3737294673919678
904.625000,0.42804402112960815,1.1895231008529663,-0.1765662282705307,-1.1853195428848267,0.011889095418155193,2.413557767868042,2.3730106353759766
904.642000,0.4261046051979065,1.189304232597351,-0.17786020040512085,-1.1852015256881714,0.011446160264313221,2.413505792617798,2.3725333213806152
904.663000,0.42404863238334656,1.1891015768051147,-0.17919746041297913,-1.1850872039794922,0.010857817716896534,2.413442850112915,2.372300386428833
904.683000,0.42184874415397644,1.1889153718948364,-0.1805800050497055,-1.1849766969680786,0.010121066123247147,2.413365602493286,2.3723032474517822
904.703000,0.41950857639312744,1.1887437105178833,-0.1820250004529953,-1.1848748922348022,0.009296799078583717,2.4132776260375977,2.372488260269165
904.725000,0.41703781485557556,1.188583493232727,-0.1835273802280426,-1.1847835779190063,0.008429055102169514,2.413182020187378,2.3728127479553223
904.741000,0.4144204258918762,1.1884334087371826,-0.1850581020116806,-1.1846985816955566,0.007492694538086653,2.413074493408203,2.3732810020446777
904.762000,0.4116412103176117,1.1882941722869873,-0.18660834431648254,-1.1846187114715576,0.006477861199527979,2.4129526615142822,2.373889684677124
904.783000,0.4085617661476135,1.1881669759750366,-0.18831846117973328,-1.184536099433899,0.005866500549018383,2.412810802459717,2.373948335647583
904.801000,0.4051024913787842,1.1880366802215576,-0.19005092978477478,-1.1844589710235596,0.005448712036013603,2.4126534461975098,2.373581886291504
904.823000,0.4012849032878876,1.1879074573516846,-0.19178840517997742,-1.184386968612671,0.005154113285243511,2.412484884262085,2.3728880882263184
904.839000,0.3972867429256439,1.1877803802490234,-0.1933872401714325,-1.1843289136886597,0.00445856899023056,2.4123120307922363,2.3726494312286377
904.861000,0.3932672441005707,1.1876708269119263,-0.19500498473644257,-1.1842843294143677,0.0036198582965880632,2.412144184112549,2.3727638721466064
904.881000,0.389215350151062,1.1875733137130737,-0.19662624597549438,-1.1842472553253174,0.0026695975102484226,2.411973714828491,2.3731682300567627
904.900000,0.38510361313819885,1.18748939037323,-0.19823724031448364,-1.1842092275619507,0.0016182147664949298,2.4118006229400635,2.373809337615967
904.921000,0.3809380829334259,1.187416434288025,-0.1998463273048401,-1.184174656867981,0.000512165017426014,2.4116322994232178,2.3746285438537598
904.938000,0.37671348452568054,1.1873492002487183,-0.20144495368003845,-1.1841462850570679,-0.000661149388179183,2.411461114883423,2.3756179809570312
904.959000,0.3724444508552551,1.1872888803482056,-0.20304721593856812,-1.1841280460357666,-0.0018580607138574123,2.41129469871521,2.376732110977173
904.979000,0.36811205744743347,1.187231421470642,-0.2046491950750351,-1.1841142177581787,-0.0030294861644506454,2.4111227989196777,2.377871036529541
904.997000,0.36368006467819214,1.1871745586395264,-0.2062363624572754,-1.1840969324111938,-0.004138644319027662,2.4109387397766113,2.3789262771606445
905.020000,0.3591582179069519,1.187116026878357,-0.20779170095920563,-1.1840801239013672,-0.005205987486988306,2.4107463359832764,2.3799095153808594
905.036000,0.3545563519001007,1.1870551109313965,-0.2093123495578766,-1.184067964553833,-0.00625194888561964,2.4105453491210938,2.3808350563049316
905.058000,0.3499011695384979,1.186993956565857,-0.21080926060676575,-1.184063196182251,-0.007266898639500141,2.410339117050171,2.381709575653076
905.076000,0.34520840644836426,1.186933159828186,-0.2122456133365631,-1.1840661764144897,-0.008367355912923813,2.4101290702819824,2.3826634883880615
905.097000,0.3404950201511383,1.1868761777877808,-0.2136586606502533,-1.184067726135254,-0.009474985301494598,2.4099042415618896,2.3836278915405273
905.118000,0.3357697129249573,1.1868213415145874,-0.2150443196296692,-1.1840708255767822,-0.010576223023235798,2.4096693992614746,2.3845937252044678
905.134000,0.3310207426548004,1.186765193939209,-0.21640601754188538,-1.1840745210647583,-0.011632115580141544,2.4094138145446777,2.3855042457580566
905.147000,0.3262544572353363,1.186710238456726,-0.21773827075958252,-1.1840788125991821,-0.012644155882298946,2.4091436862945557,2.3863656520843506
905.170000,0.3214581310749054,1.1866551637649536,-0.21903753280639648,-1.184084177017212,-0.013615621253848076,2.4088540077209473,2.38716983795166
905.185000,0.3166418969631195,1.186601161956787,-0.22030875086784363,-1.184095025062561,-0.014541485346853733,2.408550977706909,2.3879241943359375
905.208000,0.3116927742958069,1.1865530014038086,-0.22173330187797546,-1.184096336364746,-0.014965307898819447,2.4082207679748535,2.3879897594451904
905.223000,0.30651578307151794,1.1864992380142212,-0.2231990396976471,-1.184095859527588,-0.015136776491999626,2.4078712463378906,2.3875231742858887
905.241000,0.30124029517173767,1.1864378452301025,-0.2245095670223236,-1.184114933013916,-0.01565374992787838,2.4075145721435547,2.3873565196990967
905.254000,0.2960159182548523,1.186388611793518,-0.2258184254169464,-1.1841511726379395,-0.0162777341902256,2.4071569442749023,2.3874223232269287
905.280000,0.290850967168808,1.1863492727279663,-0.22708632051944733,-1.184200644493103,-0.01708475686609745,2.406801223754883,2.3878095149993896
905.302000,0.28576791286468506,1.1863200664520264,-0.22834734618663788,-1.184261679649353,-0.01798776537179947,2.406449794769287,2.388442277908325
905.319000,0.2807682156562805,1.1862990856170654,-0.22954994440078735,-1.1843316555023193,-0.019106782972812653,2.406102418899536,2.3894472122192383
905.340000,0.27588188648223877,1.1862900257110596,-0.23067966103553772,-1.1844083070755005,-0.020536014810204506,2.405756711959839,2.3909668922424316
905.359000,0.27113065123558044,1.1862971782684326,-0.23180273175239563,-1.1844875812530518,-0.02213347516953945,2.4054155349731445,2.3928730487823486
905.381000,0.2664986550807953,1.1863223314285278,-0.23299342393875122,-1.1845664978027344,-0.02366909570991993,2.405086040496826,2.394881248474121
905.403000,0.26185041666030884,1.186365008354187,-0.23458069562911987,-1.1846272945404053,-0.0243314690887928,2.404773473739624,2.395873785018921
905.421000,0.25702565908432007,1.1863905191421509,-0.236329585313797,-1.184676170349121,-0.024537058547139168,2.404472589492798,2.3960750102996826
905.443000,0.2520577907562256,1.1864043474197388,-0.23822832107543945,-1.1847176551818848,-0.024423183873295784,2.4041824340820312,2.3956642150878906
905.465000,0.2469884604215622,1.1864123344421387,-0.2402806133031845,-1.1847548484802246,-0.024074221029877663,2.403902769088745,2.3947837352752686
905.485000,0.24185216426849365,1.1864159107208252,-0.24247179925441742,-1.1847915649414062,-0.023546287789940834,2.4036331176757812,2.3935468196868896
905.506000,0.23667655885219574,1.1864182949066162,-0.24478963017463684,-1.1848276853561401,-0.022884026169776917,2.4033734798431396,2.392043352127075
905.522000,0.23148539662361145,1.1864193677902222,-0.24721236526966095,-1.1848654747009277,-0.0221177339553833,2.403123378753662,2.3903446197509766
905.543000,0.22629687190055847,1.1864254474639893,-0.24972450733184814,-1.1849017143249512,-0.021273920312523842,2.4028828144073486,2.3885068893432617
905.564000,0.22112786769866943,1.186432957649231,-0.25230544805526733,-1.1849406957626343,-0.020370926707983017,2.402651309967041,2.3865747451782227
905.585000,0.2159896194934845,1.1864482164382935,-0.2549404501914978,-1.1849781274795532,-0.019425997510552406,2.4024288654327393,2.3845832347869873
905.605000,0.2108885496854782,1.186474084854126,-0.25761720538139343,-1.185013771057129,-0.018455810844898224,2.402214765548706,2.3825600147247314
905.621000,0.20587284862995148,1.1865041255950928,-0.2601032853126526,-1.185056447982788,-0.01804189942777157,2.4020047187805176,2.3812355995178223
905.642000,0.20103636384010315,1.186561107635498,-0.2625647187232971,-1.1851017475128174,-0.017923975363373756,2.401801109313965,2.380467176437378
905.664000,0.19635801017284393,1.1866378784179688,-0.26501700282096863,-1.1851496696472168,-0.018004165962338448,2.401604175567627,2.3801333904266357
905.685000,0.1917658895254135,1.18673574924469,-0.26765912771224976,-1.1851931810379028,-0.01764543727040291,2.4014248847961426,2.3794209957122803
905.705000,0.18714596331119537,1.1868319511413574,-0.27030399441719055,-1.1852316856384277,-0.0170843955129385,2.401259660720825,2.3784220218658447
905.721000,0.1825610101222992,1.1869255304336548,-0.2727292776107788,-1.185271978378296,-0.016987476497888565,2.4010965824127197,2.377957344055176
905.743000,0.17807787656784058,1.1870454549789429,-0.27530914545059204,-1.185309648513794,-0.016499744728207588,2.4009432792663574,2.377162218093872
905.764000,0.17363788187503815,1.1871631145477295,-0.27767959237098694,-1.1853500604629517,-0.016432160511612892,2.400791883468628,2.3768627643585205
905.784000,0.16929994523525238,1.1873067617416382,-0.2801940143108368,-1.185388207435608,-0.01595022715628147,2.4006500244140625,2.3762035369873047
905.806000,0.1649649292230606,1.1874494552612305,-0.28267350792884827,-1.185425877571106,-0.015268166549503803,2.400515079498291,2.3752710819244385
905.822000,0.16065126657485962,1.187598705291748,-0.2850882411003113,-1.1854640245437622,-0.014442931860685349,2.400392770767212,2.3741343021392822
905.842000,0.15638390183448792,1.1877611875534058,-0.28742435574531555,-1.1855026483535767,-0.013506975024938583,2.400282382965088,2.3728489875793457
905.863000,0.15222056210041046,1.187929630279541,-0.28948450088500977,-1.1855472326278687,-0.013134135864675045,2.400171995162964,2.3722455501556396
905.883000,0.14822721481323242,1.1881369352340698,-0.29166314005851746,-1.1855907440185547,-0.012395220808684826,2.4000697135925293,2.371389389038086
905.903000,0.14432105422019958,1.1883405447006226,-0.2935434579849243,-1.185639500617981,-0.012270373292267323,2.3999671936035156,2.37125563621521
905.918000,0.1406179666519165,1.1885676383972168,-0.29530784487724304,-1.1856918334960938,-0.01259391289204359,2.3998665809631348,2.371828556060791
905.940000,0.1370752453804016,1.1888337135314941,-0.29728248715400696,-1.1857388019561768,-0.01229699794203043,2.3997750282287598,2.371889352798462
905.962000,0.13357987999916077,1.189081072807312,-0.2988705039024353,-1.1857905387878418,-0.012772968038916588,2.399681568145752,2.3728153705596924
905.980000,0.13025420904159546,1.1893717050552368,-0.3006775975227356,-1.185838222503662,-0.012544921599328518,2.399597406387329,2.3731443881988525
905.997000,0.12697863578796387,1.1896402835845947,-0.302044153213501,-1.1858922243118286,-0.013209803029894829,2.3995096683502197,2.3744654655456543
906.008000,0.12388800829648972,1.1899566650390625,-0.3036682605743408,-1.1859418153762817,-0.01306463684886694,2.3994319438934326,2.375089406967163
906.031000,0.12084467709064484,1.190246343612671,-0.3048013150691986,-1.1859980821609497,-0.013944650068879128,2.3993494510650635,2.376843214035034
906.054000,0.11806034296751022,1.1905639171600342,-0.30587220191955566,-1.1860592365264893,-0.015337539836764336,2.3992669582366943,2.3794572353363037
906.074000,0.11546313762664795,1.1908930540084839,-0.30697542428970337,-1.1861214637756348,-0.016952740028500557,2.399186372756958,2.382540225982666
906.095000,0.1129370778799057,1.191213846206665,-0.3081570863723755,-1.1861803531646729,-0.01840044930577278,2.3991105556488037,2.3855154514312744
906.112000,0.11040730774402618,1.1915347576141357,-0.30951595306396484,-1.186236023902893,-0.018803250044584274,2.3990445137023926,2.3873393535614014
906.135000,0.10774929076433182,1.1918056011199951,-0.3105122745037079,-1.1862949132919312,-0.019311193376779556,2.398986339569092,2.38904070854187
906.156000,0.10511693358421326,1.1920628547668457,-0.311341255903244,-1.186355471611023,-0.019799916073679924,2.398930788040161,2.3906354904174805
906.176000,0.102527916431427,1.1923176050186157,-0.31207066774368286,-1.186414361000061,-0.020106595009565353,2.3988795280456543,2.3919520378112793
906.197000,0.09997047483921051,1.1925714015960693,-0.3126705586910248,-1.1864715814590454,-0.020182112231850624,2.3988327980041504,2.392909288406372
906.214000,0.09748613834381104,1.1928298473358154,-0.31320083141326904,-1.1865376234054565,-0.019597956910729408,2.398791790008545,2.3931236267089844
906.235000,0.09504550695419312,1.1930830478668213,-0.3134942352771759,-1.1866099834442139,-0.018550384789705276,2.3987550735473633,2.3927628993988037
906.257000,0.09268847852945328,1.193333387374878,-0.31351056694984436,-1.1866912841796875,-0.01713871769607067,2.3987224102020264,2.391960620880127
906.277000,0.0904235988855362,1.193591594696045,-0.31311050057411194,-1.1867711544036865,-0.01605135388672352,2.398691415786743,2.391385316848755
906.298000,0.08834570646286011,1.1938834190368652,-0.3125230073928833,-1.1868520975112915,-0.015172104351222515,2.398662567138672,2.390989303588867
906.315000,0.08644796162843704,1.1942074298858643,-0.3117806613445282,-1.1869299411773682,-0.01460481807589531,2.398634672164917,2.3908803462982178
906.335000,0.0847335159778595,1.1945617198944092,-0.31091755628585815,-1.1870050430297852,-0.014412378892302513,2.3986072540283203,2.3911547660827637
906.357000,0.08324682712554932,1.1949372291564941,-0.31023451685905457,-1.1870701313018799,-0.013571102172136307,2.3985843658447266,2.3908541202545166
906.378000,0.08181269466876984,1.1952929496765137,-0.30917787551879883,-1.187126636505127,-0.013399667106568813,2.398559331893921,2.3911690711975098
906.398000,0.08056191354990005,1.1956733465194702,-0.3080449104309082,-1.1871825456619263,-0.01361826527863741,2.3985345363616943,2.3919570446014404
906.415000,0.07947675883769989,1.1960753202438354,-0.306856632232666,-1.1872410774230957,-0.01429508626461029,2.3985090255737305,2.3932971954345703
906.436000,0.07855229824781418,1.196499228477478,-0.3056362271308899,-1.1873024702072144,-0.015464569441974163,2.398482322692871,2.3952622413635254
906.456000,0.07777589559555054,1.196942687034607,-0.3044607639312744,-1.1873672008514404,-0.016963152214884758,2.3984551429748535,2.3976962566375732
906.477000,0.07711655646562576,1.1973989009857178,-0.30327877402305603,-1.1874302625656128,-0.018896978348493576,2.398426055908203,2.40071702003479
906.498000,0.07658035308122635,1.19786536693573,-0.30209192633628845,-1.1874932050704956,-0.021296927705407143,2.398394823074341,2.4044039249420166
906.515000,0.07616117596626282,1.1983404159545898,-0.30096912384033203,-1.1875556707382202,-0.023982089012861252,2.398362398147583,2.4085795879364014
906.536000,0.07582168281078339,1.1988141536712646,-0.29991695284843445,-1.1876170635223389,-0.02685191109776497,2.398329019546509,2.4131033420562744
906.557000,0.0755431056022644,1.1992820501327515,-0.2988671064376831,-1.1876765489578247,-0.03003273345530033,2.3982932567596436,2.418107509613037
906.578000,0.07533181458711624,1.1997432708740234,-0.2980479896068573,-1.1877391338348389,-0.03283730149269104,2.3982596397399902,2.4228663444519043
906.597000,0.0750885158777237,1.2001721858978271,-0.29729384183883667,-1.1878015995025635,-0.035403717309236526,2.398226737976074,2.4274024963378906
906.619000,0.07484994828701019,1.2005720138549805,-0.29653680324554443,-1.1878626346588135,-0.037835799157619476,2.398193359375,2.4318735599517822
906.636000,0.07464343309402466,1.2009493112564087,-0.29578351974487305,-1.1879193782806396,-0.04010101407766342,2.398160457611084,2.436263084411621
906.657000,0.07447617501020432,1.2012957334518433,-0.29515698552131653,-1.1879734992980957,-0.04175449535250664,2.3981332778930664,2.440051317214966
906.676000,0.07429191470146179,1.2015970945358276,-0.2945042550563812,-1.1880192756652832,-0.0430019274353981,2.3981094360351562,2.4433486461639404
906.698000,0.07413965463638306,1.201847791671753,-0.29390421509742737,-1.1880598068237305,-0.0435580238699913,2.39809250831604,2.4458436965942383
906.714000,0.07403571903705597,1.2020305395126343,-0.29329562187194824,-1.1880929470062256,-0.04337066411972046,2.3980917930603027,2.4474191665649414
906.735000,0.07419254630804062,1.202127456665039,-0.2927938997745514,-1.1881341934204102,-0.04196742922067642,2.398125648498535,2.4477381706237793
906.756000,0.07460178434848785,1.2021347284317017,-0.2921628952026367,-1.1881511211395264,-0.039690811187028885,2.3981847763061523,2.44708514213562
906.776000,0.0751621350646019,1.2020663022994995,-0.29119765758514404,-1.1881177425384521,-0.037072714418172836,2.398257255554199,2.445808172225952
906.797000,0.07590717077255249,1.201952576637268,-0.2899646461009979,-1.1880412101745605,-0.03425956144928932,2.3983380794525146,2.444058656692505
906.814000,0.07687357068061829,1.2018026113510132,-0.28856271505355835,-1.1879364252090454,-0.03120483085513115,2.398430824279785,2.441800355911255
906.835000,0.0782441645860672,1.2016358375549316,-0.2871312201023102,-1.187828779220581,-0.027809707447886467,2.39853572845459,2.439199447631836
906.855000,0.07983078807592392,1.201442003250122,-0.28554633259773254,-1.1876872777938843,-0.024252157658338547,2.398648500442505,2.436192750930786
906.876000,0.08158306777477264,1.2012239694595337,-0.28379112482070923,-1.1875147819519043,-0.020693525671958923,2.39875864982605,2.432893753051758
906.894000,0.08351314812898636,1.2009893655776978,-0.281938374042511,-1.1873254776000977,-0.01709165796637535,2.3988754749298096,2.4292802810668945
906.914000,0.08560018241405487,1.2007449865341187,-0.2799912393093109,-1.1871193647384644,-0.013530084863305092,2.3989953994750977,2.4254491329193115
906.935000,0.08807694166898727,1.200526237487793,-0.2780923843383789,-1.1869350671768188,-0.009963256306946278,2.399157762527466,2.4217517375946045
906.957000,0.09073906391859055,1.2003039121627808,-0.276205450296402,-1.1867351531982422,-0.00625569187104702,2.399327039718628,2.41776180267334
906.977000,0.09349066019058228,1.2000675201416016,-0.27423644065856934,-1.186521053314209,-0.0026069211307913065,2.3994977474212646,2.413573980331421
906.997000,0.09634752571582794,1.1998291015625,-0.2722233533859253,-1.1863033771514893,0.0009749748278409243,2.399681568145752,2.4092276096343994
907.014000,0.09933075308799744,1.1995935440063477,-0.2701917290687561,-1.1860949993133545,0.004476770292967558,2.399890422821045,2.4047813415527344
907.033000,0.10243137925863266,1.1993658542633057,-0.26814940571784973,-1.1858909130096436,0.007868200540542603,2.4001166820526123,2.4002888202667236
907.056000,0.10566499084234238,1.1991504430770874,-0.2661178410053253,-1.1856976747512817,0.011140908114612103,2.4003703594207764,2.3958115577697754
907.077000,0.10925617069005966,1.1989796161651611,-0.26417919993400574,-1.1855270862579346,0.014242974109947681,2.40067982673645,2.3918190002441406
907.097000,0.11300825327634811,1.1988240480422974,-0.2623230516910553,-1.185350775718689,0.01737625151872635,2.4010071754455566,2.3878333568573
907.114000,0.1168113723397255,1.1986684799194336,-0.26045355200767517,-1.1851698160171509,0.02038690261542797,2.4013447761535645,2.383881092071533
907.134000,0.12068340927362442,1.1985201835632324,-0.2585839033126831,-1.1849886178970337,0.023237187415361404,2.4016973972320557,2.380040168762207
907.155000,0.12464716285467148,1.1983819007873535,-0.25671377778053284,-1.1848053932189941,0.025881212204694748,2.4020612239837646,2.3764078617095947
907.175000,0.12869827449321747,1.1982557773590088,-0.25486651062965393,-1.1846176385879517,0.02835419960319996,2.402431011199951,2.372962236404419
907.196000,0.13283056020736694,1.1981408596038818,-0.2530360221862793,-1.1844253540039062,0.03063249960541725,2.4028048515319824,2.3697421550750732
907.212000,0.13702791929244995,1.1980375051498413,-0.2512357234954834,-1.184227705001831,0.03274388611316681,2.403179168701172,2.3667190074920654
907.233000,0.14132073521614075,1.1979498863220215,-0.24947190284729004,-1.1840258836746216,0.03463871777057648,2.4035534858703613,2.364020824432373
907.253000,0.14569945633411407,1.1978789567947388,-0.24777564406394958,-1.1838189363479614,0.03638352081179619,2.4039254188537598,2.3615925312042236
907.272000,0.1501830816268921,1.1978249549865723,-0.24614036083221436,-1.1836072206497192,0.037935394793748856,2.404294967651367,2.3595387935638428
907.293000,0.15494942665100098,1.1977914571762085,-0.2447507083415985,-1.1833994388580322,0.039702385663986206,2.4046669006347656,2.357670545578003
907.310000,0.15994492173194885,1.197763204574585,-0.24350830912590027,-1.1831811666488647,0.041655488312244415,2.4050381183624268,2.3559587001800537
907.330000,0.16513805091381073,1.197731375694275,-0.24235597252845764,-1.1829500198364258,0.04376282915472984,2.4054057598114014,2.354379653930664
907.351000,0.17048391699790955,1.1976977586746216,-0.24124987423419952,-1.182701826095581,0.04597274586558342,2.4057679176330566,2.3529140949249268
907.372000,0.1759614646434784,1.1976615190505981,-0.24017424881458282,-1.182441234588623,0.04825451970100403,2.406123161315918,2.3515465259552
907.392000,0.18155646324157715,1.1976217031478882,-0.23912081122398376,-1.1821712255477905,0.050583306699991226,2.4064648151397705,2.350264310836792
907.408000,0.18723593652248383,1.1975810527801514,-0.238076314330101,-1.1818926334381104,0.052920833230018616,2.4067935943603516,2.349057197570801
907.429000,0.192986860871315,1.1975398063659668,-0.23704318702220917,-1.1816105842590332,0.0552508682012558,2.4071097373962402,2.347917079925537
907.449000,0.19878073036670685,1.1975001096725464,-0.23601609468460083,-1.1813251972198486,0.057546697556972504,2.4074137210845947,2.346836566925049
907.470000,0.20460808277130127,1.1974600553512573,-0.23500120639801025,-1.1810448169708252,0.059801165014505386,2.4077060222625732,2.3458104133605957
907.490000,0.21046294271945953,1.1974204778671265,-0.2340022176504135,-1.1807714700698853,0.06201089918613434,2.407987117767334,2.344834089279175
907.506000,0.21613582968711853,1.1973820924758911,-0.23251309990882874,-1.180469274520874,0.0628245547413826,2.408267021179199,2.345182180404663
907.527000,0.22195468842983246,1.1973826885223389,-0.23143543303012848,-1.1801953315734863,0.06407614052295685,2.4085357189178467,2.345273494720459
907.548000,0.22753220796585083,1.1973822116851807,-0.22991015017032623,-1.179896593093872,0.06396017223596573,2.408803701400757,2.346661329269409
907.569000,0.2332300841808319,1.1974170207977295,-0.2289000153541565,-1.17963445186615,0.06453041732311249,2.409060478210449,2.347548246383667
907.589000,0.2388565093278885,1.1974365711212158,-0.2280411571264267,-1.1793935298919678,0.06543464213609695,2.4093074798583984,2.3480498790740967
907.605000,0.24420760571956635,1.1974445581436157,-0.2265520691871643,-1.1791170835494995,0.06463658064603806,2.4095559120178223,2.3501975536346436
907.625000,0.2497277557849884,1.1974949836730957,-0.2256767749786377,-1.1788794994354248,0.06476054340600967,2.4097931385040283,2.3516616821289062
907.647000,0.25494346022605896,1.1975300312042236,-0.2241871953010559,-1.1786086559295654,0.06317831575870514,2.4100265502929688,2.3547863960266113
907.667000,0.260317862033844,1.1976038217544556,-0.22340498864650726,-1.178381085395813,0.06276413053274155,2.410240888595581,2.356978416442871
907.687000,0.2653525173664093,1.197655200958252,-0.22195720672607422,-1.1781201362609863,0.06058024242520332,2.410451889038086,2.3608829975128174
907.704000,0.27034813165664673,1.1977529525756836,-0.22038285434246063,-1.1778488159179688,0.0571911558508873,2.4106576442718506,2.3663439750671387
907.724000,0.2754947245121002,1.1978864669799805,-0.21976853907108307,-1.1776372194290161,0.05558798089623451,2.4108452796936035,2.370265245437622
907.745000,0.2804231345653534,1.1979674100875854,-0.2193661332130432,-1.1774526834487915,0.05495474115014076,2.4110193252563477,2.3729705810546875
907.766000,0.28518426418304443,1.198000192642212,-0.2190169245004654,-1.177283763885498,0.055025022476911545,2.411186933517456,2.3747193813323975
907.786000,0.2898388206958771,1.1979976892471313,-0.21866285800933838,-1.1771224737167358,0.055617354810237885,2.411348342895508,2.3757174015045166
907.802000,0.2944313883781433,1.1979708671569824,-0.21828021109104156,-1.1769659519195557,0.05659336969256401,2.411503553390503,2.376129150390625
907.824000,0.29898393154144287,1.19792902469635,-0.217860147356987,-1.1768118143081665,0.05783965066075325,2.4116528034210205,2.3760855197906494
907.843000,0.30350932478904724,1.1978785991668701,-0.2174036055803299,-1.1766599416732788,0.05927107855677605,2.4117960929870605,2.3756906986236572
907.866000,0.3080122768878937,1.1978243589401245,-0.2169150859117508,-1.1765100955963135,0.06082233786582947,2.4119338989257812,2.3750274181365967
907.884000,0.3123292922973633,1.1977825164794922,-0.21517150104045868,-1.1762919425964355,0.058764949440956116,2.4120829105377197,2.3781633377075195
907.901000,0.31706172227859497,1.197845458984375,-0.21454423666000366,-1.1761189699172974,0.05829544737935066,2.4122161865234375,2.380208969116211
907.921000,0.321488618850708,1.197900414466858,-0.2132590115070343,-1.1759212017059326,0.05576465651392937,2.412348985671997,2.384371519088745
907.941000,0.3259218633174896,1.1980195045471191,-0.21201464533805847,-1.1757248640060425,0.0521148256957531,2.412478446960449,2.39013934135437
907.963000,0.3303346335887909,1.1981927156448364,-0.21118059754371643,-1.1755504608154297,0.0484231561422348,2.4125936031341553,2.396369695663452
907.982000,0.33458706736564636,1.1983757019042969,-0.21072591841220856,-1.1754014492034912,0.04518044739961624,2.4126949310302734,2.4023265838623047
907.998000,0.338611364364624,1.1985293626785278,-0.21085485816001892,-1.175289273262024,0.043649788945913315,2.412792205810547,2.406381368637085
908.018000,0.3422583043575287,1.1986161470413208,-0.21071144938468933,-1.1751775741577148,0.042092207819223404,2.412886142730713,2.4101438522338867
908.039000,0.3457683026790619,1.1986809968948364,-0.21052326261997223,-1.1750682592391968,0.04069395735859871,2.4129769802093506,2.413654088973999
908.061000,0.34918317198753357,1.198728084564209,-0.2103910595178604,-1.174960970878601,0.03974715620279312,2.413064956665039,2.4165704250335693
908.080000,0.35247570276260376,1.1987409591674805,-0.2102709859609604,-1.174855351448059,0.039319541305303574,2.4131505489349365,2.4186906814575195
908.097000,0.3556504249572754,1.1987190246582031,-0.21006757020950317,-1.1747452020645142,0.03920547291636467,2.413233518600464,2.4201815128326416
908.117000,0.35873931646347046,1.1986664533615112,-0.20981614291667938,-1.1746318340301514,0.03946498781442642,2.413313865661621,2.42096209526062
908.137000,0.3617534935474396,1.1985878944396973,-0.20947284996509552,-1.1745128631591797,0.0399431549012661,2.413391590118408,2.421189069747925
908.158000,0.3647029399871826,1.198486089706421,-0.20908223092556,-1.1743956804275513,0.04069942235946655,2.413466691970825,2.420785903930664
908.178000,0.36758679151535034,1.1983693838119507,-0.20861242711544037,-1.1742773056030273,0.041598428040742874,2.413539171218872,2.4198992252349854
908.195000,0.37040218710899353,1.1982403993606567,-0.208101287484169,-1.1741609573364258,0.042672522366046906,2.4136087894439697,2.418490171432495
908.215000,0.37312427163124084,1.1980996131896973,-0.2075524777173996,-1.1740537881851196,0.04389314353466034,2.413675546646118,2.416560649871826
908.236000,0.37575578689575195,1.1979528665542603,-0.20695602893829346,-1.1739559173583984,0.04516076296567917,2.4137394428253174,2.41424298286438
908.257000,0.3782936930656433,1.1978020668029785,-0.2063417285680771,-1.1738749742507935,0.04648447036743164,2.4138007164001465,2.4115450382232666
908.277000,0.3807392120361328,1.1976513862609863,-0.20570416748523712,-1.17380952835083,0.04779823124408722,2.4138591289520264,2.4085724353790283
908.294000,0.383091539144516,1.1975010633468628,-0.20506514608860016,-1.1737662553787231,0.04910027235746384,2.413914918899536,2.4053542613983154
908.314000,0.38535457849502563,1.1973546743392944,-0.20442746579647064,-1.173742651939392,0.05035308003425598,2.413968086242676,2.4019689559936523
908.334000,0.3875294327735901,1.1972112655639648,-0.20380665361881256,-1.1737446784973145,0.0515572689473629,2.4140188694000244,2.3984463214874268
908.355000,0.3896159827709198,1.1970752477645874,-0.20320959389209747,-1.1737743616104126,0.05269933119416237,2.414067506790161,2.394831895828247
908.374000,0.39173799753189087,1.1969664096832275,-0.20268124341964722,-1.1738380193710327,0.05365172401070595,2.4141147136688232,2.3915610313415527
908.391000,0.39390623569488525,1.1968920230865479,-0.2022968977689743,-1.1739318370819092,0.054569847881793976,2.4141602516174316,2.388578414916992
908.412000,0.39607125520706177,1.196840763092041,-0.20203174650669098,-1.174052357673645,0.05548333004117012,2.4142043590545654,2.3858389854431152
908.433000,0.39809465408325195,1.1967943906784058,-0.2018023431301117,-1.1741890907287598,0.056443698704242706,2.4142463207244873,2.3830318450927734
908.454000,0.39995676279067993,1.1967462301254272,-0.20153990387916565,-1.1743371486663818,0.05733481049537659,2.4142861366271973,2.3801918029785156
908.473000,0.40170466899871826,1.1967014074325562,-0.20124149322509766,-1.1744941473007202,0.05807602033019066,2.4143245220184326,2.3774404525756836
908.487000,0.40339040756225586,1.1966662406921387,-0.20092947781085968,-1.1746582984924316,0.05863095074892044,2.4143617153167725,2.374889373779297
908.508000,0.4050356447696686,1.196640133857727,-0.2006397843360901,-1.1748294830322266,0.05905779451131821,2.4143974781036377,2.3725106716156006
908.528000,0.40668588876724243,1.1966372728347778,-0.2004522681236267,-1.175001621246338,0.05944463238120079,2.4144327640533447,2.370349884033203
908.549000,0.4083057641983032,1.1966533660888672,-0.20037201046943665,-1.1751742362976074,0.059833694249391556,2.4144673347473145,2.3683722019195557
908.569000,0.4098639190196991,1.1966817378997803,-0.20038136839866638,-1.1753474473953247,0.060236405581235886,2.414501190185547,2.3665499687194824
908.586000,0.4113437235355377,1.196717381477356,-0.2004617601633072,-1.175520658493042,0.06065665930509567,2.414534091949463,2.3648602962493896
908.607000,0.4127269387245178,1.1967570781707764,-0.2005956918001175,-1.1756937503814697,0.061082836240530014,2.4145660400390625,2.3632848262786865
908.628000,0.4140111804008484,1.1967990398406982,-0.20077429711818695,-1.1758666038513184,0.06151252239942551,2.4145970344543457,2.3618085384368896
908.648000,0.4151870608329773,1.196841835975647,-0.20098797976970673,-1.1760401725769043,0.061931729316711426,2.4146273136138916,2.3604190349578857
908.670000,0.4162440896034241,1.1968847513198853,-0.20123296976089478,-1.1762171983718872,0.06232510134577751,2.414656639099121,2.3591065406799316
908.686000,0.41718676686286926,1.1969280242919922,-0.20151099562644958,-1.1763978004455566,0.0626935362815857,2.4146852493286133,2.3578624725341797
908.707000,0.4180576205253601,1.196953535079956,-0.20151758193969727,-1.176572322845459,0.062278617173433304,2.4147133827209473,2.3574953079223633
908.727000,0.4189351499080658,1.1970020532608032,-0.2017524689435959,-1.1767518520355225,0.06211839243769646,2.4147403240203857,2.356992244720459
908.748000,0.4197508692741394,1.1970329284667969,-0.20171011984348297,-1.1769237518310547,0.06114460900425911,2.414767265319824,2.3573875427246094
908.769000,0.42056941986083984,1.1970911026000977,-0.20195643603801727,-1.1770987510681152,0.06057264283299446,2.414792776107788,2.357473611831665
908.786000,0.421190470457077,1.197155475616455,-0.2022843062877655,-1.1772726774215698,0.06013874709606171,2.4148175716400146,2.3573193550109863
908.806000,0.4216068685054779,1.1972235441207886,-0.20267628133296967,-1.1774495840072632,0.059797175228595734,2.414841890335083,2.356980323791504
908.826000,0.4218108654022217,1.1972986459732056,-0.20312054455280304,-1.1776257753372192,0.059510547667741776,2.414865732192993,2.356499671936035
908.845000,0.421820729970932,1.1973788738250732,-0.2036169320344925,-1.1778035163879395,0.05926923453807831,2.414888858795166,2.355912923812866
908.864000,0.4216324985027313,1.1974667310714722,-0.20415239036083221,-1.1779781579971313,0.059046559035778046,2.4149115085601807,2.355247735977173
908.874000,0.4212356209754944,1.1975644826889038,-0.20471695065498352,-1.1781467199325562,0.058815568685531616,2.414933681488037,2.3545260429382324
908.897000,0.4206494092941284,1.197670817375183,-0.20531567931175232,-1.1783090829849243,0.05858076736330986,2.4149551391601562,2.3537659645080566
908.911000,0.4198998510837555,1.1977821588516235,-0.20594832301139832,-1.1784671545028687,0.05835089832544327,2.414976119995117,2.3529813289642334
908.931000,0.4189812242984772,1.1979005336761475,-0.20659814774990082,-1.1786160469055176,0.05810652673244476,2.414996385574341,2.3521833419799805
908.955000,0.41788092255592346,1.1980262994766235,-0.20725461840629578,-1.1787583827972412,0.057826928794384,2.4150161743164062,2.3513803482055664
908.971000,0.4169740080833435,1.1981068849563599,-0.20721633732318878,-1.178907036781311,0.055441033095121384,2.4150376319885254,2.35323429107666
908.991000,0.4162890911102295,1.1982674598693848,-0.20779040455818176,-1.1790385246276855,0.054021477699279785,2.415055990219116,2.354471445083618
909.011000,0.41535159945487976,1.1984277963638306,-0.20842742919921875,-1.1791597604751587,0.052908796817064285,2.4150733947753906,2.3552236557006836
909.033000,0.4141218364238739,1.1985881328582764,-0.20907069742679596,-1.1792736053466797,0.05196620523929596,2.4150900840759277,2.3555960655212402
909.054000,0.41309037804603577,1.198691487312317,-0.2089139223098755,-1.1794027090072632,0.04869813472032547,2.415107488632202,2.3588616847991943
909.076000,0.412781685590744,1.1988250017166138,-0.20862069725990295,-1.1795324087142944,0.04406771808862686,2.4151229858398438,2.364614486694336
909.093000,0.4131384789943695,1.1989879608154297,-0.2083144336938858,-1.1796543598175049,0.038558512926101685,2.415135383605957,2.3722474575042725
909.115000,0.4140361547470093,1.199169397354126,-0.2079298496246338,-1.1797633171081543,0.03221231326460838,2.415144205093384,2.381558418273926
909.136000,0.4147948920726776,1.1994304656982422,-0.2084522545337677,-1.1798264980316162,0.02815808169543743,2.415158748626709,2.3883509635925293
909.158000,0.41475602984428406,1.1996594667434692,-0.20905190706253052,-1.179863452911377,0.025171274319291115,2.4151716232299805,2.3931517601013184
909.174000,0.41395291686058044,1.1998648643493652,-0.20967109501361847,-1.179888129234314,0.02292024716734886,2.415182590484619,2.3963801860809326
909.195000,0.4124733507633209,1.2000592947006226,-0.21031981706619263,-1.1799101829528809,0.021216973662376404,2.41519832611084,2.3983707427978516
909.216000,0.41039714217185974,1.2002488374710083,-0.2110075205564499,-1.1799334287643433,0.01992582529783249,2.4152190685272217,2.3993890285491943
909.237000,0.40782430768013,1.2004320621490479,-0.21174807846546173,-1.1799627542495728,0.018968623131513596,2.415238380432129,2.3996496200561523
909.257000,0.40481752157211304,1.2006150484085083,-0.21253426373004913,-1.17999267578125,0.018264563754200935,2.4152634143829346,2.3993210792541504
909.273000,0.40145647525787354,1.2007930278778076,-0.21336805820465088,-1.1800249814987183,0.01776978000998497,2.4152870178222656,2.3985397815704346
909.294000,0.39778828620910645,1.2009652853012085,-0.21423940360546112,-1.1800599098205566,0.017428262159228325,2.415316343307495,2.397414207458496
909.315000,0.3940989673137665,1.2011076211929321,-0.21488578617572784,-1.180114984512329,0.016517892479896545,2.415354013442993,2.397020101547241
909.336000,0.3903672397136688,1.2012741565704346,-0.2157546728849411,-1.1801482439041138,0.016068149358034134,2.415391445159912,2.3962039947509766
909.357000,0.38643738627433777,1.201431393623352,-0.21665877103805542,-1.1801718473434448,0.015799174085259438,2.4154272079467773,2.3950676918029785
909.374000,0.3823137879371643,1.2015833854675293,-0.2175939381122589,-1.1801893711090088,0.015636978670954704,2.415468692779541,2.3936922550201416
909.395000,0.37808650732040405,1.2017110586166382,-0.21843688189983368,-1.1802171468734741,0.015255057252943516,2.415508508682251,2.3924806118011475
909.415000,0.3737938404083252,1.2018290758132935,-0.21930012106895447,-1.1802496910095215,0.01486949436366558,2.4155478477478027,2.3911941051483154
909.435000,0.36942216753959656,1.201965570449829,-0.22026771306991577,-1.1802690029144287,0.014597197063267231,2.415609359741211,2.3897297382354736
909.458000,0.364956796169281,1.2021087408065796,-0.2213257998228073,-1.180280089378357,0.014403090812265873,2.4156875610351562,2.3881382942199707
909.473000,0.3603972792625427,1.202261209487915,-0.2224760800600052,-1.1802842617034912,0.014265649951994419,2.415797710418701,2.3864595890045166
909.494000,0.3557060658931732,1.202388882637024,-0.22362759709358215,-1.1802936792373657,0.014096873812377453,2.415898084640503,2.384674310684204
909.516000,0.3509094715118408,1.2025043964385986,-0.22477048635482788,-1.1803067922592163,0.013865086250007153,2.4159953594207764,2.382805585861206
909.535000,0.3460531532764435,1.2026124000549316,-0.2259143739938736,-1.1803258657455444,0.0135722104460001,2.4160895347595215,2.3808858394622803
909.556000,0.3411704897880554,1.2027262449264526,-0.22707052528858185,-1.1803499460220337,0.013214239850640297,2.416205883026123,2.3789560794830322
909.572000,0.33633509278297424,1.2028883695602417,-0.22836512327194214,-1.1803791522979736,0.01287851296365261,2.4164326190948486,2.3770804405212402
909.594000,0.3315426707267761,1.2030781507492065,-0.22981786727905273,-1.1804066896438599,0.012600848451256752,2.416743516921997,2.3752598762512207
909.614000,0.32677242159843445,1.2032890319824219,-0.23142185807228088,-1.180432915687561,0.012378629297018051,2.4171464443206787,2.3734943866729736
909.634000,0.32200923562049866,1.2035173177719116,-0.23317357897758484,-1.180458664894104,0.01220150850713253,2.4176487922668457,2.37178373336792
909.656000,0.3172452449798584,1.2037153244018555,-0.23490183055400848,-1.180477499961853,0.011810896918177605,2.4181458950042725,2.3703696727752686
909.672000,0.3125363886356354,1.203942894935608,-0.2368013858795166,-1.1805033683776855,0.011553061194717884,2.418754816055298,2.3689522743225098
909.691000,0.30785253643989563,1.204143762588501,-0.23865346610546112,-1.1805225610733032,0.011055288836359978,2.4193568229675293,2.367877721786499
909.715000,0.30325788259506226,1.2043439149856567,-0.24050955474376678,-1.1805438995361328,0.010392160154879093,2.4199841022491455,2.3671393394470215
909.736000,0.29876333475112915,1.204543113708496,-0.24238447844982147,-1.1805663108825684,0.00963373389095068,2.4206268787384033,2.366665840148926
909.754000,0.29436686635017395,1.204751968383789,-0.2442762553691864,-1.180593490600586,0.008765602484345436,2.4213144779205322,2.366467237472534
909.774000,0.29003939032554626,1.2050105333328247,-0.2464044988155365,-1.1806427240371704,0.008234306238591671,2.422179937362671,2.3660154342651367
909.786000,0.28572940826416016,1.2052501440048218,-0.24847853183746338,-1.1806845664978027,0.007438239175826311,2.423069953918457,2.3658969402313232
909.815000,0.2815133333206177,1.205485224723816,-0.25058677792549133,-1.180723786354065,0.006542188581079245,2.423973560333252,2.3660364151000977
909.836000,0.2773873209953308,1.2057286500930786,-0.25273051857948303,-1.1807657480239868,0.005556323099881411,2.424922227859497,2.3664238452911377
909.857000,0.273345023393631,1.2059882879257202,-0.2549225986003876,-1.1808127164840698,0.004479295574128628,2.42594051361084,2.3670568466186523
909.873000,0.26937922835350037,1.2062546014785767,-0.2571749687194824,-1.1808608770370483,0.003358767367899418,2.4270057678222656,2.36787486076355
909.894000,0.2654772102832794,1.206533670425415,-0.2594870328903198,-1.1809141635894775,0.002192396903410554,2.4281442165374756,2.3688669204711914
909.914000,0.26163285970687866,1.2068159580230713,-0.26186034083366394,-1.180968165397644,0.0010140500962734222,2.4293313026428223,2.3699862957000732
909.935000,0.2578373849391937,1.2071083784103394,-0.2642909586429596,-1.1810276508331299,-0.00018149928655475378,2.4305949211120605,2.371227741241455
909.956000,0.2540859878063202,1.2074156999588013,-0.2667875587940216,-1.1810948848724365,-0.0013912905706092715,2.431957721710205,2.3725812435150146
909.970000,0.2503279745578766,1.2077611684799194,-0.26957112550735474,-1.1811912059783936,-0.0020023533143103123,2.4335508346557617,2.3732850551605225
909.992000,0.24651938676834106,1.2080755233764648,-0.2722540497779846,-1.1812753677368164,-0.0028954960871487856,2.435192823410034,2.374232053756714
910.011000,0.24277625977993011,1.2083832025527954,-0.2749735414981842,-1.181352972984314,-0.0038651814684271812,2.4368624687194824,2.3753602504730225
910.032000,0.23909012973308563,1.208688497543335,-0.27771562337875366,-1.1814262866973877,-0.004910135641694069,2.43856143951416,2.3766632080078125
910.053000,0.23545899987220764,1.2089875936508179,-0.28047889471054077,-1.181494951248169,-0.0059884581714868546,2.4402711391448975,2.378091812133789
910.071000,0.2318694293498993,1.209269642829895,-0.2832067906856537,-1.181559443473816,-0.007203259505331516,2.4419727325439453,2.3797314167022705
910.092000,0.22833560407161713,1.209547519683838,-0.2859427332878113,-1.1816223859786987,-0.00844452902674675,2.4436826705932617,2.381469249725342
910.111000,0.22482994198799133,1.2098450660705566,-0.2889646589756012,-1.181702971458435,-0.008955569937825203,2.4455087184906006,2.3824076652526855
910.134000,0.22126449644565582,1.2100942134857178,-0.29177796840667725,-1.181768774986267,-0.009814044460654259,2.4473073482513428,2.383579730987549
910.153000,0.21776390075683594,1.2103583812713623,-0.29484596848487854,-1.1818441152572632,-0.010043110698461533,2.449176549911499,2.384066581726074
910.169000,0.2142292857170105,1.2106014490127563,-0.29798564314842224,-1.1819192171096802,-0.009923567995429039,2.4510858058929443,2.384021043777466
910.193000,0.21068128943443298,1.2108221054077148,-0.30115994811058044,-1.1819913387298584,-0.00955409649759531,2.453012466430664,2.3835647106170654
910.210000,0.20716851949691772,1.2109942436218262,-0.3039466440677643,-1.1820416450500488,-0.010100254788994789,2.4548301696777344,2.384052276611328
910.232000,0.20386828482151031,1.2111759185791016,-0.30656877160072327,-1.1820820569992065,-0.011304023675620556,2.456554412841797,2.385488271713257
910.251000,0.20077630877494812,1.2113769054412842,-0.3091118633747101,-1.1821149587631226,-0.012923076748847961,2.4581949710845947,2.3876466751098633
910.267000,0.19786018133163452,1.2115929126739502,-0.3115343153476715,-1.1821426153182983,-0.015014838427305222,2.4597580432891846,2.390575408935547
910.290000,0.19507507979869843,1.2118479013442993,-0.31444209814071655,-1.1821837425231934,-0.015914956107735634,2.461357593536377,2.392369508743286
910.309000,0.1921909898519516,1.2120635509490967,-0.3174663484096527,-1.182228446006775,-0.01618998870253563,2.4629647731781006,2.393275260925293
910.330000,0.18923404812812805,1.2122445106506348,-0.32055121660232544,-1.1822705268859863,-0.016025835648179054,2.4645659923553467,2.393488645553589
910.350000,0.186305433511734,1.2123775482177734,-0.32300758361816406,-1.182295560836792,-0.017437011003494263,2.4660451412200928,2.3953797817230225
910.367000,0.18369652330875397,1.212560772895813,-0.32525768876075745,-1.1823139190673828,-0.019855309277772903,2.4674227237701416,2.398810863494873
910.387000,0.18129493296146393,1.2128031253814697,-0.32814261317253113,-1.182339072227478,-0.02080208621919155,2.468801498413086,2.4009344577789307
910.401000,0.17884698510169983,1.2129886150360107,-0.3303421139717102,-1.1823511123657227,-0.023359593003988266,2.470074415206909,2.4047744274139404
910.422000,0.1765798181295395,1.2132246494293213,-0.33317795395851135,-1.1823662519454956,-0.024358080700039864,2.4713351726531982,2.4071695804595947
910.442000,0.1741410791873932,1.2133947610855103,-0.3360985517501831,-1.1823697090148926,-0.02458423189818859,2.4725406169891357,2.4084322452545166
910.458000,0.1715666949748993,1.2135103940963745,-0.33903151750564575,-1.1823663711547852,-0.024273084476590157,2.473694324493408,2.408811569213867
910.480000,0.1689138114452362,1.2135823965072632,-0.3419566750526428,-1.1823482513427734,-0.023566050454974174,2.47475266456604,2.408505439758301
910.499000,0.16622376441955566,1.213625431060791,-0.34486088156700134,-1.1823253631591797,-0.022566720843315125,2.4757299423217773,2.40767240524292
910.520000,0.16353145241737366,1.2136363983154297,-0.34773409366607666,-1.1822882890701294,-0.021353909745812416,2.476569890975952,2.406437873840332
910.541000,0.16086378693580627,1.2136141061782837,-0.35056671500205994,-1.1822326183319092,-0.01998601295053959,2.4772233963012695,2.404902219772339
910.558000,0.15839804708957672,1.2136367559432983,-0.3523443341255188,-1.1822099685668945,-0.021763788536190987,2.4778733253479004,2.4070262908935547
910.578000,0.1563882976770401,1.2137542963027954,-0.354926198720932,-1.1821539402008057,-0.021978989243507385,2.4783012866973877,2.4080793857574463
910.599000,0.15428493916988373,1.2138043642044067,-0.35755041241645813,-1.1820809841156006,-0.02156941033899784,2.478546142578125,2.4082982540130615
910.619000,0.15209870040416718,1.2137815952301025,-0.36012011766433716,-1.1819857358932495,-0.020751874893903732,2.478557586669922,2.4078714847564697
910.639000,0.14987890422344208,1.2136954069137573,-0.36260947585105896,-1.1818666458129883,-0.019638199359178543,2.4782936573028564,2.406949520111084
910.656000,0.14765790104866028,1.213577389717102,-0.3650103509426117,-1.1817411184310913,-0.018307045102119446,2.4778189659118652,2.405651569366455
910.676000,0.14545901119709015,1.2134239673614502,-0.3673076331615448,-1.1815987825393677,-0.016825271770358086,2.4770846366882324,2.4040722846984863
910.697000,0.14329613745212555,1.2132576704025269,-0.36949992179870605,-1.1814546585083008,-0.015236672945320606,2.4761550426483154,2.402287006378174
910.718000,0.14118245244026184,1.2130664587020874,-0.371573805809021,-1.181296706199646,-0.013579011894762516,2.474973678588867,2.400355339050293
910.737000,0.1391238123178482,1.2128700017929077,-0.3735291659832001,-1.181139349937439,-0.011874795891344547,2.4736063480377197,2.3983240127563477
910.754000,0.1370740383863449,1.2127069234848022,-0.3752295970916748,-1.18101966381073,-0.01058576162904501,2.4722867012023926,2.3966259956359863
910.773000,0.13506515324115753,1.2125496864318848,-0.3768211305141449,-1.1809028387069702,-0.009443880058825016,2.4709105491638184,2.3949811458587646
910.794000,0.13308073580265045,1.2123932838439941,-0.3782977759838104,-1.1807928085327148,-0.008473447524011135,2.469499349594116,2.3933937549591064
910.814000,0.13119317591190338,1.2121763229370117,-0.37972548604011536,-1.180625081062317,-0.007371129933744669,2.4676990509033203,2.391677141189575
910.834000,0.12936657667160034,1.2119120359420776,-0.38099774718284607,-1.1804262399673462,-0.006157170981168747,2.4655375480651855,2.3898725509643555
910.844000,0.12759584188461304,1.2116338014602661,-0.38208359479904175,-1.180221438407898,-0.0048397863283753395,2.4631125926971436,2.388012647628784
910.865000,0.1258728802204132,1.211341381072998,-0.38294821977615356,-1.1800146102905273,-0.0034436406567692757,2.4604454040527344,2.3861231803894043
910.886000,0.12411408126354218,1.2110774517059326,-0.383601576089859,-1.1798509359359741,-0.0020248503424227238,2.4578237533569336,2.38407039642334
910.908000,0.12240802496671677,1.2107938528060913,-0.384040504693985,-1.179671287536621,-0.0006512589752674103,2.455000162124634,2.3820595741271973
910.929000,0.12069954723119736,1.2105371952056885,-0.38431185483932495,-1.1795226335525513,0.0007308016065508127,2.452218532562256,2.379911422729492
910.944000,0.11905982345342636,1.2102646827697754,-0.3843836486339569,-1.17936372756958,0.0020405491814017296,2.4492805004119873,2.3778560161590576
910.963000,0.11743675172328949,1.2100160121917725,-0.38430336117744446,-1.1792306900024414,0.003350044135004282,2.4463863372802734,2.3757073879241943
910.985000,0.1158229261636734,1.2097681760787964,-0.38404855132102966,-1.1791070699691772,0.00454928632825613,2.443493366241455,2.373538017272949
911.004000,0.11424221098423004,1.2095305919647217,-0.3836592137813568,-1.178995132446289,0.005644291639328003,2.4406211376190186,2.3713676929473877
911.027000,0.11271195113658905,1.2093009948730469,-0.38312891125679016,-1.1788873672485352,0.006606810260564089,2.437743663787842,2.3692731857299805
911.045000,0.11124531179666519,1.2090858221054077,-0.3824846148490906,-1.1787898540496826,0.007475343532860279,2.4348819255828857,2.3672518730163574
911.065000,0.10984938591718674,1.2088825702667236,-0.3816976547241211,-1.1786956787109375,0.00820105616003275,2.4320149421691895,2.365403413772583
911.086000,0.10854216665029526,1.2086901664733887,-0.3807505667209625,-1.1786068677902222,0.008768747560679913,2.429133653640747,2.3638153076171875
911.109000,0.10732899606227875,1.208517074584961,-0.37967410683631897,-1.1785268783569336,0.009254098869860172,2.4262616634368896,2.3624393939971924
911.129000,0.10620530694723129,1.2083580493927002,-0.3784382939338684,-1.1784473657608032,0.009621769189834595,2.4233860969543457,2.3613388538360596
911.146000,0.1051735058426857,1.2082164287567139,-0.37707358598709106,-1.1783757209777832,0.009935025125741959,2.4205281734466553,2.3604586124420166
911.168000,0.10422690212726593,1.2080848217010498,-0.37555426359176636,-1.1783028841018677,0.010163433849811554,2.4176676273345947,2.3598406314849854
911.188000,0.10336610674858093,1.207966685295105,-0.37390872836112976,-1.178236722946167,0.01035990845412016,2.414825439453125,2.359429359436035
911.206000,0.10258481651544571,1.207781195640564,-0.3721459209918976,-1.1781346797943115,0.01088158693164587,2.411755323410034,2.3588645458221436
911.227000,0.10184337943792343,1.2075927257537842,-0.370073139667511,-1.1780451536178589,0.011232814751565456,2.4086897373199463,2.3586361408233643
911.242000,0.10119780153036118,1.2073464393615723,-0.3678731620311737,-1.1779178380966187,0.01194688118994236,2.405385732650757,2.3582189083099365
911.263000,0.1005902886390686,1.2070486545562744,-0.36543598771095276,-1.1777735948562622,0.012903617694973946,2.4019203186035156,2.357658863067627
911.282000,0.10003077983856201,1.2066925764083862,-0.3627380132675171,-1.1775968074798584,0.014051917940378189,2.398244619369507,2.3569934368133545
911.299000,0.0995497852563858,1.2063937187194824,-0.3597080111503601,-1.177457332611084,0.014812146313488483,2.394718885421753,2.356865406036377
911.313000,0.09921929985284805,1.2061392068862915,-0.3565561771392822,-1.17731511592865,0.015363375656306744,2.3912196159362793,2.357142448425293
911.331000,0.09901218861341476,1.205920696258545,-0.35334497690200806,-1.1771801710128784,0.015759307891130447,2.3877651691436768,2.3577301502227783
911.348000,0.0988982766866684,1.2057318687438965,-0.3501113951206207,-1.1770542860031128,0.01603539101779461,2.384369373321533,2.358553647994995
911.367000,0.09884462505578995,1.2054495811462402,-0.3469228148460388,-1.1768057346343994,0.016765160486102104,2.380594253540039,2.3589508533477783
911.389000,0.0987732857465744,1.2050776481628418,-0.3435707688331604,-1.1764763593673706,0.017780108377337456,2.376551866531372,2.359016180038452
911.402000,0.09870428591966629,1.204640507698059,-0.3400004804134369,-1.1760567426681519,0.01902294158935547,2.3722782135009766,2.3588249683380127
911.423000,0.09866457432508469,1.204162359237671,-0.33618947863578796,-1.175539493560791,0.02045362815260887,2.367827892303467,2.3584375381469727
911.446000,0.09867983311414719,1.2036595344543457,-0.3321553170681,-1.1749475002288818,0.022029122337698936,2.363272190093994,2.357901096343994
911.468000,0.09876428544521332,1.2031487226486206,-0.32790905237197876,-1.1742748022079468,0.023715008050203323,2.3586618900299072,2.3572542667388916
911.491000,0.09893114119768143,1.2026352882385254,-0.3234827220439911,-1.1735389232635498,0.025477273389697075,2.354041576385498,2.3565266132354736
911.511000,0.09921962022781372,1.202193260192871,-0.31872808933258057,-1.1729410886764526,0.02634362503886223,2.3498191833496094,2.3567850589752197
911.529000,0.09971605986356735,1.2017991542816162,-0.3141952455043793,-1.1722310781478882,0.027609746903181076,2.345560312271118,2.356762409210205
911.550000,0.10028241574764252,1.2014470100402832,-0.30940181016921997,-1.171654462814331,0.0279522817581892,2.3416764736175537,2.357707977294922
911.569000,0.10104609280824661,1.2011849880218506,-0.3046812415122986,-1.171190619468689,0.02759040892124176,2.3381099700927734,2.359550952911377
911.589000,0.10197292268276215,1.2010042667388916,-0.3001718819141388,-1.1708232164382935,0.02671732008457184,2.334813356399536,2.3620736598968506
911.610000,0.10298550873994827,1.200836420059204,-0.29614806175231934,-1.1702766418457031,0.026714125648140907,2.331373453140259,2.363771677017212
911.627000,0.10389593243598938,1.20060133934021,-0.2920953631401062,-1.169562816619873,0.02722994238138199,2.3278462886810303,2.3648250102996826
911.648000,0.10475790500640869,1.2003024816513062,-0.2878732681274414,-1.1687004566192627,0.02817084826529026,2.3242759704589844,2.36537504196167
911.667000,0.10562799870967865,1.1999536752700806,-0.2834409773349762,-1.167717695236206,0.029448142275214195,2.320697069168091,2.365532875061035
911.687000,0.10654085129499435,1.1996077299118042,-0.2783834934234619,-1.1669225692749023,0.02921736054122448,2.3175108432769775,2.367259979248047
911.707000,0.10774292796850204,1.1993687152862549,-0.27335113286972046,-1.1663017272949219,0.027896981686353683,2.314647912979126,2.370401382446289
911.724000,0.1092042401432991,1.1992008686065674,-0.26908203959465027,-1.1655488014221191,0.02775677479803562,2.3116772174835205,2.372525215148926
