yuan18844-afk/dissertation/catkin_ws/src/franka_digital_twin/analysis/data/unity_fast1_20250728_070807.csv
time,panda_joint1,panda_joint2,panda_joint3,panda_joint4,panda_joint5,panda_joint6,panda_joint7
28.113000,0.42303740978240967,0.9228947162628174,-0.07214090973138809,-1.4284815788269043,0.04782469943165779,2.5732359886169434,2.38234806060791
28.134000,0.4228280782699585,0.9228846430778503,-0.07193555682897568,-1.42847740650177,0.04808253422379494,2.5732359886169434,2.38141131401062
28.156000,0.42273926734924316,0.9228823184967041,-0.07191124558448792,-1.4284775257110596,0.048615556210279465,2.5732359886169434,2.3802788257598877
28.171000,0.42263227701187134,0.9228803515434265,-0.07190406322479248,-1.428478479385376,0.04926341027021408,2.5732359886169434,2.3790030479431152
28.191000,0.4225047826766968,0.9228779673576355,-0.0718969777226448,-1.4284796714782715,0.04998425394296646,2.5732359886169434,2.3776257038116455
28.213000,0.4223649203777313,0.9228752851486206,-0.07188819348812103,-1.4284809827804565,0.050753381103277206,2.5732359886169434,2.3761794567108154
28.234000,0.42221951484680176,0.9228724241256714,-0.07187772542238235,-1.428482174873352,0.051552243530750275,2.5732359886169434,2.374690294265747
28.254000,0.42207345366477966,0.9228695034980774,-0.07186585664749146,-1.4284833669662476,0.05236648768186569,2.5732357501983643,2.373178243637085
28.271000,0.4219301640987396,0.9228666424751282,-0.07185292989015579,-1.4284844398498535,0.05318498983979225,2.573235511779785,2.37165904045105
28.292000,0.4217919707298279,0.9228639006614685,-0.07183926552534103,-1.42848539352417,0.05399923026561737,2.573235273361206,2.370145082473755
28.312000,0.421660453081131,0.9228613376617432,-0.07182516157627106,-1.4284862279891968,0.05480277165770531,2.573235034942627,2.3686459064483643
28.333000,0.42153653502464294,0.9228590130805969,-0.07181084901094437,-1.428486943244934,0.055590856820344925,2.5732345581054688,2.367168426513672
28.350000,0.4214208126068115,0.9228569269180298,-0.07179652154445648,-1.4284876585006714,0.0563599094748497,2.5732340812683105,2.365717887878418
28.371000,0.4213135242462158,0.9228550791740417,-0.07178233563899994,-1.4284882545471191,0.057107411324977875,2.5732336044311523,2.3642985820770264
28.389000,0.421214759349823,0.9228534698486328,-0.07176841795444489,-1.4284887313842773,0.05783163011074066,2.573233127593994,2.362913131713867
28.408000,0.4211244583129883,0.922852098941803,-0.07175486534833908,-1.428489089012146,0.05853142961859703,2.573232650756836,2.3615634441375732
28.428000,0.42104095220565796,0.9228509068489075,-0.07174015045166016,-1.4284894466400146,0.059203699231147766,2.5732321739196777,2.360250949859619
28.444000,0.4209645092487335,0.9228498935699463,-0.0717247799038887,-1.4284896850585938,0.05984782800078392,2.5732316970825195,2.358976364135742
28.465000,0.42089536786079407,0.9228491187095642,-0.07170930504798889,-1.4284898042678833,0.060464031994342804,2.5732309818267822,2.3577399253845215
28.484000,0.42083439230918884,0.9228485226631165,-0.07169395685195923,-1.4284899234771729,0.06104961037635803,2.573230266571045,2.3565468788146973
28.504000,0.4207817614078522,0.9228481650352478,-0.0716797336935997,-1.4284899234771729,0.06160714477300644,2.5732295513153076,2.3553953170776367
28.523000,0.42073681950569153,0.9228480458259583,-0.07166660577058792,-1.4284899234771729,0.0621381513774395,2.5732288360595703,2.3542840480804443
28.544000,0.42069897055625916,0.9228481650352478,-0.07165448367595673,-1.4284898042678833,0.06264391541481018,2.573228120803833,2.3532116413116455
28.557000,0.420892596244812,0.9228358864784241,-0.07113021612167358,-1.428469181060791,0.060278020799160004,2.5732319355010986,2.355642795562744
28.578000,0.42145293951034546,0.9228527545928955,-0.07124999910593033,-1.4284656047821045,0.05906592309474945,2.573232889175415,2.357290506362915
28.599000,0.4218497574329376,0.9228681325912476,-0.07138361036777496,-1.4284660816192627,0.05835588648915291,2.573233127593994,2.3583219051361084
28.620000,0.4220924973487854,0.9228793382644653,-0.07148267328739166,-1.4284676313400269,0.057984404265880585,2.573233127593994,2.358870267868042
28.640000,0.42222580313682556,0.922886848449707,-0.07155278325080872,-1.4284694194793701,0.05786110833287239,2.573233127593994,2.359041929244995
28.657000,0.42241668701171875,0.9228870868682861,-0.07137563824653625,-1.4284615516662598,0.05657224357128143,2.5732343196868896,2.360607147216797
28.678000,0.42285680770874023,0.922894299030304,-0.07126163691282272,-1.4284521341323853,0.05464119464159012,2.5732357501983643,2.363237142562866
28.698000,0.42343682050704956,0.9229088425636292,-0.07126668095588684,-1.42844557762146,0.05261450633406639,2.5732367038726807,2.366244316101074
28.718000,0.4239535629749298,0.9229287505149841,-0.07147087156772614,-1.4284474849700928,0.05150282755494118,2.5732369422912598,2.368262767791748
28.735000,0.42431288957595825,0.9229400157928467,-0.07149124145507812,-1.42844557762146,0.05014963820576668,2.573237180709839,2.370436191558838
28.756000,0.4246646761894226,0.922950267791748,-0.0714958980679512,-1.4284430742263794,0.04871716722846031,2.573237180709839,2.372714042663574
28.775000,0.42502015829086304,0.9229602813720703,-0.07148828357458115,-1.4284400939941406,0.04717087000608444,2.5732369422912598,2.3751461505889893
28.797000,0.4253860414028168,0.9229710698127747,-0.07149705290794373,-1.4284374713897705,0.04559815302491188,2.5732364654541016,2.37764835357666
28.818000,0.4256822168827057,0.9229841828346252,-0.07165811210870743,-1.4284406900405884,0.0448278933763504,2.5732362270355225,2.379197120666504
28.838000,0.42586588859558105,0.9229902029037476,-0.07166250050067902,-1.4284398555755615,0.04382269084453583,2.5732357501983643,2.380889654159546
28.855000,0.42607223987579346,0.9229962825775146,-0.07166803628206253,-1.428438425064087,0.042748913168907166,2.573235034942627,2.382681131362915
28.875000,0.42630136013031006,0.9230028390884399,-0.07167817652225494,-1.4284367561340332,0.041611555963754654,2.5732340812683105,2.3845784664154053
28.896000,0.4265505373477936,0.9230095744132996,-0.07166985422372818,-1.4284342527389526,0.04031001031398773,2.573232889175415,2.3866987228393555
28.918000,0.4268285036087036,0.9230173230171204,-0.07167147099971771,-1.4284319877624512,0.03891739994287491,2.5732314586639404,2.3889760971069336
28.936000,0.4271322786808014,0.9230255484580994,-0.0716545358300209,-1.4284288883209229,0.03731846436858177,2.5732295513153076,2.3915445804595947
28.953000,0.4274713695049286,0.9230351448059082,-0.07165183871984482,-1.4284261465072632,0.03560444340109825,2.5732274055480957,2.394319772720337
28.974000,0.4278468191623688,0.9230455160140991,-0.07163383811712265,-1.4284228086471558,0.03365287184715271,2.5732245445251465,2.3974504470825195
28.994000,0.4282662272453308,0.9230576753616333,-0.07163559645414352,-1.4284199476242065,0.03157130256295204,2.57322096824646,2.4008333683013916
29.014000,0.4287298619747162,0.9230709671974182,-0.07162365317344666,-1.4284164905548096,0.02922532707452774,2.573216438293457,2.4046318531036377
29.034000,0.42924439907073975,0.9230864644050598,-0.07163642346858978,-1.42841374874115,0.026738613843917847,2.5732109546661377,2.408724308013916
29.052000,0.4298059344291687,0.9231034517288208,-0.07163962721824646,-1.4284106492996216,0.023987654596567154,2.5732040405273438,2.413256883621216
29.072000,0.43044161796569824,0.9231228828430176,-0.07163889706134796,-1.4284071922302246,0.020898524671792984,2.573195219039917,2.4183578491210938
29.094000,0.43114882707595825,0.923145592212677,-0.07167433947324753,-1.4284050464630127,0.017629258334636688,2.5731847286224365,2.4238622188568115
29.114000,0.4319172501564026,0.9231706857681274,-0.0717037096619606,-1.4284029006958008,0.014045442454516888,2.573171854019165,2.4299230575561523
29.132000,0.43274596333503723,0.9231988787651062,-0.07176759093999863,-1.4284021854400635,0.010304208844900131,2.5731568336486816,2.436371088027954
29.152000,0.43355315923690796,0.9232284426689148,-0.07194167375564575,-1.42840576171875,0.006985827349126339,2.5731427669525146,2.4424562454223633
29.172000,0.434207022190094,0.9232537746429443,-0.07216563820838928,-1.4284120798110962,0.004327216185629368,2.5731313228607178,2.447723865509033
29.193000,0.43467432260513306,0.9232719540596008,-0.07234473526477814,-1.428417682647705,0.002110207686200738,2.5731213092803955,2.4523236751556396
29.213000,0.4349609315395355,0.9232833385467529,-0.07252310961484909,-1.4284237623214722,0.0005160403670743108,2.5731146335601807,2.4559974670410156
29.230000,0.43507176637649536,0.9232874512672424,-0.07264620065689087,-1.4284284114837646,-0.0006578920874744654,2.5731098651885986,2.458930730819702
29.250000,0.4349918067455292,0.9232849478721619,-0.07287868857383728,-1.4284363985061646,-0.0006750753382220864,2.5731117725372314,2.4602439403533936
29.271000,0.43465468287467957,0.923272430896759,-0.07304328680038452,-1.4284428358078003,4.175893263891339e-05,2.5731167793273926,2.4602973461151123
29.291000,0.43413853645324707,0.9232529997825623,-0.07314534485340118,-1.4284478425979614,0.0012821131385862827,2.5731234550476074,2.4593777656555176
29.312000,0.4335097670555115,0.9232293963432312,-0.07320160418748856,-1.4284518957138062,0.0028978739865124226,2.5731313228607178,2.4577133655548096
29.333000,0.4328154921531677,0.9232036471366882,-0.07322517037391663,-1.4284553527832031,0.004778075497597456,2.5731394290924072,2.4554855823516846
29.347000,0.4320882558822632,0.9231770634651184,-0.0732254609465599,-1.4284584522247314,0.0068387314677238464,2.573147773742676,2.45283842086792
29.366000,0.43135032057762146,0.9231505393981934,-0.07320915162563324,-1.4284614324569702,0.009016145020723343,2.5731558799743652,2.4498860836029053
29.384000,0.4306167662143707,0.9231246113777161,-0.07318101823329926,-1.4284642934799194,0.01126204151660204,2.5731637477874756,2.446718692779541
29.405000,0.429897665977478,0.9230996370315552,-0.07314445823431015,-1.4284671545028687,0.013539777137339115,2.5731711387634277,2.4434075355529785
29.426000,0.4291996657848358,0.923075795173645,-0.07310193032026291,-1.4284698963165283,0.015821726992726326,2.5731780529022217,2.4400084018707275
29.442000,0.42852693796157837,0.9230532646179199,-0.0730552151799202,-1.428472638130188,0.01808711141347885,2.5731844902038574,2.4365651607513428
29.461000,0.4278714656829834,0.9230290651321411,-0.07281194627285004,-1.428470253944397,0.01953381858766079,2.5731890201568604,2.4339380264282227
29.480000,0.42734184861183167,0.923008382320404,-0.07254637777805328,-1.4284664392471313,0.020416341722011566,2.573193073272705,2.431959629058838
29.502000,0.42693445086479187,0.9229915142059326,-0.07229603826999664,-1.4284621477127075,0.02086574397981167,2.5731961727142334,2.430516004562378
29.519000,0.42662250995635986,0.9229778051376343,-0.0720672607421875,-1.4284578561782837,0.02098630554974079,2.5731987953186035,2.4294955730438232
29.540000,0.4263804256916046,0.9229666590690613,-0.07186782360076904,-1.4284539222717285,0.0208978820592165,2.5732011795043945,2.428762435913086
29.560000,0.42618370056152344,0.9229572415351868,-0.07168576121330261,-1.4284502267837524,0.020645568147301674,2.5732033252716064,2.4282562732696533
29.580000,0.42602431774139404,0.9229491949081421,-0.07151871174573898,-1.428446650505066,0.02026037871837616,2.57320499420166,2.427946090698242
29.600000,0.4258953332901001,0.9229425191879272,-0.07137913256883621,-1.4284436702728271,0.019830208271741867,2.5732064247131348,2.42773699760437
29.621000,0.425773561000824,0.9229385852813721,-0.07141253352165222,-1.4284454584121704,0.020062660798430443,2.573209285736084,2.426842212677002
29.639000,0.4255613386631012,0.9229322671890259,-0.07146066427230835,-1.42844820022583,0.020719630643725395,2.5732126235961914,2.425424575805664
29.660000,0.4252931475639343,0.9229221343994141,-0.07135754078626633,-1.4284470081329346,0.02102712169289589,2.573214530944824,2.424348831176758
29.678000,0.4250681698322296,0.9229152798652649,-0.07139451801776886,-1.4284493923187256,0.021807081997394562,2.5732173919677734,2.422808885574341
29.698000,0.4248117506504059,0.922905445098877,-0.0712873563170433,-1.4284478425979614,0.022173486649990082,2.573218822479248,2.4217023849487305
29.718000,0.4246087968349457,0.9228994846343994,-0.07132870703935623,-1.428450107574463,0.02299702912569046,2.573221445083618,2.4201571941375732
29.734000,0.4243867099285126,0.9228904247283936,-0.07119833678007126,-1.4284476041793823,0.02323932573199272,2.5732221603393555,2.4192464351654053
29.755000,0.42426690459251404,0.9228842854499817,-0.07107069343328476,-1.428444504737854,0.02313941717147827,2.5732221603393555,2.4188318252563477
29.775000,0.42421799898147583,0.922881007194519,-0.07099001109600067,-1.428442358970642,0.022953590378165245,2.5732223987579346,2.4186079502105713
29.796000,0.42417508363723755,0.9228786826133728,-0.07094582915306091,-1.4284415245056152,0.02285490371286869,2.573223114013672,2.4183104038238525
29.809000,0.4241076409816742,0.9228774905204773,-0.07101548463106155,-1.4284440279006958,0.02329494245350361,2.5732250213623047,2.4174132347106934
29.831000,0.42394059896469116,0.9228719472885132,-0.07098238170146942,-1.428444504737854,0.023682091385126114,2.5732269287109375,2.416463851928711
29.850000,0.42376604676246643,0.9228673577308655,-0.07102756947278976,-1.4284470081329346,0.02445007860660553,2.5732293128967285,2.415076732635498
29.870000,0.42352184653282166,0.9228594899177551,-0.07098574191331863,-1.4284477233886719,0.025146551430225372,2.5732316970825195,2.4136645793914795
29.889000,0.42329055070877075,0.9228529930114746,-0.07101011276245117,-1.4284499883651733,0.026117367669939995,2.5732340812683105,2.4119393825531006
29.910000,0.4230397641658783,0.922846257686615,-0.07104519009590149,-1.4284526109695435,0.027268733829259872,2.5732362270355225,2.409984827041626
29.927000,0.4227756857872009,0.922839343547821,-0.07108169049024582,-1.4284553527832031,0.028549131006002426,2.5732383728027344,2.4078667163848877
29.946000,0.42250606417655945,0.9228324294090271,-0.07111676782369614,-1.4284580945968628,0.02991916425526142,2.573240280151367,2.405637264251709
29.967000,0.4222370386123657,0.9228256940841675,-0.07114923745393753,-1.4284608364105225,0.0313473604619503,2.573241949081421,2.403337240219116
29.988000,0.4219731390476227,0.9228192567825317,-0.07117867469787598,-1.4284634590148926,0.03280871361494064,2.5732433795928955,2.400999069213867
30.005000,0.4217175543308258,0.9228131771087646,-0.07120504230260849,-1.4284659624099731,0.03428353741765022,2.57324481010437,2.3986477851867676
30.025000,0.4214724600315094,0.922807514667511,-0.0712284967303276,-1.4284683465957642,0.035756513476371765,2.5732460021972656,2.3963027000427246
30.044000,0.42123931646347046,0.9228023290634155,-0.07124928385019302,-1.4284706115722656,0.037215832620859146,2.573246955871582,2.3939788341522217
30.065000,0.4210189878940582,0.9227976202964783,-0.07126767188310623,-1.4284727573394775,0.03865249827504158,2.5732476711273193,2.3916873931884766
30.085000,0.4208119213581085,0.9227933883666992,-0.07128393650054932,-1.4284747838974,0.04005976393818855,2.5732483863830566,2.389437198638916
30.106000,0.4206182658672333,0.9227896332740784,-0.07129831612110138,-1.4284766912460327,0.041432663798332214,2.573248863220215,2.387234687805176
30.119000,0.4204552471637726,0.9227827191352844,-0.07113996893167496,-1.4284732341766357,0.04199224337935448,2.5732486248016357,2.385948657989502
30.140000,0.4204081594944,0.9227827191352844,-0.0711524710059166,-1.428473711013794,0.04279560595750809,2.5732486248016357,2.384514808654785
30.161000,0.420344740152359,0.9227829575538635,-0.07118019461631775,-1.428475022315979,0.04369277134537697,2.5732486248016357,2.382976770401001
30.182000,0.4202622175216675,0.922782838344574,-0.07120682299137115,-1.4284765720367432,0.04464557021856308,2.5732486248016357,2.381369113922119
30.203000,0.4201679229736328,0.9227824211120605,-0.07123058289289474,-1.4284781217575073,0.045631833374500275,2.5732486248016357,2.3797190189361572
30.219000,0.42010533809661865,0.9227798581123352,-0.07114115357398987,-1.4284756183624268,0.04605652391910553,2.5732481479644775,2.3787362575531006
30.241000,0.42011573910713196,0.922782301902771,-0.07117898017168045,-1.428476333618164,0.046716365963220596,2.5732479095458984,2.377587080001831
30.262000,0.4200971722602844,0.9227843284606934,-0.07121961563825607,-1.4284776449203491,0.04747488349676132,2.5732476711273193,2.376317262649536
30.284000,0.42005282640457153,0.9227856397628784,-0.0712529718875885,-1.4284790754318237,0.04829275608062744,2.5732474327087402,2.3749632835388184
30.301000,0.4199923872947693,0.9227864146232605,-0.0712798610329628,-1.4284803867340088,0.049146588891744614,2.573247194290161,2.37355375289917
30.322000,0.4199862778186798,0.9227855801582336,-0.07120520621538162,-1.4284775257110596,0.049421779811382294,2.573246717453003,2.3728668689727783
30.343000,0.42005059123039246,0.9227899312973022,-0.07126220315694809,-1.4284781217575073,0.04996100813150406,2.5732462406158447,2.3719871044158936
30.364000,0.4201418459415436,0.9227922558784485,-0.0712188184261322,-1.428475022315979,0.04999920725822449,2.5732457637786865,2.371741533279419
30.384000,0.4203411042690277,0.9227977991104126,-0.07120507210493088,-1.428471565246582,0.04975835233926773,2.5732455253601074,2.3719873428344727
30.405000,0.42062145471572876,0.9228062033653259,-0.07122121006250381,-1.428468108177185,0.049316518008708954,2.573245048522949,2.3726296424865723
30.420000,0.4208814203739166,0.9228177666664124,-0.07135555148124695,-1.4284693002700806,0.04935753718018532,2.57324481010437,2.3727777004241943
30.443000,0.4210970401763916,0.922825038433075,-0.07136636227369308,-1.428467035293579,0.049034483730793,2.573244333267212,2.373342514038086
30.463000,0.42137575149536133,0.9228336811065674,-0.07138103246688843,-1.4284639358520508,0.04848111420869827,2.5732438564300537,2.3742904663085938
30.483000,0.42170849442481995,0.9228441715240479,-0.07141619920730591,-1.428460955619812,0.047782473266124725,2.5732433795928955,2.375527858734131
30.504000,0.4220665693283081,0.9228556752204895,-0.07146178185939789,-1.428458333015442,0.04698625206947327,2.5732429027557373,2.376969575881958
30.517000,0.422362744808197,0.9228690266609192,-0.07162149995565414,-1.4284605979919434,0.046798285096883774,2.573242664337158,2.377704381942749
30.539000,0.42250436544418335,0.9228776693344116,-0.07174012064933777,-1.4284634590148926,0.046951379626989365,2.573242425918579,2.3778882026672363
30.560000,0.42253223061561584,0.9228822588920593,-0.07181861251592636,-1.4284662008285522,0.0473388247191906,2.5732421875,2.377645492553711
30.581000,0.42255160212516785,0.9228817224502563,-0.07172858715057373,-1.428463339805603,0.04709920659661293,2.573241710662842,2.378046751022339
30.602000,0.42267361283302307,0.9228842854499817,-0.07167354226112366,-1.4284602403640747,0.046626344323158264,2.5732412338256836,2.3787896633148193
30.619000,0.4228547215461731,0.9228888154029846,-0.07163556665182114,-1.4284571409225464,0.04597536846995354,2.5732407569885254,2.379791259765625
30.640000,0.4230409264564514,0.9228944778442383,-0.07162745296955109,-1.4284554719924927,0.045363981276750565,2.573240280151367,2.380748748779297
30.661000,0.4231962263584137,0.9228988885879517,-0.07159224152565002,-1.4284536838531494,0.04468776285648346,2.573240041732788,2.381727457046509
30.682000,0.42333486676216125,0.9229026436805725,-0.07154539972543716,-1.4284518957138062,0.04396336153149605,2.573239803314209,2.382715940475464
30.699000,0.4234735667705536,0.9229055047035217,-0.07146570831537247,-1.4284491539001465,0.04305284842848778,2.573239326477051,2.3838870525360107
30.711000,0.42363426089286804,0.9229090213775635,-0.07139057666063309,-1.4284462928771973,0.04202869161963463,2.5732388496398926,2.385190725326538
30.734000,0.4238242506980896,0.9229127764701843,-0.07129513472318649,-1.4284425973892212,0.04076718911528587,2.5732381343841553,2.386786460876465
30.755000,0.42405635118484497,0.9229179620742798,-0.0712151825428009,-1.4284390211105347,0.039362773299217224,2.573237180709839,2.388596534729004
30.777000,0.42430898547172546,0.9229247570037842,-0.07117621600627899,-1.4284366369247437,0.03799426183104515,2.5732362270355225,2.3904104232788086
30.799000,0.4245464503765106,0.9229319095611572,-0.0711708664894104,-1.4284355640411377,0.0367690846323967,2.573235273361206,2.3920743465423584
30.816000,0.42474982142448425,0.9229381680488586,-0.07116779685020447,-1.4284348487854004,0.035644929856061935,2.5732343196868896,2.393610954284668
30.834000,0.4249235987663269,0.9229437708854675,-0.07117892801761627,-1.4284347295761108,0.034669969230890274,2.5732333660125732,2.3949666023254395
30.855000,0.42503345012664795,0.9229498505592346,-0.07130096852779388,-1.428438425064087,0.034373506903648376,2.5732333660125732,2.3955092430114746
30.876000,0.42504408955574036,0.922950029373169,-0.07128213346004486,-1.428438425064087,0.03389637917280197,2.573232889175415,2.3961379528045654
30.897000,0.42506974935531616,0.922950029373169,-0.07125402987003326,-1.4284377098083496,0.03336041420698166,2.5732321739196777,2.3968288898468018
30.914000,0.4251199960708618,0.922950804233551,-0.07124028354883194,-1.4284371137619019,0.0328185111284256,2.5732314586639404,2.3975467681884766
30.936000,0.4251852035522461,0.9229518175125122,-0.07122230529785156,-1.4284361600875854,0.03222062438726425,2.573230504989624,2.3983452320098877
30.956000,0.4252665936946869,0.9229533672332764,-0.07121004164218903,-1.428435206413269,0.03159406781196594,2.5732295513153076,2.399200677871704
30.977000,0.4253379702568054,0.922955334186554,-0.07122940570116043,-1.4284354448318481,0.03112468309700489,2.5732290744781494,2.399873733520508
30.998000,0.42537322640419006,0.9229561686515808,-0.07124010473489761,-1.4284358024597168,0.030746812000870705,2.573228597640991,2.4004013538360596
31.014000,0.4253633916378021,0.9229557514190674,-0.07125289738178253,-1.4284367561340332,0.030534451827406883,2.5732288360595703,2.4006741046905518
31.036000,0.42530593276023865,0.9229536056518555,-0.07124769687652588,-1.4284374713897705,0.030422881245613098,2.5732293128967285,2.4007482528686523
31.056000,0.4252052903175354,0.9229500889778137,-0.07123570144176483,-1.428438425064087,0.030443450435996056,2.573230028152466,2.400580644607544
31.077000,0.42506277561187744,0.9229450821876526,-0.07120902091264725,-1.4284392595291138,0.030563661828637123,2.5732309818267822,2.4001994132995605
31.098000,0.4248911440372467,0.9229389429092407,-0.07116831839084625,-1.4284398555755615,0.03074645809829235,2.5732321739196777,2.399655818939209
31.114000,0.4247046113014221,0.9229321479797363,-0.07112009078264236,-1.4284403324127197,0.030971914529800415,2.5732333660125732,2.3989901542663574
31.135000,0.42451196908950806,0.9229251146316528,-0.07106779515743256,-1.4284406900405884,0.03122466243803501,2.5732345581054688,2.3982348442077637
31.155000,0.42432573437690735,0.9229182004928589,-0.07101491838693619,-1.428440809249878,0.03147859498858452,2.573235511779785,2.3974437713623047
31.175000,0.4241510033607483,0.9229117035865784,-0.07096663117408752,-1.4284409284591675,0.03173608332872391,2.5732364654541016,2.3966307640075684
31.197000,0.42399483919143677,0.922907292842865,-0.07100104540586472,-1.4284430742263794,0.03230449557304382,2.573237657546997,2.3954873085021973
31.212000,0.4238138496875763,0.9229025840759277,-0.07104936987161636,-1.428445816040039,0.033079273998737335,2.5732388496398926,2.394096851348877
31.233000,0.4236134886741638,0.922897458076477,-0.07110017538070679,-1.4284486770629883,0.03400605544447899,2.573239803314209,2.3925251960754395
31.254000,0.42340192198753357,0.922892153263092,-0.07114990055561066,-1.4284515380859375,0.0350433886051178,2.5732407569885254,2.390824794769287
31.270000,0.423185795545578,0.9228867888450623,-0.071197010576725,-1.4284542798995972,0.036157991737127304,2.5732414722442627,2.3890368938446045
31.287000,0.42297008633613586,0.9228814840316772,-0.0712408721446991,-1.4284569025039673,0.03732319921255112,2.5732421875,2.3871941566467285
31.307000,0.42275840044021606,0.9228763580322266,-0.07128134369850159,-1.4284594058990479,0.038517940789461136,2.5732429027557373,2.385321617126465
31.328000,0.42261964082717896,0.9228693842887878,-0.07115566730499268,-1.4284559488296509,0.03883765637874603,2.5732421875,2.3845133781433105
31.349000,0.4226681590080261,0.9228678941726685,-0.07106393575668335,-1.4284515380859375,0.038631461560726166,2.5732409954071045,2.3845324516296387
31.370000,0.4228721261024475,0.922870934009552,-0.07098617404699326,-1.4284461736679077,0.037889301776885986,2.573239326477051,2.385396718978882
31.387000,0.4232233166694641,0.9228784441947937,-0.07092384248971939,-1.4284400939941406,0.03661911189556122,2.5732369422912598,2.38712215423584
31.407000,0.42369577288627625,0.9228905439376831,-0.0709054246544838,-1.4284347295761108,0.03500249609351158,2.5732338428497314,2.389500617980957
31.428000,0.42413806915283203,0.9229079484939575,-0.07113372534513474,-1.4284381866455078,0.03436603397130966,2.573232650756836,2.390871047973633
31.449000,0.4243623614311218,0.9229190349578857,-0.07132387906312943,-1.4284427165985107,0.03428323566913605,2.573232412338257,2.391453504562378
31.470000,0.42456915974617004,0.9229224324226379,-0.07119639217853546,-1.4284368753433228,0.033004868775606155,2.5732290744781494,2.393397331237793
31.487000,0.4248606264591217,0.9229346513748169,-0.07139042764902115,-1.4284403324127197,0.032680220901966095,2.573228120803833,2.394404888153076
31.507000,0.42514586448669434,0.9229400157928467,-0.07126345485448837,-1.4284335374832153,0.031095605343580246,2.573223829269409,2.396878480911255
31.528000,0.42567890882492065,0.9229533076286316,-0.07119528949260712,-1.4284263849258423,0.028843481093645096,2.5732178688049316,2.4004664421081543
31.548000,0.4262188673019409,0.9229746460914612,-0.07148873805999756,-1.428431510925293,0.027908222749829292,2.5732157230377197,2.4026939868927
31.569000,0.4266941249370575,0.922986626625061,-0.07137744128704071,-1.42842435836792,0.02555493824183941,2.5732083320617676,2.406545877456665
31.586000,0.42721447348594666,0.9230077266693115,-0.07168052345514297,-1.428430438041687,0.024619216099381447,2.5732059478759766,2.4089345932006836
31.604000,0.4274410903453827,0.9230194687843323,-0.07192645967006683,-1.4284372329711914,0.02444140426814556,2.5732054710388184,2.410177230834961
31.626000,0.4274391233921051,0.9230228066444397,-0.07209797948598862,-1.428443193435669,0.024788938462734222,2.5732064247131348,2.4105260372161865
31.645000,0.4275553822517395,0.9230206608772278,-0.07180514931678772,-1.4284327030181885,0.022970275953412056,2.5731985569000244,2.413407564163208
31.667000,0.4281580150127411,0.9230347275733948,-0.07164116948843002,-1.4284220933914185,0.019979551434516907,2.5731866359710693,2.4182240962982178
31.684000,0.4288348853588104,0.9230611324310303,-0.0720168799161911,-1.428429365158081,0.01875513605773449,2.5731823444366455,2.4212758541107178
31.697000,0.42946329712867737,0.9230780601501465,-0.07184824347496033,-1.428420066833496,0.015496657229959965,2.573167562484741,2.4267077445983887
31.715000,0.4301626682281494,0.9231062531471252,-0.07225274294614792,-1.4284292459487915,0.014158078469336033,2.57316255569458,2.430175304412842
31.737000,0.43045517802238464,0.9231206774711609,-0.07257129997015,-1.428438663482666,0.0138250682502985,2.5731616020202637,2.4321022033691406
31.759000,0.43043145537376404,0.9231230020523071,-0.07278259843587875,-1.4284462928771973,0.014183178544044495,2.5731632709503174,2.432826042175293
31.775000,0.430195689201355,0.92311692237854,-0.07291500270366669,-1.4284522533416748,0.015036282129585743,2.573166608810425,2.4326162338256836
31.796000,0.43006432056427,0.923108696937561,-0.07271645218133926,-1.4284464120864868,0.014363963156938553,2.573160171508789,2.4341366291046143
31.816000,0.43031826615333557,0.9231136441230774,-0.0726316049695015,-1.4284411668777466,0.012903673574328423,2.5731499195098877,2.4369821548461914
31.836000,0.43081018328666687,0.9231283068656921,-0.0726734921336174,-1.4284387826919556,0.011122768744826317,2.573138475418091,2.4405596256256104
31.858000,0.4314270317554474,0.923147976398468,-0.07273323833942413,-1.4284368753433228,0.008930924348533154,2.573125123977661,2.4448838233947754
31.875000,0.43213537335395813,0.9231718182563782,-0.07282795757055283,-1.428436279296875,0.00648344773799181,2.573110342025757,2.449754238128662
31.895000,0.43291133642196655,0.9231985807418823,-0.0729202926158905,-1.428436040878296,0.0037027299404144287,2.5730931758880615,2.4552361965179443
31.916000,0.4335084557533264,0.9232233762741089,-0.07335414737462997,-1.4284480810165405,0.0027673104777932167,2.5730886459350586,2.458543062210083
31.936000,0.43390151858329773,0.9232364296913147,-0.07331788539886475,-1.4284462928771973,0.0006518785376101732,2.5730738639831543,2.462993621826172
31.958000,0.43448445200920105,0.9232562780380249,-0.07331980764865875,-1.4284448623657227,-0.00198967638425529,2.5730552673339844,2.4682960510253906
31.975000,0.43523329496383667,0.9232827425003052,-0.07335226237773895,-1.428444266319275,-0.005140833556652069,2.5730326175689697,2.4744653701782227
31.996000,0.43610817193984985,0.9233150482177734,-0.07344076037406921,-1.428445816040039,-0.008592694066464901,2.5730068683624268,2.4812607765197754
32.016000,0.4370730519294739,0.9233517050743103,-0.07353968918323517,-1.4284484386444092,-0.012414293363690376,2.572977066040039,2.4887428283691406
32.035000,0.43813273310661316,0.9233930706977844,-0.07364820688962936,-1.4284522533416748,-0.016632849350571632,2.5729422569274902,2.496964454650879
32.057000,0.43893811106681824,0.9234265089035034,-0.07422997057437897,-1.428471565246582,-0.018257470801472664,2.572932720184326,2.5020945072174072
32.078000,0.4394558370113373,0.9234468340873718,-0.0741744115948677,-1.4284716844558716,-0.021423177793622017,2.5729031562805176,2.5086774826049805
32.095000,0.44022437930107117,0.9234775304794312,-0.07417206466197968,-1.4284734725952148,-0.025251610204577446,2.5728659629821777,2.516335964202881
32.114000,0.4411933124065399,0.9235173463821411,-0.07423273473978043,-1.4284781217575073,-0.029582306742668152,2.572822332382202,2.5249123573303223
32.135000,0.44228723645210266,0.9235635995864868,-0.07435168325901031,-1.4284859895706177,-0.034213997423648834,2.5727741718292236,2.53413724899292
32.156000,0.4434391260147095,0.9236134886741638,-0.07450898736715317,-1.4284963607788086,-0.03901338949799538,2.5727224349975586,2.5437984466552734
32.177000,0.44459861516952515,0.9236648082733154,-0.07468520849943161,-1.4285086393356323,-0.04389030858874321,2.5726680755615234,2.5537288188934326
32.188000,0.44537773728370667,0.923694908618927,-0.07536029815673828,-1.4285341501235962,-0.04564179480075836,2.5726563930511475,2.559781312942505
32.213000,0.4453754425048828,0.9236886501312256,-0.075816310942173,-1.4285486936569214,-0.04558985307812691,2.572664499282837,2.5627975463867188
32.235000,0.44516122341156006,0.9236783981323242,-0.07557211071252823,-1.4285424947738647,-0.04742501676082611,2.5726397037506104,2.56746506690979
32.256000,0.4453161060810089,0.9236850738525391,-0.075401172041893,-1.4285401105880737,-0.05013641342520714,2.572603464126587,2.5733747482299805
32.276000,0.4456958472728729,0.9236994385719299,-0.07548628747463226,-1.4285457134246826,-0.05257735773921013,2.5725700855255127,2.579212188720703
32.293000,0.44579455256462097,0.9236953258514404,-0.07595538347959518,-1.4285601377487183,-0.05256473273038864,2.5725748538970947,2.5819265842437744
32.313000,0.44554582238197327,0.9236785769462585,-0.07601198554039001,-1.4285608530044556,-0.052872758358716965,2.572566032409668,2.584505558013916
32.334000,0.44532474875450134,0.9236637353897095,-0.07606261223554611,-1.428561806678772,-0.05315088853240013,2.572554349899292,2.5869619846343994
32.354000,0.44507935643196106,0.9236471652984619,-0.07619362324476242,-1.4285651445388794,-0.052911918610334396,2.572549819946289,2.5887091159820557
32.374000,0.4446767270565033,0.9236232042312622,-0.07633674144744873,-1.4285681247711182,-0.05199236422777176,2.5725560188293457,2.5893847942352295
32.391000,0.4440998435020447,0.9235920310020447,-0.07640622556209564,-1.4285683631896973,-0.05066123604774475,2.5725677013397217,2.589228630065918
32.411000,0.4433525800704956,0.9235536456108093,-0.0764436200261116,-1.4285672903060913,-0.04877521097660065,2.5725886821746826,2.588031768798828
32.432000,0.442451536655426,0.923509418964386,-0.07640240341424942,-1.4285638332366943,-0.04656628519296646,2.5726139545440674,2.5860400199890137
32.453000,0.4414064884185791,0.9234599471092224,-0.07632096856832504,-1.4285591840744019,-0.04393406957387924,2.5726466178894043,2.5831174850463867
32.474000,0.4402390420436859,0.9234065413475037,-0.07616735249757767,-1.4285527467727661,-0.041078194975852966,2.5726821422576904,2.5794966220855713
32.491000,0.43896692991256714,0.9233500957489014,-0.07597382366657257,-1.4285457134246826,-0.037944503128528595,2.5727221965789795,2.5751218795776367
32.511000,0.43758517503738403,0.9232903122901917,-0.07573086768388748,-1.4285380840301514,-0.03455859422683716,2.5727663040161133,2.5700016021728516
32.532000,0.4361281096935272,0.9232288599014282,-0.07542838156223297,-1.4285296201705933,-0.03106980212032795,2.5728108882904053,2.5643413066864014
32.553000,0.43461933732032776,0.9231666922569275,-0.07509513199329376,-1.4285212755203247,-0.027448579668998718,2.572856903076172,2.5581393241882324
32.574000,0.4330824613571167,0.9231048226356506,-0.07472298294305801,-1.4285129308700562,-0.023804588243365288,2.572901964187622,2.551562547683716
32.590000,0.4316421449184418,0.9230477809906006,-0.07439453899860382,-1.4285060167312622,-0.02017948031425476,2.572939872741699,2.5448861122131348
32.611000,0.43031176924705505,0.9229965806007385,-0.074124276638031,-1.4285016059875488,-0.01654467172920704,2.5729732513427734,2.538179397583008
32.632000,0.42907384037971497,0.9229505658149719,-0.07389424741268158,-1.4284991025924683,-0.012913987040519714,2.573003053665161,2.531496286392212
32.653000,0.4279147684574127,0.9229089021682739,-0.07369058579206467,-1.4284980297088623,-0.009306587278842926,2.5730299949645996,2.5248780250549316
32.674000,0.42682555317878723,0.9228710532188416,-0.07350441068410873,-1.4284979104995728,-0.00574107002466917,2.573054313659668,2.5183560848236084
32.691000,0.4258001148700714,0.9228364825248718,-0.07333022356033325,-1.4284985065460205,-0.002233810955658555,2.5730762481689453,2.5119540691375732
32.711000,0.42483416199684143,0.9228048920631409,-0.0731646716594696,-1.428499460220337,0.001201546285301447,2.57309627532959,2.5056896209716797
32.732000,0.42392435669898987,0.9227759838104248,-0.07300572097301483,-1.428500771522522,0.0045541636645793915,2.5731143951416016,2.499574899673462
32.753000,0.42306801676750183,0.9227495789527893,-0.07285216450691223,-1.4285023212432861,0.007815675809979439,2.5731308460235596,2.4936187267303467
32.771000,0.4222627878189087,0.9227253794670105,-0.07270330935716629,-1.4285039901733398,0.010980043560266495,2.573145627975464,2.4878265857696533
32.790000,0.42150649428367615,0.9227033257484436,-0.07255876064300537,-1.428505778312683,0.014043155126273632,2.5731589794158936,2.48220157623291
32.811000,0.42079704999923706,0.9226831793785095,-0.07241830229759216,-1.4285075664520264,0.01700245961546898,2.5731709003448486,2.4767446517944336
32.831000,0.42013251781463623,0.9226648807525635,-0.07228183001279831,-1.4285093545913696,0.019856736063957214,2.573181629180908,2.4714558124542236
32.852000,0.41951099038124084,0.9226482510566711,-0.07214929163455963,-1.428511142730713,0.022605720907449722,2.5731911659240723,2.4663338661193848
32.870000,0.41893061995506287,0.922633171081543,-0.07202068716287613,-1.4285128116607666,0.025250080972909927,2.573199510574341,2.461376667022705
32.889000,0.41838955879211426,0.9226195812225342,-0.0718960091471672,-1.4285144805908203,0.027791157364845276,2.573206901550293,2.4565811157226562
32.910000,0.4178120493888855,0.9226008057594299,-0.0715121328830719,-1.428510069847107,0.029340894892811775,2.5732133388519287,2.4527664184570312
32.931000,0.4173985719680786,0.9225897789001465,-0.07132484763860703,-1.4285093545913696,0.031043298542499542,2.5732192993164062,2.448913097381592
32.952000,0.4170217514038086,0.9225807785987854,-0.07118822634220123,-1.4285095930099487,0.03279164433479309,2.5732243061065674,2.445056915283203
32.973000,0.41666653752326965,0.9225729703903198,-0.0710761770606041,-1.428510308265686,0.0345611497759819,2.573228597640991,2.441225528717041
32.989000,0.41633087396621704,0.9225661158561707,-0.07097909599542618,-1.4285112619400024,0.03633546829223633,2.573232412338257,2.4374399185180664
33.011000,0.41601473093032837,0.9225600957870483,-0.07089180499315262,-1.4285123348236084,0.03810055926442146,2.573235511779785,2.433716297149658
33.031000,0.4157184362411499,0.9225547909736633,-0.07081126421689987,-1.428513526916504,0.039844486862421036,2.5732381343841553,2.4300665855407715
33.052000,0.4154423475265503,0.9225502610206604,-0.07073567807674408,-1.4285147190093994,0.04155746102333069,2.573240280151367,2.426499366760254
33.073000,0.41518664360046387,0.92254638671875,-0.07066400349140167,-1.4285157918930054,0.04323175549507141,2.573241949081421,2.423020839691162
33.089000,0.41495129466056824,0.9225431680679321,-0.0705956369638443,-1.4285168647766113,0.04486145079135895,2.5732431411743164,2.419635057449341
33.110000,0.4147361218929291,0.9225406050682068,-0.0705302506685257,-1.4285178184509277,0.04644219949841499,2.5732438564300537,2.41634464263916
33.132000,0.41454070806503296,0.9225386381149292,-0.07046765834093094,-1.4285186529159546,0.0479709655046463,2.573244333267212,2.4131507873535156
33.152000,0.4144444465637207,0.9225265979766846,-0.069940946996212,-1.4285043478012085,0.04723118618130684,2.573244094848633,2.4125773906707764
33.169000,0.41465720534324646,0.9225346446037292,-0.06991071254014969,-1.4285019636154175,0.0472719743847847,2.573244094848633,2.4115076065063477
33.186000,0.4147929847240448,0.9225426316261292,-0.06992106884717941,-1.428502082824707,0.04764878377318382,2.573244094848633,2.410061836242676
33.210000,0.41484785079956055,0.9225487112998962,-0.06992733478546143,-1.4285030364990234,0.04825016111135483,2.573244094848633,2.4083359241485596
33.230000,0.41484636068344116,0.9225531220436096,-0.06992647051811218,-1.4285041093826294,0.049012284725904465,2.573244094848633,2.4064059257507324
33.251000,0.41480886936187744,0.9225562810897827,-0.0699196606874466,-1.4285051822662354,0.04988763481378555,2.5732438564300537,2.404331922531128
33.268000,0.4147500991821289,0.922558605670929,-0.06990839540958405,-1.4285062551498413,0.050839461386203766,2.5732436180114746,2.402161121368408
33.289000,0.41468048095703125,0.922560453414917,-0.06989400088787079,-1.4285072088241577,0.05183934420347214,2.5732431411743164,2.399930953979492
33.309000,0.4146072566509247,0.9225620627403259,-0.06987757235765457,-1.4285080432891846,0.05286543071269989,2.573242664337158,2.397670269012451
33.330000,0.41453540325164795,0.9225636124610901,-0.06985997408628464,-1.4285087585449219,0.053900957107543945,2.573241949081421,2.395401954650879
33.348000,0.41446828842163086,0.922565221786499,-0.0698418915271759,-1.4285093545913696,0.05493322014808655,2.5732409954071045,2.393143653869629
33.369000,0.4144081473350525,0.9225669503211975,-0.06982383877038956,-1.4285099506378174,0.055952608585357666,2.573240041732788,2.39090895652771
33.382000,0.4143563508987427,0.9225688576698303,-0.06980622559785843,-1.4285104274749756,0.05695203319191933,2.5732388496398926,2.3887078762054443
33.398000,0.4143137037754059,0.9225709438323975,-0.0697893351316452,-1.4285107851028442,0.057926252484321594,2.573237657546997,2.3865482807159424
33.419000,0.41428059339523315,0.9225732684135437,-0.06977338343858719,-1.4285110235214233,0.05887151509523392,2.5732362270355225,2.3844356536865234
33.438000,0.41425713896751404,0.922575831413269,-0.06975852698087692,-1.4285112619400024,0.059785228222608566,2.573234796524048,2.3823742866516113
33.459000,0.41445210576057434,0.9225618839263916,-0.06909285485744476,-1.4284873008728027,0.05727875977754593,2.5732369422912598,2.384383201599121
33.475000,0.41529780626296997,0.9225651621818542,-0.06853367388248444,-1.4284590482711792,0.052693940699100494,2.57323956489563,2.3895204067230225
33.496000,0.41640958189964294,0.9226011633872986,-0.06876830756664276,-1.4284565448760986,0.050031013786792755,2.573239803314209,2.3930203914642334
33.512000,0.4171789884567261,0.9226318597793579,-0.06900793313980103,-1.4284597635269165,0.048369742929935455,2.57323956489563,2.3952322006225586
33.535000,0.41765785217285156,0.9226540327072144,-0.06919305771589279,-1.4284640550613403,0.047421813011169434,2.57323956489563,2.3964338302612305
33.552000,0.4180959165096283,0.9226598739624023,-0.06886027753353119,-1.4284512996673584,0.04452460631728172,2.5732388496398926,2.3998095989227295
33.573000,0.4188767373561859,0.922674298286438,-0.06857834756374359,-1.428436279296875,0.040539052337408066,2.573237180709839,2.4048399925231934
33.595000,0.4198830723762512,0.9227010011672974,-0.06852717697620392,-1.4284276962280273,0.03654398396611214,2.5732343196868896,2.410275459289551
33.617000,0.4209241271018982,0.9227311611175537,-0.0685289278626442,-1.4284218549728394,0.03249602019786835,2.573230266571045,2.415985584259033
33.637000,0.4218232035636902,0.9227660298347473,-0.06887450069189072,-1.4284288883209229,0.0301897544413805,2.5732288360595703,2.419743061065674
33.653000,0.4223422706127167,0.9227892756462097,-0.06916159391403198,-1.4284368753433228,0.028949471190571785,2.5732288360595703,2.421966552734375
33.675000,0.42257362604141235,0.9228019714355469,-0.06937579065561295,-1.4284437894821167,0.028485579416155815,2.5732297897338867,2.422990322113037
33.695000,0.4226078987121582,0.922806978225708,-0.06953416764736176,-1.4284493923187256,0.028599781915545464,2.5732316970825195,2.4230806827545166
33.715000,0.42247524857521057,0.9228041768074036,-0.06954503804445267,-1.428451418876648,0.028790242969989777,2.5732340812683105,2.4227676391601562
33.734000,0.4223070740699768,0.9228005409240723,-0.06960237771272659,-1.4284542798995972,0.02939162403345108,2.5732367038726807,2.421827554702759
33.755000,0.4220663905143738,0.922788143157959,-0.06953506916761398,-1.4284555912017822,0.029802611097693443,2.5732388496398926,2.4208803176879883
33.770000,0.4218558669090271,0.9227772951126099,-0.06956594437360764,-1.4284582138061523,0.030567117035388947,2.5732412338256836,2.419463634490967
33.791000,0.4216192364692688,0.9227657318115234,-0.06961016356945038,-1.428460955619812,0.03155704587697983,2.5732436180114746,2.417694568634033
33.809000,0.42136305570602417,0.9227537512779236,-0.069655641913414,-1.4284635782241821,0.03270925208926201,2.5732457637786865,2.415665864944458
33.830000,0.4210861623287201,0.9227396845817566,-0.06960432231426239,-1.4284635782241821,0.03360265493392944,2.5732474327087402,2.413835048675537
33.846000,0.42086175084114075,0.9227269887924194,-0.06954297423362732,-1.4284627437591553,0.034306447952985764,2.5732486248016357,2.4122118949890137
33.867000,0.42068544030189514,0.9227176904678345,-0.06957826763391495,-1.4284642934799194,0.03526046872138977,2.5732500553131104,2.4103341102600098
33.888000,0.42051130533218384,0.922707200050354,-0.06953558325767517,-1.4284635782241821,0.035925984382629395,2.5732507705688477,2.408766269683838
33.909000,0.42038044333457947,0.922700047492981,-0.0695885419845581,-1.4284653663635254,0.03685012087225914,2.573251724243164,2.4069552421569824
33.931000,0.4202542304992676,0.9226915240287781,-0.06955794245004654,-1.4284645318984985,0.03745318204164505,2.573251962661743,2.4055159091949463
33.948000,0.4202054738998413,0.9226853251457214,-0.06953942775726318,-1.4284632205963135,0.03785230964422226,2.573251962661743,2.4044089317321777
33.968000,0.4202207326889038,0.9226813912391663,-0.06954136490821838,-1.4284619092941284,0.03811117634177208,2.573251724243164,2.403566360473633
33.989000,0.4202881157398224,0.9226793050765991,-0.06955753266811371,-1.4284605979919434,0.038239069283008575,2.573251247406006,2.4029788970947266
34.010000,0.42039549350738525,0.9226788282394409,-0.06958966702222824,-1.4284594058990479,0.03827887400984764,2.5732505321502686,2.402592658996582
34.031000,0.420535683631897,0.922679603099823,-0.06963175535202026,-1.4284582138061523,0.03823063522577286,2.5732498168945312,2.40240478515625
34.051000,0.42070722579956055,0.9226815700531006,-0.06968501955270767,-1.4284571409225464,0.03810499981045723,2.573248863220215,2.4024064540863037
34.069000,0.4209018051624298,0.9226846098899841,-0.06975041329860687,-1.42845618724823,0.03793291002511978,2.5732479095458984,2.4025542736053467
34.090000,0.42111536860466003,0.9226884245872498,-0.06982087343931198,-1.4284552335739136,0.037701379507780075,2.573246717453003,2.402858018875122
34.109000,0.42134374380111694,0.9226929545402527,-0.06989991664886475,-1.4284545183181763,0.037437599152326584,2.5732455253601074,2.403280258178711
34.130000,0.4215830862522125,0.9226980209350586,-0.06998336315155029,-1.428453803062439,0.037139106541872025,2.573244333267212,2.4038166999816895
34.148000,0.42182910442352295,0.9227035045623779,-0.07007230073213577,-1.4284532070159912,0.03682447224855423,2.5732431411743164,2.40443754196167
34.168000,0.422079473733902,0.9227092862129211,-0.07016333937644958,-1.428452730178833,0.036489248275756836,2.573241710662842,2.405141592025757
34.188000,0.42233145236968994,0.9227153062820435,-0.07025770843029022,-1.4284523725509644,0.0361478328704834,2.573240280151367,2.40590500831604
34.208000,0.42258304357528687,0.9227215051651001,-0.07035473734140396,-1.4284521341323853,0.03580566123127937,2.5732388496398926,2.4067156314849854
34.229000,0.4228338897228241,0.9227278232574463,-0.07045289129018784,-1.4284518957138062,0.035459719598293304,2.573237419128418,2.4075732231140137
34.245000,0.4230819642543793,0.9227342009544373,-0.0705527737736702,-1.4284517765045166,0.035119496285915375,2.5732359886169434,2.408461093902588
34.266000,0.4233265221118927,0.9227405786514282,-0.07065219432115555,-1.428451657295227,0.03477982431650162,2.5732345581054688,2.4093809127807617
34.283000,0.4235663115978241,0.9227469563484192,-0.07075199484825134,-1.428451657295227,0.03444835543632507,2.573233127593994,2.4103188514709473
34.304000,0.42371630668640137,0.9227531552314758,-0.07094278186559677,-1.4284558296203613,0.03476480394601822,2.573233127593994,2.4104316234588623
34.324000,0.42369788885116577,0.9227539300918579,-0.0710783451795578,-1.4284600019454956,0.035443950444459915,2.5732338428497314,2.4099063873291016
34.345000,0.4236447811126709,0.9227502942085266,-0.07105983793735504,-1.4284592866897583,0.03566846251487732,2.5732333660125732,2.409794807434082
34.363000,0.42368561029434204,0.9227492213249207,-0.0710606575012207,-1.4284578561782837,0.035669904202222824,2.573232650756836,2.410003423690796
34.383000,0.423713743686676,0.9227508902549744,-0.07119099795818329,-1.428460955619812,0.03622085601091385,2.573233127593994,2.409555196762085
34.405000,0.4236183166503906,0.922748863697052,-0.0712844580411911,-1.428464412689209,0.03705643489956856,2.5732340812683105,2.4086031913757324
34.425000,0.42343324422836304,0.9227437376976013,-0.0713404044508934,-1.4284676313400269,0.03807725012302399,2.573235273361206,2.407268762588501
34.446000,0.4231925904750824,0.922736644744873,-0.07136964797973633,-1.428470492362976,0.03922015428543091,2.5732364654541016,2.4056484699249268
34.463000,0.4229205250740051,0.922728419303894,-0.07138068974018097,-1.4284731149673462,0.04043993353843689,2.573237657546997,2.4038186073303223
34.484000,0.422633558511734,0.9227196574211121,-0.07137944549322128,-1.4284754991531372,0.04170346260070801,2.5732386112213135,2.4018399715423584
34.505000,0.4223427474498749,0.9227107763290405,-0.07136997580528259,-1.4284776449203491,0.04298640415072441,2.57323956489563,2.3997602462768555
34.525000,0.4220554828643799,0.9227020144462585,-0.07135508954524994,-1.4284796714782715,0.04427096247673035,2.573240280151367,2.3976171016693115
34.542000,0.42194512486457825,0.9226905703544617,-0.07106674462556839,-1.428470492362976,0.04389585927128792,2.57323956489563,2.397515296936035
34.562000,0.4220503866672516,0.9226937890052795,-0.07114975899457932,-1.4284709692001343,0.04420763626694679,2.57323956489563,2.3969147205352783
34.583000,0.42205655574798584,0.9226952195167542,-0.0712275356054306,-1.4284729957580566,0.044797882437705994,2.573239803314209,2.3959333896636963
34.604000,0.421974778175354,0.9226940274238586,-0.07127579301595688,-1.428475260734558,0.04556091129779816,2.573240041732788,2.394665002822876
34.622000,0.42183539271354675,0.9226909279823303,-0.07130131125450134,-1.4284775257110596,0.0464385524392128,2.573240280151367,2.393183708190918
34.640000,0.42166149616241455,0.9226865768432617,-0.0713111162185669,-1.428479552268982,0.04739006236195564,2.5732405185699463,2.3915483951568604
34.661000,0.4214690327644348,0.9226815700531006,-0.07131027430295944,-1.4284814596176147,0.04838557913899422,2.5732405185699463,2.389805793762207
34.681000,0.4212688207626343,0.9226762056350708,-0.07130233198404312,-1.4284831285476685,0.04940315708518028,2.5732405185699463,2.3879923820495605
34.702000,0.4210681617259979,0.9226707816123962,-0.07128974050283432,-1.4284846782684326,0.05042664706707001,2.5732405185699463,2.3861372470855713
34.716000,0.42087188363075256,0.9226654767990112,-0.07127419859170914,-1.4284861087799072,0.05144419148564339,2.573240280151367,2.3842625617980957
34.738000,0.4210140109062195,0.9226543307304382,-0.07079574465751648,-1.4284669160842896,0.04950174316763878,2.5732405185699463,2.38614821434021
34.747000,0.4218583106994629,0.9226649403572083,-0.0705241784453392,-1.4284454584121704,0.04588145390152931,2.573240041732788,2.3909237384796143
34.774000,0.4231224060058594,0.9226967096328735,-0.07058209925889969,-1.4284322261810303,0.0419347770512104,2.573237657546997,2.3969016075134277
34.794000,0.42451411485671997,0.9227370619773865,-0.07072882354259491,-1.4284234046936035,0.03768502548336983,2.573233127593994,2.4037656784057617
34.808000,0.42588990926742554,0.9227824807167053,-0.07100342214107513,-1.4284214973449707,0.03378962725400925,2.5732269287109375,2.4105725288391113
34.836000,0.4269435703754425,0.9228259921073914,-0.07150429487228394,-1.4284321069717407,0.03170643374323845,2.57322359085083,2.4152145385742188
34.852000,0.4274916648864746,0.9228522181510925,-0.07185928523540497,-1.4284425973892212,0.030691981315612793,2.5732221603393555,2.4181528091430664
34.867000,0.42767277359962463,0.9228640198707581,-0.07208514958620071,-1.4284510612487793,0.030428998172283173,2.5732223987579346,2.419754981994629
34.892000,0.42760828137397766,0.9228655695915222,-0.07222014665603638,-1.4284576177597046,0.03070772811770439,2.57322359085083,2.4203145503997803
34.914000,0.42738398909568787,0.922860324382782,-0.0722929909825325,-1.4284627437591553,0.03137607127428055,2.573225498199463,2.42006516456604
34.932000,0.42708268761634827,0.9228490591049194,-0.07220583409070969,-1.428463101387024,0.031752824783325195,2.5732266902923584,2.419847249984741
34.948000,0.4267820417881012,0.922837495803833,-0.07211648672819138,-1.428463339805603,0.03215514495968819,2.573228359222412,2.419391393661499
34.969000,0.42646318674087524,0.9228248000144958,-0.07200054824352264,-1.428463101387024,0.03252873942255974,2.573230266571045,2.418754816055298
34.989000,0.42610785365104675,0.9228110909461975,-0.07188000530004501,-1.428463339805603,0.03300495445728302,2.573232889175415,2.4177753925323486
35.010000,0.42570969462394714,0.9227957129478455,-0.0717303678393364,-1.4284632205963135,0.03350800648331642,2.573235511779785,2.4165380001068115
35.026000,0.4252654016017914,0.9227791428565979,-0.07157078385353088,-1.428463339805603,0.03411625698208809,2.5732386112213135,2.4149534702301025
35.046000,0.424763023853302,0.9227607846260071,-0.07139141857624054,-1.4284636974334717,0.03483368083834648,2.573241949081421,2.4130024909973145
35.067000,0.42421630024909973,0.9227408170700073,-0.07118397951126099,-1.4284636974334717,0.03558984771370888,2.5732452869415283,2.4107820987701416
35.088000,0.42364150285720825,0.9227200150489807,-0.07096688449382782,-1.4284638166427612,0.03640872985124588,2.5732486248016357,2.4082915782928467
35.108000,0.42305058240890503,0.9226986169815063,-0.07073672115802765,-1.4284638166427612,0.037244077771902084,2.573251962661743,2.4056098461151123
35.124000,0.42245736718177795,0.9226772785186768,-0.07050275802612305,-1.4284638166427612,0.038090627640485764,2.5732550621032715,2.4027743339538574
35.145000,0.4218764901161194,0.9226562976837158,-0.07026544958353043,-1.4284635782241821,0.03890601545572281,2.5732576847076416,2.399869441986084
35.165000,0.42131948471069336,0.9226362109184265,-0.07003375142812729,-1.4284632205963135,0.0396885946393013,2.5732600688934326,2.3969314098358154
35.184000,0.42080020904541016,0.9226173162460327,-0.06980890780687332,-1.4284626245498657,0.040400244295597076,2.5732619762420654,2.3940439224243164
35.205000,0.420322448015213,0.9225999116897583,-0.06959852576255798,-1.428462028503418,0.04105647653341293,2.57326340675354,2.3912155628204346
35.226000,0.4198988378047943,0.9225842356681824,-0.06940270960330963,-1.4284611940383911,0.04161902517080307,2.5732645988464355,2.3885297775268555
35.241000,0.419553279876709,0.9225708842277527,-0.06922458112239838,-1.4284597635269165,0.04202431067824364,2.573265314102173,2.386118173599243
35.263000,0.41933128237724304,0.9225630164146423,-0.06915896385908127,-1.4284597635269165,0.0425262488424778,2.573265552520752,2.3838140964508057
35.282000,0.41916006803512573,0.9225561022758484,-0.06907960027456284,-1.4284588098526,0.04285731166601181,2.573265314102173,2.3818533420562744
35.303000,0.41905054450035095,0.9225510954856873,-0.06901755928993225,-1.4284577369689941,0.04308285564184189,2.5732650756835938,2.380171537399292
35.324000,0.419003963470459,0.9225479960441589,-0.06896986067295074,-1.4284563064575195,0.04317741096019745,2.5732645988464355,2.3788044452667236
35.340000,0.41901281476020813,0.9225468635559082,-0.0689455196261406,-1.4284549951553345,0.043191734701395035,2.5732641220092773,2.377690076828003
35.361000,0.4190656542778015,0.9225491881370544,-0.06901776045560837,-1.4284559488296509,0.04346993938088417,2.573263645172119,2.376446485519409
35.382000,0.4191059470176697,0.9225518107414246,-0.06911101937294006,-1.4284576177597046,0.043921925127506256,2.573263168334961,2.3751118183135986
35.403000,0.41913193464279175,0.9225543141365051,-0.0692109540104866,-1.4284595251083374,0.044505130499601364,2.5732626914978027,2.373716115951538
35.424000,0.4191471040248871,0.9225565791130066,-0.06931223720312119,-1.4284614324569702,0.04518694803118706,2.5732619762420654,2.3722832202911377
35.440000,0.41915497183799744,0.9225586652755737,-0.06941211968660355,-1.428463339805603,0.045940496027469635,2.573261260986328,2.3708314895629883
35.461000,0.4191584885120392,0.9225606322288513,-0.06950917094945908,-1.4284651279449463,0.04674382880330086,2.573260545730591,2.369375228881836
35.482000,0.41915997862815857,0.9225625395774841,-0.06960268318653107,-1.428466796875,0.04757923260331154,2.5732598304748535,2.3679258823394775
35.504000,0.41916123032569885,0.9225644469261169,-0.06969239562749863,-1.4284683465957642,0.04843258485198021,2.573259115219116,2.3664917945861816
35.523000,0.4191635251045227,0.9225664138793945,-0.06977827847003937,-1.4284697771072388,0.04929273575544357,2.573258399963379,2.365079641342163
35.540000,0.41916778683662415,0.9225684404373169,-0.06986042112112045,-1.4284710884094238,0.05015097185969353,2.5732576847076416,2.363694429397583
35.563000,0.4192844331264496,0.9225665926933289,-0.06971440464258194,-1.4284634590148926,0.049720555543899536,2.5732569694519043,2.3639132976531982
35.582000,0.4196748435497284,0.9225723743438721,-0.06962931156158447,-1.4284545183181763,0.04852950572967529,2.573256254196167,2.3653688430786133
35.602000,0.42024555802345276,0.922585129737854,-0.06962436437606812,-1.4284467697143555,0.046919986605644226,2.5732553005218506,2.3676235675811768
35.623000,0.42081406712532043,0.9226054549217224,-0.06986507773399353,-1.4284480810165405,0.04616798833012581,2.573254346847534,2.369051456451416
35.639000,0.42118895053863525,0.9226210713386536,-0.07007472217082977,-1.4284511804580688,0.04588621109724045,2.573253631591797,2.369831085205078
35.661000,0.42141205072402954,0.9226318597793579,-0.07024134695529938,-1.4284543991088867,0.045934949070215225,2.5732529163360596,2.3701045513153076
35.680000,0.4215300679206848,0.9226389527320862,-0.07037483155727386,-1.4284573793411255,0.04622439295053482,2.5732524394989014,2.369985342025757
35.701000,0.4215772747993469,0.9226433634757996,-0.0704839900135994,-1.4284601211547852,0.04668847844004631,2.573251962661743,2.3695640563964844
35.718000,0.42157769203186035,0.9226459860801697,-0.07057524472475052,-1.4284625053405762,0.04727743938565254,2.573251485824585,2.3689122200012207
35.739000,0.4215480089187622,0.9226473569869995,-0.07065318524837494,-1.428464651107788,0.04795368015766144,2.5732510089874268,2.36808705329895
35.760000,0.4214998185634613,0.922648012638092,-0.0707210823893547,-1.428466558456421,0.048688746988773346,2.5732505321502686,2.367133855819702
35.780000,0.42144110798835754,0.9226481914520264,-0.07078127562999725,-1.4284683465957642,0.04946104809641838,2.5732500553131104,2.366088628768921
35.801000,0.42137736082077026,0.9226481318473816,-0.07083546370267868,-1.4284698963165283,0.0502542220056057,2.573249578475952,2.3649795055389404
35.818000,0.4213123321533203,0.9226479530334473,-0.07088486850261688,-1.428471326828003,0.05105592682957649,2.573249101638794,2.3638288974761963
35.837000,0.42124852538108826,0.9226477742195129,-0.07093039155006409,-1.428472638130188,0.05185689777135849,2.5732486248016357,2.362654209136963
35.857000,0.4211876392364502,0.9226476550102234,-0.07097269594669342,-1.4284738302230835,0.05265014246106148,2.5732481479644775,2.361469030380249
35.879000,0.4211307168006897,0.9226476550102234,-0.07101227343082428,-1.4284749031066895,0.05343044549226761,2.5732476711273193,2.3602840900421143
35.898000,0.4210784435272217,0.9226477742195129,-0.0710495188832283,-1.4284758567810059,0.05419404059648514,2.573246955871582,2.359107732772827
35.915000,0.4210312068462372,0.922648012638092,-0.07108473032712936,-1.4284768104553223,0.05493820086121559,2.5732462406158447,2.3579461574554443
35.936000,0.42098918557167053,0.9226484298706055,-0.07111813873052597,-1.4284776449203491,0.055660977959632874,2.5732455253601074,2.356804132461548
35.953000,0.4209524095058441,0.9226489663124084,-0.07114993780851364,-1.4284783601760864,0.0563611276447773,2.57324481010437,2.355685234069824
35.974000,0.4209193289279938,0.922649621963501,-0.07117865234613419,-1.4284789562225342,0.057035401463508606,2.573244094848633,2.3545918464660645
35.996000,0.42089033126831055,0.9226503372192383,-0.07120486348867416,-1.428479552268982,0.057683032006025314,2.5732433795928955,2.3535261154174805
36.016000,0.4208657741546631,0.9226511716842651,-0.07122920453548431,-1.4284800291061401,0.05830415338277817,2.573242664337158,2.3524889945983887
36.033000,0.42084574699401855,0.9226521253585815,-0.07125211507081985,-1.4284805059432983,0.058899298310279846,2.573241949081421,2.3514811992645264
36.054000,0.42083117365837097,0.9226532578468323,-0.07127373665571213,-1.428480863571167,0.05946555361151695,2.5732412338256836,2.350508689880371
36.076000,0.4208223521709442,0.9226545095443726,-0.0712951049208641,-1.428481101989746,0.06000567227602005,2.5732405185699463,2.3495700359344482
36.095000,0.42081865668296814,0.9226559400558472,-0.0713161826133728,-1.4284813404083252,0.060521211475133896,2.573239803314209,2.3486642837524414
36.112000,0.420819491147995,0.9226574897766113,-0.07133688032627106,-1.4284814596176147,0.06101343035697937,2.5732390880584717,2.347790241241455
36.133000,0.42082440853118896,0.922659158706665,-0.07135714590549469,-1.4284815788269043,0.061483439058065414,2.5732383728027344,2.3469467163085938
36.154000,0.420833021402359,0.9226609468460083,-0.07137695699930191,-1.4284816980361938,0.06193223595619202,2.573237657546997,2.346132755279541
36.175000,0.42084500193595886,0.9226627945899963,-0.07139630615711212,-1.4284816980361938,0.062360744923353195,2.5732369422912598,2.3453471660614014
36.195000,0.4208601117134094,0.9226647019386292,-0.07141520828008652,-1.4284816980361938,0.0627698227763176,2.5732362270355225,2.3445889949798584
36.215000,0.4208781123161316,0.9226667284965515,-0.0714336708188057,-1.4284816980361938,0.06316027045249939,2.573235511779785,2.3438572883605957
36.232000,0.42089876532554626,0.9226688146591187,-0.07145171612501144,-1.4284816980361938,0.06353285163640976,2.573235034942627,2.343151330947876
36.253000,0.4209218919277191,0.9226709604263306,-0.07146937400102615,-1.4284815788269043,0.0638882964849472,2.5732345581054688,2.3424699306488037
36.274000,0.4209473133087158,0.9226731061935425,-0.07148665934801102,-1.4284814596176147,0.06422729045152664,2.5732340812683105,2.3418123722076416
36.293000,0.42105990648269653,0.9226717948913574,-0.07135198265314102,-1.4284747838974,0.06365311145782471,2.573235273361206,2.3422956466674805
36.315000,0.4213715195655823,0.922676146030426,-0.07126832753419876,-1.4284669160842896,0.06254662573337555,2.573237180709839,2.343656301498413
36.331000,0.42173880338668823,0.9226890802383423,-0.07138881087303162,-1.4284658432006836,0.06197762489318848,2.573237657546997,2.3445613384246826
36.352000,0.4220096468925476,0.9226966500282288,-0.07138669490814209,-1.4284628629684448,0.061174336820840836,2.5732383728027344,2.345674991607666
36.371000,0.42227044701576233,0.9227033853530884,-0.07136234641075134,-1.428459644317627,0.06024007126688957,2.5732388496398926,2.3469417095184326
36.393000,0.42250266671180725,0.9227098822593689,-0.07134409993886948,-1.428457498550415,0.0593438521027565,2.5732390880584717,2.348130226135254
36.414000,0.42267119884490967,0.9227148294448853,-0.07131490111351013,-1.428456425666809,0.0585407018661499,2.5732388496398926,2.349114179611206
36.431000,0.4227774739265442,0.9227176308631897,-0.07125924527645111,-1.4284554719924927,0.0577784962952137,2.5732386112213135,2.34993314743042
36.448000,0.42287197709083557,0.9227220416069031,-0.0712735652923584,-1.428456425666809,0.057317376136779785,2.5732383728027344,2.3503763675689697
36.470000,0.42292913794517517,0.9227257966995239,-0.07130628824234009,-1.4284578561782837,0.05707668885588646,2.5732381343841553,2.3505260944366455
36.491000,0.4229555130004883,0.9227286577224731,-0.0713459923863411,-1.4284594058990479,0.057009175419807434,2.573237895965576,2.3504483699798584
36.508000,0.42295917868614197,0.9227306842803955,-0.07138799130916595,-1.428460955619812,0.057077210396528244,2.573237657546997,2.3501956462860107
36.528000,0.42294684052467346,0.9227320551872253,-0.07142990082502365,-1.4284623861312866,0.057249873876571655,2.573237419128418,2.349809408187866
36.550000,0.4229237139225006,0.9227330088615417,-0.07147049158811569,-1.4284636974334717,0.057501960545778275,2.573237180709839,2.34932279586792
36.570000,0.4228523075580597,0.9227305054664612,-0.07143194228410721,-1.4284635782241821,0.05761076882481575,2.5732367038726807,2.348904848098755
36.591000,0.42278099060058594,0.9227268695831299,-0.07135502994060516,-1.4284625053405762,0.0575510710477829,2.5732362270355225,2.3486175537109375
36.612000,0.4227546155452728,0.9227263331413269,-0.07134748995304108,-1.4284627437591553,0.05761536955833435,2.5732357501983643,2.3482158184051514
36.629000,0.42272618412971497,0.9227240085601807,-0.0712822824716568,-1.4284613132476807,0.05745095759630203,2.573235511779785,2.3480491638183594
36.649000,0.4227493405342102,0.9227226972579956,-0.07121437042951584,-1.4284590482711792,0.05708467587828636,2.573235511779785,2.3481569290161133
36.671000,0.4228232800960541,0.9227230548858643,-0.07116344571113586,-1.4284567832946777,0.05658795312047005,2.573235511779785,2.348475694656372
36.692000,0.4229246973991394,0.922727108001709,-0.07120988517999649,-1.4284571409225464,0.05637295916676521,2.573235511779785,2.3485429286956787
36.712000,0.4229910969734192,0.9227307438850403,-0.07126742601394653,-1.4284582138061523,0.05633293092250824,2.573235511779785,2.3484151363372803
36.729000,0.42305755615234375,0.9227316379547119,-0.07123997807502747,-1.4284563064575195,0.05597216635942459,2.5732357501983643,2.348679304122925
36.750000,0.42315956950187683,0.9227361679077148,-0.07131186872720718,-1.4284571409225464,0.055893536657094955,2.5732357501983643,2.3487026691436768
36.770000,0.4232213795185089,0.9227399230003357,-0.07138429582118988,-1.4284584522247314,0.055972203612327576,2.5732357501983643,2.3485403060913086
36.790000,0.42324912548065186,0.9227426052093506,-0.07144908607006073,-1.428459882736206,0.0561632439494133,2.5732357501983643,2.3482353687286377
36.806000,0.42325320839881897,0.9227444529533386,-0.07150685042142868,-1.4284613132476807,0.05643690750002861,2.573235511779785,2.347822666168213
36.827000,0.42324161529541016,0.9227457046508789,-0.07155878841876984,-1.4284626245498657,0.05677054077386856,2.573235273361206,2.347329616546631
36.849000,0.42322009801864624,0.9227465391159058,-0.07160595059394836,-1.4284638166427612,0.05714666470885277,2.573235034942627,2.34677791595459
36.868000,0.42325612902641296,0.9227455258369446,-0.07155786454677582,-1.428460717201233,0.05697474628686905,2.573235511779785,2.346919298171997
36.887000,0.423360139131546,0.922749936580658,-0.07163743674755096,-1.4284610748291016,0.05707256868481636,2.573235511779785,2.346860408782959
36.900000,0.4234905242919922,0.9227521419525146,-0.07161936908960342,-1.4284578561782837,0.05669303238391876,2.5732362270355225,2.3474106788635254
36.926000,0.4237286448478699,0.9227573275566101,-0.07162291556596756,-1.4284539222717285,0.05601225420832634,2.5732369422912598,2.3484795093536377
36.947000,0.4240483343601227,0.9227654933929443,-0.0716569647192955,-1.428450107574463,0.05513518303632736,2.573237657546997,2.3499410152435303
36.967000,0.42441362142562866,0.9227753281593323,-0.07169995456933975,-1.4284464120864868,0.054083775728940964,2.5732383728027344,2.3517351150512695
36.988000,0.4247390329837799,0.9227883815765381,-0.07186616212129593,-1.428447961807251,0.053597964346408844,2.5732386112213135,2.3529183864593506
37.008000,0.42492398619651794,0.9227975010871887,-0.07199814915657043,-1.4284504652023315,0.053427375853061676,2.5732386112213135,2.3536217212677
37.025000,0.4250412881374359,0.9228007793426514,-0.07199123501777649,-1.4284491539001465,0.052924904972314835,2.5732388496398926,2.354611396789551
37.045000,0.4251570999622345,0.9228065609931946,-0.07208216190338135,-1.4284509420394897,0.05280308425426483,2.5732388496398926,2.3551535606384277
37.065000,0.42523837089538574,0.9228072166442871,-0.07202667742967606,-1.4284484386444092,0.052205901592969894,2.5732388496398926,2.3561646938323975
37.087000,0.42534828186035156,0.9228123426437378,-0.07210696488618851,-1.4284498691558838,0.05203244090080261,2.5732388496398926,2.356712579727173
37.105000,0.4253818392753601,0.9228155016899109,-0.07217926532030106,-1.4284520149230957,0.052090469747781754,2.5732388496398926,2.3568990230560303
37.121000,0.42535465955734253,0.9228166341781616,-0.07223500311374664,-1.4284542798995972,0.05231119692325592,2.5732386112213135,2.3568050861358643
37.143000,0.4253561496734619,0.9228125810623169,-0.07209509611129761,-1.4284496307373047,0.05166931822896004,2.5732386112213135,2.3576745986938477
37.163000,0.4255431890487671,0.9228127002716064,-0.07195637375116348,-1.4284425973892212,0.0503622405230999,2.5732388496398926,2.3594918251037598
37.184000,0.42589157819747925,0.9228184223175049,-0.0718657374382019,-1.4284356832504272,0.04861437529325485,2.5732388496398926,2.362028121948242
37.202000,0.42633700370788574,0.922828733921051,-0.07183045148849487,-1.428430199623108,0.0466521717607975,2.5732383728027344,2.3649895191192627
37.219000,0.4267450273036957,0.922844648361206,-0.07201212644577026,-1.428432822227478,0.04559134691953659,2.573237895965576,2.366981267929077
37.241000,0.427031546831131,0.922852098941803,-0.07197857648134232,-1.4284300804138184,0.04404683783650398,2.573237180709839,2.369431972503662
37.261000,0.42737045884132385,0.9228606224060059,-0.07194684445858002,-1.428426742553711,0.04228254407644272,2.5732359886169434,2.3722198009490967
37.279000,0.4277411103248596,0.922870934009552,-0.07194976508617401,-1.42842435836792,0.04048934951424599,2.5732345581054688,2.3751168251037598
37.297000,0.42812013626098633,0.9228814840316772,-0.07195049524307251,-1.428421974182129,0.03860432282090187,2.573232650756836,2.3781723976135254
37.317000,0.4284335672855377,0.9228948950767517,-0.07214002311229706,-1.4284265041351318,0.037657126784324646,2.5732316970825195,2.3801448345184326
37.338000,0.4285476505756378,0.9229020476341248,-0.07229623943567276,-1.428431749343872,0.03727804496884346,2.5732312202453613,2.3812670707702637
37.359000,0.4285116195678711,0.9229037165641785,-0.07241131365299225,-1.4284366369247437,0.03731004521250725,2.5732312202453613,2.381725311279297
37.380000,0.4283742606639862,0.9229013919830322,-0.07249479740858078,-1.428441047668457,0.03764602169394493,2.5732314586639404,2.3816676139831543
37.400000,0.428234338760376,0.9228946566581726,-0.07240697741508484,-1.4284396171569824,0.03738923743367195,2.573230504989624,2.3822033405303955
37.418000,0.4282200038433075,0.92289137840271,-0.07233788073062897,-1.4284372329711914,0.03681294247508049,2.5732293128967285,2.3831934928894043
37.438000,0.42829105257987976,0.9228915572166443,-0.07231678813695908,-1.4284356832504272,0.03613585978746414,2.573227882385254,2.384384870529175
37.459000,0.4283994734287262,0.9228932857513428,-0.07231071591377258,-1.4284344911575317,0.035376060754060745,2.5732264518737793,2.385723114013672
37.480000,0.42853572964668274,0.9228959083557129,-0.072301484644413,-1.4284330606460571,0.0344884917140007,2.5732247829437256,2.3872573375701904
37.497000,0.4287138283252716,0.9228993654251099,-0.07227364927530289,-1.4284307956695557,0.03335780277848244,2.5732226371765137,2.389141082763672
37.517000,0.42894303798675537,0.9229047298431396,-0.0722632184624672,-1.4284287691116333,0.03208521381020546,2.5732200145721436,2.3912813663482666
37.537000,0.4292238652706146,0.9229114055633545,-0.07223853468894958,-1.428425908088684,0.030538592487573624,2.573216676712036,2.3938403129577637
37.555000,0.4295627772808075,0.9229204058647156,-0.072237029671669,-1.428423523902893,0.028835585340857506,2.5732128620147705,2.39670467376709
37.575000,0.4299570322036743,0.9229310154914856,-0.07222431153059006,-1.4284205436706543,0.02684592828154564,2.5732078552246094,2.4000306129455566
37.592000,0.4304106831550598,0.9229441285133362,-0.07223799079656601,-1.4284182786941528,0.02469714544713497,2.573202133178711,2.4036896228790283
37.612000,0.43091797828674316,0.92295902967453,-0.0722445398569107,-1.4284156560897827,0.022274170070886612,2.573194980621338,2.407815456390381
37.632000,0.43150416016578674,0.9229766130447388,-0.07224811613559723,-1.428412675857544,0.019503412768244743,2.573185920715332,2.412533760070801
37.652000,0.43216559290885925,0.9229975938796997,-0.07228820770978928,-1.4284108877182007,0.01654335856437683,2.5731751918792725,2.4176762104034424
37.668000,0.4328925609588623,0.9230210781097412,-0.07232226431369781,-1.4284090995788574,0.013256562873721123,2.573162078857422,2.4233996868133545
37.684000,0.43368399143218994,0.9230477809906006,-0.07239140570163727,-1.4284087419509888,0.009802348911762238,2.5731470584869385,2.4295315742492676
37.704000,0.4343118369579315,0.9230740666389465,-0.07280629873275757,-1.4284206628799438,0.008192043751478195,2.57314133644104,2.4335198402404785
37.724000,0.4345100224018097,0.9230844378471375,-0.07312139123678207,-1.428431510925293,0.0076622916385531425,2.5731399059295654,2.4358253479003906
37.745000,0.43438956141471863,0.9230819940567017,-0.0733327642083168,-1.428439974784851,0.007898875512182713,2.573141574859619,2.4368155002593994
37.764000,0.43405666947364807,0.9230708479881287,-0.07346814125776291,-1.4284465312957764,0.008692721836268902,2.5731451511383057,2.4367833137512207
37.785000,0.43358758091926575,0.9230542182922363,-0.07354980707168579,-1.4284517765045166,0.009889672510325909,2.5731496810913086,2.435961961746216
37.801000,0.4330351650714874,0.9230343699455261,-0.07359359413385391,-1.42845618724823,0.011374151334166527,2.573154926300049,2.434537172317505
37.821000,0.4324357211589813,0.9230128526687622,-0.0736105740070343,-1.4284600019454956,0.013058945536613464,2.5731606483459473,2.4326562881469727
37.840000,0.43181419372558594,0.9229906797409058,-0.07360851764678955,-1.4284634590148926,0.014878127723932266,2.5731663703918457,2.430436611175537
37.861000,0.4312310218811035,0.9229682087898254,-0.07345926761627197,-1.4284625053405762,0.016086751595139503,2.573169231414795,2.4287965297698975
37.878000,0.43074315786361694,0.9229508638381958,-0.07345637679100037,-1.4284652471542358,0.017618833109736443,2.5731735229492188,2.4267897605895996
37.895000,0.43023234605789185,0.9229332208633423,-0.0734531357884407,-1.4284682273864746,0.01929464563727379,2.5731780529022217,2.424513816833496
37.914000,0.4296872019767761,0.9229134321212769,-0.0733419805765152,-1.4284688234329224,0.020697593688964844,2.5731823444366455,2.422398328781128
37.933000,0.429170697927475,0.9228942394256592,-0.07320280373096466,-1.4284685850143433,0.021901046857237816,2.5731866359710693,2.420421600341797
37.950000,0.4286704957485199,0.922875702381134,-0.07306074351072311,-1.4284684658050537,0.023023493587970734,2.5731911659240723,2.4184393882751465
37.970000,0.42821139097213745,0.9228596091270447,-0.07299228757619858,-1.4284697771072388,0.024315640330314636,2.573195457458496,2.416240930557251
37.988000,0.42776012420654297,0.9228443503379822,-0.07294676452875137,-1.4284716844558716,0.025716004893183708,2.5731992721557617,2.413890838623047
38.009000,0.42731624841690063,0.922829806804657,-0.07291198521852493,-1.4284738302230835,0.027191413566470146,2.5732028484344482,2.411440134048462
38.031000,0.42688247561454773,0.9228159189224243,-0.07288256287574768,-1.428476095199585,0.028715413063764572,2.5732061862945557,2.408928871154785
38.053000,0.42640554904937744,0.9227998852729797,-0.07277849316596985,-1.428477168083191,0.03010806068778038,2.5732100009918213,2.4064571857452393
38.058000,0.4259149730205536,0.922782838344574,-0.07263005524873734,-1.42847740650177,0.03136264905333519,2.573213815689087,2.404033660888672
38.072000,0.42543497681617737,0.9227657914161682,-0.0724591538310051,-1.4284770488739014,0.03247413411736488,2.5732173919677734,2.401685953140259
38.088000,0.4250267446041107,0.9227520823478699,-0.07235641032457352,-1.4284776449203491,0.03362981975078583,2.5732202529907227,2.399322271347046
38.109000,0.4246652126312256,0.9227405786514282,-0.0722937136888504,-1.4284788370132446,0.03482528775930405,2.5732226371765137,2.396962881088257
38.130000,0.4243004024028778,0.9227281808853149,-0.07217859476804733,-1.4284788370132446,0.03583810478448868,2.5732247829437256,2.394787311553955
38.148000,0.42399391531944275,0.9227187037467957,-0.07212314754724503,-1.428479790687561,0.03691745549440384,2.5732266902923584,2.3926048278808594
38.169000,0.42371606826782227,0.922710657119751,-0.07209286838769913,-1.428481101989746,0.038038432598114014,2.573228120803833,2.390432357788086
38.191000,0.4234587252140045,0.9227035641670227,-0.07207638025283813,-1.4284826517105103,0.039187509566545486,2.5732293128967285,2.3882827758789062
38.211000,0.4232181906700134,0.9226972460746765,-0.07206768542528152,-1.4284842014312744,0.04035262018442154,2.573230504989624,2.3861658573150635
38.233000,0.42300766706466675,0.9226897954940796,-0.07197282463312149,-1.4284828901290894,0.04109497740864754,2.5732309818267822,2.3845763206481934
38.249000,0.42286694049835205,0.9226865172386169,-0.071975477039814,-1.4284838438034058,0.041994404047727585,2.5732316970825195,2.382917642593384
38.270000,0.4227490723133087,0.9226813316345215,-0.07186782360076904,-1.4284813404083252,0.042371612042188644,2.5732319355010986,2.3818976879119873
38.290000,0.4227289855480194,0.9226788878440857,-0.0717715173959732,-1.4284781217575073,0.04242539405822754,2.5732319355010986,2.381377935409546
38.311000,0.4227991998195648,0.9226786494255066,-0.0716686099767685,-1.428473949432373,0.04208986833691597,2.5732316970825195,2.381441116333008
38.332000,0.42297229170799255,0.9226811528205872,-0.07156415283679962,-1.4284687042236328,0.0413268581032753,2.5732309818267822,2.3821630477905273
38.353000,0.4231785535812378,0.92268967628479,-0.07166168838739395,-1.4284697771072388,0.04118663817644119,2.5732309818267822,2.382305860519409
38.369000,0.42334794998168945,0.922692596912384,-0.07155796140432358,-1.4284650087356567,0.04033246636390686,2.573230266571045,2.3832805156707764
38.388000,0.42363855242729187,0.9226990342140198,-0.07147706300020218,-1.428459644317627,0.03909415751695633,2.5732290744781494,2.38489031791687
38.406000,0.4240190386772156,0.9227087497711182,-0.07142878323793411,-1.4284546375274658,0.037597548216581345,2.5732274055480957,2.386979579925537
38.426000,0.42437466979026794,0.9227231740951538,-0.0715993344783783,-1.428457260131836,0.03698353469371796,2.5732269287109375,2.3881442546844482
38.444000,0.4245452284812927,0.9227322936058044,-0.0717434510588646,-1.428460955619812,0.03688164800405502,2.5732271671295166,2.38858699798584
38.456000,0.42471832036972046,0.9227339029312134,-0.0715729221701622,-1.428454041481018,0.035540077835321426,2.5732247829437256,2.3904547691345215
38.477000,0.4249960780143738,0.922745406627655,-0.07173573225736618,-1.4284566640853882,0.035139381885528564,2.5732243061065674,2.3914241790771484
38.491000,0.4252791404724121,0.922749936580658,-0.0715712234377861,-1.4284486770629883,0.03341643139719963,2.57322096824646,2.393946886062622
38.511000,0.4256546199321747,0.9227649569511414,-0.07177674025297165,-1.4284518957138062,0.03279781714081764,2.5732200145721436,2.395397424697876
38.528000,0.42582231760025024,0.9227740168571472,-0.07195163518190384,-1.428456425666809,0.03275762498378754,2.5732200145721436,2.396010160446167
38.547000,0.42582395672798157,0.9227772355079651,-0.07207582145929337,-1.428460717201233,0.033117860555648804,2.573220729827881,2.3959717750549316
38.560000,0.425713449716568,0.9227762818336487,-0.0721612498164177,-1.428464412689209,0.033766746520996094,2.5732219219207764,2.3954310417175293
38.582000,0.4255306124687195,0.9227724671363831,-0.0722188949584961,-1.4284677505493164,0.03462246432900429,2.573223114013672,2.3945062160491943
38.602000,0.42530322074890137,0.922766923904419,-0.07225670665502548,-1.4284707307815552,0.03562355041503906,2.5732245445251465,2.393291473388672
38.618000,0.42505040764808655,0.9227603673934937,-0.07228031754493713,-1.4284733533859253,0.03672361746430397,2.573225975036621,2.3918612003326416
38.638000,0.4247853457927704,0.9227533340454102,-0.07229369878768921,-1.4284757375717163,0.0378875806927681,2.5732271671295166,2.3902745246887207
38.659000,0.4245170056819916,0.9227461218833923,-0.07229967415332794,-1.4284778833389282,0.03908887878060341,2.573228359222412,2.388578414916992
38.678000,0.4242514669895172,0.9227390289306641,-0.0723002627491951,-1.4284799098968506,0.04030749201774597,2.5732295513153076,2.3868095874786377
38.699000,0.42399269342422485,0.9227321743965149,-0.07229690998792648,-1.4284818172454834,0.041528359055519104,2.573230504989624,2.3849968910217285
38.719000,0.4237433075904846,0.9227256178855896,-0.07229064404964447,-1.4284836053848267,0.042740147560834885,2.5732314586639404,2.3831629753112793
38.736000,0.42350494861602783,0.9227194786071777,-0.07228223979473114,-1.4284851551055908,0.0439344085752964,2.5732321739196777,2.3813257217407227
38.755000,0.4232785701751709,0.9227137565612793,-0.07227225601673126,-1.4284865856170654,0.0451049841940403,2.573232650756836,2.3794984817504883
38.776000,0.4232425093650818,0.9227039217948914,-0.07192223519086838,-1.4284746646881104,0.04427972063422203,2.5732319355010986,2.380127191543579
38.795000,0.42364323139190674,0.9227074384689331,-0.0716770738363266,-1.4284610748291016,0.042282041162252426,2.573230266571045,2.3826475143432617
38.816000,0.42437925934791565,0.922722339630127,-0.07150792330503464,-1.4284472465515137,0.03926895931363106,2.5732274055480957,2.3868722915649414
38.829000,0.42515745759010315,0.9227513074874878,-0.07180163264274597,-1.4284497499465942,0.037745311856269836,2.573225975036621,2.389686346054077
38.849000,0.42560887336730957,0.9227713942527771,-0.07204264402389526,-1.428454875946045,0.03701402246952057,2.573225498199463,2.3913917541503906
38.868000,0.4260566532611847,0.9227792024612427,-0.07177533209323883,-1.4284429550170898,0.03424016758799553,2.573220729827881,2.3954756259918213
38.890000,0.4269043803215027,0.9227998852729797,-0.07160550355911255,-1.4284303188323975,0.03037828765809536,2.5732133388519287,2.4013671875
38.903000,0.4280661344528198,0.9228325486183167,-0.07151416689157486,-1.4284188747406006,0.025580335408449173,2.573202133178711,2.4088973999023438
38.924000,0.4291713535785675,0.92287677526474,-0.07198643684387207,-1.4284285306930542,0.022999979555606842,2.5731966495513916,2.414109468460083
38.943000,0.42977091670036316,0.9229046702384949,-0.07235784828662872,-1.4284392595291138,0.02165229804813862,2.5731942653656006,2.4174954891204834
38.962000,0.4299822747707367,0.9229176044464111,-0.07261006534099579,-1.42844820022583,0.021173594519495964,2.5731940269470215,2.419447898864746
38.981000,0.4302549362182617,0.9229207038879395,-0.07225001603364944,-1.428436040878296,0.018137065693736076,2.5731821060180664,2.4242987632751465
39.002000,0.43107396364212036,0.922942578792572,-0.07202696055173874,-1.4284241199493408,0.013741585426032543,2.573164224624634,2.4313533306121826
39.020000,0.43227794766426086,0.9229806661605835,-0.07194539904594421,-1.4284160137176514,0.008443809114396572,2.573140859603882,2.4400575160980225
39.040000,0.43365707993507385,0.9230303168296814,-0.0721278190612793,-1.4284178018569946,0.003411846701055765,2.5731165409088135,2.4489359855651855
39.060000,0.43473154306411743,0.9230756759643555,-0.07271429151296616,-1.4284355640411377,0.0008493356872349977,2.573106288909912,2.454908847808838
39.082000,0.4353812634944916,0.923101544380188,-0.07288753241300583,-1.4284417629241943,-0.0019175864290446043,2.5730907917022705,2.4607269763946533
39.101000,0.43597331643104553,0.9231239557266235,-0.07302935421466827,-1.4284464120864868,-0.004583662375807762,2.5730741024017334,2.4663848876953125
39.119000,0.4364655315876007,0.9231427311897278,-0.07324241101741791,-1.4284533262252808,-0.0066106584854424,2.573061466217041,2.471205234527588
39.138000,0.43679511547088623,0.9231546521186829,-0.07340984791517258,-1.4284589290618896,-0.00823212880641222,2.5730509757995605,2.4753451347351074
39.158000,0.43688106536865234,0.9231575727462769,-0.07372359931468964,-1.4284690618515015,-0.008397317491471767,2.5730514526367188,2.477475166320801
39.177000,0.43661653995513916,0.9231462478637695,-0.07393362373113632,-1.4284764528274536,-0.007671086583286524,2.573057174682617,2.478038787841797
39.194000,0.43612515926361084,0.9231255054473877,-0.07393178343772888,-1.4284780025482178,-0.006886239163577557,2.5730631351470947,2.4780356884002686
39.214000,0.43557190895080566,0.9231020212173462,-0.07387189567089081,-1.4284780025482178,-0.006009203381836414,2.5730698108673096,2.4775948524475098
39.233000,0.4349958598613739,0.9230775237083435,-0.07378357648849487,-1.428477168083191,-0.00507354037836194,2.5730769634246826,2.4768195152282715
39.253000,0.4343942105770111,0.9230526089668274,-0.07379807531833649,-1.4284790754318237,-0.0035416700411587954,2.573087215423584,2.475144386291504
39.273000,0.4337038993835449,0.9230248928070068,-0.07379627227783203,-1.4284809827804565,-0.0016476258169859648,2.5730984210968018,2.4727864265441895
39.293000,0.4329562485218048,0.9229956269264221,-0.0737731084227562,-1.4284827709197998,0.0004945909604430199,2.5731098651885986,2.4699177742004395
39.309000,0.43218058347702026,0.9229660034179688,-0.07373329252004623,-1.428484559059143,0.00280392705462873,2.5731210708618164,2.466675043106079
39.325000,0.4313979744911194,0.9229367971420288,-0.07368125766515732,-1.4284864664077759,0.0052188690751791,2.573131799697876,2.4631659984588623
39.344000,0.43062296509742737,0.9229085445404053,-0.07362041622400284,-1.4284884929656982,0.007692372892051935,2.5731420516967773,2.4594759941101074
39.368000,0.4298653304576874,0.9228814840316772,-0.07355335354804993,-1.4284905195236206,0.01018863171339035,2.5731518268585205,2.455672264099121
39.388000,0.42913153767585754,0.922855794429779,-0.07348200678825378,-1.4284926652908325,0.01268051192164421,2.5731608867645264,2.4518070220947266
39.404000,0.428425669670105,0.9228315949440002,-0.07340782135725021,-1.4284948110580444,0.015147472731769085,2.573169231414795,2.4479215145111084
39.421000,0.42778289318084717,0.9228076338768005,-0.07314815372228622,-1.4284913539886475,0.016694441437721252,2.573173999786377,2.445054292678833
39.440000,0.42732053995132446,0.922789454460144,-0.07290101796388626,-1.4284871816635132,0.017645232379436493,2.5731773376464844,2.4429931640625
39.461000,0.4270004630088806,0.922776460647583,-0.07271551340818405,-1.4284837245941162,0.018293077126145363,2.5731801986694336,2.4414124488830566
39.482000,0.4267633855342865,0.9227664470672607,-0.07255654036998749,-1.4284803867340088,0.01869266852736473,2.5731825828552246,2.440213918685913
39.498000,0.426587849855423,0.9227588772773743,-0.07243721932172775,-1.4284777641296387,0.018977710977196693,2.5731847286224365,2.4392430782318115
39.519000,0.4264535903930664,0.922753095626831,-0.07234951108694077,-1.4284757375717163,0.019203385338187218,2.5731863975524902,2.4384312629699707
39.538000,0.42634448409080505,0.9227484464645386,-0.07228011637926102,-1.4284740686416626,0.01938578672707081,2.573187828063965,2.4377479553222656
39.557000,0.42625924944877625,0.922744870185852,-0.07223092764616013,-1.4284727573394775,0.01955145038664341,2.5731887817382812,2.4371659755706787
39.574000,0.42613714933395386,0.9227420687675476,-0.07230149954557419,-1.4284754991531372,0.020317163318395615,2.5731921195983887,2.435917377471924
39.594000,0.42589646577835083,0.9227355718612671,-0.0723496824502945,-1.428478479385376,0.02143358439207077,2.5731961727142334,2.4341630935668945
39.615000,0.42557165026664734,0.9227262735366821,-0.0723709985613823,-1.4284812211990356,0.022790994495153427,2.5732004642486572,2.43203067779541
39.632000,0.4252588748931885,0.9227154850959778,-0.07227545976638794,-1.4284801483154297,0.023716535419225693,2.57320237159729,2.430377244949341
39.653000,0.4250602722167969,0.9227083921432495,-0.07220598310232162,-1.4284788370132446,0.024405142292380333,2.5732033252716064,2.4291205406188965
39.670000,0.4249511957168579,0.9227045178413391,-0.07216659188270569,-1.4284776449203491,0.024931445717811584,2.5732038021087646,2.4281792640686035
39.691000,0.42490753531455994,0.9227030277252197,-0.07214932888746262,-1.4284766912460327,0.02533118985593319,2.5732038021087646,2.427504062652588
39.710000,0.42490944266319275,0.9227032661437988,-0.07214903086423874,-1.4284759759902954,0.02564128302037716,2.5732035636901855,2.42703914642334
39.729000,0.42494556307792664,0.9227047562599182,-0.07215850055217743,-1.428475260734558,0.02586703561246395,2.5732030868530273,2.4267685413360596
39.745000,0.4250069260597229,0.9227072596549988,-0.072177954018116,-1.4284746646881104,0.026035936549305916,2.573202610015869,2.426649808883667
39.763000,0.42508676648139954,0.9227104783058167,-0.07220394909381866,-1.4284741878509521,0.02615620754659176,2.573201894760132,2.426663398742676
39.784000,0.4251789152622223,0.9227142333984375,-0.07223565131425858,-1.4284738302230835,0.026244468986988068,2.5732011795043945,2.42677903175354
39.806000,0.42519792914390564,0.922717809677124,-0.07236549258232117,-1.4284775257110596,0.026950521394610405,2.5732028484344482,2.4261417388916016
39.821000,0.4250619411468506,0.9227162003517151,-0.07244588434696198,-1.428481101989746,0.027995625510811806,2.5732054710388184,2.4249277114868164
39.843000,0.42481717467308044,0.922710657119751,-0.07248127460479736,-1.428484320640564,0.029263945296406746,2.5732085704803467,2.423276901245117
39.860000,0.4245052933692932,0.9227026700973511,-0.07248514890670776,-1.4284870624542236,0.030679626390337944,2.573211908340454,2.4213004112243652
39.882000,0.424155592918396,0.9226932525634766,-0.07246774435043335,-1.4284894466400146,0.032188039273023605,2.5732150077819824,2.419086217880249
39.903000,0.42378804087638855,0.9226831793785095,-0.07243616878986359,-1.4284915924072266,0.03374917060136795,2.5732181072235107,2.4167041778564453
39.925000,0.42341604828834534,0.9226729869842529,-0.07239530980587006,-1.428493618965149,0.03533365577459335,2.57322096824646,2.4142091274261475
39.942000,0.4230484962463379,0.9226629734039307,-0.07234851270914078,-1.4284955263137817,0.03691991791129112,2.573223352432251,2.411644220352173
39.962000,0.4226912558078766,0.922653317451477,-0.0722980946302414,-1.428497314453125,0.03849215805530548,2.573225498199463,2.409043312072754
39.981000,0.422476589679718,0.9226424098014832,-0.0720292404294014,-1.428490400314331,0.03873767703771591,2.573225259780884,2.4080631732940674
40.003000,0.42258742451667786,0.922640860080719,-0.07180750370025635,-1.428481101989746,0.03801373764872551,2.573223829269409,2.408581256866455
40.024000,0.4228127896785736,0.9226504564285278,-0.07192151993513107,-1.428481936454773,0.03812839090824127,2.5732243061065674,2.408381938934326
40.044000,0.4228757619857788,0.9226559400558472,-0.07201160490512848,-1.428484320640564,0.03863803297281265,2.573225259780884,2.407630205154419
40.064000,0.42280861735343933,0.9226571917533875,-0.07205991446971893,-1.4284868240356445,0.0394064262509346,2.5732264518737793,2.4064571857452393
40.077000,0.42285293340682983,0.9226530194282532,-0.07177077978849411,-1.4284768104553223,0.03846452385187149,2.5732247829437256,2.407351493835449
40.098000,0.423300176858902,0.9226604700088501,-0.07155078649520874,-1.4284642934799194,0.03636051341891289,2.573221445083618,2.410104274749756
40.119000,0.42384544014930725,0.9226817488670349,-0.07178573310375214,-1.428466558456421,0.03559037670493126,2.573220729827881,2.4116194248199463
40.139000,0.42436081171035767,0.9226934313774109,-0.07160035520792007,-1.4284559488296509,0.03318089246749878,2.573216199874878,2.41510009765625
40.153000,0.4249405562877655,0.9227170348167419,-0.07186766713857651,-1.4284600019454956,0.03222714364528656,2.5732150077819824,2.417142391204834
40.168000,0.42521002888679504,0.9227312207221985,-0.07207322120666504,-1.428465485572815,0.03202611953020096,2.5732154846191406,2.418060064315796
40.190000,0.42523786425590515,0.9227367043495178,-0.07219937443733215,-1.4284703731536865,0.03233948349952698,2.5732169151306152,2.418102979660034
40.209000,0.42540884017944336,0.9227349758148193,-0.07183460146188736,-1.4284570217132568,0.03027357906103134,2.573211669921875,2.420971393585205
40.227000,0.42611831426620483,0.9227508902549744,-0.07162030786275864,-1.428443193435669,0.026919718831777573,2.5732028484344482,2.4260010719299316
40.247000,0.42724084854125977,0.9227822422981262,-0.07151992619037628,-1.4284307956695557,0.02246985211968422,2.5731894969940186,2.43298077583313
40.267000,0.42865628004074097,0.9228271245956421,-0.07154391705989838,-1.428422451019287,0.017315443605184555,2.573171615600586,2.4414169788360596
40.289000,0.4301650822162628,0.9228814840316772,-0.07179903984069824,-1.4284236431121826,0.01254008524119854,2.573152780532837,2.4498887062072754
40.307000,0.43157413601875305,0.922934889793396,-0.07206721603870392,-1.428427815437317,0.007975095883011818,2.573132276535034,2.4583284854888916
40.323000,0.43281668424606323,0.9229846000671387,-0.07241249829530716,-1.4284366369247437,0.00414641760289669,2.5731136798858643,2.4659883975982666
40.342000,0.4337756037712097,0.9230247139930725,-0.07276494801044464,-1.4284472465515137,0.001222214661538601,2.573099136352539,2.472443103790283
40.357000,0.43444904685020447,0.9230532050132751,-0.07303304225206375,-1.4284559488296509,-0.0010949065908789635,2.573086977005005,2.477922201156616
40.377000,0.43485844135284424,0.923071026802063,-0.0732707753777504,-1.4284640550613403,-0.0026343287900090218,2.573079824447632,2.482163429260254
40.393000,0.43502703309059143,0.9230784177780151,-0.07342314720153809,-1.4284696578979492,-0.0036576837301254272,2.573075532913208,2.485419511795044
40.413000,0.4349411129951477,0.9230760931968689,-0.07365645468235016,-1.4284777641296387,-0.0034329062327742577,2.573079824447632,2.4867968559265137
40.429000,0.4345482885837555,0.9230613112449646,-0.07379312813282013,-1.4284833669662476,-0.0024308606516569853,2.5730881690979004,2.4867141246795654
40.448000,0.43394580483436584,0.923038125038147,-0.07384859025478363,-1.4284870624542236,-0.0008850540034472942,2.57309889793396,2.485504627227783
40.467000,0.43321359157562256,0.9230100512504578,-0.07384712249040604,-1.4284895658493042,0.0010426705703139305,2.573110818862915,2.483433723449707
40.485000,0.43240758776664734,0.9229795336723328,-0.07380681484937668,-1.428491473197937,0.003232791321352124,2.573122978210449,2.4807121753692627
40.504000,0.4315660297870636,0.9229481816291809,-0.07374028861522675,-1.4284930229187012,0.005596050061285496,2.5731351375579834,2.4775075912475586
40.521000,0.430714875459671,0.9229170680046082,-0.07365630567073822,-1.4284945726394653,0.008065670728683472,2.5731468200683594,2.473952293395996
40.532000,0.42987146973609924,0.9228867888450623,-0.07356095314025879,-1.4284961223602295,0.010591629892587662,2.573157787322998,2.47015118598938
40.548000,0.4290473163127899,0.9228577613830566,-0.0734584629535675,-1.4284976720809937,0.013136455789208412,2.5731680393218994,2.466187000274658
40.573000,0.4282498359680176,0.9228302240371704,-0.07335180044174194,-1.4284993410110474,0.015672186389565468,2.5731775760650635,2.4621243476867676
40.593000,0.4275183081626892,0.9228039979934692,-0.07314547151327133,-1.4284979104995728,0.017661813646554947,2.5731842517852783,2.4586315155029297
40.612000,0.4269213080406189,0.9227824211120605,-0.07295697182416916,-1.428496241569519,0.019297337159514427,2.5731894969940186,2.4556031227111816
40.632000,0.4264407455921173,0.9227648973464966,-0.0727931335568428,-1.4284943342208862,0.02064145915210247,2.5731937885284424,2.452991485595703
40.653000,0.4260587692260742,0.9227508902549744,-0.07265621423721313,-1.428492546081543,0.02175072208046913,2.57319712638855,2.4507479667663574
40.674000,0.42570212483406067,0.9227396845817566,-0.07263791561126709,-1.4284942150115967,0.02323390357196331,2.573201894760132,2.4481217861175537
40.697000,0.42533791065216064,0.9227268099784851,-0.072515569627285,-1.4284929037094116,0.024342143908143044,2.573204755783081,2.445918083190918
40.709000,0.4250558018684387,0.9227166771888733,-0.07240991294384003,-1.4284913539886475,0.0252413060516119,2.573206901550293,2.4440560340881348
40.731000,0.4248460829257965,0.9227091073989868,-0.0723249539732933,-1.4284898042678833,0.02597152255475521,2.5732085704803467,2.442498207092285
40.757000,0.4246920347213745,0.9227035641670227,-0.07225938141345978,-1.4284883737564087,0.026578089222311974,2.573209762573242,2.4411864280700684
40.773000,0.424577534198761,0.922699511051178,-0.07220762968063354,-1.4284871816635132,0.027090156450867653,2.5732107162475586,2.4400734901428223
40.790000,0.42449715733528137,0.9226966500282288,-0.07216379791498184,-1.4284858703613281,0.027503402903676033,2.573211431503296,2.4391603469848633
40.811000,0.4244456887245178,0.9226949214935303,-0.07213094830513,-1.4284846782684326,0.027847152203321457,2.573212146759033,2.4384076595306396
40.832000,0.42442217469215393,0.9226941466331482,-0.07210556417703629,-1.428483486175537,0.028113368898630142,2.5732123851776123,2.4378249645233154
40.852000,0.42442283034324646,0.9226943254470825,-0.07209105044603348,-1.4284824132919312,0.02832876518368721,2.5732126235961914,2.437377452850342
40.869000,0.42444270849227905,0.9226952195167542,-0.07208378612995148,-1.4284814596176147,0.02849690429866314,2.5732126235961914,2.437054395675659
40.891000,0.4244769811630249,0.9226967096328735,-0.07208355516195297,-1.428480625152588,0.02863343618810177,2.5732126235961914,2.4368298053741455
40.910000,0.4245227575302124,0.9226986169815063,-0.0720876008272171,-1.4284799098968506,0.02873825654387474,2.5732123851776123,2.436697244644165
40.932000,0.4245787560939789,0.9227009415626526,-0.07209803909063339,-1.4284793138504028,0.028825413435697556,2.573212146759033,2.4366366863250732
40.950000,0.42464253306388855,0.9227035641670227,-0.07211232930421829,-1.428478717803955,0.02889450639486313,2.573211908340454,2.436643362045288
40.968000,0.42471152544021606,0.9227064251899719,-0.0721302404999733,-1.4284782409667969,0.028953442350029945,2.573211669921875,2.436701774597168
40.988000,0.4246976971626282,0.9227089285850525,-0.07224290072917938,-1.4284818172454834,0.02965335175395012,2.573213577270508,2.435950994491577
41.008000,0.42460697889328003,0.9227064251899719,-0.07220806181430817,-1.4284812211990356,0.03005071170628071,2.573214054107666,2.4354381561279297
41.028000,0.42448198795318604,0.9227048754692078,-0.07227454334497452,-1.428484320640564,0.030973412096500397,2.573216438293457,2.4342551231384277
41.044000,0.42423632740974426,0.9226993322372437,-0.07230094075202942,-1.4284874200820923,0.032170671969652176,2.5732192993164062,2.432563066482544
41.069000,0.4239072799682617,0.9226908087730408,-0.07229004055261612,-1.428490161895752,0.03354256600141525,2.5732223987579346,2.4304897785186768
41.083000,0.4235296845436096,0.9226804971694946,-0.07225358486175537,-1.428492546081543,0.03502478078007698,2.573225259780884,2.4281365871429443
41.100000,0.4231279790401459,0.9226692914962769,-0.07220050692558289,-1.4284946918487549,0.036571286618709564,2.573228120803833,2.425583839416504
41.119000,0.42271870374679565,0.9226577877998352,-0.07213697582483292,-1.4284967184066772,0.038148581981658936,2.573230504989624,2.4228949546813965
41.141000,0.42231279611587524,0.9226464033126831,-0.07206720113754272,-1.4284985065460205,0.039732273668050766,2.573232650756836,2.4201197624206543
41.156000,0.4219174385070801,0.9226354360580444,-0.07199404388666153,-1.4285001754760742,0.041304655373096466,2.5732345581054688,2.41729736328125
41.170000,0.42167145013809204,0.9226229190826416,-0.0717000886797905,-1.4284929037094116,0.04152194783091545,2.5732343196868896,2.416130542755127
41.193000,0.42160850763320923,0.9226222038269043,-0.07170755416154861,-1.4284932613372803,0.04227584972977638,2.573235034942627,2.4145777225494385
41.211000,0.4214750826358795,0.9226202368736267,-0.0717131569981575,-1.4284948110580444,0.0432368703186512,2.5732359886169434,2.4127376079559326
41.231000,0.4212799370288849,0.9226164221763611,-0.07169722765684128,-1.4284965991973877,0.044319361448287964,2.5732369422912598,2.410688638687134
41.251000,0.42122524976730347,0.9226084351539612,-0.071384958922863,-1.428486704826355,0.04375145584344864,2.5732362270355225,2.4106695652008057
41.267000,0.4215686023235321,0.9226115345954895,-0.07114271819591522,-1.4284740686416626,0.042038530111312866,2.573234796524048,2.4124844074249268
